N5 (File Name = avengers on Tuesday, November 07, 2023)
N10 (Default Mill Post)
N15  G91.1
N20 G0  Z1.0000 
N25 M3 
N30  X9.7052  Y9.1132 
N35  Z0.1000 
N40 G1  Z0.0000  F60.00 
N45  X4.2334  Y9.3158   
N50  X4.2372  Y9.6605   
N55  X4.7065  Y10.8173   
N60  X7.8450  Y17.3568   
N65  X13.0797  Y28.1322   
N70  X24.2536  Y51.2354   
N75  X29.4069  Y62.0714   
N80  X30.1395  Y63.9349   
N85  X30.1896  Y64.3056   
N90  X30.0841  Y64.4272   
N95  X29.0313  Y64.3306   
N100  X27.2692  Y63.9228   
N105  X23.1952  Y62.5932   
N110  X20.8227  Y61.4740   
N115  X18.5956  Y60.0825   
N120  X16.5306  Y58.4371   
N125  X14.6442  Y56.5562   
N130  X12.9530  Y54.4584   
N135  X11.4736  Y52.1619   
N140  X10.2225  Y49.6854   
N145  X9.2163  Y47.0471   
N150  X8.6107  Y44.9707   
N155  X8.2204  Y43.0743   
N160  X8.0117  Y41.1422   
N165  X7.9507  Y38.9586   
N170  X8.0830  Y36.4717   
N175  X8.4849  Y34.0875   
N180  X9.1696  Y31.7493   
N185  X10.1501  Y29.4006   
N190  X11.2715  Y27.0513   
N195  X10.0333  Y24.7545   
N200  X9.0622  Y23.1324   
N205  X8.4662  Y22.4577   
N210  X8.1759  Y22.6508   
N215  X7.7617  Y23.1853   
N220  X6.7008  Y25.0113   
N225  X5.5627  Y27.4009   
N230  X4.6264  Y29.8192   
N235  X3.5552  Y33.8777   
N240  X2.9513  Y38.0063   
N245  X2.8373  Y41.9515   
N250  X3.2357  Y45.4599   
N255  X4.0922  Y48.7134   
N260  X5.2966  Y51.9546   
N265  X6.7952  Y55.0572   
N270  X8.5340  Y57.8949   
N275  X10.4092  Y60.2411   
N280  X12.6338  Y62.3949   
N285  X15.1506  Y64.3253   
N290  X17.9020  Y66.0013   
N295  X20.8307  Y67.3919   
N300  X23.8792  Y68.4661   
N305  X26.9902  Y69.1928   
N310  X30.1062  Y69.5412   
N315  X33.2136  Y69.6905   
N320  X35.3570  Y74.1087   
N325  X37.5003  Y78.5268   
N330  X42.1798   
N335  X46.8594   
N340  Y72.3596   
N345  Y66.1924   
N350  X48.8165  Y64.8612   
N355  X50.9871  Y63.1447   
N360  X53.4554  Y60.8487   
N365  X55.7188  Y58.4698   
N370  X57.2748  Y56.5045   
N375  X58.4502  Y54.5539   
N380  X59.4672  Y52.5642   
N385  X60.3267  Y50.5320   
N390  X61.0297  Y48.4540   
N395  X61.5773  Y46.3268   
N400  X61.9703  Y44.1470   
N405  X62.2100  Y41.9113   
N410  X62.2971  Y39.6162   
N415  X62.1277  Y36.1078   
N420  X61.5615  Y32.8026   
N425  X60.5651  Y29.5604   
N430  X59.1051  Y26.2407   
N435  X57.5224  Y23.4412   
N440  X55.6938  Y20.8761   
N445  X53.6234  Y18.5488   
N450  X51.3155  Y16.4628   
N455  X48.7743  Y14.6214   
N460  X46.0040  Y13.0281   
N465  X43.0089  Y11.6864   
N470  X39.7933  Y10.5996   
N475  X36.3069  Y9.7881   
N480  X33.0217  Y9.4525   
N485  X29.7548  Y9.5873   
N490  X26.3232  Y10.1866   
N495  X22.0324  Y11.4834   
N500  X20.2122  Y12.2120   
N505  X19.0803  Y12.8224   
N510  X18.4576  Y13.2950   
N515  X19.4856  Y15.4998   
N520  X20.1444  Y16.7864   
N525  X20.6799  Y17.5106   
N530  X21.1488  Y17.7254   
N535  X21.6080  Y17.4838   
N540  X22.6139  Y16.9871   
N545  X24.4957  Y16.3332   
N550  X28.5573  Y15.2898   
N555  X31.1582  Y15.0562   
N560  X34.0418  Y15.1026   
N565  X36.8956  Y15.4096   
N570  X39.4072  Y15.9581   
N575  X42.1530  Y16.9246   
N580  X44.6785  Y18.1304   
N585  X46.9816  Y19.5738   
N590  X49.0605  Y21.2529   
N595  X50.9134  Y23.1662   
N600  X52.5384  Y25.3120   
N605  X53.9336  Y27.6884   
N610  X55.0972  Y30.2939   
N615  X56.0000  Y32.8041   
N620  X56.5663  Y34.8958   
N625  X56.8838  Y36.9834   
N630  X57.0400  Y39.4811   
N635  X57.0364  Y42.8356   
N640  X56.5037  Y45.5609   
N645  X55.4124  Y48.9051   
N650  X53.9252  Y51.9287   
N655  X51.9580  Y54.7744   
N660  X49.4267  Y57.5853   
N665  X46.9945  Y60.0173   
N670  X46.9241  Y48.1955   
N675  X46.6920  Y36.3737   
N680  X38.3477  Y43.9874   
N685  X38.0443  Y44.4611   
N690  X37.8660  Y45.6247   
N695  X37.6721  Y52.7962   
N700  X37.5370  Y61.0981   
N705  X36.3615  Y58.2609   
N710  X31.7004  Y47.0217   
N715  X28.2147  Y38.4424   
N720  X32.9434  Y38.2652   
N725  X37.6721   
N730  Y40.4494   
N735  X37.7416  Y41.9655   
N740  X37.9086  Y42.5435   
N745  X43.0655  Y37.8659   
N750  X47.9402  Y33.1387   
N755  X43.0777  Y29.2621   
N760  X37.7843  Y25.3839   
N765  X37.5942  Y25.3986   
N770  X37.4772  Y25.6717   
N775  X37.4019  Y27.2975   
N780  Y29.3578   
N785  X30.8692  Y29.2854   
N790  X24.3365  Y29.2130   
N795  X23.3313  Y26.9162   
N800  X20.5135  Y20.4311   
N805  X16.6177  Y11.5315   
N810  X15.4271  Y9.2173   
N815  X13.7863  Y9.0606   
N820  X9.7052  Y9.1132   
N825 G0  Z1.0000 
N830  X16.2778  Y12.1221 
N835  Z0.1000 
N840 G1  Z0.0000  
N845  X15.1857  Y9.6226   
N850  X11.4997  Y9.6726   
N855  X6.7883  Y9.8050   
N860  X4.9765  Y10.0076   
N865  X12.6061  Y25.8354   
N870  X16.4549  Y33.8067   
N875  X22.4020  Y46.1013   
N880  X35.5765  Y73.3131   
N885  X37.8073  Y77.9621   
N890  X42.0631  Y77.9742   
N895  X46.3190  Y77.9864   
N900  Y57.8330   
N905  X46.2509  Y43.3110   
N910  X46.0743  Y37.7698   
N915  X42.8993  Y40.5886   
N920  X39.2402  Y43.9663   
N925  X38.5115  Y44.6152   
N930  X38.2838  Y54.2077   
N935  X38.0350  Y61.9111   
N940  X37.8976  Y63.0532   
N945  X37.8129  Y63.1439   
N950  X37.7125  Y62.9896   
N955  X33.1638  Y52.0460   
N960  X28.1820  Y40.0623   
N965  X27.6777  Y38.6837   
N970  X27.5558  Y37.9681   
N975  X29.2051  Y37.7962   
N980  X32.9594  Y37.7247   
N985  X38.2126   
N990  X38.2400  Y38.6029   
N995  X38.2192  Y40.3593   
N1000  X38.3472  Y41.2375   
N1005  X42.8291  Y37.2783   
N1010  X47.1151  Y33.1634   
N1015  X42.5215  Y29.5454   
N1020  X37.9424  Y26.0947   
N1025  Y27.9916   
N1030  Y29.8886   
N1035  X30.9540   
N1040  X23.9656   
N1045  X22.1905  Y25.7678   
N1050  X16.2778  Y12.1221   
N1055 G0  Z1.0000 
N1060  X9.6270  Y25.2818 
N1065  Z0.1000 
N1070 G1  Z0.0000  
N1075  X8.4527  Y23.4053   
N1080  X7.8516  Y24.0736   
N1085  X6.7696  Y26.0323   
N1090  X5.7870  Y28.2288   
N1095  X4.9576  Y30.6065   
N1100  X4.2915  Y33.1009   
N1105  X3.7988  Y35.6477   
N1110  X3.4898  Y38.1824   
N1115  X3.3745  Y40.6407   
N1120  X3.4632  Y42.9582   
N1125  X3.7660  Y45.0704   
N1130  X4.7238  Y48.6404   
N1135  X6.0735  Y52.1918   
N1140  X7.7134  Y55.4914   
N1145  X9.5418  Y58.3061   
N1150  X11.3877  Y60.4362   
N1155  X13.5476  Y62.3935   
N1160  X15.9693  Y64.1508   
N1165  X18.6005  Y65.6812   
N1170  X21.3888  Y66.9574   
N1175  X24.2820  Y67.9525   
N1180  X27.2277  Y68.6393   
N1185  X30.1737  Y68.9908   
N1190  X32.0344  Y69.0483   
N1195  X32.8083  Y68.9659   
N1200  X31.0685  Y65.3575   
N1205  X28.8415  Y64.8814   
N1210  X24.8675  Y63.8473   
N1215  X21.2390  Y62.3283   
N1220  X17.9748  Y60.3430   
N1225  X15.0939  Y57.9101   
N1230  X12.6150  Y55.0482   
N1235  X10.5571  Y51.7759   
N1240  X8.9389  Y48.1118   
N1245  X7.7795  Y44.0747   
N1250  X7.4638  Y42.1467   
N1255  X7.3293  Y40.1194   
N1260  X7.3698  Y38.0366   
N1265  X7.5791  Y35.9419   
N1270  X7.9512  Y33.8792   
N1275  X8.4800  Y31.8921   
N1280  X9.1593  Y30.0244   
N1285  X9.9830  Y28.3199   
N1290  X10.6296  Y27.1564   
N1295  X9.6270  Y25.2818   
N1300 G0  Z1.0000 
N1305  X37.2646  Y22.5892 
N1310  Z0.1000 
N1315 G1  Z0.0000  
N1320  X42.0901  Y26.6651   
N1325  X46.7998  Y30.3084   
N1330  X46.7205  Y26.2568   
N1335  X46.5238  Y22.3226   
N1340  X41.8118   
N1345  X38.3624  Y22.3916   
N1350  X37.5044  Y22.4752   
N1355  X37.2646  Y22.5892   
N1360 G0  Z1.0000 
N1365  X46.0709  Y25.2274 
N1370  Z0.1000 
N1375 G1  Z0.0000  
N1380  X46.0487  Y22.8631   
N1385  X42.3590   
N1390  X38.6692   
N1395  X39.1672  Y23.4133   
N1400  X42.8168  Y26.5161   
N1405  X46.1544  Y29.0779   
N1410  X46.2478  Y28.8597   
N1415  X46.2153  Y28.3349   
N1420  X46.0709  Y25.2274   
N1425 G0  Z1.0000 
N1430  X37.4019  Y10.6181 
N1435  Z0.1000 
N1440 G1  Z0.0000  
N1445  X33.5552  Y10.1119   
N1450  X31.6391  Y10.0841   
N1455  X29.7146  Y10.2077   
N1460  X25.8011  Y10.9138   
N1465  X21.7354  Y12.2382   
N1470  X20.2489  Y12.8617   
N1475  X19.5814  Y13.3996   
N1480  X19.5069  Y13.7282   
N1485  X19.5798  Y14.1456   
N1490  X20.0910  Y15.3936   
N1495  X20.9046  Y17.2069   
N1500  X21.9251  Y16.6946   
N1505  X23.7467  Y15.9059   
N1510  X25.7247  Y15.2795   
N1515  X27.8187  Y14.8192   
N1520  X29.9884  Y14.5287   
N1525  X32.1935  Y14.4118   
N1530  X34.3936  Y14.4722   
N1535  X36.5486  Y14.7137   
N1540  X38.6179  Y15.1400   
N1545  X40.8491  Y15.8288   
N1550  X43.1223  Y16.7310   
N1555  X45.2549  Y17.7665   
N1560  X47.0646  Y18.8550   
N1565  X49.3480  Y20.6758   
N1570  X51.4055  Y22.8313   
N1575  X53.2131  Y25.2735   
N1580  X54.7469  Y27.9543   
N1585  X55.9828  Y30.8254   
N1590  X56.8968  Y33.8389   
N1595  X57.4649  Y36.9467   
N1600  X57.6632  Y40.1005   
N1605  X57.5452  Y42.6654   
N1610  X57.1796  Y45.1280   
N1615  X56.5617  Y47.4981   
N1620  X55.6873  Y49.7858   
N1625  X54.5517  Y52.0010   
N1630  X53.1507  Y54.1537   
N1635  X51.4796  Y56.2539   
N1640  X49.5341  Y58.3116   
N1645  X46.8594  Y60.9293   
N1650  Y63.1079   
N1655  X46.9189  Y64.6465   
N1660  X47.0621  Y65.2864   
N1665  X49.5962  Y63.5367   
N1670  X52.5123  Y61.0847   
N1675  X55.0361  Y58.4050   
N1680  X57.1624  Y55.5084   
N1685  X58.8860  Y52.4058   
N1690  X60.2018  Y49.1083   
N1695  X61.1046  Y45.6266   
N1700  X61.5892  Y41.9717   
N1705  X61.6504  Y38.1545   
N1710  X61.4115  Y35.2069   
N1715  X60.8942  Y32.5442   
N1720  X60.0237  Y29.8799   
N1725  X58.7254  Y26.9274   
N1730  X56.7900  Y23.4495   
N1735  X54.5339  Y20.4009   
N1740  X51.9362  Y17.7574   
N1745  X48.9763  Y15.4946   
N1750  X46.1785  Y13.8112   
N1755  X43.3587  Y12.4550   
N1760  X40.4542  Y11.3995   
N1765  X37.4019  Y10.6181   
N1770 G0  Z1.0000 
N1775 M5
N1780 M30

