N5 (File Name = avengers on Tuesday, November 07, 2023)
N10 (Default Mill Post)
N15  G91.1
N20 G0  Z5.0000 
N25 M3 
N30  X44.2841  Y8.5783 
N35  Z0.1000 
N40 G1  Z-1.0000  F100.00 
N45  X40.5360  Y0.0000   F300.00 
N50  X27.8857  Y0.1716   
N55  X11.7162  Y0.6260   
N60  X5.4981  Y1.3213   
N65  X31.6829  Y55.6423   
N70  X44.8919  Y82.9998   
N75  X65.3024  Y125.1949   
N80  X110.5173  Y218.5858   
N85  X118.1734  Y234.5412   
N90  X132.7793  Y234.5827   
N95  X147.3855  Y234.6246   
N100  Y165.4581   
N105  X147.1518  Y115.6186   
N110  X146.5457  Y96.6012   
N115  X135.6491  Y106.2753   
N120  X123.0911  Y117.8676   
N125  X120.5902  Y120.0946   
N130  X119.8087  Y153.0161   
N135  X118.9548  Y179.4541   
N140  X118.4833  Y183.3738   
N145  X118.1926  Y183.6851   
N150  X117.8480  Y183.1555   
N155  X102.2369  Y145.5971   
N160  X85.1393  Y104.4691   
N165  X83.4086  Y99.7377   
N170  X82.9902  Y97.2818   
N175  X88.6506  Y96.6918   
N180  X101.5354  Y96.4464   
N185  X119.5644   
N190  X119.6584  Y99.4604   
N195  X119.5870  Y105.4884   
N200  X120.0263  Y108.5023   
N205  X135.4082  Y94.9144   
N210  X150.1177  Y80.7920   
N215  X134.3525  Y68.3750   
N220  X118.6370  Y56.5322   
N225  Y63.0424   
N230  Y69.5529   
N235  X94.6528   
N240  X70.6687   
N245  X64.5765  Y55.4103   
N250  X44.2841  Y8.5783   
N255 G0  Z0.1000 
N260 G1  Z-2.0000  F100.00 
N265  X40.5360  Y0.0000   F300.00 
N270  X27.8857  Y0.1716   
N275  X11.7162  Y0.6260   
N280  X5.4981  Y1.3213   
N285  X31.6829  Y55.6423   
N290  X44.8919  Y82.9998   
N295  X65.3024  Y125.1949   
N300  X110.5173  Y218.5858   
N305  X118.1734  Y234.5412   
N310  X132.7793  Y234.5827   
N315  X147.3855  Y234.6246   
N320  Y165.4581   
N325  X147.1518  Y115.6186   
N330  X146.5457  Y96.6012   
N335  X135.6491  Y106.2753   
N340  X123.0911  Y117.8676   
N345  X120.5902  Y120.0946   
N350  X119.8087  Y153.0161   
N355  X118.9548  Y179.4541   
N360  X118.4833  Y183.3738   
N365  X118.1926  Y183.6851   
N370  X117.8480  Y183.1555   
N375  X102.2369  Y145.5971   
N380  X85.1393  Y104.4691   
N385  X83.4086  Y99.7377   
N390  X82.9902  Y97.2818   
N395  X88.6506  Y96.6918   
N400  X101.5354  Y96.4464   
N405  X119.5644   
N410  X119.6584  Y99.4604   
N415  X119.5870  Y105.4884   
N420  X120.0263  Y108.5023   
N425  X135.4082  Y94.9144   
N430  X150.1177  Y80.7920   
N435  X134.3525  Y68.3750   
N440  X118.6370  Y56.5322   
N445  Y63.0424   
N450  Y69.5529   
N455  X94.6528   
N460  X70.6687   
N465  X64.5765  Y55.4103   
N470  X44.2841  Y8.5783   
N475 G0  Z5.0000 
N480  X21.4586  Y53.7424 
N485  Z0.1000 
N490 G1  Z-1.0000  F100.00 
N495  X17.4284  Y47.3022   F300.00 
N500  X15.3654  Y49.5958   
N505  X11.6520  Y56.3181   
N510  X8.2797  Y63.8565   
N515  X5.4332  Y72.0167   
N520  X3.1471  Y80.5775   
N525  X1.4562  Y89.3181   
N530  X0.3957  Y98.0172   
N535  X0.0000  Y106.4541   
N540  X0.3044  Y114.4078   
N545  X1.3436  Y121.6568   
N550  X4.6308  Y133.9091   
N555  X9.2630  Y146.0975   
N560  X14.8911  Y157.4217   
N565  X21.1662  Y167.0818   
N570  X27.5013  Y174.3923   
N575  X34.9141  Y181.1097   
N580  X43.2254  Y187.1408   
N585  X52.2556  Y192.3931   
N590  X61.8251  Y196.7730   
N595  X71.7545  Y200.1882   
N600  X81.8642  Y202.5453   
N605  X91.9749  Y203.7517   
N610  X98.3608  Y203.9490   
N615  X101.0168  Y203.6662   
N620  X95.0458  Y191.2822   
N625  X87.4027  Y189.6482   
N630  X73.7640  Y186.0992   
N635  X61.3110  Y180.8860   
N640  X50.1082  Y174.0724   
N645  X40.2210  Y165.7227   
N650  X31.7134  Y155.9007   
N655  X24.6507  Y144.6701   
N660  X19.0970  Y132.0949   
N665  X15.1180  Y118.2396   
N670  X14.0345  Y111.6227   
N675  X13.5729  Y104.6650   
N680  X13.7119  Y97.5168   
N685  X14.4302  Y90.3278   
N690  X15.7072  Y83.2487   
N695  X17.5221  Y76.4289   
N700  X19.8534  Y70.0190   
N705  X22.6804  Y64.1691   
N710  X24.8995  Y60.1760   
N715  X21.4586  Y53.7424   
N720 G0  Z0.1000 
N725 G1  Z-2.0000  F100.00 
N730  X17.4284  Y47.3022   F300.00 
N735  X15.3654  Y49.5958   
N740  X11.6520  Y56.3181   
N745  X8.2797  Y63.8565   
N750  X5.4332  Y72.0167   
N755  X3.1471  Y80.5775   
N760  X1.4562  Y89.3181   
N765  X0.3957  Y98.0172   
N770  X0.0000  Y106.4541   
N775  X0.3044  Y114.4078   
N780  X1.3436  Y121.6568   
N785  X4.6308  Y133.9091   
N790  X9.2630  Y146.0975   
N795  X14.8911  Y157.4217   
N800  X21.1662  Y167.0818   
N805  X27.5013  Y174.3923   
N810  X34.9141  Y181.1097   
N815  X43.2254  Y187.1408   
N820  X52.2556  Y192.3931   
N825  X61.8251  Y196.7730   
N830  X71.7545  Y200.1882   
N835  X81.8642  Y202.5453   
N840  X91.9749  Y203.7517   
N845  X98.3608  Y203.9490   
N850  X101.0168  Y203.6662   
N855  X95.0458  Y191.2822   
N860  X87.4027  Y189.6482   
N865  X73.7640  Y186.0992   
N870  X61.3110  Y180.8860   
N875  X50.1082  Y174.0724   
N880  X40.2210  Y165.7227   
N885  X31.7134  Y155.9007   
N890  X24.6507  Y144.6701   
N895  X19.0970  Y132.0949   
N900  X15.1180  Y118.2396   
N905  X14.0345  Y111.6227   
N910  X13.5729  Y104.6650   
N915  X13.7119  Y97.5168   
N920  X14.4302  Y90.3278   
N925  X15.7072  Y83.2487   
N930  X17.5221  Y76.4289   
N935  X19.8534  Y70.0190   
N940  X22.6804  Y64.1691   
N945  X24.8995  Y60.1760   
N950  X21.4586  Y53.7424   
N955 G0  Z5.0000 
N960  X116.7820  Y3.4166 
N965  Z0.1000 
N970 G1  Z-1.0000  F100.00 
N975  X103.5802  Y1.6793   F300.00 
N980  X97.0041  Y1.5839   
N985  X90.3992  Y2.0081   
N990  X76.9681  Y4.4314   
N995  X63.0146  Y8.9767   
N1000  X57.9129  Y11.1166   
N1005  X55.6221  Y12.9627   
N1010  X55.3664  Y14.0904   
N1015  X55.6166  Y15.5229   
N1020  X57.3710  Y19.8061   
N1025  X60.1633  Y26.0293   
N1030  X63.6657  Y24.2711   
N1035  X69.9174  Y21.5643   
N1040  X76.7059  Y19.4145   
N1045  X83.8925  Y17.8347   
N1050  X91.3389  Y16.8377   
N1055  X98.9068  Y16.4365   
N1060  X106.4576  Y16.6438   
N1065  X113.8535  Y17.4727   
N1070  X120.9553  Y18.9357   
N1075  X128.6128  Y21.2997   
N1080  X136.4144  Y24.3960   
N1085  X143.7335  Y27.9499   
N1090  X149.9444  Y31.6856   
N1095  X157.7811  Y37.9346   
N1100  X164.8424  Y45.3323   
N1105  X171.0461  Y53.7139   
N1110  X176.3101  Y62.9144   
N1115  X180.5517  Y72.7680   
N1120  X183.6885  Y83.1103   
N1125  X185.6383  Y93.7763   
N1130  X186.3188  Y104.6002   
N1135  X185.9138  Y113.4029   
N1140  X184.6591  Y121.8545   
N1145  X182.5385  Y129.9887   
N1150  X179.5375  Y137.8401   
N1155  X175.6402  Y145.4427   
N1160  X170.8319  Y152.8307   
N1165  X165.0967  Y160.0386   
N1170  X158.4197  Y167.1006   
N1175  X149.2402  Y176.0846   
N1180  Y183.5615   
N1185  X149.4444  Y188.8420   
N1190  X149.9358  Y191.0382   
N1195  X158.6329  Y185.0332   
N1200  X168.6409  Y176.6179   
N1205  X177.3026  Y167.4212   
N1210  X184.6001  Y157.4801   
N1215  X190.5155  Y146.8319   
N1220  X195.0313  Y135.5149   
N1225  X198.1297  Y123.5657   
N1230  X199.7929  Y111.0221   
N1235  X200.0029  Y97.9215   
N1240  X199.1830  Y87.8053   
N1245  X197.4076  Y78.6669   
N1250  X194.4201  Y69.5231   
N1255  X189.9643  Y59.3901   
N1260  X183.3220  Y47.4539   
N1265  X175.5791  Y36.9911   
N1270  X166.6638  Y27.9186   
N1275  X156.5054  Y20.1527   
N1280  X146.9033  Y14.3753   
N1285  X137.2258  Y9.7208   
N1290  X127.2575  Y6.0983   
N1295  X116.7820  Y3.4166   
N1300 G0  Z0.1000 
N1305 G1  Z-2.0000  F100.00 
N1310  X103.5802  Y1.6793   F300.00 
N1315  X97.0041  Y1.5839   
N1320  X90.3992  Y2.0081   
N1325  X76.9681  Y4.4314   
N1330  X63.0146  Y8.9767   
N1335  X57.9129  Y11.1166   
N1340  X55.6221  Y12.9627   
N1345  X55.3664  Y14.0904   
N1350  X55.6166  Y15.5229   
N1355  X57.3710  Y19.8061   
N1360  X60.1633  Y26.0293   
N1365  X63.6657  Y24.2711   
N1370  X69.9174  Y21.5643   
N1375  X76.7059  Y19.4145   
N1380  X83.8925  Y17.8347   
N1385  X91.3389  Y16.8377   
N1390  X98.9068  Y16.4365   
N1395  X106.4576  Y16.6438   
N1400  X113.8535  Y17.4727   
N1405  X120.9553  Y18.9357   
N1410  X128.6128  Y21.2997   
N1415  X136.4144  Y24.3960   
N1420  X143.7335  Y27.9499   
N1425  X149.9444  Y31.6856   
N1430  X157.7811  Y37.9346   
N1435  X164.8424  Y45.3323   
N1440  X171.0461  Y53.7139   
N1445  X176.3101  Y62.9144   
N1450  X180.5517  Y72.7680   
N1455  X183.6885  Y83.1103   
N1460  X185.6383  Y93.7763   
N1465  X186.3188  Y104.6002   
N1470  X185.9138  Y113.4029   
N1475  X184.6591  Y121.8545   
N1480  X182.5385  Y129.9887   
N1485  X179.5375  Y137.8401   
N1490  X175.6402  Y145.4427   
N1495  X170.8319  Y152.8307   
N1500  X165.0967  Y160.0386   
N1505  X158.4197  Y167.1006   
N1510  X149.2402  Y176.0846   
N1515  Y183.5615   
N1520  X149.4444  Y188.8420   
N1525  X149.9358  Y191.0382   
N1530  X158.6329  Y185.0332   
N1535  X168.6409  Y176.6179   
N1540  X177.3026  Y167.4212   
N1545  X184.6001  Y157.4801   
N1550  X190.5155  Y146.8319   
N1555  X195.0313  Y135.5149   
N1560  X198.1297  Y123.5657   
N1565  X199.7929  Y111.0221   
N1570  X200.0029  Y97.9215   
N1575  X199.1830  Y87.8053   
N1580  X197.4076  Y78.6669   
N1585  X194.4201  Y69.5231   
N1590  X189.9643  Y59.3901   
N1595  X183.3220  Y47.4539   
N1600  X175.5791  Y36.9911   
N1605  X166.6638  Y27.9186   
N1610  X156.5054  Y20.1527   
N1615  X146.9033  Y14.3753   
N1620  X137.2258  Y9.7208   
N1625  X127.2575  Y6.0983   
N1630  X116.7820  Y3.4166   
N1635 G0  Z5.0000 
N1640  X146.5340  Y53.5557 
N1645  Z0.1000 
N1650 G1  Z-1.0000  F100.00 
N1655  X146.4579  Y45.4414   F300.00 
N1660  X133.7948   
N1665  X121.1314   
N1670  X122.8405  Y47.3297   
N1675  X135.3660  Y57.9785   
N1680  X146.8206  Y66.7706   
N1685  X147.1412  Y66.0217   
N1690  X147.0296  Y64.2206   
N1695  X146.5340  Y53.5557   
N1700 G0  Z0.1000 
N1705 G1  Z-2.0000  F100.00 
N1710  X146.4579  Y45.4414   F300.00 
N1715  X133.7948   
N1720  X121.1314   
N1725  X122.8405  Y47.3297   
N1730  X135.3660  Y57.9785   
N1735  X146.8206  Y66.7706   
N1740  X147.1412  Y66.0217   
N1745  X147.0296  Y64.2206   
N1750  X146.5340  Y53.5557   
N1755 G0  Z5.0000 
N1760 M5
N1765 M30

