N5 (File Name = boca on Friday, November 10, 2023)
N10 (Default Mill Post)
N15  G91.1
N20 G0  Z3.0000 
N25 M3 
N30  X71.0813  Y79.2762 
N35  Z0.1000 
N40 G1  Z-0.7000  F100.00 
N45  X67.1681  Y82.2610   F300.00 
N50  X63.3106  Y79.3190   
N55  X60.9839  Y77.5862   
N60  X60.0230  Y77.3544   
N65  X61.3382  Y82.9961   
N70  X61.2417  Y85.6653   
N75  X58.4843  Y88.5773   
N80  X54.8803  Y91.5667   
N85  X59.4480  Y91.5952   
N90  X63.4154  Y92.1239   
N95  X64.3735  Y93.0172   
N100  X65.0893  Y94.5625   
N105  X67.2780  Y99.4462   
N110  X67.9459  Y98.8463   
N115  X68.7478  Y96.4326   
N120  X69.5652  Y94.0596   
N125  X70.5304  Y92.7119   
N130  X72.1023  Y92.0231   
N135  X74.7382  Y91.6241   
N140  X79.4562  Y91.0898   
N145  X75.9004  Y88.5539   
N150  X73.2415  Y86.0749   
N155  X72.9540  Y83.7458   
N160  X74.2788  Y78.8824   
N165  X74.9945  Y76.2915   
N170  X71.0813  Y79.2762   
N175 G0  Z0.1000 
N180 G1  Z-1.4000  F100.00 
N185  X67.1681  Y82.2610   F300.00 
N190  X63.3106  Y79.3190   
N195  X60.9839  Y77.5862   
N200  X60.0230  Y77.3544   
N205  X61.3382  Y82.9961   
N210  X61.2417  Y85.6653   
N215  X58.4843  Y88.5773   
N220  X54.8803  Y91.5667   
N225  X59.4480  Y91.5952   
N230  X63.4154  Y92.1239   
N235  X64.3735  Y93.0172   
N240  X65.0893  Y94.5625   
N245  X67.2780  Y99.4462   
N250  X67.9459  Y98.8463   
N255  X68.7478  Y96.4326   
N260  X69.5652  Y94.0596   
N265  X70.5304  Y92.7119   
N270  X72.1023  Y92.0231   
N275  X74.7382  Y91.6241   
N280  X79.4562  Y91.0898   
N285  X75.9004  Y88.5539   
N290  X73.2415  Y86.0749   
N295  X72.9540  Y83.7458   
N300  X74.2788  Y78.8824   
N305  X74.9945  Y76.2915   
N310  X71.0813  Y79.2762   
N315 G0  Z3.0000 
N320  X83.1555  Y101.3798 
N325  Z0.1000 
N330 G1  Z-0.7000  F100.00 
N335  X79.5740  Y99.1037   F300.00 
N340  X79.9675  Y102.1869   
N345  X81.5152  Y106.4572   
N350  X80.7781  Y107.9049   
N355  X78.1271  Y109.9647   
N360  X74.1135  Y112.4603   
N365  X78.7052  Y112.7913   
N370  X82.6461  Y113.5901   
N375  X83.6363  Y114.5130   
N380  X84.3469  Y115.9967   
N385  X86.5135  Y120.8178   
N390  X87.1798  Y120.2128   
N395  X87.9809  Y117.8026   
N400  X88.7983  Y115.4296   
N405  X89.7636  Y114.0824   
N410  X91.3354  Y113.3931   
N415  X93.9714  Y112.9945   
N420  X98.6893  Y112.4603   
N425  X95.1767  Y109.9548   
N430  X92.6146  Y107.5585   
N435  X92.2382  Y105.4137   
N440  X93.4708  Y101.0769   
N445  X94.1288  Y98.7763   
N450  X90.1815  Y101.2157   
N455  X86.2339  Y103.6556   
N460  X83.1555  Y101.3798   
N465 G0  Z0.1000 
N470 G1  Z-1.4000  F100.00 
N475  X79.5740  Y99.1037   F300.00 
N480  X79.9675  Y102.1869   
N485  X81.5152  Y106.4572   
N490  X80.7781  Y107.9049   
N495  X78.1271  Y109.9647   
N500  X74.1135  Y112.4603   
N505  X78.7052  Y112.7913   
N510  X82.6461  Y113.5901   
N515  X83.6363  Y114.5130   
N520  X84.3469  Y115.9967   
N525  X86.5135  Y120.8178   
N530  X87.1798  Y120.2128   
N535  X87.9809  Y117.8026   
N540  X88.7983  Y115.4296   
N545  X89.7636  Y114.0824   
N550  X91.3354  Y113.3931   
N555  X93.9714  Y112.9945   
N560  X98.6893  Y112.4603   
N565  X95.1767  Y109.9548   
N570  X92.6146  Y107.5585   
N575  X92.2382  Y105.4137   
N580  X93.4708  Y101.0769   
N585  X94.1288  Y98.7763   
N590  X90.1815  Y101.2157   
N595  X86.2339  Y103.6556   
N600  X83.1555  Y101.3798   
N605 G0  Z3.0000 
N610  X108.9734  Y79.9410 
N615  Z0.1000 
N620 G1  Z-0.7000  F100.00 
N625  X105.7332  Y82.3365   F300.00 
N630  X101.7531  Y79.3008   
N635  X98.6842  Y77.2378   
N640  X98.3295  Y77.4130   
N645  X98.5730  Y78.3347   
N650  X99.7862  Y82.0399   
N655  X99.9681  Y84.6818   
N660  X99.0397  Y86.7626   
N665  X96.9213  Y88.7837   
N670  X93.3466  Y91.6004   
N675  X98.3034  Y91.6122   
N680  X102.6784  Y92.1275   
N685  X103.4630  Y93.2331   
N690  X103.9545  Y95.3265   
N695  X104.7422  Y98.3180   
N700  X105.6244  Y99.4050   
N705  X106.5964  Y98.5869   
N710  X107.6558  Y95.8631   
N715  X108.4716  Y93.4470   
N720  X109.4210  Y92.1848   
N725  X111.0585  Y91.7020   
N730  X113.9392  Y91.6241   
N735  X118.9529   
N740  X114.9650  Y88.9142   
N745  X112.4449  Y87.0809   
N750  X111.2803  Y85.6245   
N755  X111.2356  Y83.9337   
N760  X112.0755  Y81.3946   
N765  X112.7596  Y79.1121   
N770  X112.5212  Y78.1330   
N775  X111.2843  Y78.4209   
N780  X108.9734  Y79.9410   
N785 G0  Z0.1000 
N790 G1  Z-1.4000  F100.00 
N795  X105.7332  Y82.3365   F300.00 
N800  X101.7531  Y79.3008   
N805  X98.6842  Y77.2378   
N810  X98.3295  Y77.4130   
N815  X98.5730  Y78.3347   
N820  X99.7862  Y82.0399   
N825  X99.9681  Y84.6818   
N830  X99.0397  Y86.7626   
N835  X96.9213  Y88.7837   
N840  X93.3466  Y91.6004   
N845  X98.3034  Y91.6122   
N850  X102.6784  Y92.1275   
N855  X103.4630  Y93.2331   
N860  X103.9545  Y95.3265   
N865  X104.7422  Y98.3180   
N870  X105.6244  Y99.4050   
N875  X106.5964  Y98.5869   
N880  X107.6558  Y95.8631   
N885  X108.4716  Y93.4470   
N890  X109.4210  Y92.1848   
N895  X111.0585  Y91.7020   
N900  X113.9392  Y91.6241   
N905  X118.9529   
N910  X114.9650  Y88.9142   
N915  X112.4449  Y87.0809   
N920  X111.2803  Y85.6245   
N925  X111.2356  Y83.9337   
N930  X112.0755  Y81.3946   
N935  X112.7596  Y79.1121   
N940  X112.5212  Y78.1330   
N945  X111.2843  Y78.4209   
N950  X108.9734  Y79.9410   
N955 G0  Z3.0000 
N960  X121.7751  Y101.3213 
N965  Z0.1000 
N970 G1  Z-0.7000  F100.00 
N975  X119.3080  Y99.6771   F300.00 
N980  X118.1360  Y99.3532   
N985  X118.0679  Y100.4719   
N990  X118.9126  Y103.1557   
N995  X119.6778  Y105.5386   
N1000  X119.6774  Y107.0290   
N1005  X118.6817  Y108.2525   
N1010  X116.4609  Y109.8338   
N1015  X112.5801  Y112.4603   
N1020  X117.5468  Y112.7814   
N1025  X121.8985  Y113.5802   
N1030  X122.7040  Y114.7107   
N1035  X123.1975  Y116.7508   
N1040  X123.9805  Y119.7098   
N1045  X124.8607  Y120.7771   
N1050  X125.8319  Y119.9518   
N1055  X126.8893  Y117.2336   
N1060  X127.7051  Y114.8175   
N1065  X128.6541  Y113.5553   
N1070  X130.2920  Y113.0720   
N1075  X133.1727  Y112.9945   
N1080  X138.1861   
N1085  X134.1491  Y110.2510   
N1090  X131.1382  Y107.6585   
N1095  X130.6953  Y105.4429   
N1100  X131.9370  Y101.0769   
N1105  X132.5954  Y98.7763   
N1110  X128.7423  Y101.1576   
N1115  X124.8896  Y103.5385   
N1120  X121.7751  Y101.3213   
N1125 G0  Z0.1000 
N1130 G1  Z-1.4000  F100.00 
N1135  X119.3080  Y99.6771   F300.00 
N1140  X118.1360  Y99.3532   
N1145  X118.0679  Y100.4719   
N1150  X118.9126  Y103.1557   
N1155  X119.6778  Y105.5386   
N1160  X119.6774  Y107.0290   
N1165  X118.6817  Y108.2525   
N1170  X116.4609  Y109.8338   
N1175  X112.5801  Y112.4603   
N1180  X117.5468  Y112.7814   
N1185  X121.8985  Y113.5802   
N1190  X122.7040  Y114.7107   
N1195  X123.1975  Y116.7508   
N1200  X123.9805  Y119.7098   
N1205  X124.8607  Y120.7771   
N1210  X125.8319  Y119.9518   
N1215  X126.8893  Y117.2336   
N1220  X127.7051  Y114.8175   
N1225  X128.6541  Y113.5553   
N1230  X130.2920  Y113.0720   
N1235  X133.1727  Y112.9945   
N1240  X138.1861   
N1245  X134.1491  Y110.2510   
N1250  X131.1382  Y107.6585   
N1255  X130.6953  Y105.4429   
N1260  X131.9370  Y101.0769   
N1265  X132.5954  Y98.7763   
N1270  X128.7423  Y101.1576   
N1275  X124.8896  Y103.5385   
N1280  X121.7751  Y101.3213   
N1285 G0  Z3.0000 
N1290  X145.3905  Y81.4061 
N1295  Z0.1000 
N1300 G1  Z-0.7000  F100.00 
N1305  X143.3623  Y81.1838   F300.00 
N1310  X140.3151  Y79.3735   
N1315  X136.6213  Y77.0104   
N1320  X138.0983  Y81.6508   
N1325  X139.5756  Y85.8373   
N1330  X135.6944  Y88.4634   
N1335  X131.8132  Y91.0898   
N1340  X136.8159  Y91.4125   
N1345  X141.1775  Y92.1998   
N1350  X142.0230  Y93.2655   
N1355  X142.5513  Y95.1525   
N1360  X143.3730  Y98.3196   
N1365  X144.1223  Y99.5652   
N1370  X144.8875  Y98.9242   
N1375  X145.7578  Y96.4326   
N1380  X146.5321  Y94.0532   
N1385  X147.4701  Y92.7068   
N1390  X149.0304  Y92.0215   
N1395  X151.6712  Y91.6241   
N1400  X156.3891  Y91.0898   
N1405  X152.8333  Y88.5539   
N1410  X150.1744  Y86.0749   
N1415  X149.8866  Y83.7458   
N1420  X151.1962  Y78.8021   
N1425  X151.8973  Y76.1306   
N1430  X149.3349  Y78.3758   
N1435  X145.3905  Y81.4061   
N1440 G0  Z0.1000 
N1445 G1  Z-1.4000  F100.00 
N1450  X143.3623  Y81.1838   F300.00 
N1455  X140.3151  Y79.3735   
N1460  X136.6213  Y77.0104   
N1465  X138.0983  Y81.6508   
N1470  X139.5756  Y85.8373   
N1475  X135.6944  Y88.4634   
N1480  X131.8132  Y91.0898   
N1485  X136.8159  Y91.4125   
N1490  X141.1775  Y92.1998   
N1495  X142.0230  Y93.2655   
N1500  X142.5513  Y95.1525   
N1505  X143.3730  Y98.3196   
N1510  X144.1223  Y99.5652   
N1515  X144.8875  Y98.9242   
N1520  X145.7578  Y96.4326   
N1525  X146.5321  Y94.0532   
N1530  X147.4701  Y92.7068   
N1535  X149.0304  Y92.0215   
N1540  X151.6712  Y91.6241   
N1545  X156.3891  Y91.0898   
N1550  X152.8333  Y88.5539   
N1555  X150.1744  Y86.0749   
N1560  X149.8866  Y83.7458   
N1565  X151.1962  Y78.8021   
N1570  X151.8973  Y76.1306   
N1575  X149.3349  Y78.3758   
N1580  X145.3905  Y81.4061   
N1585 G0  Z3.0000 
N1590  X160.1722  Y101.4415 
N1595  Z0.1000 
N1600 G1  Z-0.7000  F100.00 
N1605  X156.5069  Y99.1037   F300.00 
N1610  X156.9004  Y102.1869   
N1615  X158.4481  Y106.4572   
N1620  X157.7893  Y107.8523   
N1625  X155.3269  Y109.7848   
N1630  X152.6170  Y111.6540   
N1635  X151.7922  Y112.7972   
N1640  X152.8626  Y113.2824   
N1645  X155.8390  Y113.1792   
N1650  X159.5964  Y113.3235   
N1655  X160.4897  Y114.1887   
N1660  X161.2134  Y115.8223   
N1665  X162.9561  Y120.4742   
N1670  X163.3278  Y120.8708   
N1675  X163.8236  Y120.5050   
N1680  X165.1503  Y117.5357   
N1685  X166.1247  Y114.9875   
N1690  X167.1223  Y113.6272   
N1695  X168.6388  Y113.0788   
N1700  X171.1700  Y112.9657   
N1705  X175.6222  Y112.9368   
N1710  X171.9882  Y109.9232   
N1715  X169.0560  Y106.8333   
N1720  X168.9844  Y105.4073   
N1725  X169.5887  Y103.3673   
N1730  X170.3653  Y100.6953   
N1735  X170.2095  Y99.5225   
N1740  X169.0026  Y99.7673   
N1745  X166.6237  Y101.3478   
N1750  X163.3341  Y103.7797   
N1755  X160.1722  Y101.4415   
N1760 G0  Z0.1000 
N1765 G1  Z-1.4000  F100.00 
N1770  X156.5069  Y99.1037   F300.00 
N1775  X156.9004  Y102.1869   
N1780  X158.4481  Y106.4572   
N1785  X157.7893  Y107.8523   
N1790  X155.3269  Y109.7848   
N1795  X152.6170  Y111.6540   
N1800  X151.7922  Y112.7972   
N1805  X152.8626  Y113.2824   
N1810  X155.8390  Y113.1792   
N1815  X159.5964  Y113.3235   
N1820  X160.4897  Y114.1887   
N1825  X161.2134  Y115.8223   
N1830  X162.9561  Y120.4742   
N1835  X163.3278  Y120.8708   
N1840  X163.8236  Y120.5050   
N1845  X165.1503  Y117.5357   
N1850  X166.1247  Y114.9875   
N1855  X167.1223  Y113.6272   
N1860  X168.6388  Y113.0788   
N1865  X171.1700  Y112.9657   
N1870  X175.6222  Y112.9368   
N1875  X171.9882  Y109.9232   
N1880  X169.0560  Y106.8333   
N1885  X168.9844  Y105.4073   
N1890  X169.5887  Y103.3673   
N1895  X170.3653  Y100.6953   
N1900  X170.2095  Y99.5225   
N1905  X169.0026  Y99.7673   
N1910  X166.6237  Y101.3478   
N1915  X163.3341  Y103.7797   
N1920  X160.1722  Y101.4415   
N1925 G0  Z3.0000 
N1930  X185.7979  Y79.8528 
N1935  Z0.1000 
N1940 G1  Z-0.7000  F100.00 
N1945  X182.4941  Y82.2052   F300.00 
N1950  X178.5998  Y79.2351   
N1955  X175.5870  Y77.2109   
N1960  X175.2521  Y77.4003   
N1965  X175.5059  Y78.3347   
N1970  X176.7191  Y82.0399   
N1975  X176.9010  Y84.6818   
N1980  X175.9726  Y86.7626   
N1985  X173.8542  Y88.7837   
N1990  X170.2795  Y91.6004   
N1995  X175.3549  Y91.6122   
N2000  X179.2768  Y91.9701   
N2005  X180.1566  Y92.4466   
N2010  X180.4303  Y93.1572   
N2015  X181.6553  Y97.6983   
N2020  X182.8800  Y100.7064   
N2025  X184.1501  Y96.4326   
N2030  X184.9643  Y94.0429   
N2035  X185.9150  Y92.7230   
N2040  X187.4801  Y92.1033   
N2045  X190.1378  Y91.8159   
N2050  X194.8553  Y91.4734   
N2055  X191.2213  Y88.5065   
N2060  X188.2880  Y85.4565   
N2065  X188.2172  Y84.0369   
N2070  X188.8222  Y81.9972   
N2075  X189.5921  Y79.3205   
N2080  X189.4221  Y78.1259   
N2085  X188.1962  Y78.3308   
N2090  X185.7979  Y79.8528   
N2095 G0  Z0.1000 
N2100 G1  Z-1.4000  F100.00 
N2105  X182.4941  Y82.2052   F300.00 
N2110  X178.5998  Y79.2351   
N2115  X175.5870  Y77.2109   
N2120  X175.2521  Y77.4003   
N2125  X175.5059  Y78.3347   
N2130  X176.7191  Y82.0399   
N2135  X176.9010  Y84.6818   
N2140  X175.9726  Y86.7626   
N2145  X173.8542  Y88.7837   
N2150  X170.2795  Y91.6004   
N2155  X175.3549  Y91.6122   
N2160  X179.2768  Y91.9701   
N2165  X180.1566  Y92.4466   
N2170  X180.4303  Y93.1572   
N2175  X181.6553  Y97.6983   
N2180  X182.8800  Y100.7064   
N2185  X184.1501  Y96.4326   
N2190  X184.9643  Y94.0429   
N2195  X185.9150  Y92.7230   
N2200  X187.4801  Y92.1033   
N2205  X190.1378  Y91.8159   
N2210  X194.8553  Y91.4734   
N2215  X191.2213  Y88.5065   
N2220  X188.2880  Y85.4565   
N2225  X188.2172  Y84.0369   
N2230  X188.8222  Y81.9972   
N2235  X189.5921  Y79.3205   
N2240  X189.4221  Y78.1259   
N2245  X188.1962  Y78.3308   
N2250  X185.7979  Y79.8528   
N2255 G0  Z3.0000 
N2260  X198.7080  Y101.3213 
N2265  Z0.1000 
N2270 G1  Z-0.7000  F100.00 
N2275  X196.2401  Y99.6767   F300.00 
N2280  X195.0689  Y99.3548   
N2285  X195.0028  Y100.4786   
N2290  X195.8514  Y103.1723   
N2295  X196.6202  Y105.5635   
N2300  X196.6269  Y107.0575   
N2305  X195.6490  Y108.2786   
N2310  X193.4626  Y109.8504   
N2315  X189.6384  Y112.4603   
N2320  X194.6133  Y112.7842   
N2325  X198.9781  Y113.5889   
N2330  X199.7840  Y114.7329   
N2335  X200.2815  Y116.8030   
N2340  X201.0399  Y119.7592   
N2345  X201.8664  Y120.8142   
N2350  X202.7854  Y119.9716   
N2355  X203.8218  Y117.2336   
N2360  X204.6380  Y114.8175   
N2365  X205.5870  Y113.5553   
N2370  X207.2249  Y113.0720   
N2375  X210.1056  Y112.9945   
N2380  X215.1190   
N2385  X211.0405  Y110.2229   
N2390  X208.6319  Y108.3521   
N2395  X207.5733  Y106.5592   
N2400  X207.7220  Y104.1926   
N2405  X208.9352  Y100.5989   
N2410  X209.1867  Y99.6807   
N2415  X208.8608  Y99.4410   
N2420  X205.7452  Y101.1145   
N2425  X201.8225  Y103.5385   
N2430  X198.7080  Y101.3213   
N2435 G0  Z0.1000 
N2440 G1  Z-1.4000  F100.00 
N2445  X196.2401  Y99.6767   F300.00 
N2450  X195.0689  Y99.3548   
N2455  X195.0028  Y100.4786   
N2460  X195.8514  Y103.1723   
N2465  X196.6202  Y105.5635   
N2470  X196.6269  Y107.0575   
N2475  X195.6490  Y108.2786   
N2480  X193.4626  Y109.8504   
N2485  X189.6384  Y112.4603   
N2490  X194.6133  Y112.7842   
N2495  X198.9781  Y113.5889   
N2500  X199.7840  Y114.7329   
N2505  X200.2815  Y116.8030   
N2510  X201.0399  Y119.7592   
N2515  X201.8664  Y120.8142   
N2520  X202.7854  Y119.9716   
N2525  X203.8218  Y117.2336   
N2530  X204.6380  Y114.8175   
N2535  X205.5870  Y113.5553   
N2540  X207.2249  Y113.0720   
N2545  X210.1056  Y112.9945   
N2550  X215.1190   
N2555  X211.0405  Y110.2229   
N2560  X208.6319  Y108.3521   
N2565  X207.5733  Y106.5592   
N2570  X207.7220  Y104.1926   
N2575  X208.9352  Y100.5989   
N2580  X209.1867  Y99.6807   
N2585  X208.8608  Y99.4410   
N2590  X205.7452  Y101.1145   
N2595  X201.8225  Y103.5385   
N2600  X198.7080  Y101.3213   
N2605 G0  Z3.0000 
N2610  X176.3870  Y132.9889 
N2615  Z0.1000 
N2620 G1  Z-0.7000  F100.00 
N2625  X171.2748  Y127.9534   F300.00 
N2630  X152.8796   
N2635  X134.4844   
N2640  Y134.8988   
N2645  X134.8340  Y140.7089   
N2650  X135.4785  Y141.6354   
N2655  X136.6213  Y141.8442   
N2660  X137.8140  Y142.1780   
N2665  X138.4534  Y143.9811   
N2670  X138.7586  Y156.8035   
N2675  X138.4534  Y169.6254   
N2680  X137.8140  Y171.4286   
N2685  X136.6213  Y171.7624   
N2690  X135.4750  Y171.9755   
N2695  X134.8304  Y172.9329   
N2700  X134.4844  Y178.9877   
N2705  Y186.2131   
N2710  X152.7115  Y186.4377   
N2715  X170.9387  Y186.6623   
N2720  X176.2189  Y181.5193   
N2725  X181.4991  Y176.3763   
N2730  Y169.1118   
N2735  X181.1096  Y163.0573   
N2740  X180.5351  Y161.4384   
N2745  X179.6291  Y160.3940   
N2750  X178.2934  Y158.9404   
N2755  X179.6291  Y157.4868   
N2760  X180.5616  Y156.3831   
N2765  X181.1334  Y154.5566   
N2770  X181.4991  Y147.0288   
N2775  Y138.0239   
N2780  X176.3870  Y132.9889   
N2785 G0  Z0.1000 
N2790 G1  Z-1.4000  F100.00 
N2795  X171.2748  Y127.9534   F300.00 
N2800  X152.8796   
N2805  X134.4844   
N2810  Y134.8988   
N2815  X134.8340  Y140.7089   
N2820  X135.4785  Y141.6354   
N2825  X136.6213  Y141.8442   
N2830  X137.8140  Y142.1780   
N2835  X138.4534  Y143.9811   
N2840  X138.7586  Y156.8035   
N2845  X138.4534  Y169.6254   
N2850  X137.8140  Y171.4286   
N2855  X136.6213  Y171.7624   
N2860  X135.4750  Y171.9755   
N2865  X134.8304  Y172.9329   
N2870  X134.4844  Y178.9877   
N2875  Y186.2131   
N2880  X152.7115  Y186.4377   
N2885  X170.9387  Y186.6623   
N2890  X176.2189  Y181.5193   
N2895  X181.4991  Y176.3763   
N2900  Y169.1118   
N2905  X181.1096  Y163.0573   
N2910  X180.5351  Y161.4384   
N2915  X179.6291  Y160.3940   
N2920  X178.2934  Y158.9404   
N2925  X179.6291  Y157.4868   
N2930  X180.5616  Y156.3831   
N2935  X181.1334  Y154.5566   
N2940  X181.4991  Y147.0288   
N2945  Y138.0239   
N2950  X176.3870  Y132.9889   
N2955 G0  Z3.0000 
N2960  X155.8548  Y146.1181 
N2965  Z0.1000 
N2970 G1  Z-0.7000  F100.00 
N2975  X155.9256  Y148.5464   F300.00 
N2980  X156.3555  Y149.8197   
N2985  X157.4698  Y150.3113   
N2990  X159.5945  Y150.3923   
N2995  X161.7191  Y150.3113   
N3000  X162.8335  Y149.8197   
N3005  X163.2633  Y148.5464   
N3010  X163.3341  Y146.1181   
N3015  X163.2633  Y143.6901   
N3020  X162.8335  Y142.4168   
N3025  X161.7191  Y141.9253   
N3030  X159.5945  Y141.8442   
N3035  X157.4698  Y141.9253   
N3040  X156.3555  Y142.4168   
N3045  X155.9256  Y143.6901   
N3050  X155.8548  Y146.1181   
N3055 G0  Z0.1000 
N3060 G1  Z-1.4000  F100.00 
N3065  X155.9256  Y148.5464   F300.00 
N3070  X156.3555  Y149.8197   
N3075  X157.4698  Y150.3113   
N3080  X159.5945  Y150.3923   
N3085  X161.7191  Y150.3113   
N3090  X162.8335  Y149.8197   
N3095  X163.2633  Y148.5464   
N3100  X163.3341  Y146.1181   
N3105  X163.2633  Y143.6901   
N3110  X162.8335  Y142.4168   
N3115  X161.7191  Y141.9253   
N3120  X159.5945  Y141.8442   
N3125  X157.4698  Y141.9253   
N3130  X156.3555  Y142.4168   
N3135  X155.9256  Y143.6901   
N3140  X155.8548  Y146.1181   
N3145 G0  Z3.0000 
N3150  Y168.6713 
N3155  Z0.1000 
N3160 G1  Z-0.7000  F100.00 
N3165  X156.1850  Y172.0748   F300.00 
N3170  X156.7019  Y172.5501   
N3175  X157.5449  Y172.4113   
N3180  X161.2846  Y171.7624   
N3185  X162.9209  Y171.0079   
N3190  X163.3341  Y168.0228   
N3195  X163.2507  Y165.9357   
N3200  X162.7999  Y164.8174   
N3205  X161.6816  Y164.3666   
N3210  X159.5945  Y164.2831   
N3215  X157.4631  Y164.3634   
N3220  X156.3495  Y164.8636   
N3225  X155.9233  Y166.1701   
N3230  X155.8548  Y168.6713   
N3235 G0  Z0.1000 
N3240 G1  Z-1.4000  F100.00 
N3245  X156.1850  Y172.0748   F300.00 
N3250  X156.7019  Y172.5501   
N3255  X157.5449  Y172.4113   
N3260  X161.2846  Y171.7624   
N3265  X162.9209  Y171.0079   
N3270  X163.3341  Y168.0228   
N3275  X163.2507  Y165.9357   
N3280  X162.7999  Y164.8174   
N3285  X161.6816  Y164.3666   
N3290  X159.5945  Y164.2831   
N3295  X157.4631  Y164.3634   
N3300  X156.3495  Y164.8636   
N3305  X155.9233  Y166.1701   
N3310  X155.8548  Y168.6713   
N3315 G0  Z3.0000 
N3320  X145.1073  Y195.2697 
N3325  Z0.1000 
N3330 G1  Z-0.7000  F100.00 
N3335  X140.7860  Y192.3423   F300.00 
N3340  X137.3066  Y189.4150   
N3345  X138.1445  Y192.0750   
N3350  X139.0351  Y195.7095   
N3355  X138.9892  Y198.3961   
N3360  X137.9227  Y200.4930   
N3365  X135.7530  Y202.3583   
N3370  X132.2134  Y204.7637   
N3375  X137.3556  Y205.0923   
N3380  X140.2743  Y205.3593   
N3385  X141.9257  Y205.9279   
N3390  X142.8249  Y207.1624   
N3395  X143.4880  Y209.4275   
N3400  X145.1694  Y213.4344   
N3405  X146.8512  Y209.4275   
N3410  X147.5140  Y207.1992   
N3415  X148.4037  Y205.9326   
N3420  X149.9668  Y205.2782   
N3425  X152.6491  Y204.8863   
N3430  X157.4575  Y204.3521   
N3435  X153.9848  Y202.2519   
N3440  X151.8218  Y200.5622   
N3445  X150.7344  Y198.7013   
N3450  X150.6928  Y196.5624   
N3455  X151.6672  Y194.0396   
N3460  X152.3972  Y192.1834   
N3465  X152.1093  Y191.3727   
N3470  X150.8890  Y191.6381   
N3475  X148.8217  Y193.0110   
N3480  X145.1073  Y195.2697   
N3485 G0  Z0.1000 
N3490 G1  Z-1.4000  F100.00 
N3495  X140.7860  Y192.3423   F300.00 
N3500  X137.3066  Y189.4150   
N3505  X138.1445  Y192.0750   
N3510  X139.0351  Y195.7095   
N3515  X138.9892  Y198.3961   
N3520  X137.9227  Y200.4930   
N3525  X135.7530  Y202.3583   
N3530  X132.2134  Y204.7637   
N3535  X137.3556  Y205.0923   
N3540  X140.2743  Y205.3593   
N3545  X141.9257  Y205.9279   
N3550  X142.8249  Y207.1624   
N3555  X143.4880  Y209.4275   
N3560  X145.1694  Y213.4344   
N3565  X146.8512  Y209.4275   
N3570  X147.5140  Y207.1992   
N3575  X148.4037  Y205.9326   
N3580  X149.9668  Y205.2782   
N3585  X152.6491  Y204.8863   
N3590  X157.4575  Y204.3521   
N3595  X153.9848  Y202.2519   
N3600  X151.8218  Y200.5622   
N3605  X150.7344  Y198.7013   
N3610  X150.6928  Y196.5624   
N3615  X151.6672  Y194.0396   
N3620  X152.3972  Y192.1834   
N3625  X152.1093  Y191.3727   
N3630  X150.8890  Y191.6381   
N3635  X148.8217  Y193.0110   
N3640  X145.1073  Y195.2697   
N3645 G0  Z3.0000 
N3650  X142.5018  Y218.7827 
N3655  Z0.1000 
N3660 G1  Z-0.7000  F100.00 
N3665  X139.6057  Y216.5216   F300.00 
N3670  X137.8800  Y215.8683   
N3675  X138.1370  Y217.3172   
N3680  X139.3372  Y220.9702   
N3685  X139.5491  Y223.5196   
N3690  X138.7179  Y225.3540   
N3695  X136.7882  Y226.8626   
N3700  X134.6256  Y228.3364   
N3705  X134.0684  Y229.3032   
N3710  X135.1380  Y229.8244   
N3715  X137.8551  Y229.9608   
N3720  X140.3799  Y230.3748   
N3725  X142.3219  Y231.6086   
N3730  X143.5825  Y233.5628   
N3735  X144.0630  Y236.1402   
N3740  X144.4098  Y237.7955   
N3745  X145.1793  Y237.8675   
N3750  X146.1185  Y236.5412   
N3755  X146.9746  Y234.0033   
N3760  X147.6013  Y231.7482   
N3765  X148.4140  Y230.5619   
N3770  X149.8688  Y230.1154   
N3775  X152.4233  Y230.0802   
N3780  X155.4831  Y229.9936   
N3785  X156.6900  Y229.5143   
N3790  X156.0870  Y228.5384   
N3795  X153.7175  Y226.9610   
N3800  X151.6889  Y225.5161   
N3805  X150.7300  Y223.9988   
N3810  X150.7383  Y222.0308   
N3815  X151.6107  Y219.2327   
N3820  X152.2623  Y216.9364   
N3825  X152.0361  Y215.8691   
N3830  X150.9704  Y216.0569   
N3835  X149.1036  Y217.5264   
N3840  X147.1189  Y219.0085   
N3845  X145.2268  Y219.7368   
N3850  X143.6229  Y219.6740   
N3855  X142.5018  Y218.7827   
N3860 G0  Z0.1000 
N3865 G1  Z-1.4000  F100.00 
N3870  X139.6057  Y216.5216   F300.00 
N3875  X137.8800  Y215.8683   
N3880  X138.1370  Y217.3172   
N3885  X139.3372  Y220.9702   
N3890  X139.5491  Y223.5196   
N3895  X138.7179  Y225.3540   
N3900  X136.7882  Y226.8626   
N3905  X134.6256  Y228.3364   
N3910  X134.0684  Y229.3032   
N3915  X135.1380  Y229.8244   
N3920  X137.8551  Y229.9608   
N3925  X140.3799  Y230.3748   
N3930  X142.3219  Y231.6086   
N3935  X143.5825  Y233.5628   
N3940  X144.0630  Y236.1402   
N3945  X144.4098  Y237.7955   
N3950  X145.1793  Y237.8675   
N3955  X146.1185  Y236.5412   
N3960  X146.9746  Y234.0033   
N3965  X147.6013  Y231.7482   
N3970  X148.4140  Y230.5619   
N3975  X149.8688  Y230.1154   
N3980  X152.4233  Y230.0802   
N3985  X155.4831  Y229.9936   
N3990  X156.6900  Y229.5143   
N3995  X156.0870  Y228.5384   
N4000  X153.7175  Y226.9610   
N4005  X151.6889  Y225.5161   
N4010  X150.7300  Y223.9988   
N4015  X150.7383  Y222.0308   
N4020  X151.6107  Y219.2327   
N4025  X152.2623  Y216.9364   
N4030  X152.0361  Y215.8691   
N4035  X150.9704  Y216.0569   
N4040  X149.1036  Y217.5264   
N4045  X147.1189  Y219.0085   
N4050  X145.2268  Y219.7368   
N4055  X143.6229  Y219.6740   
N4060  X142.5018  Y218.7827   
N4065 G0  Z3.0000 
N4070  X122.2002  Y242.2900 
N4075  Z0.1000 
N4080 G1  Z-0.7000  F100.00 
N4085  X119.3037  Y240.0289   F300.00 
N4090  X117.5784  Y239.3753   
N4095  X117.8354  Y240.8246   
N4100  X119.0395  Y244.4887   
N4105  X119.2456  Y247.0400   
N4110  X118.3950  Y248.8784   
N4115  X116.4285  Y250.4040   
N4120  X113.1143  Y253.0249   
N4125  X117.6476  Y253.5959   
N4130  X120.2215  Y253.6263   
N4135  X121.6921  Y254.0704   
N4140  X122.5233  Y255.2555   
N4145  X123.1785  Y257.5107   
N4150  X124.8872  Y261.5176   
N4155  X126.8786  Y257.2434   
N4160  X127.6924  Y254.8443   
N4165  X128.6075  Y253.5674   
N4170  X130.0986  Y253.0601   
N4175  X132.6425  Y252.9695   
N4180  X137.1255   
N4185  X133.6512  Y250.5653   
N4190  X131.6349  Y249.0369   
N4195  X130.7871  Y247.5517   
N4200  X130.9540  Y245.2530   
N4205  X131.9813  Y241.2844   
N4210  X132.7006  Y238.6821   
N4215  X129.4205  Y241.0175   
N4220  X124.8829  Y243.2343   
N4225  X123.2766  Y243.1632   
N4230  X122.2002  Y242.2900   
N4235 G0  Z0.1000 
N4240 G1  Z-1.4000  F100.00 
N4245  X119.3037  Y240.0289   F300.00 
N4250  X117.5784  Y239.3753   
N4255  X117.8354  Y240.8246   
N4260  X119.0395  Y244.4887   
N4265  X119.2456  Y247.0400   
N4270  X118.3950  Y248.8784   
N4275  X116.4285  Y250.4040   
N4280  X113.1143  Y253.0249   
N4285  X117.6476  Y253.5959   
N4290  X120.2215  Y253.6263   
N4295  X121.6921  Y254.0704   
N4300  X122.5233  Y255.2555   
N4305  X123.1785  Y257.5107   
N4310  X124.8872  Y261.5176   
N4315  X126.8786  Y257.2434   
N4320  X127.6924  Y254.8443   
N4325  X128.6075  Y253.5674   
N4330  X130.0986  Y253.0601   
N4335  X132.6425  Y252.9695   
N4340  X137.1255   
N4345  X133.6512  Y250.5653   
N4350  X131.6349  Y249.0369   
N4355  X130.7871  Y247.5517   
N4360  X130.9540  Y245.2530   
N4365  X131.9813  Y241.2844   
N4370  X132.7006  Y238.6821   
N4375  X129.4205  Y241.0175   
N4380  X124.8829  Y243.2343   
N4385  X123.2766  Y243.1632   
N4390  X122.2002  Y242.2900   
N4395 G0  Z3.0000 
N4400  X109.7745  Y218.0301 
N4405  Z0.1000 
N4410 G1  Z-0.7000  F100.00 
N4415  X106.3220  Y220.7322   F300.00 
N4420  X102.5812  Y217.8846   
N4425  X98.8404  Y215.0375   
N4430  X99.5747  Y217.7087   
N4435  X100.8851  Y222.5239   
N4440  X100.6079  Y224.6185   
N4445  X98.2057  Y226.5913   
N4450  X95.7698  Y228.2897   
N4455  X95.1229  Y229.4155   
N4460  X96.2514  Y229.9228   
N4465  X99.1417  Y229.7651   
N4470  X101.5645  Y229.5203   
N4475  X102.9604  Y229.8489   
N4480  X103.8248  Y231.0957   
N4485  X104.6536  Y233.6067   
N4490  X106.6838  Y238.0103   
N4495  X108.3846  Y234.0033   
N4500  X109.0366  Y231.7545   
N4505  X109.8718  Y230.5575   
N4510  X111.3464  Y230.0818   
N4515  X113.9171  Y229.9964   
N4520  X118.4582  Y229.4254   
N4525  X115.2513  Y226.9610   
N4530  X113.2223  Y225.5161   
N4535  X112.2638  Y223.9988   
N4540  X112.2721  Y222.0308   
N4545  X113.1440  Y219.2327   
N4550  X113.8281  Y216.9040   
N4555  X113.5386  Y215.9434   
N4560  X112.2096  Y216.3266   
N4565  X109.7745  Y218.0301   
N4570 G0  Z0.1000 
N4575 G1  Z-1.4000  F100.00 
N4580  X106.3220  Y220.7322   F300.00 
N4585  X102.5812  Y217.8846   
N4590  X98.8404  Y215.0375   
N4595  X99.5747  Y217.7087   
N4600  X100.8851  Y222.5239   
N4605  X100.6079  Y224.6185   
N4610  X98.2057  Y226.5913   
N4615  X95.7698  Y228.2897   
N4620  X95.1229  Y229.4155   
N4625  X96.2514  Y229.9228   
N4630  X99.1417  Y229.7651   
N4635  X101.5645  Y229.5203   
N4640  X102.9604  Y229.8489   
N4645  X103.8248  Y231.0957   
N4650  X104.6536  Y233.6067   
N4655  X106.6838  Y238.0103   
N4660  X108.3846  Y234.0033   
N4665  X109.0366  Y231.7545   
N4670  X109.8718  Y230.5575   
N4675  X111.3464  Y230.0818   
N4680  X113.9171  Y229.9964   
N4685  X118.4582  Y229.4254   
N4690  X115.2513  Y226.9610   
N4695  X113.2223  Y225.5161   
N4700  X112.2638  Y223.9988   
N4705  X112.2721  Y222.0308   
N4710  X113.1440  Y219.2327   
N4715  X113.8281  Y216.9040   
N4720  X113.5386  Y215.9434   
N4725  X112.2096  Y216.3266   
N4730  X109.7745  Y218.0301   
N4735 G0  Z3.0000 
N4740  X105.4137  Y194.6683 
N4745  Z0.1000 
N4750 G1  Z-0.7000  F100.00 
N4755  X101.6278  Y191.7191   F300.00 
N4760  X100.0516  Y190.5237   
N4765  X99.3548  Y190.6546   
N4770  X100.4648  Y195.3061   
N4775  X101.0738  Y197.3572   
N4780  X101.0081  Y198.7875   
N4785  X98.1009  Y201.8767   
N4790  X94.4961  Y204.8863   
N4795  X98.8253   
N4800  X102.5740  Y205.3980   
N4805  X104.3946  Y207.6081   
N4810  X105.6347  Y211.8819   
N4815  X105.9277  Y213.3431   
N4820  X106.6458  Y213.2766   
N4825  X108.3846  Y209.4275   
N4830  X109.0473  Y207.1992   
N4835  X109.9374  Y205.9326   
N4840  X111.5002  Y205.2782   
N4845  X114.1828  Y204.8863   
N4850  X118.9909  Y204.3521   
N4855  X115.4403  Y202.2152   
N4860  X113.3160  Y200.6698   
N4865  X112.3970  Y198.9196   
N4870  X112.5702  Y196.2999   
N4875  X113.7221  Y192.1446   
N4880  X114.5296  Y189.5537   
N4885  X110.6627  Y192.5033   
N4890  X107.4877  Y194.4128   
N4895  X105.4137  Y194.6683   
N4900 G0  Z0.1000 
N4905 G1  Z-1.4000  F100.00 
N4910  X101.6278  Y191.7191   F300.00 
N4915  X100.0516  Y190.5237   
N4920  X99.3548  Y190.6546   
N4925  X100.4648  Y195.3061   
N4930  X101.0738  Y197.3572   
N4935  X101.0081  Y198.7875   
N4940  X98.1009  Y201.8767   
N4945  X94.4961  Y204.8863   
N4950  X98.8253   
N4955  X102.5740  Y205.3980   
N4960  X104.3946  Y207.6081   
N4965  X105.6347  Y211.8819   
N4970  X105.9277  Y213.3431   
N4975  X106.6458  Y213.2766   
N4980  X108.3846  Y209.4275   
N4985  X109.0473  Y207.1992   
N4990  X109.9374  Y205.9326   
N4995  X111.5002  Y205.2782   
N5000  X114.1828  Y204.8863   
N5005  X118.9909  Y204.3521   
N5010  X115.4403  Y202.2152   
N5015  X113.3160  Y200.6698   
N5020  X112.3970  Y198.9196   
N5025  X112.5702  Y196.2999   
N5030  X113.7221  Y192.1446   
N5035  X114.5296  Y189.5537   
N5040  X110.6627  Y192.5033   
N5045  X107.4877  Y194.4128   
N5050  X105.4137  Y194.6683   
N5055 G0  Z3.0000 
N5060  X74.7169  Y194.0720 
N5065  Z0.1000 
N5070 G1  Z-0.7000  F100.00 
N5075  X75.5667  Y191.9762   F300.00 
N5080  X75.2954  Y191.0611   
N5085  X73.9727  Y191.3534   
N5090  X71.6669  Y192.8805   
N5095  X68.1519  Y195.6090   
N5100  X64.9046  Y193.2084   
N5105  X62.5901  Y191.6851   
N5110  X61.3508  Y191.3953   
N5115  X61.1116  Y192.3740   
N5120  X61.7957  Y194.6568   
N5125  X62.6360  Y197.1959   
N5130  X62.5913  Y198.8872   
N5135  X61.4264  Y200.3432   
N5140  X58.9062  Y202.1768   
N5145  X54.9183  Y204.8863   
N5150  X59.9320   
N5155  X62.8159  Y204.9638   
N5160  X64.4542  Y205.4502   
N5165  X65.4052  Y206.7243   
N5170  X66.2281  Y209.1673   
N5175  X67.1629  Y211.8131   
N5180  X67.9672  Y212.6483   
N5185  X68.8273  Y211.6554   
N5190  X69.9286  Y208.8165   
N5195  X70.6926  Y207.0082   
N5200  X71.6918  Y205.9073   
N5205  X75.8055  Y204.8863   
N5210  X80.5246  Y204.3521   
N5215  X77.0519  Y202.2519   
N5220  X74.8925  Y200.5650   
N5225  X73.8030  Y198.7073   
N5230  X73.7544  Y196.5767   
N5235  X74.7169  Y194.0720   
N5240 G0  Z0.1000 
N5245 G1  Z-1.4000  F100.00 
N5250  X75.5667  Y191.9762   F300.00 
N5255  X75.2954  Y191.0611   
N5260  X73.9727  Y191.3534   
N5265  X71.6669  Y192.8805   
N5270  X68.1519  Y195.6090   
N5275  X64.9046  Y193.2084   
N5280  X62.5901  Y191.6851   
N5285  X61.3508  Y191.3953   
N5290  X61.1116  Y192.3740   
N5295  X61.7957  Y194.6568   
N5300  X62.6360  Y197.1959   
N5305  X62.5913  Y198.8872   
N5310  X61.4264  Y200.3432   
N5315  X58.9062  Y202.1768   
N5320  X54.9183  Y204.8863   
N5325  X59.9320   
N5330  X62.8159  Y204.9638   
N5335  X64.4542  Y205.4502   
N5340  X65.4052  Y206.7243   
N5345  X66.2281  Y209.1673   
N5350  X67.1629  Y211.8131   
N5355  X67.9672  Y212.6483   
N5360  X68.8273  Y211.6554   
N5365  X69.9286  Y208.8165   
N5370  X70.6926  Y207.0082   
N5375  X71.6918  Y205.9073   
N5380  X75.8055  Y204.8863   
N5385  X80.5246  Y204.3521   
N5390  X77.0519  Y202.2519   
N5395  X74.8925  Y200.5650   
N5400  X73.8030  Y198.7073   
N5405  X73.7544  Y196.5767   
N5410  X74.7169  Y194.0720   
N5415 G0  Z3.0000 
N5420  X67.9906  Y219.8456 
N5425  Z0.1000 
N5430 G1  Z-0.7000  F100.00 
N5435  X63.6839  Y217.5102   F300.00 
N5440  X60.4042  Y215.1747   
N5445  X61.1231  Y217.7771   
N5450  X62.5087  Y224.3808   
N5455  X61.7281  Y225.6379   
N5460  X59.7849  Y226.7412   
N5465  X57.2952  Y228.3316   
N5470  X56.6499  Y229.5005   
N5475  X57.8212  Y230.1510   
N5480  X60.7810  Y230.1866   
N5485  X63.2750  Y230.0735   
N5490  X64.7156  Y230.5160   
N5495  X65.6298  Y231.9301   
N5500  X66.5445  Y234.7301   
N5505  X67.4500  Y237.4511   
N5510  X68.1531  Y238.1886   
N5515  X70.1022  Y233.2287   
N5520  X71.6282  Y230.5678   
N5525  X75.2622  Y229.8544   
N5530  X79.9904  Y229.5424   
N5535  X77.0519  Y227.2022   
N5540  X74.8640  Y225.5742   
N5545  X73.8256  Y223.9933   
N5550  X73.8066  Y222.0244   
N5555  X74.6777  Y219.2327   
N5560  X75.3492  Y216.9573   
N5565  X75.1301  Y215.9375   
N5570  X73.9873  Y216.1534   
N5575  X71.8887  Y217.5869   
N5580  X67.9906  Y219.8456   
N5585 G0  Z0.1000 
N5590 G1  Z-1.4000  F100.00 
N5595  X63.6839  Y217.5102   F300.00 
N5600  X60.4042  Y215.1747   
N5605  X61.1231  Y217.7771   
N5610  X62.5087  Y224.3808   
N5615  X61.7281  Y225.6379   
N5620  X59.7849  Y226.7412   
N5625  X57.2952  Y228.3316   
N5630  X56.6499  Y229.5005   
N5635  X57.8212  Y230.1510   
N5640  X60.7810  Y230.1866   
N5645  X63.2750  Y230.0735   
N5650  X64.7156  Y230.5160   
N5655  X65.6298  Y231.9301   
N5660  X66.5445  Y234.7301   
N5665  X67.4500  Y237.4511   
N5670  X68.1531  Y238.1886   
N5675  X70.1022  Y233.2287   
N5680  X71.6282  Y230.5678   
N5685  X75.2622  Y229.8544   
N5690  X79.9904  Y229.5424   
N5695  X77.0519  Y227.2022   
N5700  X74.8640  Y225.5742   
N5705  X73.8256  Y223.9933   
N5710  X73.8066  Y222.0244   
N5715  X74.6777  Y219.2327   
N5720  X75.3492  Y216.9573   
N5725  X75.1301  Y215.9375   
N5730  X73.9873  Y216.1534   
N5735  X71.8887  Y217.5869   
N5740  X67.9906  Y219.8456   
N5745 G0  Z3.0000 
N5750  X51.6947  Y241.5292 
N5755  Z0.1000 
N5760 G1  Z-0.7000  F100.00 
N5765  X47.6257  Y244.2945   F300.00 
N5770  X43.8335  Y241.4193   
N5775  X40.8353  Y239.4081   
N5780  X40.5553  Y239.6557   
N5785  X40.8574  Y240.6814   
N5790  X42.0900  Y244.4459   
N5795  X42.3138  Y247.0349   
N5800  X41.4692  Y248.8776   
N5805  X39.4956  Y250.4040   
N5810  X37.0439  Y252.0525   
N5815  X36.4029  Y253.0937   
N5820  X37.6007  Y253.6046   
N5825  X40.6641  Y253.6631   
N5830  X43.2142  Y253.6540   
N5835  X44.6647  Y254.0748   
N5840  X45.4773  Y255.2520   
N5845  X46.1128  Y257.5107   
N5850  X47.0464  Y260.3404   
N5855  X47.9349  Y261.5176   
N5860  X48.8163  Y260.3404   
N5865  X49.7334  Y257.5107   
N5870  X50.3657  Y255.3014   
N5875  X51.2182  Y254.0313   
N5880  X52.6928  Y253.3654   
N5885  X55.1911  Y252.9695   
N5890  X59.7066  Y252.4353   
N5895  X56.4348  Y250.2984   
N5900  X54.4995  Y248.6763   
N5905  X53.6521  Y246.8130   
N5910  X53.8324  Y244.3155   
N5915  X54.9800  Y240.7917   
N5920  X55.2449  Y239.8344   
N5925  X54.9060  Y239.6114   
N5930  X51.6947  Y241.5292   
N5935 G0  Z0.1000 
N5940 G1  Z-1.4000  F100.00 
N5945  X47.6257  Y244.2945   F300.00 
N5950  X43.8335  Y241.4193   
N5955  X40.8353  Y239.4081   
N5960  X40.5553  Y239.6557   
N5965  X40.8574  Y240.6814   
N5970  X42.0900  Y244.4459   
N5975  X42.3138  Y247.0349   
N5980  X41.4692  Y248.8776   
N5985  X39.4956  Y250.4040   
N5990  X37.0439  Y252.0525   
N5995  X36.4029  Y253.0937   
N6000  X37.6007  Y253.6046   
N6005  X40.6641  Y253.6631   
N6010  X43.2142  Y253.6540   
N6015  X44.6647  Y254.0748   
N6020  X45.4773  Y255.2520   
N6025  X46.1128  Y257.5107   
N6030  X47.0464  Y260.3404   
N6035  X47.9349  Y261.5176   
N6040  X48.8163  Y260.3404   
N6045  X49.7334  Y257.5107   
N6050  X50.3657  Y255.3014   
N6055  X51.2182  Y254.0313   
N6060  X52.6928  Y253.3654   
N6065  X55.1911  Y252.9695   
N6070  X59.7066  Y252.4353   
N6075  X56.4348  Y250.2984   
N6080  X54.4995  Y248.6763   
N6085  X53.6521  Y246.8130   
N6090  X53.8324  Y244.3155   
N6095  X54.9800  Y240.7917   
N6100  X55.2449  Y239.8344   
N6105  X54.9060  Y239.6114   
N6110  X51.6947  Y241.5292   
N6115 G0  Z3.0000 
N6120  X32.8416  Y218.0301 
N6125  Z0.1000 
N6130 G1  Z-0.7000  F100.00 
N6135  X29.3891  Y220.7322   F300.00 
N6140  X25.6483  Y217.8846   
N6145  X21.9074  Y215.0375   
N6150  X22.6418  Y217.7087   
N6155  X23.9522  Y222.5239   
N6160  X23.6284  Y224.6647   
N6165  X21.0055  Y226.7977   
N6170  X17.4825  Y228.9279   
N6175  X21.8853  Y229.2498   
N6180  X24.3852  Y229.5373   
N6185  X25.8903  Y230.2261   
N6190  X26.8895  Y231.7470   
N6195  X27.8714  Y234.5316   
N6200  X29.4543  Y239.4919   
N6205  X31.0420  Y234.7444   
N6210  X32.9579  Y230.7248   
N6215  X34.2632  Y230.0510   
N6220  X36.2756  Y229.8212   
N6225  X40.9705  Y229.5543   
N6230  X40.5407  Y228.6934   
N6235  X38.0337  Y226.7534   
N6240  X34.0469  Y224.0443   
N6245  X35.6626  Y220.1781   
N6250  X36.7861  Y215.8201   
N6255  X32.8416  Y218.0301   
N6260 G0  Z0.1000 
N6265 G1  Z-1.4000  F100.00 
N6270  X29.3891  Y220.7322   F300.00 
N6275  X25.6483  Y217.8846   
N6280  X21.9074  Y215.0375   
N6285  X22.6418  Y217.7087   
N6290  X23.9522  Y222.5239   
N6295  X23.6284  Y224.6647   
N6300  X21.0055  Y226.7977   
N6305  X17.4825  Y228.9279   
N6310  X21.8853  Y229.2498   
N6315  X24.3852  Y229.5373   
N6320  X25.8903  Y230.2261   
N6325  X26.8895  Y231.7470   
N6330  X27.8714  Y234.5316   
N6335  X29.4543  Y239.4919   
N6340  X31.0420  Y234.7444   
N6345  X32.9579  Y230.7248   
N6350  X34.2632  Y230.0510   
N6355  X36.2756  Y229.8212   
N6360  X40.9705  Y229.5543   
N6365  X40.5407  Y228.6934   
N6370  X38.0337  Y226.7534   
N6375  X34.0469  Y224.0443   
N6380  X35.6626  Y220.1781   
N6385  X36.7861  Y215.8201   
N6390  X32.8416  Y218.0301   
N6395 G0  Z3.0000 
N6400  X26.5198  Y193.2685 
N6405  Z0.1000 
N6410 G1  Z-0.7000  F100.00 
N6415  X22.9115  Y191.1054   F300.00 
N6420  X22.4223  Y191.4376   
N6425  X22.7153  Y192.6978   
N6430  X23.8743  Y196.1650   
N6435  X23.9926  Y198.4763   
N6440  X22.9261  Y200.2530   
N6445  X20.5305  Y202.1151   
N6450  X16.4520  Y204.8863   
N6455  X21.4654   
N6460  X24.3461  Y204.9642   
N6465  X25.9840  Y205.4470   
N6470  X26.9330  Y206.7093   
N6475  X27.7488  Y209.1254   
N6480  X28.7856  Y211.8634   
N6485  X29.7046  Y212.7064   
N6490  X30.5311  Y211.6514   
N6495  X31.2895  Y208.6951   
N6500  X31.7870  Y206.6246   
N6505  X32.5929  Y205.4807   
N6510  X36.9577  Y204.6763   
N6515  X41.9322  Y204.3521   
N6520  X38.1084  Y201.7426   
N6525  X35.9220  Y200.1708   
N6530  X34.9441  Y198.9497   
N6535  X34.9508  Y197.4553   
N6540  X35.7196  Y195.0641   
N6545  X36.5698  Y192.3645   
N6550  X36.4966  Y191.2466   
N6555  X35.3012  Y191.5883   
N6560  X32.7854  Y193.2685   
N6565  X29.5935  Y195.5410   
N6570  X26.5198  Y193.2685   
N6575 G0  Z0.1000 
N6580 G1  Z-1.4000  F100.00 
N6585  X22.9115  Y191.1054   F300.00 
N6590  X22.4223  Y191.4376   
N6595  X22.7153  Y192.6978   
N6600  X23.8743  Y196.1650   
N6605  X23.9926  Y198.4763   
N6610  X22.9261  Y200.2530   
N6615  X20.5305  Y202.1151   
N6620  X16.4520  Y204.8863   
N6625  X21.4654   
N6630  X24.3461  Y204.9642   
N6635  X25.9840  Y205.4470   
N6640  X26.9330  Y206.7093   
N6645  X27.7488  Y209.1254   
N6650  X28.7856  Y211.8634   
N6655  X29.7046  Y212.7064   
N6660  X30.5311  Y211.6514   
N6665  X31.2895  Y208.6951   
N6670  X31.7870  Y206.6246   
N6675  X32.5929  Y205.4807   
N6680  X36.9577  Y204.6763   
N6685  X41.9322  Y204.3521   
N6690  X38.1084  Y201.7426   
N6695  X35.9220  Y200.1708   
N6700  X34.9441  Y198.9497   
N6705  X34.9508  Y197.4553   
N6710  X35.7196  Y195.0641   
N6715  X36.5698  Y192.3645   
N6720  X36.4966  Y191.2466   
N6725  X35.3012  Y191.5883   
N6730  X32.7854  Y193.2685   
N6735  X29.5935  Y195.5410   
N6740  X26.5198  Y193.2685   
N6745 G0  Z3.0000 
N6750  X63.6341  Y133.5634 
N6755  Z0.1000 
N6760 G1  Z-0.7000  F100.00 
N6765  X58.1589  Y127.9538   F300.00 
N6770  X44.7659  Y127.9827   
N6775  X31.3730  Y128.0115   
N6780  X26.3486  Y133.4468   
N6785  X21.3246  Y138.8820   
N6790  X21.3317  Y157.0510   
N6795  X21.3392  Y175.2200   
N6800  X26.6424  Y180.8273   
N6805  X31.9455  Y186.4346   
N6810  X44.8897  Y186.5196   
N6815  X57.8334  Y186.6046   
N6820  X63.1311  Y181.5510   
N6825  X66.1016  Y178.5888   
N6830  X67.7054  Y176.3486   
N6835  X68.3892  Y173.9199   
N6840  X68.5999  Y170.3894   
N6845  X68.7707  Y164.2808   
N6850  X59.4215  Y164.2819   
N6855  X50.0719  Y164.2831   
N6860  Y168.0228   
N6865  X49.9932  Y170.1767   
N6870  X49.4613  Y171.2879   
N6875  X48.0326  Y171.7015   
N6880  X45.2638  Y171.7624   
N6885  X40.4553   
N6890  Y156.8035   
N6895  Y141.8442   
N6900  X45.2638   
N6905  X50.0719   
N6910  Y146.1181   
N6915  Y150.3923   
N6920  X59.0186   
N6925  X67.9649   
N6930  X68.5370  Y144.7827   
N6935  X68.7771  Y141.4603   
N6940  X68.3413  Y139.1731   
N6945  X66.7778  Y136.8859   
N6950  X63.6341  Y133.5634   
N6955 G0  Z0.1000 
N6960 G1  Z-1.4000  F100.00 
N6965  X58.1589  Y127.9538   F300.00 
N6970  X44.7659  Y127.9827   
N6975  X31.3730  Y128.0115   
N6980  X26.3486  Y133.4468   
N6985  X21.3246  Y138.8820   
N6990  X21.3317  Y157.0510   
N6995  X21.3392  Y175.2200   
N7000  X26.6424  Y180.8273   
N7005  X31.9455  Y186.4346   
N7010  X44.8897  Y186.5196   
N7015  X57.8334  Y186.6046   
N7020  X63.1311  Y181.5510   
N7025  X66.1016  Y178.5888   
N7030  X67.7054  Y176.3486   
N7035  X68.3892  Y173.9199   
N7040  X68.5999  Y170.3894   
N7045  X68.7707  Y164.2808   
N7050  X59.4215  Y164.2819   
N7055  X50.0719  Y164.2831   
N7060  Y168.0228   
N7065  X49.9932  Y170.1767   
N7070  X49.4613  Y171.2879   
N7075  X48.0326  Y171.7015   
N7080  X45.2638  Y171.7624   
N7085  X40.4553   
N7090  Y156.8035   
N7095  Y141.8442   
N7100  X45.2638   
N7105  X50.0719   
N7110  Y146.1181   
N7115  Y150.3923   
N7120  X59.0186   
N7125  X67.9649   
N7130  X68.5370  Y144.7827   
N7135  X68.7771  Y141.4603   
N7140  X68.3413  Y139.1731   
N7145  X66.7778  Y136.8859   
N7150  X63.6341  Y133.5634   
N7155 G0  Z3.0000 
N7160  X94.9497  Y134.8988 
N7165  Z0.1000 
N7170 G1  Z-0.7000  F100.00 
N7175  Y127.9534   F300.00 
N7180  X83.1958   
N7185  X71.4423   
N7190  Y134.5141   
N7195  X71.8203  Y139.7547   
N7200  X72.9821  Y142.2606   
N7205  X75.9412  Y147.2573   
N7210  X80.8932  Y157.6046   
N7215  X85.4332  Y168.4890   
N7220  X86.0726  Y170.9774   
N7225  X85.7155  Y171.7624   
N7230  X84.9681  Y172.0835   
N7235  X84.5434  Y173.2192   
N7240  X84.4825  Y178.9751   
N7245  X84.7985  Y186.1874   
N7250  X101.3605   
N7255  X117.9224   
N7260  X118.2498  Y179.8063   
N7265  X118.1498  Y174.6020   
N7270  X117.0034  Y172.2741   
N7275  X116.4308  Y171.1439   
N7280  X116.8899  Y168.6780   
N7285  X121.9143  Y156.4836   
N7290  X126.8719  Y146.1446   
N7295  X129.6842  Y141.8442   
N7300  X130.6934  Y140.0932   
N7305  X131.1600  Y134.8988   
N7310  X131.3510  Y127.9534   
N7315  X119.5615   
N7320  X107.7716   
N7325  Y134.8988   
N7330  X108.0797  Y139.8409   
N7335  X108.8401  Y141.8442   
N7340  X109.5950  Y142.1582   
N7345  X109.9086  Y142.9127   
N7350  X107.5201  Y143.6806   
N7355  X101.4237  Y143.9811   
N7360  X95.2372  Y143.6676   
N7365  X92.2781  Y142.9127   
N7370  X92.3011  Y142.1582   
N7375  X93.2837  Y141.8442   
N7380  X94.1082  Y141.5433   
N7385  X94.6183  Y140.4634   
N7390  X94.9497  Y134.8988   
N7395 G0  Z0.1000 
N7400 G1  Z-1.4000  F100.00 
N7405  Y127.9534   F300.00 
N7410  X83.1958   
N7415  X71.4423   
N7420  Y134.5141   
N7425  X71.8203  Y139.7547   
N7430  X72.9821  Y142.2606   
N7435  X75.9412  Y147.2573   
N7440  X80.8932  Y157.6046   
N7445  X85.4332  Y168.4890   
N7450  X86.0726  Y170.9774   
N7455  X85.7155  Y171.7624   
N7460  X84.9681  Y172.0835   
N7465  X84.5434  Y173.2192   
N7470  X84.4825  Y178.9751   
N7475  X84.7985  Y186.1874   
N7480  X101.3605   
N7485  X117.9224   
N7490  X118.2498  Y179.8063   
N7495  X118.1498  Y174.6020   
N7500  X117.0034  Y172.2741   
N7505  X116.4308  Y171.1439   
N7510  X116.8899  Y168.6780   
N7515  X121.9143  Y156.4836   
N7520  X126.8719  Y146.1446   
N7525  X129.6842  Y141.8442   
N7530  X130.6934  Y140.0932   
N7535  X131.1600  Y134.8988   
N7540  X131.3510  Y127.9534   
N7545  X119.5615   
N7550  X107.7716   
N7555  Y134.8988   
N7560  X108.0797  Y139.8409   
N7565  X108.8401  Y141.8442   
N7570  X109.5950  Y142.1582   
N7575  X109.9086  Y142.9127   
N7580  X107.5201  Y143.6806   
N7585  X101.4237  Y143.9811   
N7590  X95.2372  Y143.6676   
N7595  X92.2781  Y142.9127   
N7600  X92.3011  Y142.1582   
N7605  X93.2837  Y141.8442   
N7610  X94.1082  Y141.5433   
N7615  X94.6183  Y140.4634   
N7620  X94.9497  Y134.8988   
N7625 G0  Z3.0000 
N7630  X98.1930  Y156.5362 
N7635  Z0.1000 
N7640 G1  Z-0.7000  F100.00 
N7645  X99.6688  Y159.9338   F300.00 
N7650  X101.1070  Y162.5302   
N7655  X102.8639  Y159.1326   
N7660  X104.6208  Y155.7350   
N7665  X101.3881   
N7670  X99.1160  Y155.9703   
N7675  X98.1930  Y156.5362   
N7680 G0  Z0.1000 
N7685 G1  Z-1.4000  F100.00 
N7690  X99.6688  Y159.9338   F300.00 
N7695  X101.1070  Y162.5302   
N7700  X102.8639  Y159.1326   
N7705  X104.6208  Y155.7350   
N7710  X101.3881   
N7715  X99.1160  Y155.9703   
N7720  X98.1930  Y156.5362   
N7725 G0  Z3.0000 
N7730  X44.8422  Y101.3213 
N7735  Z0.1000 
N7740 G1  Z-0.7000  F100.00 
N7745  X42.4139  Y99.6925   F300.00 
N7750  X41.2398  Y99.3560   
N7755  X41.0884  Y100.4431   
N7760  X41.7270  Y103.0857   
N7765  X42.2577  Y105.3694   
N7770  X42.1557  Y106.9211   
N7775  X39.2773  Y110.0311   
N7780  X35.7279  Y112.9945   
N7785  X40.2552   
N7790  X44.1902  Y113.4983   
N7795  X45.1420  Y114.3876   
N7800  X45.8561  Y115.9330   
N7805  X47.5569  Y120.4742   
N7810  X47.9282  Y120.8708   
N7815  X48.4245  Y120.5050   
N7820  X49.7512  Y117.5357   
N7825  X50.7255  Y114.9875   
N7830  X51.7232  Y113.6272   
N7835  X53.2397  Y113.0788   
N7840  X55.7709  Y112.9657   
N7845  X60.2226  Y112.9368   
N7850  X56.5890  Y109.9232   
N7855  X53.6580  Y106.8348   
N7860  X53.5841  Y105.4125   
N7865  X54.1848  Y103.3811   
N7870  X55.1413  Y99.5351   
N7875  X51.6856  Y101.2339   
N7880  X47.9567  Y103.5385   
N7885  X44.8422  Y101.3213   
N7890 G0  Z0.1000 
N7895 G1  Z-1.4000  F100.00 
N7900  X42.4139  Y99.6925   F300.00 
N7905  X41.2398  Y99.3560   
N7910  X41.0884  Y100.4431   
N7915  X41.7270  Y103.0857   
N7920  X42.2577  Y105.3694   
N7925  X42.1557  Y106.9211   
N7930  X39.2773  Y110.0311   
N7935  X35.7279  Y112.9945   
N7940  X40.2552   
N7945  X44.1902  Y113.4983   
N7950  X45.1420  Y114.3876   
N7955  X45.8561  Y115.9330   
N7960  X47.5569  Y120.4742   
N7965  X47.9282  Y120.8708   
N7970  X48.4245  Y120.5050   
N7975  X49.7512  Y117.5357   
N7980  X50.7255  Y114.9875   
N7985  X51.7232  Y113.6272   
N7990  X53.2397  Y113.0788   
N7995  X55.7709  Y112.9657   
N8000  X60.2226  Y112.9368   
N8005  X56.5890  Y109.9232   
N8010  X53.6580  Y106.8348   
N8015  X53.5841  Y105.4125   
N8020  X54.1848  Y103.3811   
N8025  X55.1413  Y99.5351   
N8030  X51.6856  Y101.2339   
N8035  X47.9567  Y103.5385   
N8040  X44.8422  Y101.3213   
N8045 G0  Z3.0000 
N8050  X90.2590  Y57.9485 
N8055  Z0.1000 
N8060 G1  Z-0.7000  F100.00 
N8065  X86.4016  Y60.8909   F300.00 
N8070  X82.5437  Y57.9485   
N8075  X79.5171  Y55.9298   
N8080  X79.1303  Y56.1086   
N8085  X79.2877  Y57.0204   
N8090  X80.4254  Y61.1855   
N8095  X80.5666  Y63.7135   
N8100  X79.5281  Y65.4819   
N8105  X77.1267  Y67.3677   
N8110  X73.0703  Y70.2540   
N8115  X78.5487   
N8120  X83.4042  Y70.7353   
N8125  X84.2275  Y71.8369   
N8130  X84.7210  Y73.9561   
N8135  X85.5348  Y76.9792   
N8140  X86.4198  Y78.0947   
N8145  X87.2759  Y77.2848   
N8150  X88.0035  Y74.5326   
N8155  X88.4986  Y72.0766   
N8160  X89.2400  Y70.8045   
N8165  X90.7225  Y70.3268   
N8170  X93.4407  Y70.2540   
N8175  X96.6406  Y70.0626   
N8180  X97.9257  Y69.4422   
N8185  X97.3235  Y68.3219   
N8190  X94.8619  Y66.6322   
N8195  X92.9227  Y65.2826   
N8200  X92.1227  Y63.7345   
N8205  X92.3556  Y61.2326   
N8210  X93.5150  Y57.0204   
N8215  X93.6724  Y56.1086   
N8220  X93.2861  Y55.9298   
N8225  X90.2590  Y57.9485   
N8230 G0  Z0.1000 
N8235 G1  Z-1.4000  F100.00 
N8240  X86.4016  Y60.8909   F300.00 
N8245  X82.5437  Y57.9485   
N8250  X79.5171  Y55.9298   
N8255  X79.1303  Y56.1086   
N8260  X79.2877  Y57.0204   
N8265  X80.4254  Y61.1855   
N8270  X80.5666  Y63.7135   
N8275  X79.5281  Y65.4819   
N8280  X77.1267  Y67.3677   
N8285  X73.0703  Y70.2540   
N8290  X78.5487   
N8295  X83.4042  Y70.7353   
N8300  X84.2275  Y71.8369   
N8305  X84.7210  Y73.9561   
N8310  X85.5348  Y76.9792   
N8315  X86.4198  Y78.0947   
N8320  X87.2759  Y77.2848   
N8325  X88.0035  Y74.5326   
N8330  X88.4986  Y72.0766   
N8335  X89.2400  Y70.8045   
N8340  X90.7225  Y70.3268   
N8345  X93.4407  Y70.2540   
N8350  X96.6406  Y70.0626   
N8355  X97.9257  Y69.4422   
N8360  X97.3235  Y68.3219   
N8365  X94.8619  Y66.6322   
N8370  X92.9227  Y65.2826   
N8375  X92.1227  Y63.7345   
N8380  X92.3556  Y61.2326   
N8385  X93.5150  Y57.0204   
N8390  X93.6724  Y56.1086   
N8395  X93.2861  Y55.9298   
N8400  X90.2590  Y57.9485   
N8405 G0  Z3.0000 
N8410  X109.7361  Y36.2653 
N8415  Z0.1000 
N8420 G1  Z-0.7000  F100.00 
N8425  X105.9439  Y39.1401   F300.00 
N8430  X101.9421  Y36.4207   
N8435  X98.7455  Y34.5254   
N8440  X98.3611  Y34.7432   
N8445  X98.5311  Y35.6828   
N8450  X99.6107  Y39.6585   
N8455  X99.8056  Y42.0892   
N8460  X99.0116  Y43.6820   
N8465  X97.1230  Y45.1440   
N8470  X94.0437  Y47.9326   
N8475  X94.7025  Y48.5285   
N8480  X96.8193  Y48.6744   
N8485  X100.3430  Y48.7048   
N8490  X102.3522  Y49.1766   
N8495  X103.3803  Y50.3842   
N8500  X103.9612  Y52.6236   
N8505  X104.7007  Y55.3398   
N8510  X105.5513  Y56.1726   
N8515  X106.5209  Y55.1204   
N8520  X107.6174  Y52.1827   
N8525  X108.4099  Y49.8148   
N8530  X109.2711  Y48.6254   
N8535  X110.6840  Y48.2916   
N8540  X113.1290  Y48.4913   
N8545  X116.0655  Y48.6064   
N8550  X117.2063  Y48.0884   
N8555  X116.5451  Y46.9610   
N8560  X114.0741  Y45.2495   
N8565  X112.1004  Y43.7236   
N8570  X111.2558  Y41.8804   
N8575  X111.4796  Y39.2915   
N8580  X112.7122  Y35.5274   
N8585  X113.0139  Y34.5016   
N8590  X112.7343  Y34.2537   
N8595  X109.7361  Y36.2653   
N8600 G0  Z0.1000 
N8605 G1  Z-1.4000  F100.00 
N8610  X105.9439  Y39.1401   F300.00 
N8615  X101.9421  Y36.4207   
N8620  X98.7455  Y34.5254   
N8625  X98.3611  Y34.7432   
N8630  X98.5311  Y35.6828   
N8635  X99.6107  Y39.6585   
N8640  X99.8056  Y42.0892   
N8645  X99.0116  Y43.6820   
N8650  X97.1230  Y45.1440   
N8655  X94.0437  Y47.9326   
N8660  X94.7025  Y48.5285   
N8665  X96.8193  Y48.6744   
N8670  X100.3430  Y48.7048   
N8675  X102.3522  Y49.1766   
N8680  X103.3803  Y50.3842   
N8685  X103.9612  Y52.6236   
N8690  X104.7007  Y55.3398   
N8695  X105.5513  Y56.1726   
N8700  X106.5209  Y55.1204   
N8705  X107.6174  Y52.1827   
N8710  X108.4099  Y49.8148   
N8715  X109.2711  Y48.6254   
N8720  X110.6840  Y48.2916   
N8725  X113.1290  Y48.4913   
N8730  X116.0655  Y48.6064   
N8735  X117.2063  Y48.0884   
N8740  X116.5451  Y46.9610   
N8745  X114.0741  Y45.2495   
N8750  X112.1004  Y43.7236   
N8755  X111.2558  Y41.8804   
N8760  X111.4796  Y39.2915   
N8765  X112.7122  Y35.5274   
N8770  X113.0139  Y34.5016   
N8775  X112.7343  Y34.2537   
N8780  X109.7361  Y36.2653   
N8785 G0  Z3.0000 
N8790  X121.1282  Y14.6912 
N8795  Z0.1000 
N8800 G1  Z-0.7000  F100.00 
N8805  X118.2902  Y12.6302   F300.00 
N8810  X117.6705  Y13.0387   
N8815  X117.7998  Y14.4243   
N8820  X118.8849  Y18.4142   
N8825  X119.0542  Y20.8038   
N8830  X118.1723  Y22.3424   
N8835  X116.1030  Y23.7806   
N8840  X112.5801  Y25.9108   
N8845  X117.3534  Y26.4451   
N8850  X120.0170  Y26.8361   
N8855  X121.5636  Y27.4902   
N8860  X122.4339  Y28.7564   
N8865  X123.0694  Y30.9862   
N8870  X124.7856  Y34.9932   
N8875  X126.5492  Y30.9862   
N8880  X127.2120  Y28.7576   
N8885  X128.1021  Y27.4910   
N8890  X129.6648  Y26.8365   
N8895  X132.3475  Y26.4451   
N8900  X137.1556  Y25.9108   
N8905  X133.6832  Y23.8103   
N8910  X131.4902  Y22.2831   
N8915  X130.4581  Y20.8105   
N8920  X130.4450  Y18.9393   
N8925  X131.3087  Y16.2156   
N8930  X131.9805  Y13.9398   
N8935  X131.7610  Y12.9200   
N8940  X130.6182  Y13.1363   
N8945  X128.5197  Y14.5694   
N8950  X126.2032  Y16.1547   
N8955  X124.4044  Y16.7000   
N8960  X122.8155  Y16.2104   
N8965  X121.1282  Y14.6912   
N8970 G0  Z0.1000 
N8975 G1  Z-1.4000  F100.00 
N8980  X118.2902  Y12.6302   F300.00 
N8985  X117.6705  Y13.0387   
N8990  X117.7998  Y14.4243   
N8995  X118.8849  Y18.4142   
N9000  X119.0542  Y20.8038   
N9005  X118.1723  Y22.3424   
N9010  X116.1030  Y23.7806   
N9015  X112.5801  Y25.9108   
N9020  X117.3534  Y26.4451   
N9025  X120.0170  Y26.8361   
N9030  X121.5636  Y27.4902   
N9035  X122.4339  Y28.7564   
N9040  X123.0694  Y30.9862   
N9045  X124.7856  Y34.9932   
N9050  X126.5492  Y30.9862   
N9055  X127.2120  Y28.7576   
N9060  X128.1021  Y27.4910   
N9065  X129.6648  Y26.8365   
N9070  X132.3475  Y26.4451   
N9075  X137.1556  Y25.9108   
N9080  X133.6832  Y23.8103   
N9085  X131.4902  Y22.2831   
N9090  X130.4581  Y20.8105   
N9095  X130.4450  Y18.9393   
N9100  X131.3087  Y16.2156   
N9105  X131.9805  Y13.9398   
N9110  X131.7610  Y12.9200   
N9115  X130.6182  Y13.1363   
N9120  X128.5197  Y14.5694   
N9125  X126.2032  Y16.1547   
N9130  X124.4044  Y16.7000   
N9135  X122.8155  Y16.2104   
N9140  X121.1282  Y14.6912   
N9145 G0  Z3.0000 
N9150  X118.9909  Y3.8005 
N9155  Z0.1000 
N9160 G1  Z-0.7000  F100.00 
N9165  X102.1462  Y16.4022   F300.00 
N9170  X87.2272  Y28.8924   
N9175  X74.0454  Y41.4399   
N9180  X62.4126  Y54.2120   
N9185  X50.8212  Y68.9586   
N9190  X40.3754  Y84.3635   
N9195  X31.0878  Y100.3956   
N9200  X22.9735  Y117.0232   
N9205  X16.0463  Y134.2147   
N9210  X10.3196  Y151.9389   
N9215  X5.8081  Y170.1640   
N9220  X2.5252  Y188.8586   
N9225  X1.1831  Y202.8178   
N9230  X0.2780  Y219.9615   
N9235  X0.0000  Y235.0884   
N9240  X0.5406  Y242.9975   
N9245  X3.9539  Y246.4322   
N9250  X12.0323  Y253.0095   
N9255  X36.1814  Y270.8942   
N9260  X50.5990  Y281.2593   
N9265  X61.0914  Y288.2304   
N9270  X66.6983  Y284.9803   
N9275  X73.1858  Y281.0991   
N9280  X81.3230  Y277.0958   
N9285  X90.1459  Y273.4079   
N9290  X98.6893  Y270.4734   
N9295  X109.3810  Y268.0755   
N9300  X124.3336  Y267.5512   
N9305  X140.2664  Y268.3654   
N9310  X147.4432  Y269.5513   
N9315  X154.4582  Y271.3691   
N9320  X161.5843  Y273.9026   
N9325  X169.0952  Y277.2357   
N9330  X186.3650  Y286.6384   
N9335  X189.6281  Y288.5633   
N9340  X219.8080  Y266.7595   
N9345  X249.9876  Y244.9557   
N9350  X249.4723  Y220.9141   
N9355  X248.4462  Y199.1407   
N9360  X246.2127  Y179.9629   
N9365  X242.5253  Y161.8184   
N9370  X237.1352  Y143.1452   
N9375  X229.9968  Y123.6479   
N9380  X221.5539  Y105.0953   
N9385  X211.7839  Y87.4562   
N9390  X200.6639  Y70.6985   
N9395  X188.1705  Y54.7906   
N9400  X174.2817  Y39.7012   
N9405  X158.9736  Y25.3983   
N9410  X142.2242  Y11.8508   
N9415  X128.3334  Y2.1958   
N9420  X124.3336  Y0.0000   
N9425  X118.9909  Y3.8005   
N9430 G0  Z0.1000 
N9435 G1  Z-1.4000  F100.00 
N9440  X102.1462  Y16.4022   F300.00 
N9445  X87.2272  Y28.8924   
N9450  X74.0454  Y41.4399   
N9455  X62.4126  Y54.2120   
N9460  X50.8212  Y68.9586   
N9465  X40.3754  Y84.3635   
N9470  X31.0878  Y100.3956   
N9475  X22.9735  Y117.0232   
N9480  X16.0463  Y134.2147   
N9485  X10.3196  Y151.9389   
N9490  X5.8081  Y170.1640   
N9495  X2.5252  Y188.8586   
N9500  X1.1831  Y202.8178   
N9505  X0.2780  Y219.9615   
N9510  X0.0000  Y235.0884   
N9515  X0.5406  Y242.9975   
N9520  X3.9539  Y246.4322   
N9525  X12.0323  Y253.0095   
N9530  X36.1814  Y270.8942   
N9535  X50.5990  Y281.2593   
N9540  X61.0914  Y288.2304   
N9545  X66.6983  Y284.9803   
N9550  X73.1858  Y281.0991   
N9555  X81.3230  Y277.0958   
N9560  X90.1459  Y273.4079   
N9565  X98.6893  Y270.4734   
N9570  X109.3810  Y268.0755   
N9575  X124.3336  Y267.5512   
N9580  X140.2664  Y268.3654   
N9585  X147.4432  Y269.5513   
N9590  X154.4582  Y271.3691   
N9595  X161.5843  Y273.9026   
N9600  X169.0952  Y277.2357   
N9605  X186.3650  Y286.6384   
N9610  X189.6281  Y288.5633   
N9615  X219.8080  Y266.7595   
N9620  X249.9876  Y244.9557   
N9625  X249.4723  Y220.9141   
N9630  X248.4462  Y199.1407   
N9635  X246.2127  Y179.9629   
N9640  X242.5253  Y161.8184   
N9645  X237.1352  Y143.1452   
N9650  X229.9968  Y123.6479   
N9655  X221.5539  Y105.0953   
N9660  X211.7839  Y87.4562   
N9665  X200.6639  Y70.6985   
N9670  X188.1705  Y54.7906   
N9675  X174.2817  Y39.7012   
N9680  X158.9736  Y25.3983   
N9685  X142.2242  Y11.8508   
N9690  X128.3334  Y2.1958   
N9695  X124.3336  Y0.0000   
N9700  X118.9909  Y3.8005   
N9705 G0  Z3.0000 
N9710  X141.6196  Y37.4025 
N9715  Z0.1000 
N9720 G1  Z-0.7000  F100.00 
N9725  X137.5233  Y34.3083   F300.00 
N9730  X136.8285  Y34.4111   
N9735  X137.0488  Y35.6191   
N9740  X138.2659  Y39.3137   
N9745  X138.4795  Y41.8792   
N9750  X137.6309  Y43.7220   
N9755  X135.6616  Y45.2495   
N9760  X133.2067  Y46.9005   
N9765  X132.5721  Y47.9413   
N9770  X133.7869  Y48.4510   
N9775  X136.8807  Y48.5087   
N9780  X139.4621  Y48.4988   
N9785  X140.9308  Y48.9192   
N9790  X141.7576  Y50.0960   
N9795  X142.4121  Y52.3563   
N9800  X143.3362  Y55.1947   
N9805  X144.2204  Y56.1865   
N9810  X145.0413  Y55.3299   
N9815  X145.7744  Y52.6236   
N9820  X146.2668  Y50.5207   
N9825  X147.0303  Y49.4040   
N9830  X151.1654  Y48.8836   
N9835  X154.3431  Y48.7076   
N9840  X155.6113  Y48.1022   
N9845  X155.0134  Y46.9527   
N9850  X152.5937  Y45.1440   
N9855  X150.6964  Y43.7089   
N9860  X149.8988  Y42.1920   
N9865  X150.0882  Y39.8807   
N9870  X151.1516  Y36.0616   
N9875  X151.9638  Y33.3901   
N9880  X147.9549  Y36.4420   
N9885  X144.1579  Y38.8467   
N9890  X143.0262  Y38.5608   
N9895  X141.6196  Y37.4025   
N9900 G0  Z0.1000 
N9905 G1  Z-1.4000  F100.00 
N9910  X137.5233  Y34.3083   F300.00 
N9915  X136.8285  Y34.4111   
N9920  X137.0488  Y35.6191   
N9925  X138.2659  Y39.3137   
N9930  X138.4795  Y41.8792   
N9935  X137.6309  Y43.7220   
N9940  X135.6616  Y45.2495   
N9945  X133.2067  Y46.9005   
N9950  X132.5721  Y47.9413   
N9955  X133.7869  Y48.4510   
N9960  X136.8807  Y48.5087   
N9965  X139.4621  Y48.4988   
N9970  X140.9308  Y48.9192   
N9975  X141.7576  Y50.0960   
N9980  X142.4121  Y52.3563   
N9985  X143.3362  Y55.1947   
N9990  X144.2204  Y56.1865   
N9995  X145.0413  Y55.3299   
N10000  X145.7744  Y52.6236   
N10005  X146.2668  Y50.5207   
N10010  X147.0303  Y49.4040   
N10015  X151.1654  Y48.8836   
N10020  X154.3431  Y48.7076   
N10025  X155.6113  Y48.1022   
N10030  X155.0134  Y46.9527   
N10035  X152.5937  Y45.1440   
N10040  X150.6964  Y43.7089   
N10045  X149.8988  Y42.1920   
N10050  X150.0882  Y39.8807   
N10055  X151.1516  Y36.0616   
N10060  X151.9638  Y33.3901   
N10065  X147.9549  Y36.4420   
N10070  X144.1579  Y38.8467   
N10075  X143.0262  Y38.5608   
N10080  X141.6196  Y37.4025   
N10085 G0  Z3.0000 
N10090  X128.1472  Y58.4475 
N10095  Z0.1000 
N10100 G1  Z-0.7000  F100.00 
N10105  X124.8927  Y60.7652   F300.00 
N10110  X120.9333  Y57.7627   
N10115  X117.9347  Y55.7752   
N10120  X117.5345  Y55.9025   
N10125  X117.7200  Y56.7298   
N10130  X118.9711  Y60.4753   
N10135  X119.1973  Y63.0116   
N10140  X118.3020  Y64.9947   
N10145  X116.1877  Y67.0815   
N10150  X112.5801  Y70.1670   
N10155  X117.6555  Y70.2105   
N10160  X121.5719  Y70.5941   
N10165  X122.4549  Y71.0765   
N10170  X122.7309  Y71.7871   
N10175  X123.9235  Y76.3283   
N10180  X125.1166  Y79.3364   
N10185  X126.3562  Y75.0621   
N10190  X127.1546  Y72.6658   
N10195  X128.0989  Y71.3466   
N10200  X129.6771  Y70.7313   
N10205  X132.3759  Y70.4458   
N10210  X137.1556  Y70.1034   
N10215  X133.5219  Y67.1360   
N10220  X130.5886  Y64.0860   
N10225  X130.5174  Y62.6664   
N10230  X131.1224  Y60.6272   
N10235  X131.8915  Y57.9548   
N10240  X131.7270  Y56.7559   
N10245  X130.5166  Y56.9477   
N10250  X128.1472  Y58.4475   
N10255 G0  Z0.1000 
N10260 G1  Z-1.4000  F100.00 
N10265  X124.8927  Y60.7652   F300.00 
N10270  X120.9333  Y57.7627   
N10275  X117.9347  Y55.7752   
N10280  X117.5345  Y55.9025   
N10285  X117.7200  Y56.7298   
N10290  X118.9711  Y60.4753   
N10295  X119.1973  Y63.0116   
N10300  X118.3020  Y64.9947   
N10305  X116.1877  Y67.0815   
N10310  X112.5801  Y70.1670   
N10315  X117.6555  Y70.2105   
N10320  X121.5719  Y70.5941   
N10325  X122.4549  Y71.0765   
N10330  X122.7309  Y71.7871   
N10335  X123.9235  Y76.3283   
N10340  X125.1166  Y79.3364   
N10345  X126.3562  Y75.0621   
N10350  X127.1546  Y72.6658   
N10355  X128.0989  Y71.3466   
N10360  X129.6771  Y70.7313   
N10365  X132.3759  Y70.4458   
N10370  X137.1556  Y70.1034   
N10375  X133.5219  Y67.1360   
N10380  X130.5886  Y64.0860   
N10385  X130.5174  Y62.6664   
N10390  X131.1224  Y60.6272   
N10395  X131.8915  Y57.9548   
N10400  X131.7270  Y56.7559   
N10405  X130.5166  Y56.9477   
N10410  X128.1472  Y58.4475   
N10415 G0  Z3.0000 
N10420  X167.1216  Y58.0023 
N10425  Z0.1000 
N10430 G1  Z-0.7000  F100.00 
N10435  X163.4294  Y60.8186   F300.00 
N10440  X159.4347  Y57.7895   
N10445  X156.4136  Y55.7867   
N10450  X156.0051  Y55.9077   
N10455  X156.1866  Y56.7298   
N10460  X157.4706  Y60.5655   
N10465  X157.7106  Y63.1453   
N10470  X156.8114  Y65.1316   
N10475  X154.6765  Y67.1858   
N10480  X151.0464  Y70.1963   
N10485  X156.1218  Y70.2252   
N10490  X160.0409  Y70.5969   
N10495  X160.9223  Y71.0765   
N10500  X161.1972  Y71.7871   
N10505  X162.4222  Y76.3283   
N10510  X163.6469  Y79.3364   
N10515  X164.9166  Y75.0621   
N10520  X165.7320  Y72.6899   
N10525  X166.6957  Y71.3427   
N10530  X168.2640  Y70.6526   
N10535  X170.8924  Y70.2540   
N10540  X175.5985  Y69.7198   
N10545  X171.9897  Y66.9055   
N10550  X169.0809  Y63.9935   
N10555  X169.0054  Y62.6059   
N10560  X169.5974  Y60.6023   
N10565  X170.5551  Y57.5250   
N10570  X170.5555  Y56.1647   
N10575  X169.4578  Y56.3731   
N10580  X167.1216  Y58.0023   
N10585 G0  Z0.1000 
N10590 G1  Z-1.4000  F100.00 
N10595  X163.4294  Y60.8186   F300.00 
N10600  X159.4347  Y57.7895   
N10605  X156.4136  Y55.7867   
N10610  X156.0051  Y55.9077   
N10615  X156.1866  Y56.7298   
N10620  X157.4706  Y60.5655   
N10625  X157.7106  Y63.1453   
N10630  X156.8114  Y65.1316   
N10635  X154.6765  Y67.1858   
N10640  X151.0464  Y70.1963   
N10645  X156.1218  Y70.2252   
N10650  X160.0409  Y70.5969   
N10655  X160.9223  Y71.0765   
N10660  X161.1972  Y71.7871   
N10665  X162.4222  Y76.3283   
N10670  X163.6469  Y79.3364   
N10675  X164.9166  Y75.0621   
N10680  X165.7320  Y72.6899   
N10685  X166.6957  Y71.3427   
N10690  X168.2640  Y70.6526   
N10695  X170.8924  Y70.2540   
N10700  X175.5985  Y69.7198   
N10705  X171.9897  Y66.9055   
N10710  X169.0809  Y63.9935   
N10715  X169.0054  Y62.6059   
N10720  X169.5974  Y60.6023   
N10725  X170.5551  Y57.5250   
N10730  X170.5555  Y56.1647   
N10735  X169.4578  Y56.3731   
N10740  X167.1216  Y58.0023   
N10745 G0  Z3.0000 
N10750  X222.1909  Y132.4946 
N10755  Z0.1000 
N10760 G1  Z-0.7000  F100.00 
N10765  X218.5391  Y127.9534   F300.00 
N10770  X206.6974  Y127.9993   
N10775  X194.8553  Y128.0448   
N10780  X190.3142  Y132.0351   
N10785  X185.7730  Y136.0258   
N10790  Y143.6802   
N10795  X186.0083  Y149.1969   
N10800  X186.5745  Y151.7119   
N10805  X194.5311  Y151.6862   
N10810  X201.6865  Y151.2836   
N10815  X202.0107  Y146.8310   
N10820  X202.7640  Y143.0697   
N10825  X203.6791  Y142.3630   
N10830  X205.2161  Y142.0459   
N10835  X208.0976  Y141.7133   
N10840  X208.4219  Y156.7398   
N10845  X208.3930  Y168.6618   
N10850  X208.0201  Y171.0708   
N10855  X207.3617  Y171.7644   
N10860  X206.7278  Y172.1372   
N10865  X206.3538  Y173.3603   
N10870  X206.2933  Y178.9743   
N10875  X206.6092  Y186.1862   
N10880  X217.2942  Y186.1870   
N10885  X227.9793  Y186.1874   
N10890  X228.2952  Y178.9751   
N10895  X228.2331  Y173.0938   
N10900  X227.7527  Y172.0364   
N10905  X226.8800  Y171.7624   
N10910  X225.9705  Y171.2206   
N10915  X225.4948  Y168.8702   
N10920  X225.4952  Y154.3993   
N10925  X225.8423  Y137.0357   
N10930  X222.1909  Y132.4946   
N10935 G0  Z0.1000 
N10940 G1  Z-1.4000  F100.00 
N10945  X218.5391  Y127.9534   F300.00 
N10950  X206.6974  Y127.9993   
N10955  X194.8553  Y128.0448   
N10960  X190.3142  Y132.0351   
N10965  X185.7730  Y136.0258   
N10970  Y143.6802   
N10975  X186.0083  Y149.1969   
N10980  X186.5745  Y151.7119   
N10985  X194.5311  Y151.6862   
N10990  X201.6865  Y151.2836   
N10995  X202.0107  Y146.8310   
N11000  X202.7640  Y143.0697   
N11005  X203.6791  Y142.3630   
N11010  X205.2161  Y142.0459   
N11015  X208.0976  Y141.7133   
N11020  X208.4219  Y156.7398   
N11025  X208.3930  Y168.6618   
N11030  X208.0201  Y171.0708   
N11035  X207.3617  Y171.7644   
N11040  X206.7278  Y172.1372   
N11045  X206.3538  Y173.3603   
N11050  X206.2933  Y178.9743   
N11055  X206.6092  Y186.1862   
N11060  X217.2942  Y186.1870   
N11065  X227.9793  Y186.1874   
N11070  X228.2952  Y178.9751   
N11075  X228.2331  Y173.0938   
N11080  X227.7527  Y172.0364   
N11085  X226.8800  Y171.7624   
N11090  X225.9705  Y171.2206   
N11095  X225.4948  Y168.8702   
N11100  X225.4952  Y154.3993   
N11105  X225.8423  Y137.0357   
N11110  X222.1909  Y132.4946   
N11115 G0  Z3.0000 
N11120  X222.1023  Y195.2697 
N11125  Z0.1000 
N11130 G1  Z-0.7000  F100.00 
N11135  X217.7332  Y192.3546   F300.00 
N11140  X214.2688  Y189.4395   
N11145  X215.1308  Y192.6215   
N11150  X215.9217  Y196.2330   
N11155  X215.8620  Y198.7254   
N11160  X214.8252  Y200.5986   
N11165  X212.6859  Y202.3528   
N11170  X209.1463  Y204.7637   
N11175  X214.2886  Y205.0923   
N11180  X217.2073  Y205.3593   
N11185  X218.8586  Y205.9279   
N11190  X219.7578  Y207.1624   
N11195  X220.4209  Y209.4275   
N11200  X222.1023  Y213.4344   
N11205  X223.7837  Y209.4275   
N11210  X224.4469  Y207.1992   
N11215  X225.3366  Y205.9326   
N11220  X226.8997  Y205.2782   
N11225  X229.5820  Y204.8863   
N11230  X234.3904  Y204.3521   
N11235  X230.8414  Y202.2152   
N11240  X228.7274  Y200.7517   
N11245  X227.8417  Y199.1379   
N11250  X228.0493  Y196.5276   
N11255  X229.2138  Y192.0750   
N11260  X229.9651  Y189.4150   
N11265  X226.4861  Y192.3423   
N11270  X222.1023  Y195.2697   
N11275 G0  Z0.1000 
N11280 G1  Z-1.4000  F100.00 
N11285  X217.7332  Y192.3546   F300.00 
N11290  X214.2688  Y189.4395   
N11295  X215.1308  Y192.6215   
N11300  X215.9217  Y196.2330   
N11305  X215.8620  Y198.7254   
N11310  X214.8252  Y200.5986   
N11315  X212.6859  Y202.3528   
N11320  X209.1463  Y204.7637   
N11325  X214.2886  Y205.0923   
N11330  X217.2073  Y205.3593   
N11335  X218.8586  Y205.9279   
N11340  X219.7578  Y207.1624   
N11345  X220.4209  Y209.4275   
N11350  X222.1023  Y213.4344   
N11355  X223.7837  Y209.4275   
N11360  X224.4469  Y207.1992   
N11365  X225.3366  Y205.9326   
N11370  X226.8997  Y205.2782   
N11375  X229.5820  Y204.8863   
N11380  X234.3904  Y204.3521   
N11385  X230.8414  Y202.2152   
N11390  X228.7274  Y200.7517   
N11395  X227.8417  Y199.1379   
N11400  X228.0493  Y196.5276   
N11405  X229.2138  Y192.0750   
N11410  X229.9651  Y189.4150   
N11415  X226.4861  Y192.3423   
N11420  X222.1023  Y195.2697   
N11425 G0  Z3.0000 
N11430  X219.4347  Y218.7827 
N11435  Z0.1000 
N11440 G1  Z-0.7000  F100.00 
N11445  X216.5382  Y216.5216   F300.00 
N11450  X214.8129  Y215.8683   
N11455  X215.0699  Y217.3172   
N11460  X216.2740  Y220.9813   
N11465  X216.4800  Y223.5326   
N11470  X215.6295  Y225.3710   
N11475  X213.6630  Y226.8966   
N11480  X210.3488  Y229.5092   
N11485  X214.8489  Y230.0802   
N11490  X217.4030  Y230.1154   
N11495  X218.8582  Y230.5619   
N11500  X219.6708  Y231.7482   
N11505  X220.2976  Y234.0033   
N11510  X222.0201  Y238.0103   
N11515  X223.7837  Y234.0033   
N11520  X224.4346  Y231.7462   
N11525  X225.2626  Y230.5626   
N11530  X226.7341  Y230.1241   
N11535  X229.3151  Y230.1020   
N11540  X232.3998  Y230.0241   
N11545  X233.6237  Y229.5389   
N11550  X233.0270  Y228.5499   
N11555  X230.6504  Y226.9610   
N11560  X228.6219  Y225.5161   
N11565  X227.6629  Y223.9988   
N11570  X227.6712  Y222.0308   
N11575  X228.5436  Y219.2327   
N11580  X229.1952  Y216.9364   
N11585  X228.9690  Y215.8691   
N11590  X227.9034  Y216.0569   
N11595  X226.0361  Y217.5264   
N11600  X224.0518  Y219.0085   
N11605  X222.1597  Y219.7368   
N11610  X220.5558  Y219.6740   
N11615  X219.4347  Y218.7827   
N11620 G0  Z0.1000 
N11625 G1  Z-1.4000  F100.00 
N11630  X216.5382  Y216.5216   F300.00 
N11635  X214.8129  Y215.8683   
N11640  X215.0699  Y217.3172   
N11645  X216.2740  Y220.9813   
N11650  X216.4800  Y223.5326   
N11655  X215.6295  Y225.3710   
N11660  X213.6630  Y226.8966   
N11665  X210.3488  Y229.5092   
N11670  X214.8489  Y230.0802   
N11675  X217.4030  Y230.1154   
N11680  X218.8582  Y230.5619   
N11685  X219.6708  Y231.7482   
N11690  X220.2976  Y234.0033   
N11695  X222.0201  Y238.0103   
N11700  X223.7837  Y234.0033   
N11705  X224.4346  Y231.7462   
N11710  X225.2626  Y230.5626   
N11715  X226.7341  Y230.1241   
N11720  X229.3151  Y230.1020   
N11725  X232.3998  Y230.0241   
N11730  X233.6237  Y229.5389   
N11735  X233.0270  Y228.5499   
N11740  X230.6504  Y226.9610   
N11745  X228.6219  Y225.5161   
N11750  X227.6629  Y223.9988   
N11755  X227.6712  Y222.0308   
N11760  X228.5436  Y219.2327   
N11765  X229.1952  Y216.9364   
N11770  X228.9690  Y215.8691   
N11775  X227.9034  Y216.0569   
N11780  X226.0361  Y217.5264   
N11785  X224.0518  Y219.0085   
N11790  X222.1597  Y219.7368   
N11795  X220.5558  Y219.6740   
N11800  X219.4347  Y218.7827   
N11805 G0  Z3.0000 
N11810  X199.1331  Y242.2900 
N11815  Z0.1000 
N11820 G1  Z-0.7000  F100.00 
N11825  X196.2366  Y240.0289   F300.00 
N11830  X194.5113  Y239.3753   
N11835  X194.7683  Y240.8246   
N11840  X195.9724  Y244.4887   
N11845  X196.1785  Y247.0400   
N11850  X195.3279  Y248.8784   
N11855  X193.3614  Y250.4040   
N11860  X190.9188  Y252.0339   
N11865  X190.2592  Y253.0379   
N11870  X191.4044  Y253.4816   
N11875  X194.3765  Y253.4298   
N11880  X198.1588  Y253.6497   
N11885  X199.0604  Y254.4726   
N11890  X199.7508  Y255.9839   
N11895  X201.4227  Y260.4492   
N11900  X201.7960  Y260.8355   
N11905  X202.2998  Y260.4476   
N11910  X203.6506  Y257.4103   
N11915  X204.6388  Y254.7822   
N11920  X205.5937  Y253.4444   
N11925  X207.0153  Y253.0281   
N11930  X209.4030  Y253.1645   
N11935  X212.2655  Y253.2499   
N11940  X213.3652  Y252.7797   
N11945  X212.7076  Y251.7354   
N11950  X210.2982  Y250.0983   
N11955  X207.8960  Y248.1259   
N11960  X207.6188  Y246.0312   
N11965  X208.9142  Y241.2844   
N11970  X209.6335  Y238.6821   
N11975  X206.3534  Y241.0175   
N11980  X201.8158  Y243.2343   
N11985  X200.2095  Y243.1632   
N11990  X199.1331  Y242.2900   
N11995 G0  Z0.1000 
N12000 G1  Z-1.4000  F100.00 
N12005  X196.2366  Y240.0289   F300.00 
N12010  X194.5113  Y239.3753   
N12015  X194.7683  Y240.8246   
N12020  X195.9724  Y244.4887   
N12025  X196.1785  Y247.0400   
N12030  X195.3279  Y248.8784   
N12035  X193.3614  Y250.4040   
N12040  X190.9188  Y252.0339   
N12045  X190.2592  Y253.0379   
N12050  X191.4044  Y253.4816   
N12055  X194.3765  Y253.4298   
N12060  X198.1588  Y253.6497   
N12065  X199.0604  Y254.4726   
N12070  X199.7508  Y255.9839   
N12075  X201.4227  Y260.4492   
N12080  X201.7960  Y260.8355   
N12085  X202.2998  Y260.4476   
N12090  X203.6506  Y257.4103   
N12095  X204.6388  Y254.7822   
N12100  X205.5937  Y253.4444   
N12105  X207.0153  Y253.0281   
N12110  X209.4030  Y253.1645   
N12115  X212.2655  Y253.2499   
N12120  X213.3652  Y252.7797   
N12125  X212.7076  Y251.7354   
N12130  X210.2982  Y250.0983   
N12135  X207.8960  Y248.1259   
N12140  X207.6188  Y246.0312   
N12145  X208.9142  Y241.2844   
N12150  X209.6335  Y238.6821   
N12155  X206.3534  Y241.0175   
N12160  X201.8158  Y243.2343   
N12165  X200.2095  Y243.1632   
N12170  X199.1331  Y242.2900   
N12175 G0  Z3.0000 
N12180  X186.7901  Y218.1278 
N12185  Z0.1000 
N12190 G1  Z-0.7000  F100.00 
N12195  X183.1295  Y220.6365   F300.00 
N12200  X179.4358  Y217.8368   
N12205  X176.5028  Y215.8695   
N12210  X176.2446  Y216.1333   
N12215  X176.5586  Y217.1744   
N12220  X177.7216  Y220.7642   
N12225  X177.9217  Y223.2890   
N12230  X177.1015  Y225.1527   
N12235  X175.2038  Y226.7605   
N12240  X173.1369  Y228.3249   
N12245  X172.6774  Y229.2893   
N12250  X173.8503  Y229.7049   
N12255  X176.6824  Y229.6215   
N12260  X178.7102  Y229.5555   
N12265  X179.9562  Y230.0011   
N12270  X181.6024  Y233.6601   
N12275  X183.6167  Y238.0103   
N12280  X185.3175  Y234.0033   
N12285  X186.7493  Y230.6125   
N12290  X188.0064  Y230.0320   
N12295  X190.0472  Y229.8212   
N12300  X194.8553  Y229.5361   
N12305  X194.5900  Y228.8053   
N12310  X192.4511  Y227.2022   
N12315  X190.2636  Y225.5742   
N12320  X189.2247  Y223.9933   
N12325  X189.2058  Y222.0244   
N12330  X190.0769  Y219.2327   
N12335  X190.8132  Y215.9814   
N12340  X186.7901  Y218.1278   
N12345 G0  Z0.1000 
N12350 G1  Z-1.4000  F100.00 
N12355  X183.1295  Y220.6365   F300.00 
N12360  X179.4358  Y217.8368   
N12365  X176.5028  Y215.8695   
N12370  X176.2446  Y216.1333   
N12375  X176.5586  Y217.1744   
N12380  X177.7216  Y220.7642   
N12385  X177.9217  Y223.2890   
N12390  X177.1015  Y225.1527   
N12395  X175.2038  Y226.7605   
N12400  X173.1369  Y228.3249   
N12405  X172.6774  Y229.2893   
N12410  X173.8503  Y229.7049   
N12415  X176.6824  Y229.6215   
N12420  X178.7102  Y229.5555   
N12425  X179.9562  Y230.0011   
N12430  X181.6024  Y233.6601   
N12435  X183.6167  Y238.0103   
N12440  X185.3175  Y234.0033   
N12445  X186.7493  Y230.6125   
N12450  X188.0064  Y230.0320   
N12455  X190.0472  Y229.8212   
N12460  X194.8553  Y229.5361   
N12465  X194.5900  Y228.8053   
N12470  X192.4511  Y227.2022   
N12475  X190.2636  Y225.5742   
N12480  X189.2247  Y223.9933   
N12485  X189.2058  Y222.0244   
N12490  X190.0769  Y219.2327   
N12495  X190.8132  Y215.9814   
N12500  X186.7901  Y218.1278   
N12505 G0  Z3.0000 
N12510  X182.3466  Y194.6683 
N12515  Z0.1000 
N12520 G1  Z-0.7000  F100.00 
N12525  X178.5607  Y191.7191   F300.00 
N12530  X176.9845  Y190.5237   
N12535  X176.2877  Y190.6546   
N12540  X177.3977  Y195.3061   
N12545  X178.0067  Y197.3572   
N12550  X177.9410  Y198.7875   
N12555  X175.0338  Y201.8767   
N12560  X171.4290  Y204.8863   
N12565  X175.7582   
N12570  X179.5070  Y205.3980   
N12575  X181.3275  Y207.6081   
N12580  X182.5676  Y211.8819   
N12585  X182.8606  Y213.3431   
N12590  X183.5783  Y213.2766   
N12595  X185.3175  Y209.4275   
N12600  X185.9782  Y207.2115   
N12605  X186.8569  Y205.9425   
N12610  X188.3754  Y205.2806   
N12615  X190.9552  Y204.8863   
N12620  X195.6031  Y204.3521   
N12625  X192.1869  Y201.8395   
N12630  X190.1892  Y200.1791   
N12635  X189.3517  Y198.5305   
N12640  X189.5522  Y196.1128   
N12645  X190.6685  Y192.1446   
N12650  X191.4625  Y189.5537   
N12655  X187.5956  Y192.5033   
N12660  X184.4206  Y194.4128   
N12665  X182.3466  Y194.6683   
N12670 G0  Z0.1000 
N12675 G1  Z-1.4000  F100.00 
N12680  X178.5607  Y191.7191   F300.00 
N12685  X176.9845  Y190.5237   
N12690  X176.2877  Y190.6546   
N12695  X177.3977  Y195.3061   
N12700  X178.0067  Y197.3572   
N12705  X177.9410  Y198.7875   
N12710  X175.0338  Y201.8767   
N12715  X171.4290  Y204.8863   
N12720  X175.7582   
N12725  X179.5070  Y205.3980   
N12730  X181.3275  Y207.6081   
N12735  X182.5676  Y211.8819   
N12740  X182.8606  Y213.3431   
N12745  X183.5783  Y213.2766   
N12750  X185.3175  Y209.4275   
N12755  X185.9782  Y207.2115   
N12760  X186.8569  Y205.9425   
N12765  X188.3754  Y205.2806   
N12770  X190.9552  Y204.8863   
N12775  X195.6031  Y204.3521   
N12780  X192.1869  Y201.8395   
N12785  X190.1892  Y200.1791   
N12790  X189.3517  Y198.5305   
N12795  X189.5522  Y196.1128   
N12800  X190.6685  Y192.1446   
N12805  X191.4625  Y189.5537   
N12810  X187.5956  Y192.5033   
N12815  X184.4206  Y194.4128   
N12820  X182.3466  Y194.6683   
N12825 G0  Z3.0000 
N12830  X167.5565  Y241.2528 
N12835  Z0.1000 
N12840 G1  Z-0.7000  F100.00 
N12845  X164.0534  Y243.7472   F300.00 
N12850  X159.8523  Y241.4462   
N12855  X156.5045  Y239.8640   
N12860  X156.1324  Y240.0985   
N12865  X156.3622  Y240.9819   
N12870  X157.4607  Y244.3902   
N12875  X157.6137  Y246.8363   
N12880  X156.7620  Y248.6846   
N12885  X154.8465  Y250.2984   
N12890  X151.5838  Y253.0534   
N12895  X156.1218  Y253.5876   
N12900  X158.7004  Y253.6228   
N12905  X160.1722  Y254.0688   
N12910  X161.0018  Y255.2551   
N12915  X161.6527  Y257.5107   
N12920  X163.3535  Y261.5176   
N12925  X165.3765  Y257.1386   
N12930  X166.2018  Y254.6588   
N12935  X167.0757  Y253.3998   
N12940  X168.4779  Y253.0154   
N12945  X170.8881  Y253.1597   
N12950  X173.7795  Y253.2487   
N12955  X174.8962  Y252.7817   
N12960  X174.2449  Y251.7381   
N12965  X171.8320  Y250.0983   
N12970  X169.9224  Y248.7704   
N12975  X169.1276  Y247.2602   
N12980  X169.3403  Y244.8414   
N12985  X170.4531  Y240.7886   
N12990  X170.6785  Y239.7676   
N12995  X170.4005  Y239.4840   
N13000  X167.5565  Y241.2528   
N13005 G0  Z0.1000 
N13010 G1  Z-1.4000  F100.00 
N13015  X164.0534  Y243.7472   F300.00 
N13020  X159.8523  Y241.4462   
N13025  X156.5045  Y239.8640   
N13030  X156.1324  Y240.0985   
N13035  X156.3622  Y240.9819   
N13040  X157.4607  Y244.3902   
N13045  X157.6137  Y246.8363   
N13050  X156.7620  Y248.6846   
N13055  X154.8465  Y250.2984   
N13060  X151.5838  Y253.0534   
N13065  X156.1218  Y253.5876   
N13070  X158.7004  Y253.6228   
N13075  X160.1722  Y254.0688   
N13080  X161.0018  Y255.2551   
N13085  X161.6527  Y257.5107   
N13090  X163.3535  Y261.5176   
N13095  X165.3765  Y257.1386   
N13100  X166.2018  Y254.6588   
N13105  X167.0757  Y253.3998   
N13110  X168.4779  Y253.0154   
N13115  X170.8881  Y253.1597   
N13120  X173.7795  Y253.2487   
N13125  X174.8962  Y252.7817   
N13130  X174.2449  Y251.7381   
N13135  X171.8320  Y250.0983   
N13140  X169.9224  Y248.7704   
N13145  X169.1276  Y247.2602   
N13150  X169.3403  Y244.8414   
N13155  X170.4531  Y240.7886   
N13160  X170.6785  Y239.7676   
N13165  X170.4005  Y239.4840   
N13170  X167.5565  Y241.2528   
N13175 G0  Z3.0000 
N13180  X90.1475  Y241.4015 
N13185  Z0.1000 
N13190 G1  Z-0.7000  F100.00 
N13195  X87.1565  Y243.7543   F300.00 
N13200  X82.8767  Y241.2912   
N13205  X79.4052  Y239.5414   
N13210  X79.0758  Y239.8190   
N13215  X79.3684  Y240.8234   
N13220  X80.5072  Y244.3257   
N13225  X80.6840  Y246.8150   
N13230  X79.8393  Y248.6771   
N13235  X77.9136  Y250.2984   
N13240  X75.5042  Y252.0774   
N13245  X74.8786  Y253.1704   
N13250  X76.0732  Y253.6793   
N13255  X79.1236  Y253.7062   
N13260  X81.6738  Y253.6714   
N13265  X83.1222  Y254.0775   
N13270  X83.9337  Y255.2492   
N13275  X84.5723  Y257.5107   
N13280  X85.5111  Y260.3404   
N13285  X86.4016  Y261.5176   
N13290  X87.2858  Y260.3404   
N13295  X88.2103  Y257.5107   
N13300  X88.8339  Y255.3156   
N13305  X89.6192  Y254.1028   
N13310  X90.9257  Y253.5730   
N13315  X93.1121  Y253.4274   
N13320  X96.2072  Y253.2001   
N13325  X97.5307  Y252.6271   
N13330  X97.1230  Y251.6405   
N13335  X95.0236  Y250.1718   
N13340  X92.8997  Y248.8428   
N13345  X91.9804  Y247.7186   
N13350  X92.0602  Y246.1428   
N13355  X92.9361  Y243.4578   
N13360  X93.6701  Y240.8550   
N13365  X93.4984  Y239.6806   
N13370  X92.3485  Y239.8807   
N13375  X90.1475  Y241.4015   
N13380 G0  Z0.1000 
N13385 G1  Z-1.4000  F100.00 
N13390  X87.1565  Y243.7543   F300.00 
N13395  X82.8767  Y241.2912   
N13400  X79.4052  Y239.5414   
N13405  X79.0758  Y239.8190   
N13410  X79.3684  Y240.8234   
N13415  X80.5072  Y244.3257   
N13420  X80.6840  Y246.8150   
N13425  X79.8393  Y248.6771   
N13430  X77.9136  Y250.2984   
N13435  X75.5042  Y252.0774   
N13440  X74.8786  Y253.1704   
N13445  X76.0732  Y253.6793   
N13450  X79.1236  Y253.7062   
N13455  X81.6738  Y253.6714   
N13460  X83.1222  Y254.0775   
N13465  X83.9337  Y255.2492   
N13470  X84.5723  Y257.5107   
N13475  X85.5111  Y260.3404   
N13480  X86.4016  Y261.5176   
N13485  X87.2858  Y260.3404   
N13490  X88.2103  Y257.5107   
N13495  X88.8339  Y255.3156   
N13500  X89.6192  Y254.1028   
N13505  X90.9257  Y253.5730   
N13510  X93.1121  Y253.4274   
N13515  X96.2072  Y253.2001   
N13520  X97.5307  Y252.6271   
N13525  X97.1230  Y251.6405   
N13530  X95.0236  Y250.1718   
N13535  X92.8997  Y248.8428   
N13540  X91.9804  Y247.7186   
N13545  X92.0602  Y246.1428   
N13550  X92.9361  Y243.4578   
N13555  X93.6701  Y240.8550   
N13560  X93.4984  Y239.6806   
N13565  X92.3485  Y239.8807   
N13570  X90.1475  Y241.4015   
N13575 G0  Z3.0000 
N13580 M5
N13585 M30

