N5 (File Name = cartman on Friday, November 10, 2023)
N10 (Default Mill Post)
N15  G91.1
N20 G0  Z3.0000 
N25 M3 S4000 
N30  X28.8202  Y1.5748 
N35  Z0.1000 
N40 G1  Z-0.7000  F100.00 
N45  X27.8584  Y3.3193   F300.00 
N50  X27.5718  Y5.0965   
N55  X27.9540  Y6.6852   
N60  X28.9986  Y7.8641   
N65  X30.3449  Y8.4294   
N70  X31.5921  Y8.4848   
N75  X32.4506  Y8.4316   
N80  X32.3732  Y9.1270   
N85  X25.3267  Y28.0802   
N90  X24.3032  Y30.3627   
N95  X23.2223  Y32.0452   
N100  X22.0553  Y33.5517   
N105  X21.0170  Y35.3047   
N110  X19.3590  Y39.4392   
N115  X18.3151  Y44.2275   
N120  X17.9524  Y49.4489   
N125  Y52.7538   
N130  X15.8283  Y53.4315   
N135  X13.1410  Y54.5198   
N140  X10.3133  Y56.0643   
N145  X7.6041  Y57.9066   
N150  X5.2730  Y59.8881   
N155  X3.9618  Y61.2880   
N160  X2.9972  Y62.6820   
N165  X2.2278  Y64.3357   
N170  X1.5025  Y66.5147   
N175  X0.4732  Y70.5758   
N180  X0.0000  Y74.1108   
N185  X0.0684  Y77.3626   
N190  X0.6638  Y80.5740   
N195  X1.6533  Y83.6322   
N200  X2.8787  Y85.8694   
N205  X4.4978  Y87.5004   
N210  X6.6679  Y88.7393   
N215  X8.1942  Y89.5528   
N220  X9.5095  Y90.6785   
N225  X10.9579  Y92.4806   
N230  X12.8825  Y95.3230   
N235  X19.0530  Y103.9718   
N240  X25.3267  Y111.4060   
N245  X28.2867  Y114.4348   
N250  X31.0133  Y116.8803   
N255  X33.4206  Y118.6497   
N260  X35.4221  Y119.6496   
N265  X36.9229  Y120.2488   
N270  X37.6121  Y120.9476   
N275  X37.5935  Y122.0192   
N280  X36.9704  Y123.7370   
N285  X35.8558  Y127.0177   
N290  X34.7791  Y131.2605   
N295  X33.8660  Y135.9033   
N300  X33.2425  Y140.3840   
N305  X32.5884  Y144.7861   
N310  X32.2003  Y145.9622   
N315  X31.7417  Y146.5783   
N320  X31.3394  Y147.0942   
N325  X31.1016  Y147.8774   
N330  X31.0826  Y149.9378   
N335  X31.6112  Y152.1434   
N340  X32.6136  Y153.8777   
N345  X33.4605  Y155.1006   
N350  X33.8135  Y156.2496   
N355  X34.3284  Y159.2935   
N360  X35.6344  Y163.9101   
N365  X37.3813  Y168.9868   
N370  X39.2184  Y173.4111   
N375  X41.9598  Y178.6158   
N380  X44.9965  Y183.6265   
N385  X48.8314  Y188.5776   
N390  X53.9522  Y194.1219   
N395  X59.5231  Y199.4126   
N400  X64.7082  Y203.6028   
N405  X69.7322  Y206.8448   
N410  X75.7262  Y210.1973   
N415  X81.9440  Y213.2678   
N420  X87.6393  Y215.6637   
N425  X91.4667  Y217.1977   
N430  X93.1433  Y218.0877   
N435  X94.6437  Y221.1590   
N440  X96.7984  Y223.5922   
N445  X99.4568  Y225.2586   
N450  X100.9277  Y225.7642   
N455  X102.4681  Y226.0301   
N460  X105.0884  Y226.5486   
N465  X106.8801  Y227.6182   
N470  X108.7507  Y228.9982   
N475  X110.9709  Y229.9894   
N480  X113.5119  Y230.5821   
N485  X116.3443  Y230.7666   
N490  X119.0548  Y230.6451   
N495  X120.5101  Y230.3919   
N500  X121.6643  Y230.5134   
N505  X123.6508  Y231.2933   
N510  X126.3418  Y232.2324   
N515  X129.3963  Y232.1696   
N520  X132.1319  Y231.6412   
N525  X134.8219  Y230.7555   
N530  X137.1924  Y229.6223   
N535  X138.9692  Y228.3505   
N540  X140.1787  Y227.5782   
N545  X141.3419  Y227.5535   
N550  X142.7024  Y227.5768   
N555  X144.3727  Y227.1248   
N560  X146.1785  Y226.0038   
N565  X147.9840  Y224.3330   
N570  X149.3727  Y222.5614   
N575  X149.9280  Y221.1377   
N580  X150.1724  Y220.5679   
N585  X151.0459  Y220.0253   
N590  X155.5211  Y218.6479   
N595  X164.2498  Y215.9068   
N600  X172.6319  Y212.3758   
N605  X180.5833  Y208.1163   
N610  X188.0206  Y203.1893   
N615  X194.8601  Y197.6564   
N620  X201.0184  Y191.5787   
N625  X206.4116  Y185.0176   
N630  X208.7951  Y181.5749   
N635  X210.9561  Y178.0342   
N640  X213.0151  Y174.1090   
N645  X214.5510  Y170.6568   
N650  X215.6631  Y168.1238   
N655  X216.7025  Y166.4087   
N660  X217.3726  Y165.3709   
N665  X217.9350  Y163.9003   
N670  X218.7508  Y159.5412   
N675  X219.1771  Y153.0935   
N680  X219.2416  Y144.3182   
N685  X218.8849  Y138.5162   
N690  X217.9824  Y132.6743   
N695  X216.6030  Y127.1367   
N700  X214.8156  Y122.2473   
N705  X213.3671  Y118.7934   
N710  X218.2348  Y117.0645   
N715  X223.0228  Y115.1596   
N720  X224.9425  Y114.0511   
N725  X226.5813  Y112.8080   
N730  X227.9657  Y111.4071   
N735  X229.1218  Y109.8251   
N740  X230.0764  Y108.0391   
N745  X230.8557  Y106.0258   
N750  X231.8708  Y103.9358   
N755  X233.3703  Y101.7777   
N760  X236.1987  Y98.0135   
N765  X237.2402  Y96.9012   
N770  X238.3682  Y96.4559   
N775  X242.2786  Y95.4879   
N780  X243.5186  Y94.9574   
N785  X244.5517  Y94.2701   
N790  X245.4209  Y93.3363   
N795  X246.1693  Y92.0657   
N800  X247.4755  Y88.1551   
N805  X248.8144  Y81.8188   
N810  X249.9937  Y74.3892   
N815  X249.9911  Y72.1826   
N820  X249.6705  Y69.9091   
N825  X248.7103  Y66.0753   
N830  X247.3114  Y62.8244   
N835  X245.4890  Y60.1850   
N840  X243.2585  Y58.1849   
N845  X240.0070  Y56.1501   
N850  X239.4365  Y53.9889   
N855  X238.8707  Y49.0644   
N860  X238.2221  Y43.5927   
N865  X237.1982  Y39.3971   
N870  X235.6501  Y36.0404   
N875  X233.4289  Y33.0853   
N880  X232.0248  Y31.6486   
N885  X230.6820  Y30.5962   
N890  X229.1832  Y29.7856   
N895  X227.3111  Y29.0742   
N900  X224.9580  Y28.2006   
N905  X224.1522  Y27.6815   
N910  X223.4764  Y26.9461   
N915  X222.1654  Y24.3428   
N920  X220.3244  Y19.4228   
N925  X217.2642  Y10.6493   
N930  X216.6255  Y8.3840   
N935  X216.5484  Y7.4301   
N940  X218.4297  Y6.6862   
N945  X219.8176  Y6.0555   
N950  X220.9222  Y4.9709   
N955  X221.5664  Y3.6738   
N960  X221.5723  Y2.4058   
N965  X220.8384  Y1.4202   
N970  X219.2392  Y0.9338   
N975  X216.4927  Y0.9139   
N980  X212.3164  Y1.3278   
N985  X204.2384  Y1.8140   
N990  X190.0788  Y2.0784   
N995  X146.5295  Y1.9150   
N1000  X92.7197  Y1.7991   
N1005  X66.1273  Y1.7223   
N1010  X52.5039  Y1.3423   
N1015  X38.5909  Y0.3847   
N1020  X30.0589  Y0.0000   
N1025  X28.8202  Y1.5748   
N1030 G0  Z0.1000 
N1035 G1  Z-1.4000  F100.00 
N1040  X27.8584  Y3.3193   F300.00 
N1045  X27.5718  Y5.0965   
N1050  X27.9540  Y6.6852   
N1055  X28.9986  Y7.8641   
N1060  X30.3449  Y8.4294   
N1065  X31.5921  Y8.4848   
N1070  X32.4506  Y8.4316   
N1075  X32.3732  Y9.1270   
N1080  X25.3267  Y28.0802   
N1085  X24.3032  Y30.3627   
N1090  X23.2223  Y32.0452   
N1095  X22.0553  Y33.5517   
N1100  X21.0170  Y35.3047   
N1105  X19.3590  Y39.4392   
N1110  X18.3151  Y44.2275   
N1115  X17.9524  Y49.4489   
N1120  Y52.7538   
N1125  X15.8283  Y53.4315   
N1130  X13.1410  Y54.5198   
N1135  X10.3133  Y56.0643   
N1140  X7.6041  Y57.9066   
N1145  X5.2730  Y59.8881   
N1150  X3.9618  Y61.2880   
N1155  X2.9972  Y62.6820   
N1160  X2.2278  Y64.3357   
N1165  X1.5025  Y66.5147   
N1170  X0.4732  Y70.5758   
N1175  X0.0000  Y74.1108   
N1180  X0.0684  Y77.3626   
N1185  X0.6638  Y80.5740   
N1190  X1.6533  Y83.6322   
N1195  X2.8787  Y85.8694   
N1200  X4.4978  Y87.5004   
N1205  X6.6679  Y88.7393   
N1210  X8.1942  Y89.5528   
N1215  X9.5095  Y90.6785   
N1220  X10.9579  Y92.4806   
N1225  X12.8825  Y95.3230   
N1230  X19.0530  Y103.9718   
N1235  X25.3267  Y111.4060   
N1240  X28.2867  Y114.4348   
N1245  X31.0133  Y116.8803   
N1250  X33.4206  Y118.6497   
N1255  X35.4221  Y119.6496   
N1260  X36.9229  Y120.2488   
N1265  X37.6121  Y120.9476   
N1270  X37.5935  Y122.0192   
N1275  X36.9704  Y123.7370   
N1280  X35.8558  Y127.0177   
N1285  X34.7791  Y131.2605   
N1290  X33.8660  Y135.9033   
N1295  X33.2425  Y140.3840   
N1300  X32.5884  Y144.7861   
N1305  X32.2003  Y145.9622   
N1310  X31.7417  Y146.5783   
N1315  X31.3394  Y147.0942   
N1320  X31.1016  Y147.8774   
N1325  X31.0826  Y149.9378   
N1330  X31.6112  Y152.1434   
N1335  X32.6136  Y153.8777   
N1340  X33.4605  Y155.1006   
N1345  X33.8135  Y156.2496   
N1350  X34.3284  Y159.2935   
N1355  X35.6344  Y163.9101   
N1360  X37.3813  Y168.9868   
N1365  X39.2184  Y173.4111   
N1370  X41.9598  Y178.6158   
N1375  X44.9965  Y183.6265   
N1380  X48.8314  Y188.5776   
N1385  X53.9522  Y194.1219   
N1390  X59.5231  Y199.4126   
N1395  X64.7082  Y203.6028   
N1400  X69.7322  Y206.8448   
N1405  X75.7262  Y210.1973   
N1410  X81.9440  Y213.2678   
N1415  X87.6393  Y215.6637   
N1420  X91.4667  Y217.1977   
N1425  X93.1433  Y218.0877   
N1430  X94.6437  Y221.1590   
N1435  X96.7984  Y223.5922   
N1440  X99.4568  Y225.2586   
N1445  X100.9277  Y225.7642   
N1450  X102.4681  Y226.0301   
N1455  X105.0884  Y226.5486   
N1460  X106.8801  Y227.6182   
N1465  X108.7507  Y228.9982   
N1470  X110.9709  Y229.9894   
N1475  X113.5119  Y230.5821   
N1480  X116.3443  Y230.7666   
N1485  X119.0548  Y230.6451   
N1490  X120.5101  Y230.3919   
N1495  X121.6643  Y230.5134   
N1500  X123.6508  Y231.2933   
N1505  X126.3418  Y232.2324   
N1510  X129.3963  Y232.1696   
N1515  X132.1319  Y231.6412   
N1520  X134.8219  Y230.7555   
N1525  X137.1924  Y229.6223   
N1530  X138.9692  Y228.3505   
N1535  X140.1787  Y227.5782   
N1540  X141.3419  Y227.5535   
N1545  X142.7024  Y227.5768   
N1550  X144.3727  Y227.1248   
N1555  X146.1785  Y226.0038   
N1560  X147.9840  Y224.3330   
N1565  X149.3727  Y222.5614   
N1570  X149.9280  Y221.1377   
N1575  X150.1724  Y220.5679   
N1580  X151.0459  Y220.0253   
N1585  X155.5211  Y218.6479   
N1590  X164.2498  Y215.9068   
N1595  X172.6319  Y212.3758   
N1600  X180.5833  Y208.1163   
N1605  X188.0206  Y203.1893   
N1610  X194.8601  Y197.6564   
N1615  X201.0184  Y191.5787   
N1620  X206.4116  Y185.0176   
N1625  X208.7951  Y181.5749   
N1630  X210.9561  Y178.0342   
N1635  X213.0151  Y174.1090   
N1640  X214.5510  Y170.6568   
N1645  X215.6631  Y168.1238   
N1650  X216.7025  Y166.4087   
N1655  X217.3726  Y165.3709   
N1660  X217.9350  Y163.9003   
N1665  X218.7508  Y159.5412   
N1670  X219.1771  Y153.0935   
N1675  X219.2416  Y144.3182   
N1680  X218.8849  Y138.5162   
N1685  X217.9824  Y132.6743   
N1690  X216.6030  Y127.1367   
N1695  X214.8156  Y122.2473   
N1700  X213.3671  Y118.7934   
N1705  X218.2348  Y117.0645   
N1710  X223.0228  Y115.1596   
N1715  X224.9425  Y114.0511   
N1720  X226.5813  Y112.8080   
N1725  X227.9657  Y111.4071   
N1730  X229.1218  Y109.8251   
N1735  X230.0764  Y108.0391   
N1740  X230.8557  Y106.0258   
N1745  X231.8708  Y103.9358   
N1750  X233.3703  Y101.7777   
N1755  X236.1987  Y98.0135   
N1760  X237.2402  Y96.9012   
N1765  X238.3682  Y96.4559   
N1770  X242.2786  Y95.4879   
N1775  X243.5186  Y94.9574   
N1780  X244.5517  Y94.2701   
N1785  X245.4209  Y93.3363   
N1790  X246.1693  Y92.0657   
N1795  X247.4755  Y88.1551   
N1800  X248.8144  Y81.8188   
N1805  X249.9937  Y74.3892   
N1810  X249.9911  Y72.1826   
N1815  X249.6705  Y69.9091   
N1820  X248.7103  Y66.0753   
N1825  X247.3114  Y62.8244   
N1830  X245.4890  Y60.1850   
N1835  X243.2585  Y58.1849   
N1840  X240.0070  Y56.1501   
N1845  X239.4365  Y53.9889   
N1850  X238.8707  Y49.0644   
N1855  X238.2221  Y43.5927   
N1860  X237.1982  Y39.3971   
N1865  X235.6501  Y36.0404   
N1870  X233.4289  Y33.0853   
N1875  X232.0248  Y31.6486   
N1880  X230.6820  Y30.5962   
N1885  X229.1832  Y29.7856   
N1890  X227.3111  Y29.0742   
N1895  X224.9580  Y28.2006   
N1900  X224.1522  Y27.6815   
N1905  X223.4764  Y26.9461   
N1910  X222.1654  Y24.3428   
N1915  X220.3244  Y19.4228   
N1920  X217.2642  Y10.6493   
N1925  X216.6255  Y8.3840   
N1930  X216.5484  Y7.4301   
N1935  X218.4297  Y6.6862   
N1940  X219.8176  Y6.0555   
N1945  X220.9222  Y4.9709   
N1950  X221.5664  Y3.6738   
N1955  X221.5723  Y2.4058   
N1960  X220.8384  Y1.4202   
N1965  X219.2392  Y0.9338   
N1970  X216.4927  Y0.9139   
N1975  X212.3164  Y1.3278   
N1980  X204.2384  Y1.8140   
N1985  X190.0788  Y2.0784   
N1990  X146.5295  Y1.9150   
N1995  X92.7197  Y1.7991   
N2000  X66.1273  Y1.7223   
N2005  X52.5039  Y1.3423   
N2010  X38.5909  Y0.3847   
N2015  X30.0589  Y0.0000   
N2020  X28.8202  Y1.5748   
N2025 G0  Z3.0000 
N2030  X42.3084  Y3.0214 
N2035  Z0.1000 
N2040 G1  Z-0.7000  F100.00 
N2045  X34.0231  Y2.1843   F300.00 
N2050  X32.2361  Y2.2376   
N2055  X30.8714  Y2.8015   
N2060  X30.0629  Y3.7804   
N2065  X29.9457  Y5.0787   
N2070  X30.3335  Y5.6451   
N2075  X31.6613  Y6.0096   
N2080  X39.7317  Y6.5117   
N2085  X49.8410  Y7.1570   
N2090  X60.6825  Y8.1471   
N2095  X73.2529  Y9.1415   
N2100  X89.3211  Y9.4358   
N2105  X100.8381  Y9.3605   
N2110  X108.7324  Y8.9215   
N2115  X114.8900  Y7.9260   
N2120  X121.1968  Y6.1816   
N2125  X125.6011  Y4.8099   
N2130  X131.3923  Y6.1599   
N2135  X139.9839  Y7.6183   
N2140  X150.6008  Y8.5832   
N2145  X162.5026  Y9.0675   
N2150  X174.9489  Y9.0840   
N2155  X187.1995  Y8.6450   
N2160  X198.5138  Y7.7636   
N2165  X208.1514  Y6.4521   
N2170  X212.1100  Y5.6392   
N2175  X215.3718  Y4.7235   
N2180  X218.7481  Y3.5914   
N2185  X215.3495  Y3.8284   
N2190  X193.0119  Y4.9769   
N2195  X183.4480  Y5.1145   
N2200  X174.5673  Y4.9717   
N2205  X151.8061  Y4.6922   
N2210  X115.3765  Y4.6132   
N2215  X87.5752  Y4.5745   
N2220  X67.7798  Y4.3322   
N2225  X53.5156  Y3.8326   
N2230  X42.3084  Y3.0214   
N2235 G0  Z0.1000 
N2240 G1  Z-1.4000  F100.00 
N2245  X34.0231  Y2.1843   F300.00 
N2250  X32.2361  Y2.2376   
N2255  X30.8714  Y2.8015   
N2260  X30.0629  Y3.7804   
N2265  X29.9457  Y5.0787   
N2270  X30.3335  Y5.6451   
N2275  X31.6613  Y6.0096   
N2280  X39.7317  Y6.5117   
N2285  X49.8410  Y7.1570   
N2290  X60.6825  Y8.1471   
N2295  X73.2529  Y9.1415   
N2300  X89.3211  Y9.4358   
N2305  X100.8381  Y9.3605   
N2310  X108.7324  Y8.9215   
N2315  X114.8900  Y7.9260   
N2320  X121.1968  Y6.1816   
N2325  X125.6011  Y4.8099   
N2330  X131.3923  Y6.1599   
N2335  X139.9839  Y7.6183   
N2340  X150.6008  Y8.5832   
N2345  X162.5026  Y9.0675   
N2350  X174.9489  Y9.0840   
N2355  X187.1995  Y8.6450   
N2360  X198.5138  Y7.7636   
N2365  X208.1514  Y6.4521   
N2370  X212.1100  Y5.6392   
N2375  X215.3718  Y4.7235   
N2380  X218.7481  Y3.5914   
N2385  X215.3495  Y3.8284   
N2390  X193.0119  Y4.9769   
N2395  X183.4480  Y5.1145   
N2400  X174.5673  Y4.9717   
N2405  X151.8061  Y4.6922   
N2410  X115.3765  Y4.6132   
N2415  X87.5752  Y4.5745   
N2420  X67.7798  Y4.3322   
N2425  X53.5156  Y3.8326   
N2430  X42.3084  Y3.0214   
N2435 G0  Z3.0000 
N2440  X40.6092  Y55.1151 
N2445  Z0.1000 
N2450 G1  Z-0.7000  F100.00 
N2455  X37.2955  Y54.6278   F300.00 
N2460  X32.1128  Y54.2720   
N2465  X27.9524  Y54.2184   
N2470  X24.1595  Y54.4133   
N2475  X20.7071  Y54.8642   
N2480  X17.5690  Y55.5786   
N2485  X14.7181  Y56.5645   
N2490  X12.1279  Y57.8291   
N2495  X9.7715  Y59.3799   
N2500  X7.6226  Y61.2249   
N2505  X5.8628  Y63.2207   
N2510  X4.5739  Y65.4942   
N2515  X3.5741  Y68.4612   
N2520  X2.6818  Y72.5370   
N2525  X2.5314  Y75.6170   
N2530  X2.9776  Y79.1100   
N2535  X3.8767  Y82.3011   
N2540  X5.0848  Y84.4756   
N2545  X6.5979  Y85.7903   
N2550  X8.3501  Y86.7030   
N2555  X10.3452  Y87.2138   
N2560  X12.5881  Y87.3225   
N2565  X15.0824  Y87.0290   
N2570  X17.8329  Y86.3330   
N2575  X20.8434  Y85.2342   
N2580  X24.1187  Y83.7327   
N2585  X34.3462  Y78.4601   
N2590  X40.8079  Y74.6024   
N2595  X42.9729  Y72.9662   
N2600  X44.6118  Y71.3980   
N2605  X45.8632  Y69.8025   
N2610  X46.8654  Y68.0845   
N2615  X47.7208  Y65.7949   
N2620  X47.6900  Y63.6909   
N2625  X46.7517  Y60.6910   
N2630  X45.2010  Y58.1918   
N2635  X43.1245  Y56.2981   
N2640  X40.6092  Y55.1151   
N2645 G0  Z0.1000 
N2650 G1  Z-1.4000  F100.00 
N2655  X37.2955  Y54.6278   F300.00 
N2660  X32.1128  Y54.2720   
N2665  X27.9524  Y54.2184   
N2670  X24.1595  Y54.4133   
N2675  X20.7071  Y54.8642   
N2680  X17.5690  Y55.5786   
N2685  X14.7181  Y56.5645   
N2690  X12.1279  Y57.8291   
N2695  X9.7715  Y59.3799   
N2700  X7.6226  Y61.2249   
N2705  X5.8628  Y63.2207   
N2710  X4.5739  Y65.4942   
N2715  X3.5741  Y68.4612   
N2720  X2.6818  Y72.5370   
N2725  X2.5314  Y75.6170   
N2730  X2.9776  Y79.1100   
N2735  X3.8767  Y82.3011   
N2740  X5.0848  Y84.4756   
N2745  X6.5979  Y85.7903   
N2750  X8.3501  Y86.7030   
N2755  X10.3452  Y87.2138   
N2760  X12.5881  Y87.3225   
N2765  X15.0824  Y87.0290   
N2770  X17.8329  Y86.3330   
N2775  X20.8434  Y85.2342   
N2780  X24.1187  Y83.7327   
N2785  X34.3462  Y78.4601   
N2790  X40.8079  Y74.6024   
N2795  X42.9729  Y72.9662   
N2800  X44.6118  Y71.3980   
N2805  X45.8632  Y69.8025   
N2810  X46.8654  Y68.0845   
N2815  X47.7208  Y65.7949   
N2820  X47.6900  Y63.6909   
N2825  X46.7517  Y60.6910   
N2830  X45.2010  Y58.1918   
N2835  X43.1245  Y56.2981   
N2840  X40.6092  Y55.1151   
N2845 G0  Z3.0000 
N2850  X119.3561  Y86.3005 
N2855  Z0.1000 
N2860 G1  Z-0.7000  F100.00 
N2865  X117.0009  Y86.8569   F300.00 
N2870  X115.6922  Y87.4174   
N2875  X115.5703  Y87.6356   
N2880  X115.7641  Y87.7298   
N2885  X117.0934  Y87.5453   
N2890  X122.2624  Y87.1207   
N2895  X130.1793  Y87.1097   
N2900  X138.2548  Y87.4580   
N2905  X143.8997  Y88.1107   
N2910  X148.3740  Y89.0183   
N2915  X148.7824  Y88.8860   
N2920  X148.6607  Y88.4059   
N2925  X147.4294  Y87.7070   
N2930  X144.7903  Y86.9906   
N2935  X139.3789  Y86.3829   
N2940  X131.7918  Y86.0234   
N2945  X124.3455  Y85.9751   
N2950  X119.3561  Y86.3005   
N2955 G0  Z0.1000 
N2960 G1  Z-1.4000  F100.00 
N2965  X117.0009  Y86.8569   F300.00 
N2970  X115.6922  Y87.4174   
N2975  X115.5703  Y87.6356   
N2980  X115.7641  Y87.7298   
N2985  X117.0934  Y87.5453   
N2990  X122.2624  Y87.1207   
N2995  X130.1793  Y87.1097   
N3000  X138.2548  Y87.4580   
N3005  X143.8997  Y88.1107   
N3010  X148.3740  Y89.0183   
N3015  X148.7824  Y88.8860   
N3020  X148.6607  Y88.4059   
N3025  X147.4294  Y87.7070   
N3030  X144.7903  Y86.9906   
N3035  X139.3789  Y86.3829   
N3040  X131.7918  Y86.0234   
N3045  X124.3455  Y85.9751   
N3050  X119.3561  Y86.3005   
N3055 G0  Z3.0000 
N3060  X122.7399  Y78.7123 
N3065  Z0.1000 
N3070 G1  Z-0.7000  F100.00 
N3075  X111.9280  Y79.8622   F300.00 
N3080  X104.5912  Y80.8705   
N3085  X98.5406  Y82.1040   
N3090  X91.5868  Y83.9290   
N3095  X86.6645  Y85.4346   
N3100  X82.4559  Y87.0832   
N3105  X78.5853  Y89.0424   
N3110  X74.6771  Y91.4800   
N3115  X69.2961  Y94.9504   
N3120  X66.0981  Y97.2743   
N3125  X62.1330  Y100.2851   
N3130  X59.6673  Y102.2221   
N3135  X57.3185  Y104.4491   
N3140  X55.0528  Y106.8825   
N3145  X57.3726  Y104.8651   
N3150  X63.2635  Y100.3455   
N3155  X73.7447  Y93.3082   
N3160  X78.5283  Y90.3651   
N3165  X82.8681  Y88.1624   
N3170  X87.4285  Y86.4044   
N3175  X92.8734  Y84.7958   
N3180  X99.0077  Y83.2072   
N3185  X103.7807  Y82.1889   
N3190  X116.4103  Y80.5801   
N3195  X125.5655  Y79.7274   
N3200  X132.3400  Y79.5267   
N3205  X138.2507  Y80.0123   
N3210  X144.8147  Y81.2185   
N3215  X151.1064  Y82.7415   
N3220  X156.9240  Y84.5909   
N3225  X162.9305  Y87.0055   
N3230  X169.7893  Y90.2248   
N3235  X176.1727  Y93.6249   
N3240  X182.4955  Y97.5831   
N3245  X189.4454  Y102.5624   
N3250  X197.7096  Y109.0254   
N3255  X201.7147  Y112.1348   
N3260  X203.5035  Y113.3051   
N3265  X203.4009  Y112.9252   
N3270  X202.7507  Y112.1643   
N3275  X199.9263  Y109.5997   
N3280  X189.0109  Y101.0048   
N3285  X183.5888  Y97.0129   
N3290  X179.2542  Y94.1005   
N3295  X175.0542  Y91.6711   
N3300  X170.0359  Y89.1281   
N3305  X162.1028  Y85.3839   
N3310  X155.9980  Y82.9315   
N3315  X149.9801  Y81.1650   
N3320  X142.3071  Y79.4783   
N3325  X137.8937  Y78.8178   
N3330  X132.8640  Y78.4581   
N3335  X127.6640  Y78.4172   
N3340  X122.7399  Y78.7123   
N3345 G0  Z0.1000 
N3350 G1  Z-1.4000  F100.00 
N3355  X111.9280  Y79.8622   F300.00 
N3360  X104.5912  Y80.8705   
N3365  X98.5406  Y82.1040   
N3370  X91.5868  Y83.9290   
N3375  X86.6645  Y85.4346   
N3380  X82.4559  Y87.0832   
N3385  X78.5853  Y89.0424   
N3390  X74.6771  Y91.4800   
N3395  X69.2961  Y94.9504   
N3400  X66.0981  Y97.2743   
N3405  X62.1330  Y100.2851   
N3410  X59.6673  Y102.2221   
N3415  X57.3185  Y104.4491   
N3420  X55.0528  Y106.8825   
N3425  X57.3726  Y104.8651   
N3430  X63.2635  Y100.3455   
N3435  X73.7447  Y93.3082   
N3440  X78.5283  Y90.3651   
N3445  X82.8681  Y88.1624   
N3450  X87.4285  Y86.4044   
N3455  X92.8734  Y84.7958   
N3460  X99.0077  Y83.2072   
N3465  X103.7807  Y82.1889   
N3470  X116.4103  Y80.5801   
N3475  X125.5655  Y79.7274   
N3480  X132.3400  Y79.5267   
N3485  X138.2507  Y80.0123   
N3490  X144.8147  Y81.2185   
N3495  X151.1064  Y82.7415   
N3500  X156.9240  Y84.5909   
N3505  X162.9305  Y87.0055   
N3510  X169.7893  Y90.2248   
N3515  X176.1727  Y93.6249   
N3520  X182.4955  Y97.5831   
N3525  X189.4454  Y102.5624   
N3530  X197.7096  Y109.0254   
N3535  X201.7147  Y112.1348   
N3540  X203.5035  Y113.3051   
N3545  X203.4009  Y112.9252   
N3550  X202.7507  Y112.1643   
N3555  X199.9263  Y109.5997   
N3560  X189.0109  Y101.0048   
N3565  X183.5888  Y97.0129   
N3570  X179.2542  Y94.1005   
N3575  X175.0542  Y91.6711   
N3580  X170.0359  Y89.1281   
N3585  X162.1028  Y85.3839   
N3590  X155.9980  Y82.9315   
N3595  X149.9801  Y81.1650   
N3600  X142.3071  Y79.4783   
N3605  X137.8937  Y78.8178   
N3610  X132.8640  Y78.4581   
N3615  X127.6640  Y78.4172   
N3620  X122.7399  Y78.7123   
N3625 G0  Z3.0000 
N3630  X129.5753  Y64.0983 
N3635  Z0.1000 
N3640 G1  Z-0.7000  F100.00 
N3645  X129.1570  Y65.3193   F300.00 
N3650  X129.0000  Y66.7573   
N3655  X129.1090  Y68.1434   
N3660  X129.4884  Y69.2087   
N3665  X130.1918  Y69.7651   
N3670  X130.9641  Y69.5469   
N3675  X131.6603  Y68.6630   
N3680  X132.1349  Y67.2226   
N3685  X132.1600  Y65.0785   
N3690  X131.5457  Y63.6039   
N3695  X131.0908  Y63.2298   
N3700  X130.5862  Y63.1576   
N3705  X130.0689  Y63.4321   
N3710  X129.5753  Y64.0983   
N3715 G0  Z0.1000 
N3720 G1  Z-1.4000  F100.00 
N3725  X129.1570  Y65.3193   F300.00 
N3730  X129.0000  Y66.7573   
N3735  X129.1090  Y68.1434   
N3740  X129.4884  Y69.2087   
N3745  X130.1918  Y69.7651   
N3750  X130.9641  Y69.5469   
N3755  X131.6603  Y68.6630   
N3760  X132.1349  Y67.2226   
N3765  X132.1600  Y65.0785   
N3770  X131.5457  Y63.6039   
N3775  X131.0908  Y63.2298   
N3780  X130.5862  Y63.1576   
N3785  X130.0689  Y63.4321   
N3790  X129.5753  Y64.0983   
N3795 G0  Z3.0000 
N3800  X144.1816  Y72.9811 
N3805  Z0.1000 
N3810 G1  Z-0.7000  F100.00 
N3815  X138.2091  Y72.1849   F300.00 
N3820  X132.4408  Y71.6814   
N3825  X126.8191  Y71.4731   
N3830  X121.2864  Y71.5626   
N3835  X115.7850  Y71.9524   
N3840  X110.2570  Y72.6451   
N3845  X104.6451  Y73.6428   
N3850  X98.8915  Y74.9484   
N3855  X91.1093  Y77.2530   
N3860  X83.5400  Y80.2015   
N3865  X76.2674  Y83.7396   
N3870  X69.3752  Y87.8133   
N3875  X62.9472  Y92.3682   
N3880  X57.0672  Y97.3501   
N3885  X51.8185  Y102.7048   
N3890  X47.2852  Y108.3780   
N3895  X44.5607  Y112.5248   
N3900  X42.1329  Y116.8899   
N3905  X40.0221  Y121.4134   
N3910  X38.2491  Y126.0356   
N3915  X36.8342  Y130.6968   
N3920  X35.7983  Y135.3368   
N3925  X35.1617  Y139.8962   
N3930  X34.9449  Y144.3152   
N3935  Y148.4117   
N3940  X38.2019  Y149.8592   
N3945  X50.1016  Y154.1797   
N3950  X57.9928  Y157.0240   
N3955  X64.8285  Y159.8274   
N3960  X73.8284  Y163.5284   
N3965  X84.1585  Y167.2324   
N3970  X93.2780  Y170.0828   
N3975  X96.5895  Y170.9203   
N3980  X98.6453  Y171.2233   
N3985  X98.8666  Y171.0876   
N3990  X98.6590  Y170.6989   
N3995  X97.0481  Y169.2726   
N4000  X94.7437  Y167.3472   
N4005  X92.6261  Y165.2353   
N4010  X90.7019  Y162.9472   
N4015  X88.9780  Y160.4934   
N4020  X87.4607  Y157.8843   
N4025  X86.1570  Y155.1302   
N4030  X85.0734  Y152.2417   
N4035  X84.2168  Y149.2293   
N4040  X83.3515  Y144.6035   
N4045  X83.2412  Y140.6819   
N4050  X83.9156  Y137.0699   
N4055  X85.4041  Y133.3735   
N4060  X87.3910  Y130.0406   
N4065  X89.8420  Y127.1176   
N4070  X92.6752  Y124.6870   
N4075  X95.8094  Y122.8311   
N4080  X97.7420  Y121.9875   
N4085  X99.3544  Y121.5447   
N4090  X101.1737  Y121.4145   
N4095  X103.7269  Y121.5091   
N4100  X108.4621  Y122.1793   
N4105  X113.0005  Y123.5612   
N4110  X117.0063  Y125.5234   
N4115  X120.1442  Y127.9347   
N4120  X122.9727  Y131.1809   
N4125  X125.5965  Y134.9566   
N4130  X127.7648  Y138.8605   
N4135  X129.2272  Y142.4912   
N4140  X130.4476  Y146.4879   
N4145  X131.1921  Y143.1375   
N4150  X131.9667  Y140.3143   
N4155  X133.0498  Y137.6780   
N4160  X134.5970  Y134.9097   
N4165  X136.7629  Y131.6912   
N4170  X139.1726  Y128.6187   
N4175  X141.5786  Y126.3074   
N4180  X144.3081  Y124.4952   
N4185  X147.6877  Y122.9193   
N4190  X151.8321  Y121.6592   
N4195  X156.3503  Y120.9396   
N4200  X160.5308  Y120.8280   
N4205  X162.2722  Y121.0216   
N4210  X163.6625  Y121.3927   
N4215  X167.3705  Y123.2711   
N4220  X170.5626  Y125.8707   
N4225  X173.3891  Y129.3431   
N4230  X175.9998  Y133.8396   
N4235  X177.0762  Y136.9535   
N4240  X177.4978  Y140.5761   
N4245  X177.3032  Y144.5515   
N4250  X176.5309  Y148.7242   
N4255  X175.2198  Y152.9382   
N4260  X173.4083  Y157.0383   
N4265  X171.1353  Y160.8684   
N4270  X168.4395  Y164.2731   
N4275  X165.7968  Y166.8583   
N4280  X163.0628  Y168.9758   
N4285  X160.2313  Y170.6276   
N4290  X157.2960  Y171.8157   
N4295  X154.2506  Y172.5423   
N4300  X151.0892  Y172.8091   
N4305  X147.8056  Y172.6182   
N4310  X144.3934  Y171.9716   
N4315  X142.2313  Y171.3432   
N4320  X140.5619  Y170.5271   
N4325  X138.8427  Y169.1761   
N4330  X136.5304  Y166.9431   
N4335  X134.3886  Y164.7114   
N4340  X132.9925  Y162.9610   
N4345  X132.0736  Y161.2949   
N4350  X131.3633  Y159.3168   
N4355  X130.2740  Y155.7684   
N4360  X129.8893  Y158.1742   
N4365  X129.0644  Y161.2485   
N4370  X127.5495  Y164.1217   
N4375  X125.2357  Y166.9564   
N4380  X122.0134  Y169.9153   
N4385  X119.3174  Y171.7613   
N4390  X116.9246  Y172.6648   
N4395  X115.1344  Y173.1667   
N4400  X115.2092  Y173.4035   
N4405  X115.9309  Y173.6307   
N4410  X119.3153  Y174.0572   
N4415  X125.2888  Y174.4460   
N4420  X135.5677  Y174.7256   
N4425  X145.3660  Y174.5180   
N4430  X154.2933  Y173.8414   
N4435  X161.9594  Y172.7144   
N4440  X175.9354  Y170.0690   
N4445  X181.7594  Y168.7739   
N4450  X189.2750  Y166.7233   
N4455  X208.5413  Y160.5987   
N4460  X213.1050  Y159.0202   
N4465  X215.5083  Y158.0021   
N4470  X216.5205  Y157.1150   
N4475  X216.9109  Y155.9299   
N4480  X217.2494  Y152.4500   
N4485  X217.4304  Y146.8671   
N4490  X217.3070  Y141.8628   
N4495  X216.8316  Y137.0240   
N4500  X215.9953  Y132.3205   
N4505  X214.7885  Y127.7228   
N4510  X213.2023  Y123.2007   
N4515  X211.2276  Y118.7243   
N4520  X208.8552  Y114.2636   
N4525  X206.0757  Y109.7887   
N4530  X202.6767  Y105.3659   
N4535  X198.0923  Y100.2911   
N4540  X193.1365  Y95.4129   
N4545  X188.6222  Y91.5802   
N4550  X183.7471  Y88.1576   
N4555  X178.6033  Y85.0175   
N4560  X173.2279  Y82.1754   
N4565  X167.6584  Y79.6469   
N4570  X161.9317  Y77.4477   
N4575  X156.0852  Y75.5933   
N4580  X150.1560  Y74.0992   
N4585  X144.1816  Y72.9811   
N4590 G0  Z0.1000 
N4595 G1  Z-1.4000  F100.00 
N4600  X138.2091  Y72.1849   F300.00 
N4605  X132.4408  Y71.6814   
N4610  X126.8191  Y71.4731   
N4615  X121.2864  Y71.5626   
N4620  X115.7850  Y71.9524   
N4625  X110.2570  Y72.6451   
N4630  X104.6451  Y73.6428   
N4635  X98.8915  Y74.9484   
N4640  X91.1093  Y77.2530   
N4645  X83.5400  Y80.2015   
N4650  X76.2674  Y83.7396   
N4655  X69.3752  Y87.8133   
N4660  X62.9472  Y92.3682   
N4665  X57.0672  Y97.3501   
N4670  X51.8185  Y102.7048   
N4675  X47.2852  Y108.3780   
N4680  X44.5607  Y112.5248   
N4685  X42.1329  Y116.8899   
N4690  X40.0221  Y121.4134   
N4695  X38.2491  Y126.0356   
N4700  X36.8342  Y130.6968   
N4705  X35.7983  Y135.3368   
N4710  X35.1617  Y139.8962   
N4715  X34.9449  Y144.3152   
N4720  Y148.4117   
N4725  X38.2019  Y149.8592   
N4730  X50.1016  Y154.1797   
N4735  X57.9928  Y157.0240   
N4740  X64.8285  Y159.8274   
N4745  X73.8284  Y163.5284   
N4750  X84.1585  Y167.2324   
N4755  X93.2780  Y170.0828   
N4760  X96.5895  Y170.9203   
N4765  X98.6453  Y171.2233   
N4770  X98.8666  Y171.0876   
N4775  X98.6590  Y170.6989   
N4780  X97.0481  Y169.2726   
N4785  X94.7437  Y167.3472   
N4790  X92.6261  Y165.2353   
N4795  X90.7019  Y162.9472   
N4800  X88.9780  Y160.4934   
N4805  X87.4607  Y157.8843   
N4810  X86.1570  Y155.1302   
N4815  X85.0734  Y152.2417   
N4820  X84.2168  Y149.2293   
N4825  X83.3515  Y144.6035   
N4830  X83.2412  Y140.6819   
N4835  X83.9156  Y137.0699   
N4840  X85.4041  Y133.3735   
N4845  X87.3910  Y130.0406   
N4850  X89.8420  Y127.1176   
N4855  X92.6752  Y124.6870   
N4860  X95.8094  Y122.8311   
N4865  X97.7420  Y121.9875   
N4870  X99.3544  Y121.5447   
N4875  X101.1737  Y121.4145   
N4880  X103.7269  Y121.5091   
N4885  X108.4621  Y122.1793   
N4890  X113.0005  Y123.5612   
N4895  X117.0063  Y125.5234   
N4900  X120.1442  Y127.9347   
N4905  X122.9727  Y131.1809   
N4910  X125.5965  Y134.9566   
N4915  X127.7648  Y138.8605   
N4920  X129.2272  Y142.4912   
N4925  X130.4476  Y146.4879   
N4930  X131.1921  Y143.1375   
N4935  X131.9667  Y140.3143   
N4940  X133.0498  Y137.6780   
N4945  X134.5970  Y134.9097   
N4950  X136.7629  Y131.6912   
N4955  X139.1726  Y128.6187   
N4960  X141.5786  Y126.3074   
N4965  X144.3081  Y124.4952   
N4970  X147.6877  Y122.9193   
N4975  X151.8321  Y121.6592   
N4980  X156.3503  Y120.9396   
N4985  X160.5308  Y120.8280   
N4990  X162.2722  Y121.0216   
N4995  X163.6625  Y121.3927   
N5000  X167.3705  Y123.2711   
N5005  X170.5626  Y125.8707   
N5010  X173.3891  Y129.3431   
N5015  X175.9998  Y133.8396   
N5020  X177.0762  Y136.9535   
N5025  X177.4978  Y140.5761   
N5030  X177.3032  Y144.5515   
N5035  X176.5309  Y148.7242   
N5040  X175.2198  Y152.9382   
N5045  X173.4083  Y157.0383   
N5050  X171.1353  Y160.8684   
N5055  X168.4395  Y164.2731   
N5060  X165.7968  Y166.8583   
N5065  X163.0628  Y168.9758   
N5070  X160.2313  Y170.6276   
N5075  X157.2960  Y171.8157   
N5080  X154.2506  Y172.5423   
N5085  X151.0892  Y172.8091   
N5090  X147.8056  Y172.6182   
N5095  X144.3934  Y171.9716   
N5100  X142.2313  Y171.3432   
N5105  X140.5619  Y170.5271   
N5110  X138.8427  Y169.1761   
N5115  X136.5304  Y166.9431   
N5120  X134.3886  Y164.7114   
N5125  X132.9925  Y162.9610   
N5130  X132.0736  Y161.2949   
N5135  X131.3633  Y159.3168   
N5140  X130.2740  Y155.7684   
N5145  X129.8893  Y158.1742   
N5150  X129.0644  Y161.2485   
N5155  X127.5495  Y164.1217   
N5160  X125.2357  Y166.9564   
N5165  X122.0134  Y169.9153   
N5170  X119.3174  Y171.7613   
N5175  X116.9246  Y172.6648   
N5180  X115.1344  Y173.1667   
N5185  X115.2092  Y173.4035   
N5190  X115.9309  Y173.6307   
N5195  X119.3153  Y174.0572   
N5200  X125.2888  Y174.4460   
N5205  X135.5677  Y174.7256   
N5210  X145.3660  Y174.5180   
N5215  X154.2933  Y173.8414   
N5220  X161.9594  Y172.7144   
N5225  X175.9354  Y170.0690   
N5230  X181.7594  Y168.7739   
N5235  X189.2750  Y166.7233   
N5240  X208.5413  Y160.5987   
N5245  X213.1050  Y159.0202   
N5250  X215.5083  Y158.0021   
N5255  X216.5205  Y157.1150   
N5260  X216.9109  Y155.9299   
N5265  X217.2494  Y152.4500   
N5270  X217.4304  Y146.8671   
N5275  X217.3070  Y141.8628   
N5280  X216.8316  Y137.0240   
N5285  X215.9953  Y132.3205   
N5290  X214.7885  Y127.7228   
N5295  X213.2023  Y123.2007   
N5300  X211.2276  Y118.7243   
N5305  X208.8552  Y114.2636   
N5310  X206.0757  Y109.7887   
N5315  X202.6767  Y105.3659   
N5320  X198.0923  Y100.2911   
N5325  X193.1365  Y95.4129   
N5330  X188.6222  Y91.5802   
N5335  X183.7471  Y88.1576   
N5340  X178.6033  Y85.0175   
N5345  X173.2279  Y82.1754   
N5350  X167.6584  Y79.6469   
N5355  X161.9317  Y77.4477   
N5360  X156.0852  Y75.5933   
N5365  X150.1560  Y74.0992   
N5370  X144.1816  Y72.9811   
N5375 G0  Z3.0000 
N5380  X140.0157  Y93.1564 
N5385  Z0.1000 
N5390 G1  Z-0.7000  F100.00 
N5395  X135.4072  Y94.8073   F300.00 
N5400  X131.4277  Y95.6689   
N5405  X127.9567  Y95.7564   
N5410  X124.8739  Y95.0851   
N5415  X123.4883  Y94.7209   
N5420  X123.1481  Y94.8980   
N5425  X123.7871  Y95.4552   
N5430  X125.3397  Y96.2305   
N5435  X127.8061  Y96.8605   
N5440  X130.8057  Y96.9659   
N5445  X134.1660  Y96.5548   
N5450  X137.7149  Y95.6356   
N5455  X142.9328  Y93.6856   
N5460  X143.8955  Y93.0219   
N5465  X143.9631  Y92.4625   
N5470  X143.6273  Y92.0791   
N5475  X143.0676  Y92.0299   
N5480  X140.0157  Y93.1564   
N5485 G0  Z0.1000 
N5490 G1  Z-1.4000  F100.00 
N5495  X135.4072  Y94.8073   F300.00 
N5500  X131.4277  Y95.6689   
N5505  X127.9567  Y95.7564   
N5510  X124.8739  Y95.0851   
N5515  X123.4883  Y94.7209   
N5520  X123.1481  Y94.8980   
N5525  X123.7871  Y95.4552   
N5530  X125.3397  Y96.2305   
N5535  X127.8061  Y96.8605   
N5540  X130.8057  Y96.9659   
N5545  X134.1660  Y96.5548   
N5550  X137.7149  Y95.6356   
N5555  X142.9328  Y93.6856   
N5560  X143.8955  Y93.0219   
N5565  X143.9631  Y92.4625   
N5570  X143.6273  Y92.0791   
N5575  X143.0676  Y92.0299   
N5580  X140.0157  Y93.1564   
N5585 G0  Z3.0000 
N5590  X166.4163  Y123.9650 
N5595  Z0.1000 
N5600 G1  Z-0.7000  F100.00 
N5605  X164.5281  Y122.9008   F300.00 
N5610  X162.9092  Y122.2303   
N5615  X161.2268  Y121.8472   
N5620  X159.1477  Y121.6449   
N5625  X156.4919  Y121.5815   
N5630  X154.1281  Y121.8628   
N5635  X151.3414  Y122.6356   
N5640  X147.4166  Y124.0462   
N5645  X144.3027  Y125.5064   
N5650  X141.5971  Y127.4965   
N5655  X139.0067  Y130.2805   
N5660  X136.2385  Y134.1228   
N5665  X133.8645  Y138.1068   
N5670  X132.4241  Y141.7716   
N5675  X131.7112  Y145.8603   
N5680  X131.5194  Y151.1154   
N5685  X131.5606  Y154.9207   
N5690  X131.7618  Y157.3714   
N5695  X132.2398  Y159.2039   
N5700  X133.1116  Y161.1547   
N5705  X135.1482  Y164.3352   
N5710  X137.8664  Y167.2216   
N5715  X140.9362  Y169.5181   
N5720  X144.0271  Y170.9291   
N5725  X147.9244  Y171.6907   
N5730  X151.7889  Y171.7231   
N5735  X155.5745  Y171.0487   
N5740  X159.2346  Y169.6893   
N5745  X162.7229  Y167.6667   
N5750  X165.9930  Y165.0030   
N5755  X168.9987  Y161.7200   
N5760  X171.6934  Y157.8398   
N5765  X173.7478  Y153.9748   
N5770  X175.1392  Y150.1767   
N5775  X175.9389  Y146.1926   
N5780  X176.2180  Y141.7693   
N5785  X176.0083  Y136.8122   
N5790  X175.5603  Y135.2296   
N5795  X174.7615  Y133.5564   
N5800  X172.8517  Y130.2843   
N5805  X170.9336  Y127.7210   
N5810  X168.8433  Y125.6774   
N5815  X166.4163  Y123.9650   
N5820 G0  Z0.1000 
N5825 G1  Z-1.4000  F100.00 
N5830  X164.5281  Y122.9008   F300.00 
N5835  X162.9092  Y122.2303   
N5840  X161.2268  Y121.8472   
N5845  X159.1477  Y121.6449   
N5850  X156.4919  Y121.5815   
N5855  X154.1281  Y121.8628   
N5860  X151.3414  Y122.6356   
N5865  X147.4166  Y124.0462   
N5870  X144.3027  Y125.5064   
N5875  X141.5971  Y127.4965   
N5880  X139.0067  Y130.2805   
N5885  X136.2385  Y134.1228   
N5890  X133.8645  Y138.1068   
N5895  X132.4241  Y141.7716   
N5900  X131.7112  Y145.8603   
N5905  X131.5194  Y151.1154   
N5910  X131.5606  Y154.9207   
N5915  X131.7618  Y157.3714   
N5920  X132.2398  Y159.2039   
N5925  X133.1116  Y161.1547   
N5930  X135.1482  Y164.3352   
N5935  X137.8664  Y167.2216   
N5940  X140.9362  Y169.5181   
N5945  X144.0271  Y170.9291   
N5950  X147.9244  Y171.6907   
N5955  X151.7889  Y171.7231   
N5960  X155.5745  Y171.0487   
N5965  X159.2346  Y169.6893   
N5970  X162.7229  Y167.6667   
N5975  X165.9930  Y165.0030   
N5980  X168.9987  Y161.7200   
N5985  X171.6934  Y157.8398   
N5990  X173.7478  Y153.9748   
N5995  X175.1392  Y150.1767   
N6000  X175.9389  Y146.1926   
N6005  X176.2180  Y141.7693   
N6010  X176.0083  Y136.8122   
N6015  X175.5603  Y135.2296   
N6020  X174.7615  Y133.5564   
N6025  X172.8517  Y130.2843   
N6030  X170.9336  Y127.7210   
N6035  X168.8433  Y125.6774   
N6040  X166.4163  Y123.9650   
N6045 G0  Z3.0000 
N6050  X142.7846  Y145.7540 
N6055  Z0.1000 
N6060 G1  Z-0.7000  F100.00 
N6065  X141.9760  Y146.2541   F300.00 
N6070  X141.4840  Y146.9617   
N6075  X141.2880  Y147.7923   
N6080  X141.3671  Y148.6612   
N6085  X141.7011  Y149.4843   
N6090  X142.2692  Y150.1767   
N6095  X143.0506  Y150.6543   
N6100  X144.0249  Y150.8322   
N6105  X145.1136  Y150.4772   
N6110  X145.9757  Y149.5849   
N6115  X146.4445  Y148.4141   
N6120  X146.3528  Y147.2236   
N6125  X145.7800  Y146.3869   
N6130  X144.8932  Y145.8214   
N6135  X143.8441  Y145.5895   
N6140  X142.7846  Y145.7540   
N6145 G0  Z0.1000 
N6150 G1  Z-1.4000  F100.00 
N6155  X141.9760  Y146.2541   F300.00 
N6160  X141.4840  Y146.9617   
N6165  X141.2880  Y147.7923   
N6170  X141.3671  Y148.6612   
N6175  X141.7011  Y149.4843   
N6180  X142.2692  Y150.1767   
N6185  X143.0506  Y150.6543   
N6190  X144.0249  Y150.8322   
N6195  X145.1136  Y150.4772   
N6200  X145.9757  Y149.5849   
N6205  X146.4445  Y148.4141   
N6210  X146.3528  Y147.2236   
N6215  X145.7800  Y146.3869   
N6220  X144.8932  Y145.8214   
N6225  X143.8441  Y145.5895   
N6230  X142.7846  Y145.7540   
N6235 G0  Z3.0000 
N6240  X114.1020  Y146.9126 
N6245  Z0.1000 
N6250 G1  Z-0.7000  F100.00 
N6255  X113.2563  Y147.9103   F300.00 
N6260  X113.0781  Y149.2627   
N6265  X113.5291  Y150.5923   
N6270  X114.5708  Y151.5216   
N6275  X115.8900  Y151.8572   
N6280  X116.9598  Y151.5895   
N6285  X117.7213  Y150.7543   
N6290  X118.1155  Y149.3870   
N6295  X117.9169  Y147.7916   
N6300  X117.0356  Y146.7575   
N6305  X115.6909  Y146.4193   
N6310  X114.1020  Y146.9126   
N6315 G0  Z0.1000 
N6320 G1  Z-1.4000  F100.00 
N6325  X113.2563  Y147.9103   F300.00 
N6330  X113.0781  Y149.2627   
N6335  X113.5291  Y150.5923   
N6340  X114.5708  Y151.5216   
N6345  X115.8900  Y151.8572   
N6350  X116.9598  Y151.5895   
N6355  X117.7213  Y150.7543   
N6360  X118.1155  Y149.3870   
N6365  X117.9169  Y147.7916   
N6370  X117.0356  Y146.7575   
N6375  X115.6909  Y146.4193   
N6380  X114.1020  Y146.9126   
N6385 G0  Z3.0000 
N6390  X113.1108  Y124.6750 
N6395  Z0.1000 
N6400 G1  Z-0.7000  F100.00 
N6405  X108.6953  Y123.2231   F300.00 
N6410  X103.7650  Y122.7167   
N6415  X99.7485  Y122.7513   
N6420  X97.2510  Y123.1140   
N6425  X94.5809  Y124.5075   
N6430  X92.1146  Y126.3214   
N6435  X89.8988  Y128.4869   
N6440  X87.9808  Y130.9351   
N6445  X86.4073  Y133.5976   
N6450  X85.2252  Y136.4057   
N6455  X84.4817  Y139.2906   
N6460  X84.2234  Y142.1837   
N6465  X84.4146  Y144.8291   
N6470  X84.9335  Y147.9387   
N6475  X85.6984  Y151.1115   
N6480  X86.6274  Y153.9475   
N6485  X87.6656  Y156.1794   
N6490  X89.0715  Y158.5559   
N6495  X92.6348  Y163.3284   
N6500  X96.6160  Y167.4389   
N6505  X98.5440  Y168.9876   
N6510  X100.3132  Y170.0611   
N6515  X103.6657  Y171.4225   
N6520  X107.0087  Y172.2857   
N6525  X110.2458  Y172.6328   
N6530  X113.2804  Y172.4463   
N6535  X116.4582  Y171.8315   
N6540  X118.7953  Y170.9991   
N6545  X120.8656  Y169.6681   
N6550  X123.2423  Y167.5564   
N6555  X126.0552  Y164.5300   
N6560  X127.8801  Y161.5866   
N6565  X128.9282  Y158.2661   
N6570  X129.4104  Y154.1082   
N6575  X129.4475  Y149.2628   
N6580  X128.9347  Y145.0027   
N6585  X127.8276  Y141.1040   
N6590  X126.0817  Y137.3429   
N6595  X123.3151  Y133.0130   
N6600  X120.2248  Y129.4523   
N6605  X116.8201  Y126.6698   
N6610  X113.1108  Y124.6750   
N6615 G0  Z0.1000 
N6620 G1  Z-1.4000  F100.00 
N6625  X108.6953  Y123.2231   F300.00 
N6630  X103.7650  Y122.7167   
N6635  X99.7485  Y122.7513   
N6640  X97.2510  Y123.1140   
N6645  X94.5809  Y124.5075   
N6650  X92.1146  Y126.3214   
N6655  X89.8988  Y128.4869   
N6660  X87.9808  Y130.9351   
N6665  X86.4073  Y133.5976   
N6670  X85.2252  Y136.4057   
N6675  X84.4817  Y139.2906   
N6680  X84.2234  Y142.1837   
N6685  X84.4146  Y144.8291   
N6690  X84.9335  Y147.9387   
N6695  X85.6984  Y151.1115   
N6700  X86.6274  Y153.9475   
N6705  X87.6656  Y156.1794   
N6710  X89.0715  Y158.5559   
N6715  X92.6348  Y163.3284   
N6720  X96.6160  Y167.4389   
N6725  X98.5440  Y168.9876   
N6730  X100.3132  Y170.0611   
N6735  X103.6657  Y171.4225   
N6740  X107.0087  Y172.2857   
N6745  X110.2458  Y172.6328   
N6750  X113.2804  Y172.4463   
N6755  X116.4582  Y171.8315   
N6760  X118.7953  Y170.9991   
N6765  X120.8656  Y169.6681   
N6770  X123.2423  Y167.5564   
N6775  X126.0552  Y164.5300   
N6780  X127.8801  Y161.5866   
N6785  X128.9282  Y158.2661   
N6790  X129.4104  Y154.1082   
N6795  X129.4475  Y149.2628   
N6800  X128.9347  Y145.0027   
N6805  X127.8276  Y141.1040   
N6810  X126.0817  Y137.3429   
N6815  X123.3151  Y133.0130   
N6820  X120.2248  Y129.4523   
N6825  X116.8201  Y126.6698   
N6830  X113.1108  Y124.6750   
N6835 G0  Z3.0000 
N6840  X37.4416  Y150.8497 
N6845  Z0.1000 
N6850 G1  Z-0.7000  F100.00 
N6855  X33.4506  Y149.1329   F300.00 
N6860  X33.2457  Y150.4987   
N6865  X33.4674  Y151.3172   
N6870  X34.3679  Y152.1677   
N6875  X39.6179  Y154.9512   
N6880  X49.3886  Y159.3568   
N6885  X54.6190  Y161.6866   
N6890  X61.6443  Y165.0083   
N6895  X71.9688  Y169.3105   
N6900  X82.9190  Y173.5233   
N6905  X91.8220  Y176.5768   
N6910  X99.7219  Y178.6016   
N6915  X108.3433  Y180.1429   
N6920  X117.4940  Y181.1942   
N6925  X126.9811  Y181.7494   
N6930  X136.6123  Y181.8026   
N6935  X146.1950  Y181.3475   
N6940  X155.5367  Y180.3781   
N6945  X164.4447  Y178.8881   
N6950  X186.1616  Y174.0467   
N6955  X195.2536  Y171.7339   
N6960  X201.5508  Y169.8852   
N6965  X210.8182  Y166.1993   
N6970  X213.6586  Y164.8873   
N6975  X215.2255  Y163.9602   
N6980  X215.9473  Y163.0798   
N6985  X216.2515  Y161.9084   
N6990  X216.3395  Y160.3860   
N6995  X216.1892  Y160.0160   
N7000  X215.9074  Y159.8948   
N7005  X206.2258  Y162.9470   
N7010  X194.7813  Y166.7167   
N7015  X185.8016  Y169.3948   
N7020  X178.4823  Y171.2029   
N7025  X172.0184  Y172.3626   
N7030  X162.8846  Y174.0819   
N7035  X156.9641  Y175.1242   
N7040  X150.0576  Y175.8296   
N7045  X142.3986  Y176.2013   
N7050  X134.2201  Y176.2430   
N7055  X125.7556  Y175.9582   
N7060  X117.2379  Y175.3500   
N7065  X108.9005  Y174.4219   
N7070  X100.9765  Y173.1774   
N7075  X91.4948  Y170.8771   
N7080  X80.1650  Y167.4003   
N7085  X69.8587  Y163.6996   
N7090  X65.9868  Y162.0628   
N7095  X63.4477  Y160.7275   
N7100  X56.4224  Y157.7372   
N7105  X45.8747  Y154.0276   
N7110  X37.4416  Y150.8497   
N7115 G0  Z0.1000 
N7120 G1  Z-1.4000  F100.00 
N7125  X33.4506  Y149.1329   F300.00 
N7130  X33.2457  Y150.4987   
N7135  X33.4674  Y151.3172   
N7140  X34.3679  Y152.1677   
N7145  X39.6179  Y154.9512   
N7150  X49.3886  Y159.3568   
N7155  X54.6190  Y161.6866   
N7160  X61.6443  Y165.0083   
N7165  X71.9688  Y169.3105   
N7170  X82.9190  Y173.5233   
N7175  X91.8220  Y176.5768   
N7180  X99.7219  Y178.6016   
N7185  X108.3433  Y180.1429   
N7190  X117.4940  Y181.1942   
N7195  X126.9811  Y181.7494   
N7200  X136.6123  Y181.8026   
N7205  X146.1950  Y181.3475   
N7210  X155.5367  Y180.3781   
N7215  X164.4447  Y178.8881   
N7220  X186.1616  Y174.0467   
N7225  X195.2536  Y171.7339   
N7230  X201.5508  Y169.8852   
N7235  X210.8182  Y166.1993   
N7240  X213.6586  Y164.8873   
N7245  X215.2255  Y163.9602   
N7250  X215.9473  Y163.0798   
N7255  X216.2515  Y161.9084   
N7260  X216.3395  Y160.3860   
N7265  X216.1892  Y160.0160   
N7270  X215.9074  Y159.8948   
N7275  X206.2258  Y162.9470   
N7280  X194.7813  Y166.7167   
N7285  X185.8016  Y169.3948   
N7290  X178.4823  Y171.2029   
N7295  X172.0184  Y172.3626   
N7300  X162.8846  Y174.0819   
N7305  X156.9641  Y175.1242   
N7310  X150.0576  Y175.8296   
N7315  X142.3986  Y176.2013   
N7320  X134.2201  Y176.2430   
N7325  X125.7556  Y175.9582   
N7330  X117.2379  Y175.3500   
N7335  X108.9005  Y174.4219   
N7340  X100.9765  Y173.1774   
N7345  X91.4948  Y170.8771   
N7350  X80.1650  Y167.4003   
N7355  X69.8587  Y163.6996   
N7360  X65.9868  Y162.0628   
N7365  X63.4477  Y160.7275   
N7370  X56.4224  Y157.7372   
N7375  X45.8747  Y154.0276   
N7380  X37.4416  Y150.8497   
N7385 G0  Z3.0000 
N7390  X105.9433  Y214.8974 
N7395  Z0.1000 
N7400 G1  Z-0.7000  F100.00 
N7405  X103.4186  Y213.5975   F300.00 
N7410  X101.0362  Y213.1000   
N7415  X98.8842  Y213.4088   
N7420  X97.0505  Y214.5273   
N7425  X95.9958  Y215.9304   
N7430  X95.6066  Y217.4618   
N7435  X95.8164  Y219.0242   
N7440  X96.5581  Y220.5205   
N7445  X97.7647  Y221.8533   
N7450  X99.3693  Y222.9257   
N7455  X101.3050  Y223.6403   
N7460  X103.5052  Y223.9003   
N7465  X104.7612  Y223.9889   
N7470  X105.8465  Y224.3025   
N7475  X108.1762  Y225.8909   
N7480  X110.5229  Y227.5594   
N7485  X112.9389  Y228.5095   
N7490  X115.6618  Y228.7985   
N7495  X118.9292  Y228.4838   
N7500  X122.3600  Y228.1281   
N7505  X123.4324  Y228.2956   
N7510  X124.4245  Y228.7071   
N7515  X126.0968  Y229.3168   
N7520  X128.0045  Y229.5236   
N7525  X130.1890  Y229.3277   
N7530  X132.6911  Y228.7294   
N7535  X134.6602  Y227.9347   
N7540  X136.4903  Y226.8401   
N7545  X137.9193  Y225.6313   
N7550  X138.6853  Y224.4931   
N7555  X139.2749  Y224.2034   
N7560  X140.6938  Y224.5753   
N7565  X142.3464  Y224.8758   
N7570  X143.9131  Y224.5204   
N7575  X145.3516  Y223.5281   
N7580  X146.6199  Y221.9177   
N7585  X147.4119  Y220.2366   
N7590  X147.5797  Y218.7373   
N7595  X147.1144  Y217.3305   
N7600  X146.0067  Y215.9267   
N7605  X144.2169  Y214.6167   
N7610  X142.0532  Y214.2710   
N7615  X139.7949  Y214.5281   
N7620  X137.5715  Y215.1742   
N7625  X135.8760  Y216.0211   
N7630  X135.3802  Y216.4614   
N7635  X135.2012  Y216.8814   
N7640  X135.0016  Y217.5508   
N7645  X134.4218  Y217.5556   
N7650  X133.4896  Y216.9076   
N7655  X132.2330  Y215.6189   
N7660  X131.1427  Y214.4486   
N7665  X130.2309  Y213.8781   
N7670  X129.0291  Y213.7532   
N7675  X127.0690  Y213.9197   
N7680  X124.7630  Y214.2705   
N7685  X123.2515  Y214.7901   
N7690  X122.4248  Y215.5378   
N7695  X122.1735  Y216.5726   
N7700  X122.0079  Y217.4899   
N7705  X121.5911  Y217.9130   
N7710  X121.0431  Y217.8029   
N7715  X120.4837  Y217.1210   
N7720  X119.4303  Y216.0012   
N7725  X117.6975  Y214.8919   
N7730  X115.7546  Y214.0432   
N7735  X114.0708  Y213.7047   
N7740  X112.7989  Y214.0223   
N7745  X111.7350  Y214.8333   
N7750  X111.0724  Y215.9249   
N7755  X111.0043  Y217.0840   
N7760  X111.0645  Y218.0641   
N7765  X110.7159  Y218.5527   
N7770  X110.1088  Y218.4836   
N7775  X109.3937  Y217.7910   
N7780  X108.0524  Y216.4729   
N7785  X105.9433  Y214.8974   
N7790 G0  Z0.1000 
N7795 G1  Z-1.4000  F100.00 
N7800  X103.4186  Y213.5975   F300.00 
N7805  X101.0362  Y213.1000   
N7810  X98.8842  Y213.4088   
N7815  X97.0505  Y214.5273   
N7820  X95.9958  Y215.9304   
N7825  X95.6066  Y217.4618   
N7830  X95.8164  Y219.0242   
N7835  X96.5581  Y220.5205   
N7840  X97.7647  Y221.8533   
N7845  X99.3693  Y222.9257   
N7850  X101.3050  Y223.6403   
N7855  X103.5052  Y223.9003   
N7860  X104.7612  Y223.9889   
N7865  X105.8465  Y224.3025   
N7870  X108.1762  Y225.8909   
N7875  X110.5229  Y227.5594   
N7880  X112.9389  Y228.5095   
N7885  X115.6618  Y228.7985   
N7890  X118.9292  Y228.4838   
N7895  X122.3600  Y228.1281   
N7900  X123.4324  Y228.2956   
N7905  X124.4245  Y228.7071   
N7910  X126.0968  Y229.3168   
N7915  X128.0045  Y229.5236   
N7920  X130.1890  Y229.3277   
N7925  X132.6911  Y228.7294   
N7930  X134.6602  Y227.9347   
N7935  X136.4903  Y226.8401   
N7940  X137.9193  Y225.6313   
N7945  X138.6853  Y224.4931   
N7950  X139.2749  Y224.2034   
N7955  X140.6938  Y224.5753   
N7960  X142.3464  Y224.8758   
N7965  X143.9131  Y224.5204   
N7970  X145.3516  Y223.5281   
N7975  X146.6199  Y221.9177   
N7980  X147.4119  Y220.2366   
N7985  X147.5797  Y218.7373   
N7990  X147.1144  Y217.3305   
N7995  X146.0067  Y215.9267   
N8000  X144.2169  Y214.6167   
N8005  X142.0532  Y214.2710   
N8010  X139.7949  Y214.5281   
N8015  X137.5715  Y215.1742   
N8020  X135.8760  Y216.0211   
N8025  X135.3802  Y216.4614   
N8030  X135.2012  Y216.8814   
N8035  X135.0016  Y217.5508   
N8040  X134.4218  Y217.5556   
N8045  X133.4896  Y216.9076   
N8050  X132.2330  Y215.6189   
N8055  X131.1427  Y214.4486   
N8060  X130.2309  Y213.8781   
N8065  X129.0291  Y213.7532   
N8070  X127.0690  Y213.9197   
N8075  X124.7630  Y214.2705   
N8080  X123.2515  Y214.7901   
N8085  X122.4248  Y215.5378   
N8090  X122.1735  Y216.5726   
N8095  X122.0079  Y217.4899   
N8100  X121.5911  Y217.9130   
N8105  X121.0431  Y217.8029   
N8110  X120.4837  Y217.1210   
N8115  X119.4303  Y216.0012   
N8120  X117.6975  Y214.8919   
N8125  X115.7546  Y214.0432   
N8130  X114.0708  Y213.7047   
N8135  X112.7989  Y214.0223   
N8140  X111.7350  Y214.8333   
N8145  X111.0724  Y215.9249   
N8150  X111.0043  Y217.0840   
N8155  X111.0645  Y218.0641   
N8160  X110.7159  Y218.5527   
N8165  X110.1088  Y218.4836   
N8170  X109.3937  Y217.7910   
N8175  X108.0524  Y216.4729   
N8180  X105.9433  Y214.8974   
N8185 G0  Z3.0000 
N8190  X131.0475  Y42.4572 
N8195  Z0.1000 
N8200 G1  Z-0.7000  F100.00 
N8205  X130.7824  Y43.2176   F300.00 
N8210  X130.6897  Y44.5631   
N8215  X131.0268  Y47.6022   
N8220  X131.5418  Y48.4681   
N8225  X132.3303  Y48.8432   
N8230  X133.1415  Y48.6925   
N8235  X133.7245  Y47.9808   
N8240  X134.0430  Y46.7381   
N8245  X134.0952  Y45.4886   
N8250  X133.5597  Y43.2982   
N8255  X133.0521  Y42.5222   
N8260  X132.4376  Y42.0683   
N8265  X131.7560  Y42.0194   
N8270  X131.0475  Y42.4572   
N8275 G0  Z0.1000 
N8280 G1  Z-1.4000  F100.00 
N8285  X130.7824  Y43.2176   F300.00 
N8290  X130.6897  Y44.5631   
N8295  X131.0268  Y47.6022   
N8300  X131.5418  Y48.4681   
N8305  X132.3303  Y48.8432   
N8310  X133.1415  Y48.6925   
N8315  X133.7245  Y47.9808   
N8320  X134.0430  Y46.7381   
N8325  X134.0952  Y45.4886   
N8330  X133.5597  Y43.2982   
N8335  X133.0521  Y42.5222   
N8340  X132.4376  Y42.0683   
N8345  X131.7560  Y42.0194   
N8350  X131.0475  Y42.4572   
N8355 G0  Z3.0000 
N8360  X129.3144  Y21.4516 
N8365  Z0.1000 
N8370 G1  Z-0.7000  F100.00 
N8375  X128.9992  Y23.0699   F300.00 
N8380  X128.9957  Y25.0419   
N8385  X129.2651  Y26.8251   
N8390  X129.7691  Y27.8767   
N8395  X130.4235  Y28.1404   
N8400  X131.0311  Y27.8955   
N8405  X131.5577  Y27.2474   
N8410  X131.9692  Y26.3017   
N8415  X132.3108  Y23.9390   
N8420  X132.1725  Y22.7330   
N8425  X131.7827  Y21.6514   
N8430  X131.1642  Y20.8882   
N8435  X130.4595  Y20.5936   
N8440  X129.7993  Y20.7779   
N8445  X129.3144  Y21.4516   
N8450 G0  Z0.1000 
N8455 G1  Z-1.4000  F100.00 
N8460  X128.9992  Y23.0699   F300.00 
N8465  X128.9957  Y25.0419   
N8470  X129.2651  Y26.8251   
N8475  X129.7691  Y27.8767   
N8480  X130.4235  Y28.1404   
N8485  X131.0311  Y27.8955   
N8490  X131.5577  Y27.2474   
N8495  X131.9692  Y26.3017   
N8500  X132.3108  Y23.9390   
N8505  X132.1725  Y22.7330   
N8510  X131.7827  Y21.6514   
N8515  X131.1642  Y20.8882   
N8520  X130.4595  Y20.5936   
N8525  X129.7993  Y20.7779   
N8530  X129.3144  Y21.4516   
N8535 G0  Z3.0000 
N8540  X133.5878  Y14.5875 
N8545  Z0.1000 
N8550 G1  Z-0.7000  F100.00 
N8555  X126.6831  Y14.2157   F300.00 
N8560  X112.0643  Y14.0344   
N8565  X95.5120  Y14.0707   
N8570  X82.8074  Y14.3513   
N8575  X75.9279  Y14.7656   
N8580  X69.7958  Y15.3564   
N8585  X64.2373  Y16.1657   
N8590  X59.0789  Y17.2353   
N8595  X54.1468  Y18.6076   
N8600  X49.2675  Y20.3245   
N8605  X44.2672  Y22.4280   
N8610  X38.9722  Y24.9602   
N8615  X33.9783  Y27.5773   
N8620  X30.0116  Y29.9706   
N8625  X26.9415  Y32.3111   
N8630  X24.6381  Y34.7691   
N8635  X22.9710  Y37.5155   
N8640  X21.8101  Y40.7207   
N8645  X21.0252  Y44.5556   
N8650  X20.4860  Y49.1909   
N8655  X20.1252  Y53.1868   
N8660  X28.5742  Y52.9467   
N8665  X36.4893  Y53.0961   
N8670  X39.5185  Y53.5180   
N8675  X42.0197  Y54.2051   
N8680  X44.0612  Y55.1819   
N8685  X45.7114  Y56.4738   
N8690  X47.0385  Y58.1057   
N8695  X48.1108  Y60.1024   
N8700  X49.0564  Y62.9225   
N8705  X49.2356  Y65.5054   
N8710  X48.6344  Y68.0164   
N8715  X47.2395  Y70.6204   
N8720  X45.4054  Y73.0750   
N8725  X43.2414  Y75.0771   
N8730  X40.0737  Y77.1404   
N8735  X35.2281  Y79.7791   
N8740  X22.9652  Y85.9458   
N8745  X19.2813  Y87.4869   
N8750  X16.3948  Y88.3811   
N8755  X13.8337  Y89.2198   
N8760  X13.1112  Y89.6341   
N8765  X12.8546  Y90.0016   
N8770  X13.3271  Y91.2381   
N8775  X14.6236  Y93.3912   
N8780  X18.9618  Y99.4847   
N8785  X24.4157  Y106.3574   
N8790  X29.5316  Y112.0845   
N8795  X32.2483  Y114.5345   
N8800  X35.2447  Y116.8002   
N8805  X37.9196  Y118.4652   
N8810  X39.6723  Y119.1127   
N8815  X42.5816  Y114.3452   
N8820  X44.8786  Y110.5616   
N8825  X47.4527  Y106.8923   
N8830  X50.2903  Y103.3465   
N8835  X53.3772  Y99.9335   
N8840  X56.6998  Y96.6624   
N8845  X60.2440  Y93.5426   
N8850  X63.9962  Y90.5833   
N8855  X67.9424  Y87.7939   
N8860  X72.0686  Y85.1835   
N8865  X76.3612  Y82.7615   
N8870  X80.8062  Y80.5372   
N8875  X85.3897  Y78.5198   
N8880  X90.0978  Y76.7186   
N8885  X94.9168  Y75.1429   
N8890  X99.8327  Y73.8019   
N8895  X104.8317  Y72.7049   
N8900  X111.2477  Y71.7162   
N8905  X118.3419  Y71.0313   
N8910  X125.3174  Y70.7069   
N8915  X131.3779  Y70.8005   
N8920  X136.9004  Y71.1334   
N8925  X136.8951  Y66.0940   
N8930  X136.0725  Y48.3103   
N8935  X135.4886  Y36.8207   
N8940  X135.2318  Y27.0932   
N8945  X135.1488  Y21.1300   
N8950  X134.8935  Y17.4113   
N8955  X134.3964  Y15.4070   
N8960  X133.5878  Y14.5875   
N8965 G0  Z0.1000 
N8970 G1  Z-1.4000  F100.00 
N8975  X126.6831  Y14.2157   F300.00 
N8980  X112.0643  Y14.0344   
N8985  X95.5120  Y14.0707   
N8990  X82.8074  Y14.3513   
N8995  X75.9279  Y14.7656   
N9000  X69.7958  Y15.3564   
N9005  X64.2373  Y16.1657   
N9010  X59.0789  Y17.2353   
N9015  X54.1468  Y18.6076   
N9020  X49.2675  Y20.3245   
N9025  X44.2672  Y22.4280   
N9030  X38.9722  Y24.9602   
N9035  X33.9783  Y27.5773   
N9040  X30.0116  Y29.9706   
N9045  X26.9415  Y32.3111   
N9050  X24.6381  Y34.7691   
N9055  X22.9710  Y37.5155   
N9060  X21.8101  Y40.7207   
N9065  X21.0252  Y44.5556   
N9070  X20.4860  Y49.1909   
N9075  X20.1252  Y53.1868   
N9080  X28.5742  Y52.9467   
N9085  X36.4893  Y53.0961   
N9090  X39.5185  Y53.5180   
N9095  X42.0197  Y54.2051   
N9100  X44.0612  Y55.1819   
N9105  X45.7114  Y56.4738   
N9110  X47.0385  Y58.1057   
N9115  X48.1108  Y60.1024   
N9120  X49.0564  Y62.9225   
N9125  X49.2356  Y65.5054   
N9130  X48.6344  Y68.0164   
N9135  X47.2395  Y70.6204   
N9140  X45.4054  Y73.0750   
N9145  X43.2414  Y75.0771   
N9150  X40.0737  Y77.1404   
N9155  X35.2281  Y79.7791   
N9160  X22.9652  Y85.9458   
N9165  X19.2813  Y87.4869   
N9170  X16.3948  Y88.3811   
N9175  X13.8337  Y89.2198   
N9180  X13.1112  Y89.6341   
N9185  X12.8546  Y90.0016   
N9190  X13.3271  Y91.2381   
N9195  X14.6236  Y93.3912   
N9200  X18.9618  Y99.4847   
N9205  X24.4157  Y106.3574   
N9210  X29.5316  Y112.0845   
N9215  X32.2483  Y114.5345   
N9220  X35.2447  Y116.8002   
N9225  X37.9196  Y118.4652   
N9230  X39.6723  Y119.1127   
N9235  X42.5816  Y114.3452   
N9240  X44.8786  Y110.5616   
N9245  X47.4527  Y106.8923   
N9250  X50.2903  Y103.3465   
N9255  X53.3772  Y99.9335   
N9260  X56.6998  Y96.6624   
N9265  X60.2440  Y93.5426   
N9270  X63.9962  Y90.5833   
N9275  X67.9424  Y87.7939   
N9280  X72.0686  Y85.1835   
N9285  X76.3612  Y82.7615   
N9290  X80.8062  Y80.5372   
N9295  X85.3897  Y78.5198   
N9300  X90.0978  Y76.7186   
N9305  X94.9168  Y75.1429   
N9310  X99.8327  Y73.8019   
N9315  X104.8317  Y72.7049   
N9320  X111.2477  Y71.7162   
N9325  X118.3419  Y71.0313   
N9330  X125.3174  Y70.7069   
N9335  X131.3779  Y70.8005   
N9340  X136.9004  Y71.1334   
N9345  X136.8951  Y66.0940   
N9350  X136.0725  Y48.3103   
N9355  X135.4886  Y36.8207   
N9360  X135.2318  Y27.0932   
N9365  X135.1488  Y21.1300   
N9370  X134.8935  Y17.4113   
N9375  X134.3964  Y15.4070   
N9380  X133.5878  Y14.5875   
N9385 G0  Z3.0000 
N9390  X129.6074  Y7.2756 
N9395  Z0.1000 
N9400 G1  Z-0.7000  F100.00 
N9405  Y7.2755   F300.00 
N9410  X127.8016  Y6.7024   
N9415  X126.4302  Y6.4792   
N9420  X125.2138  Y6.5937   
N9425  X123.8728  Y7.0345   
N9430  X119.7839  Y8.3472   
N9435  X114.6003  Y9.4913   
N9440  X108.6384  Y10.4085   
N9445  X102.2141  Y11.0403   
N9450  X92.5869  Y11.3516   
N9455  X81.1599  Y11.1231   
N9460  X69.1137  Y10.4024   
N9465  X57.6287  Y9.2372   
N9470  X42.5394  Y7.7480   
N9475  X38.3080  Y7.5120   
N9480  X36.9945  Y7.6902   
N9485  X36.0038  Y8.2623   
N9490  X35.1771  Y9.3759   
N9495  X34.3553  Y11.1785   
N9500  X32.0908  Y17.4402   
N9505  X28.5458  Y26.8272   
N9510  X27.6504  Y28.8507   
N9515  X37.3867  Y23.9456   
N9520  X47.3316  Y19.3417   
N9525  X51.8557  Y17.6263   
N9530  X56.3000  Y16.2411   
N9535  X60.8285  Y15.1408   
N9540  X65.6055  Y14.2799   
N9545  X76.5609  Y13.0941   
N9550  X89.5133  Y12.5733   
N9555  X106.6557  Y12.3994   
N9560  X123.1169  Y12.5727   
N9565  X134.0263  Y13.0933   
N9570  X141.0711  Y14.1241   
N9575  X148.8555  Y15.7020   
N9580  X156.2451  Y17.5691   
N9585  X162.1060  Y19.4681   
N9590  X169.0991  Y22.0813   
N9595  X174.5666  Y23.5485   
N9600  X181.2384  Y24.3884   
N9605  X191.8430  Y25.1196   
N9610  X211.1414  Y26.4558   
N9615  X215.4731  Y26.9309   
N9620  X218.0972  Y27.4397   
N9625  X219.6271  Y27.7568   
N9630  X220.4266  Y27.6977   
N9635  X220.5823  Y27.2130   
N9640  X220.1817  Y26.2530   
N9645  X217.5835  Y19.6924   
N9650  X214.4138  Y10.6104   
N9655  X213.3192  Y7.1791   
N9660  X209.2367  Y7.8758   
N9665  X199.3691  Y9.2176   
N9670  X188.3205  Y10.1458   
N9675  X176.6691  Y10.6649   
N9680  X164.9931  Y10.7792   
N9685  X153.8706  Y10.4931   
N9690  X143.8801  Y9.8109   
N9695  X135.5995  Y8.7369   
N9700  X132.2812  Y8.0543   
N9705  X129.6074  Y7.2756   
N9710 G0  Z0.1000 
N9715 G1  Z-1.4000  F100.00 
N9720  Y7.2755   F300.00 
N9725  X127.8016  Y6.7024   
N9730  X126.4302  Y6.4792   
N9735  X125.2138  Y6.5937   
N9740  X123.8728  Y7.0345   
N9745  X119.7839  Y8.3472   
N9750  X114.6003  Y9.4913   
N9755  X108.6384  Y10.4085   
N9760  X102.2141  Y11.0403   
N9765  X92.5869  Y11.3516   
N9770  X81.1599  Y11.1231   
N9775  X69.1137  Y10.4024   
N9780  X57.6287  Y9.2372   
N9785  X42.5394  Y7.7480   
N9790  X38.3080  Y7.5120   
N9795  X36.9945  Y7.6902   
N9800  X36.0038  Y8.2623   
N9805  X35.1771  Y9.3759   
N9810  X34.3553  Y11.1785   
N9815  X32.0908  Y17.4402   
N9820  X28.5458  Y26.8272   
N9825  X27.6504  Y28.8507   
N9830  X37.3867  Y23.9456   
N9835  X47.3316  Y19.3417   
N9840  X51.8557  Y17.6263   
N9845  X56.3000  Y16.2411   
N9850  X60.8285  Y15.1408   
N9855  X65.6055  Y14.2799   
N9860  X76.5609  Y13.0941   
N9865  X89.5133  Y12.5733   
N9870  X106.6557  Y12.3994   
N9875  X123.1169  Y12.5727   
N9880  X134.0263  Y13.0933   
N9885  X141.0711  Y14.1241   
N9890  X148.8555  Y15.7020   
N9895  X156.2451  Y17.5691   
N9900  X162.1060  Y19.4681   
N9905  X169.0991  Y22.0813   
N9910  X174.5666  Y23.5485   
N9915  X181.2384  Y24.3884   
N9920  X191.8430  Y25.1196   
N9925  X211.1414  Y26.4558   
N9930  X215.4731  Y26.9309   
N9935  X218.0972  Y27.4397   
N9940  X219.6271  Y27.7568   
N9945  X220.4266  Y27.6977   
N9950  X220.5823  Y27.2130   
N9955  X220.1817  Y26.2530   
N9960  X217.5835  Y19.6924   
N9965  X214.4138  Y10.6104   
N9970  X213.3192  Y7.1791   
N9975  X209.2367  Y7.8758   
N9980  X199.3691  Y9.2176   
N9985  X188.3205  Y10.1458   
N9990  X176.6691  Y10.6649   
N9995  X164.9931  Y10.7792   
N10000  X153.8706  Y10.4931   
N10005  X143.8801  Y9.8109   
N10010  X135.5995  Y8.7369   
N10015  X132.2812  Y8.0543   
N10020  X129.6074  Y7.2756   
N10025 G0  Z3.0000 
N10030  X148.4846  Y17.2464 
N10035  Z0.1000 
N10040 G1  Z-0.7000  F100.00 
N10045  X154.7859  Y18.8347   F300.00 
N10050  X159.5571  Y20.2876   
N10055  X167.1746  Y23.1137   
N10060  X171.3782  Y24.4891   
N10065  X175.7050  Y25.4435   
N10070  X180.7299  Y26.0741   
N10075  X187.0285  Y26.4786   
N10080  X200.7145  Y27.2030   
N10085  X210.6231  Y27.9978   
N10090  X217.7263  Y28.9634   
N10095  X222.9962  Y30.2007   
N10100  X227.0996  Y31.6183   
N10105  X230.0175  Y33.1643   
N10110  X232.1985  Y35.1493   
N10115  X234.0912  Y37.8840   
N10120  X234.9351  Y39.7086   
N10125  X235.6632  Y42.5015   
N10130  X237.4711  Y54.4085   
N10135  X237.7951  Y56.8249   
N10140  X234.7854  Y56.4733   
N10145  X231.7785  Y56.4630   
N10150  X228.5188  Y57.0722   
N10155  X225.1332  Y58.2666   
N10160  X221.7489  Y60.0115   
N10165  X218.3256  Y61.6406   
N10170  X214.3855  Y62.4349   
N10175  X210.9339  Y62.9434   
N10180  X208.7116  Y63.5943   
N10185  X207.3897  Y64.5350   
N10190  X206.6394  Y65.9133   
N10195  X206.0491  Y68.6079   
N10200  X206.3109  Y71.1677   
N10205  X207.4962  Y73.8507   
N10210  X209.6759  Y76.9143   
N10215  X211.4307  Y79.4250   
N10220  X213.0771  Y82.2795   
N10225  X215.1518  Y85.4354   
N10230  X218.0760  Y88.7348   
N10235  X221.3082  Y91.6329   
N10240  X224.3070  Y93.5843   
N10245  X227.2948  Y94.6042   
N10250  X230.6791  Y95.1856   
N10255  X233.2537  Y95.5059   
N10260  X234.3245  Y95.8651   
N10265  X232.3162  Y98.5981   
N10270  X230.3908  Y101.3846   
N10275  X228.5814  Y104.7892   
N10280  X226.8369  Y108.0554   
N10285  X225.0671  Y110.5091   
N10290  X223.4398  Y111.8663   
N10295  X221.3395  Y113.1816   
N10300  X219.2575  Y114.1832   
N10305  X217.6847  Y114.5991   
N10310  X214.2407  Y115.9919   
N10315  X211.4085  Y117.2486   
N10320  X209.7854  Y114.2628   
N10325  X206.6369  Y109.2004   
N10330  X202.5641  Y104.0286   
N10335  X196.8196  Y98.0188   
N10340  X190.5152  Y92.2570   
N10345  X184.7628  Y87.8297   
N10350  X179.4508  Y84.5731   
N10355  X173.6299  Y81.5102   
N10360  X167.5071  Y78.7425   
N10365  X161.2894  Y76.3708   
N10370  X156.2197  Y74.8468   
N10375  X150.1214  Y73.3268   
N10380  X144.2179  Y72.0918   
N10385  X139.7325  Y71.4225   
N10390  X138.6033  Y71.2822   
N10395  X138.0326  Y70.9661   
N10400  X137.8594  Y70.2506   
N10405  X137.9222  Y68.9119   
N10410  X137.2669  Y49.9367   
N10415  X136.3742  Y25.9367   
N10420  X135.9609  Y16.6565   
N10425  X135.6130  Y14.7397   
N10430  X138.3534  Y15.1506   
N10435  X148.4846  Y17.2464   
N10440 G0  Z0.1000 
N10445 G1  Z-1.4000  F100.00 
N10450  X154.7859  Y18.8347   F300.00 
N10455  X159.5571  Y20.2876   
N10460  X167.1746  Y23.1137   
N10465  X171.3782  Y24.4891   
N10470  X175.7050  Y25.4435   
N10475  X180.7299  Y26.0741   
N10480  X187.0285  Y26.4786   
N10485  X200.7145  Y27.2030   
N10490  X210.6231  Y27.9978   
N10495  X217.7263  Y28.9634   
N10500  X222.9962  Y30.2007   
N10505  X227.0996  Y31.6183   
N10510  X230.0175  Y33.1643   
N10515  X232.1985  Y35.1493   
N10520  X234.0912  Y37.8840   
N10525  X234.9351  Y39.7086   
N10530  X235.6632  Y42.5015   
N10535  X237.4711  Y54.4085   
N10540  X237.7951  Y56.8249   
N10545  X234.7854  Y56.4733   
N10550  X231.7785  Y56.4630   
N10555  X228.5188  Y57.0722   
N10560  X225.1332  Y58.2666   
N10565  X221.7489  Y60.0115   
N10570  X218.3256  Y61.6406   
N10575  X214.3855  Y62.4349   
N10580  X210.9339  Y62.9434   
N10585  X208.7116  Y63.5943   
N10590  X207.3897  Y64.5350   
N10595  X206.6394  Y65.9133   
N10600  X206.0491  Y68.6079   
N10605  X206.3109  Y71.1677   
N10610  X207.4962  Y73.8507   
N10615  X209.6759  Y76.9143   
N10620  X211.4307  Y79.4250   
N10625  X213.0771  Y82.2795   
N10630  X215.1518  Y85.4354   
N10635  X218.0760  Y88.7348   
N10640  X221.3082  Y91.6329   
N10645  X224.3070  Y93.5843   
N10650  X227.2948  Y94.6042   
N10655  X230.6791  Y95.1856   
N10660  X233.2537  Y95.5059   
N10665  X234.3245  Y95.8651   
N10670  X232.3162  Y98.5981   
N10675  X230.3908  Y101.3846   
N10680  X228.5814  Y104.7892   
N10685  X226.8369  Y108.0554   
N10690  X225.0671  Y110.5091   
N10695  X223.4398  Y111.8663   
N10700  X221.3395  Y113.1816   
N10705  X219.2575  Y114.1832   
N10710  X217.6847  Y114.5991   
N10715  X214.2407  Y115.9919   
N10720  X211.4085  Y117.2486   
N10725  X209.7854  Y114.2628   
N10730  X206.6369  Y109.2004   
N10735  X202.5641  Y104.0286   
N10740  X196.8196  Y98.0188   
N10745  X190.5152  Y92.2570   
N10750  X184.7628  Y87.8297   
N10755  X179.4508  Y84.5731   
N10760  X173.6299  Y81.5102   
N10765  X167.5071  Y78.7425   
N10770  X161.2894  Y76.3708   
N10775  X156.2197  Y74.8468   
N10780  X150.1214  Y73.3268   
N10785  X144.2179  Y72.0918   
N10790  X139.7325  Y71.4225   
N10795  X138.6033  Y71.2822   
N10800  X138.0326  Y70.9661   
N10805  X137.8594  Y70.2506   
N10810  X137.9222  Y68.9119   
N10815  X137.2669  Y49.9367   
N10820  X136.3742  Y25.9367   
N10825  X135.9609  Y16.6565   
N10830  X135.6130  Y14.7397   
N10835  X138.3534  Y15.1506   
N10840  X148.4846  Y17.2464   
N10845 G0  Z3.0000 
N10850  X237.7116  Y58.5517 
N10855  Z0.1000 
N10860 G1  Z-0.7000  F100.00 
N10865  X233.9077  Y58.0702   F300.00 
N10870  X230.1128  Y58.3963   
N10875  X226.2735  Y59.5400   
N10880  X222.3358  Y61.5120   
N10885  X220.0847  Y62.7170   
N10890  X217.9769  Y63.5429   
N10895  X215.9227  Y64.0178   
N10900  X213.8324  Y64.1701   
N10905  X212.0293  Y64.3234   
N10910  X210.3349  Y64.7354   
N10915  X208.9680  Y65.3338   
N10920  X208.1479  Y66.0464   
N10925  X207.8033  Y67.2536   
N10930  X207.7314  Y69.0207   
N10935  X207.9169  Y70.8588   
N10940  X208.3441  Y72.2787   
N10945  X210.7955  Y75.7816   
N10950  X214.2607  Y81.1331   
N10955  X216.3424  Y84.3542   
N10960  X218.9724  Y87.4696   
N10965  X221.7963  Y90.1053   
N10970  X224.4597  Y91.8875   
N10975  X227.8464  Y92.9906   
N10980  X232.2838  Y93.6993   
N10985  X236.7950  Y93.9131   
N10990  X240.4036  Y93.5315   
N10995  X242.3024  Y92.7831   
N11000  X243.0121  Y92.1852   
N11005  X243.6105  Y91.3537   
N11010  X244.6178  Y88.7365   
N11015  X245.6143  Y84.4250   
N11020  X246.6097  Y79.1379   
N11025  X247.1073  Y75.2442   
N11030  X247.1487  Y72.2058   
N11035  X246.7761  Y69.4849   
N11040  X245.4964  Y65.2132   
N11045  X244.6329  Y63.4896   
N11050  X243.6081  Y62.0261   
N11055  X242.4127  Y60.8116   
N11060  X241.0375  Y59.8351   
N11065  X239.4736  Y59.0854   
N11070  X237.7116  Y58.5517   
N11075 G0  Z0.1000 
N11080 G1  Z-1.4000  F100.00 
N11085  X233.9077  Y58.0702   F300.00 
N11090  X230.1128  Y58.3963   
N11095  X226.2735  Y59.5400   
N11100  X222.3358  Y61.5120   
N11105  X220.0847  Y62.7170   
N11110  X217.9769  Y63.5429   
N11115  X215.9227  Y64.0178   
N11120  X213.8324  Y64.1701   
N11125  X212.0293  Y64.3234   
N11130  X210.3349  Y64.7354   
N11135  X208.9680  Y65.3338   
N11140  X208.1479  Y66.0464   
N11145  X207.8033  Y67.2536   
N11150  X207.7314  Y69.0207   
N11155  X207.9169  Y70.8588   
N11160  X208.3441  Y72.2787   
N11165  X210.7955  Y75.7816   
N11170  X214.2607  Y81.1331   
N11175  X216.3424  Y84.3542   
N11180  X218.9724  Y87.4696   
N11185  X221.7963  Y90.1053   
N11190  X224.4597  Y91.8875   
N11195  X227.8464  Y92.9906   
N11200  X232.2838  Y93.6993   
N11205  X236.7950  Y93.9131   
N11210  X240.4036  Y93.5315   
N11215  X242.3024  Y92.7831   
N11220  X243.0121  Y92.1852   
N11225  X243.6105  Y91.3537   
N11230  X244.6178  Y88.7365   
N11235  X245.6143  Y84.4250   
N11240  X246.6097  Y79.1379   
N11245  X247.1073  Y75.2442   
N11250  X247.1487  Y72.2058   
N11255  X246.7761  Y69.4849   
N11260  X245.4964  Y65.2132   
N11265  X244.6329  Y63.4896   
N11270  X243.6081  Y62.0261   
N11275  X242.4127  Y60.8116   
N11280  X241.0375  Y59.8351   
N11285  X239.4736  Y59.0854   
N11290  X237.7116  Y58.5517   
N11295 G0  Z3.0000 
N11300 M5
N11305 M30

