N5 (File Name = copa del mundo on Tuesday, November 07, 2023)
N10 (Default Mill Post)
N15  G91.1
N20 G0  Z5.0000 
N25 M3 
N30  X23.8286  Y0.6739 
N35  Z0.1000 
N40 G1  Z-1.0000  F100.00 
N45  X22.7909  Y2.6144   F300.00 
N50  X22.4047  Y6.8588   
N55  X22.8887  Y10.8042   
N60  X24.6336  Y16.7134   
N65  X33.6597  Y39.5124   
N70  X44.1597  Y65.9025   
N75  X53.6001  Y91.3750   
N80  X60.7495  Y112.9521   
N85  X61.3501  Y116.9740   
N90  X60.6810  Y119.2969   
N95  X57.9436  Y125.8496   
N100  X54.4954  Y135.6477   
N105  X49.1048  Y154.0550   
N110  X47.9463  Y162.0992   
N115  X47.4645  Y170.5376   
N120  X47.2556  Y175.8440   
N125  X46.2440  Y181.0932   
N130  X43.8527  Y188.4183   
N135  X39.5043  Y199.9512   
N140  X33.5722  Y216.6954   
N145  X30.4876  Y227.8929   
N150  X29.1999  Y234.2822   
N155  X27.5884  Y239.4665   
N160  X25.7815  Y245.9356   
N165  X24.0246  Y255.4137   
N170  X22.4386  Y265.1921   
N175  X20.9246  Y271.7843   
N180  X19.1122  Y276.4436   
N185  X16.6308  Y280.4232   
N190  X13.8384  Y285.3389   
N195  X11.3163  Y291.9542   
N200  X9.1071  Y300.1356   
N205  X7.2534  Y309.7500   
N210  X5.2434  Y318.4467   
N215  X2.5386  Y325.6065   
N220  X0.4763  Y330.6503   
N225  X0.0000  Y335.0404   
N230  X1.1556  Y339.3632   
N235  X3.9890  Y344.2059   
N240  X5.6948  Y346.9757   
N245  X6.8369  Y349.7716   
N250  X8.0790  Y357.5600   
N255  X8.9072  Y363.9681   
N260  X10.2876  Y370.2802   
N265  X12.1978  Y376.4720   
N270  X14.6163  Y382.5184   
N275  X17.5216  Y388.3940   
N280  X20.8916  Y394.0747   
N285  X24.7046  Y399.5347   
N290  X28.9390  Y404.7497   
N295  X38.5850  Y414.3444   
N300  X49.6550  Y422.6595   
N305  X55.6698  Y426.2745   
N310  X61.9755  Y429.4950   
N315  X68.5502  Y432.2961   
N320  X75.3719  Y434.6522   
N325  X79.8617  Y435.6458   
N330  X85.6314  Y436.3513   
N335  X99.3836  Y436.8996   
N340  X113.3751  Y436.3035   
N345  X124.3527  Y434.5680   
N350  X136.7478  Y430.3191   
N355  X147.9714  Y424.6481   
N360  X158.2752  Y417.4047   
N365  X167.9096  Y408.4384   
N370  X172.6674  Y403.0623   
N375  X176.9376  Y397.4656   
N380  X180.7193  Y391.6491   
N385  X184.0128  Y385.6133   
N390  X186.8171  Y379.3599   
N395  X189.1315  Y372.8892   
N400  X190.9565  Y366.2025   
N405  X192.2907  Y359.3004   
N410  X193.9904  Y352.1871   
N415  X196.8153  Y347.1758   
N420  X199.0045  Y343.4901   
N425  X200.0013  Y339.4549   
N430  X199.8082  Y335.0500   
N435  X198.4269  Y330.2535   
N440  X190.0117  Y307.8834   
N445  X178.0477  Y278.2672   
N450  X173.5840  Y267.4672   
N455  X169.9464  Y256.0908   
N460  X166.7594  Y242.7797   
N465  X163.6478  Y226.1754   
N470  X161.0120  Y211.9863   
N475  X158.4918  Y201.4814   
N480  X155.7195  Y193.3666   
N485  X152.3276  Y186.3485   
N490  X150.5901  Y182.5588   
N495  X148.9827  Y177.4552   
N500  X145.4151  Y160.5303   
N505  X142.9644  Y148.4503   
N510  X140.2189  Y137.6880   
N515  X136.9309  Y127.3782   
N520  X132.8524  Y116.6543   
N525  X132.3281  Y114.2601   
N530  X133.2512  Y110.6744   
N535  X142.4998  Y92.1641   
N540  X153.5846  Y69.3839   
N545  X165.0381  Y43.4490   
N550  X174.0884  Y20.9129   
N555  X176.8459  Y12.9673   
N560  X177.9628  Y8.3289   
N565  X178.2340  Y5.3810   
N570  X177.8581  Y3.2144   
N575  X175.7293  Y1.7113   
N580  X170.7407  Y0.7533   
N585  X161.7866  Y0.2225   
N590  X147.7603  Y0.0000   
N595  X100.0659  Y0.0097   
N600  X23.8286  Y0.6742   
N605  Y0.6739   
N610 G0  Z0.1000 
N615 G1  Z-2.0000  F100.00 
N620  X22.7909  Y2.6144   F300.00 
N625  X22.4047  Y6.8588   
N630  X22.8887  Y10.8042   
N635  X24.6336  Y16.7134   
N640  X33.6597  Y39.5124   
N645  X44.1597  Y65.9025   
N650  X53.6001  Y91.3750   
N655  X60.7495  Y112.9521   
N660  X61.3501  Y116.9740   
N665  X60.6810  Y119.2969   
N670  X57.9436  Y125.8496   
N675  X54.4954  Y135.6477   
N680  X49.1048  Y154.0550   
N685  X47.9463  Y162.0992   
N690  X47.4645  Y170.5376   
N695  X47.2556  Y175.8440   
N700  X46.2440  Y181.0932   
N705  X43.8527  Y188.4183   
N710  X39.5043  Y199.9512   
N715  X33.5722  Y216.6954   
N720  X30.4876  Y227.8929   
N725  X29.1999  Y234.2822   
N730  X27.5884  Y239.4665   
N735  X25.7815  Y245.9356   
N740  X24.0246  Y255.4137   
N745  X22.4386  Y265.1921   
N750  X20.9246  Y271.7843   
N755  X19.1122  Y276.4436   
N760  X16.6308  Y280.4232   
N765  X13.8384  Y285.3389   
N770  X11.3163  Y291.9542   
N775  X9.1071  Y300.1356   
N780  X7.2534  Y309.7500   
N785  X5.2434  Y318.4467   
N790  X2.5386  Y325.6065   
N795  X0.4763  Y330.6503   
N800  X0.0000  Y335.0404   
N805  X1.1556  Y339.3632   
N810  X3.9890  Y344.2059   
N815  X5.6948  Y346.9757   
N820  X6.8369  Y349.7716   
N825  X8.0790  Y357.5600   
N830  X8.9072  Y363.9681   
N835  X10.2876  Y370.2802   
N840  X12.1978  Y376.4720   
N845  X14.6163  Y382.5184   
N850  X17.5216  Y388.3940   
N855  X20.8916  Y394.0747   
N860  X24.7046  Y399.5347   
N865  X28.9390  Y404.7497   
N870  X38.5850  Y414.3444   
N875  X49.6550  Y422.6595   
N880  X55.6698  Y426.2745   
N885  X61.9755  Y429.4950   
N890  X68.5502  Y432.2961   
N895  X75.3719  Y434.6522   
N900  X79.8617  Y435.6458   
N905  X85.6314  Y436.3513   
N910  X99.3836  Y436.8996   
N915  X113.3751  Y436.3035   
N920  X124.3527  Y434.5680   
N925  X136.7478  Y430.3191   
N930  X147.9714  Y424.6481   
N935  X158.2752  Y417.4047   
N940  X167.9096  Y408.4384   
N945  X172.6674  Y403.0623   
N950  X176.9376  Y397.4656   
N955  X180.7193  Y391.6491   
N960  X184.0128  Y385.6133   
N965  X186.8171  Y379.3599   
N970  X189.1315  Y372.8892   
N975  X190.9565  Y366.2025   
N980  X192.2907  Y359.3004   
N985  X193.9904  Y352.1871   
N990  X196.8153  Y347.1758   
N995  X199.0045  Y343.4901   
N1000  X200.0013  Y339.4549   
N1005  X199.8082  Y335.0500   
N1010  X198.4269  Y330.2535   
N1015  X190.0117  Y307.8834   
N1020  X178.0477  Y278.2672   
N1025  X173.5840  Y267.4672   
N1030  X169.9464  Y256.0908   
N1035  X166.7594  Y242.7797   
N1040  X163.6478  Y226.1754   
N1045  X161.0120  Y211.9863   
N1050  X158.4918  Y201.4814   
N1055  X155.7195  Y193.3666   
N1060  X152.3276  Y186.3485   
N1065  X150.5901  Y182.5588   
N1070  X148.9827  Y177.4552   
N1075  X145.4151  Y160.5303   
N1080  X142.9644  Y148.4503   
N1085  X140.2189  Y137.6880   
N1090  X136.9309  Y127.3782   
N1095  X132.8524  Y116.6543   
N1100  X132.3281  Y114.2601   
N1105  X133.2512  Y110.6744   
N1110  X142.4998  Y92.1641   
N1115  X153.5846  Y69.3839   
N1120  X165.0381  Y43.4490   
N1125  X174.0884  Y20.9129   
N1130  X176.8459  Y12.9673   
N1135  X177.9628  Y8.3289   
N1140  X178.2340  Y5.3810   
N1145  X177.8581  Y3.2144   
N1150  X175.7293  Y1.7113   
N1155  X170.7407  Y0.7533   
N1160  X161.7866  Y0.2225   
N1165  X147.7603  Y0.0000   
N1170  X100.0659  Y0.0097   
N1175  X23.8286  Y0.6742   
N1180  Y0.6739   
N1185 G0  Z5.0000 
N1190  X75.2134  Y98.4291 
N1195  Z0.1000 
N1200 G1  Z-1.0000  F100.00 
N1205  X96.3323  Y117.1920   F300.00 
N1210  X107.4904  Y127.2897   
N1215  X114.0360  Y134.2376   
N1220  X116.9446  Y139.5024   
N1225  X118.9071  Y145.7264   
N1230  X120.0166  Y153.3275   
N1235  X120.3656  Y162.7243   
N1240  Y174.6732   
N1245  X114.5259  Y164.4692   
N1250  X104.8750  Y148.9624   
N1255  X94.8192  Y134.8298   
N1260  X86.5274  Y124.9139   
N1265  X83.7209  Y122.4250   
N1270  X82.7706  Y121.9533   
N1275  X82.1681  Y122.0563   
N1280  X82.8316  Y124.0375   
N1285  X85.6214  Y127.6442   
N1290  X91.5196  Y135.2157   
N1295  X98.6584  Y145.9640   
N1300  X106.1614  Y158.4960   
N1305  X113.1526  Y171.4191   
N1310  X120.0098  Y183.5387   
N1315  X122.3020  Y186.1122   
N1320  X123.1900  Y186.5068   
N1325  X123.9152  Y186.2985   
N1330  X124.9090  Y184.0512   
N1335  X125.3423  Y179.3234   
N1340  X124.7647  Y162.2390   
N1345  X124.0957  Y154.2400   
N1350  X123.1092  Y147.5359   
N1355  X121.6614  Y141.8462   
N1360  X119.6091  Y136.8915   
N1365  X116.8077  Y132.3914   
N1370  X113.1142  Y128.0659   
N1375  X108.3845  Y123.6349   
N1380  X102.4750  Y118.8190   
N1385  X82.2065  Y102.3897   
N1390  X70.6332  Y93.2151   
N1395  X70.1950  Y93.1308   
N1400  X70.7940  Y93.9613   
N1405  X75.2134  Y98.4291   
N1410 G0  Z0.1000 
N1415 G1  Z-2.0000  F100.00 
N1420  X96.3323  Y117.1920   F300.00 
N1425  X107.4904  Y127.2897   
N1430  X114.0360  Y134.2376   
N1435  X116.9446  Y139.5024   
N1440  X118.9071  Y145.7264   
N1445  X120.0166  Y153.3275   
N1450  X120.3656  Y162.7243   
N1455  Y174.6732   
N1460  X114.5259  Y164.4692   
N1465  X104.8750  Y148.9624   
N1470  X94.8192  Y134.8298   
N1475  X86.5274  Y124.9139   
N1480  X83.7209  Y122.4250   
N1485  X82.7706  Y121.9533   
N1490  X82.1681  Y122.0563   
N1495  X82.8316  Y124.0375   
N1500  X85.6214  Y127.6442   
N1505  X91.5196  Y135.2157   
N1510  X98.6584  Y145.9640   
N1515  X106.1614  Y158.4960   
N1520  X113.1526  Y171.4191   
N1525  X120.0098  Y183.5387   
N1530  X122.3020  Y186.1122   
N1535  X123.1900  Y186.5068   
N1540  X123.9152  Y186.2985   
N1545  X124.9090  Y184.0512   
N1550  X125.3423  Y179.3234   
N1555  X124.7647  Y162.2390   
N1560  X124.0957  Y154.2400   
N1565  X123.1092  Y147.5359   
N1570  X121.6614  Y141.8462   
N1575  X119.6091  Y136.8915   
N1580  X116.8077  Y132.3914   
N1585  X113.1142  Y128.0659   
N1590  X108.3845  Y123.6349   
N1595  X102.4750  Y118.8190   
N1600  X82.2065  Y102.3897   
N1605  X70.6332  Y93.2151   
N1610  X70.1950  Y93.1308   
N1615  X70.7940  Y93.9613   
N1620  X75.2134  Y98.4291   
N1625 G0  Z5.0000 
N1630  X146.5646  Y71.7378 
N1635  Z0.1000 
N1640 G1  Z-1.0000  F100.00 
N1645  X143.7109  Y71.2073   F300.00 
N1650  X135.0152  Y70.8346   
N1655  X99.2929  Y70.5427   
N1660  X52.0208  Y71.0381   
N1665  X53.2798  Y74.7403   
N1670  X69.2802  Y121.1990   
N1675  X87.1645  Y175.2724   
N1680  X91.5619  Y190.1147   
N1685  X92.7263  Y196.1770   
N1690  X92.1031  Y195.6103   
N1695  X90.7211  Y192.8519   
N1700  X86.1238  Y181.8678   
N1705  X72.6822  Y145.7968   
N1710  X67.6041  Y131.5974   
N1715  X65.9529  Y127.9261   
N1720  X64.6125  Y126.4508   
N1725  X63.3727  Y127.1040   
N1730  X62.0217  Y129.8192   
N1735  X58.1451  Y141.1659   
N1740  X53.7538  Y154.2652   
N1745  X53.7657  Y173.0603   
N1750  X53.7777  Y191.8551   
N1755  X59.2716  Y207.7713   
N1760  X62.8980  Y219.2381   
N1765  X64.5196  Y227.4427   
N1770  X64.2574  Y233.6700   
N1775  X62.2328  Y239.2050   
N1780  X59.2400  Y243.8343   
N1785  X54.9798  Y249.0657   
N1790  X50.5236  Y253.6882   
N1795  X46.9427  Y256.4903   
N1800  X46.5259  Y256.4409   
N1805  X47.1100  Y255.3879   
N1810  X50.7780  Y250.9927   
N1815  X55.3537  Y245.3370   
N1820  X58.9875  Y239.5566   
N1825  X61.3875  Y234.1915   
N1830  X62.2616  Y229.7814   
N1835  X61.4088  Y225.3320   
N1840  X59.3433  Y218.9601   
N1845  X52.8778  Y201.2635   
N1850  X49.0857  Y191.5810   
N1855  X42.7390  Y207.7042   
N1860  X37.2127  Y224.3311   
N1865  X37.2993  Y225.6307   
N1870  X37.8472  Y226.0185   
N1875  X42.0538  Y223.9090   
N1880  X45.9288  Y222.0221   
N1885  X49.9201  Y220.5729   
N1890  X53.0395  Y219.8616   
N1895  X54.2991  Y220.1884   
N1900  X49.4580  Y222.9862   
N1905  X45.5252  Y225.1321   
N1910  X42.0680  Y227.8192   
N1915  X39.0587  Y231.0962   
N1920  X36.4698  Y235.0129   
N1925  X34.2735  Y239.6183   
N1930  X32.4420  Y244.9618   
N1935  X29.7634  Y258.0605   
N1940  X28.3197  Y266.9002   
N1945  X26.6940  Y273.5695   
N1950  X24.6604  Y278.8010   
N1955  X21.9937  Y283.3285   
N1960  X19.3992  Y287.7253   
N1965  X17.2869  Y292.8741   
N1970  X15.5026  Y299.2322   
N1975  X13.8920  Y307.2547   
N1980  X12.3754  Y317.8268   
N1985  X12.6253  Y317.8477   
N1990  X13.1449  Y316.8988   
N1995  X15.0279  Y312.2498   
N2000  X19.2439  Y303.5185   
N2005  X21.7076  Y299.9083   
N2010  X24.4150  Y296.7953   
N2015  X27.3704  Y294.1747   
N2020  X30.5787  Y292.0421   
N2025  X34.0439  Y290.3927   
N2030  X37.7717  Y289.2216   
N2035  X44.6105  Y286.8493   
N2040  X52.1823  Y283.0941   
N2045  X59.3950  Y278.5682   
N2050  X65.1563  Y273.8830   
N2055  X70.1966  Y268.4372   
N2060  X74.4455  Y262.6978   
N2065  X77.9508  Y256.5913   
N2070  X80.7606  Y250.0438   
N2075  X82.6353  Y245.6986   
N2080  X83.3130  Y244.6996   
N2085  X83.6899  Y244.7157   
N2090  X83.2707  Y247.7793   
N2095  X81.6024  Y253.1635   
N2100  X77.4742  Y262.2561   
N2105  X72.0313  Y270.8224   
N2110  X65.6875  Y278.2979   
N2115  X58.8577  Y284.1193   
N2120  X54.2639  Y287.3027   
N2125  X60.8263  Y289.9701   
N2130  X70.2415  Y294.7107   
N2135  X73.0874  Y297.6910   
N2140  X75.6554  Y301.9344   
N2145  X77.5259  Y306.5999   
N2150  X78.2798  Y310.8459   
N2155  X78.3396  Y314.8759   
N2160  X81.1096  Y309.2896   
N2165  X87.6579  Y294.3326   
N2170  X93.2661  Y278.2208   
N2175  X97.3849  Y262.7366   
N2180  X99.4659  Y249.6634   
N2185  X100.3077  Y243.0267   
N2190  X101.3032  Y240.2660   
N2195  X101.7359  Y240.9408   
N2200  X101.9099  Y242.8288   
N2205  X101.5612  Y249.4238   
N2210  X100.4143  Y258.4134   
N2215  X98.6261  Y268.1585   
N2220  X94.8405  Y283.0567   
N2225  X89.7592  Y298.5234   
N2230  X83.3818  Y314.5588   
N2235  X75.7087  Y331.1628   
N2240  X71.8317  Y339.1937   
N2245  X69.8605  Y344.1294   
N2250  X69.2767  Y347.6931   
N2255  X69.5628  Y351.6078   
N2260  X70.8889  Y358.6139   
N2265  X72.3141  Y357.9930   
N2270  X74.9415  Y355.7001   
N2275  X76.8075  Y353.5529   
N2280  X78.0277  Y351.1661   
N2285  X79.6114  Y342.6589   
N2290  X80.4048  Y337.3503   
N2295  X81.4713  Y333.3859   
N2300  X83.2004  Y329.7014   
N2305  X85.9811  Y325.2322   
N2310  X93.5826  Y314.6476   
N2315  X102.6316  Y303.4569   
N2320  X111.7164  Y293.3194   
N2325  X119.4267  Y285.8942   
N2330  X126.0908  Y280.6767   
N2335  X131.7788  Y277.1197   
N2340  X136.7530  Y275.0861   
N2345  X141.2744  Y274.4384   
N2350  X144.9883  Y275.0041   
N2355  X149.2139  Y276.4203   
N2360  X152.9255  Y278.2653   
N2365  X155.0976  Y280.1177   
N2370  X155.4928  Y280.9598   
N2375  X155.0795  Y281.1713   
N2380  X150.7273  Y279.5643   
N2385  X145.8152  Y278.1332   
N2390  X140.9941  Y277.8646   
N2395  X136.6286  Y278.7345   
N2400  X133.0849  Y280.7193   
N2405  X130.9509  Y283.1503   
N2410  X129.0504  Y286.5097   
N2415  X126.2022  Y294.9264   
N2420  X125.0446  Y303.7943   
N2425  X125.2574  Y307.7177   
N2430  X126.0818  Y310.9385   
N2435  X127.7078  Y313.5959   
N2440  X130.1573  Y315.3395   
N2445  X133.7075  Y316.2943   
N2450  X138.6361  Y316.5846   
N2455  X141.7255  Y316.4861   
N2460  X143.6483  Y316.0202   
N2465  X144.9308  Y314.9311   
N2470  X146.1006  Y312.9637   
N2475  X146.9363  Y310.6279   
N2480  X147.4506  Y307.6328   
N2485  X147.5669  Y300.5131   
N2490  X146.5553  Y293.2978   
N2495  X144.5217  Y287.6805   
N2500  X143.1562  Y284.7641   
N2505  X143.0173  Y283.8771   
N2510  X143.2950  Y283.5513   
N2515  X145.4087  Y284.1790   
N2520  X148.0599  Y285.6963   
N2525  X150.4335  Y287.5555   
N2530  X151.7131  Y289.2084   
N2535  X154.4309  Y291.9022   
N2540  X160.1373  Y295.9258   
N2545  X166.1702  Y299.9774   
N2550  X171.3032  Y303.9622   
N2555  X175.6564  Y308.0393   
N2560  X179.3496  Y312.3670   
N2565  X182.5023  Y317.1045   
N2570  X185.2349  Y322.4099   
N2575  X187.6666  Y328.4421   
N2580  X189.9178  Y335.3597   
N2585  X192.0760  Y341.4452   
N2590  X192.8609  Y342.6357   
N2595  X193.4324  Y342.5553   
N2600  X194.2400  Y340.1511   
N2605  X194.2903  Y337.0084   
N2610  X193.6245  Y333.5596   
N2615  X192.2820  Y330.2367   
N2620  X185.8607  Y314.3066   
N2625  X178.9967  Y296.3617   
N2630  X169.5369  Y273.8692   
N2635  X166.3801  Y265.5841   
N2640  X163.5880  Y255.8590   
N2645  X160.8877  Y243.5989   
N2650  X158.0053  Y227.7088   
N2655  X155.0169  Y211.7790   
N2660  X152.5859  Y201.5102   
N2665  X150.5513  Y195.2722   
N2670  X150.1923  Y199.6416   
N2675  X150.6395  Y209.5705   
N2680  X152.8784  Y227.1667   
N2685  X153.1306  Y230.2680   
N2690  X152.8920  Y230.5150   
N2695  X152.4009  Y229.9493   
N2700  X150.8148  Y225.1409   
N2705  X148.8604  Y216.2775   
N2710  X147.0567  Y206.0035   
N2715  X145.9230  Y196.9626   
N2720  X144.6383  Y187.0941   
N2725  X142.5417  Y175.3383   
N2730  X138.0103  Y152.1638   
N2735  X136.0794  Y143.4022   
N2740  X133.5625  Y134.5237   
N2745  X130.7039  Y126.3052   
N2750  X127.7476  Y119.5232   
N2755  X125.8590  Y116.5197   
N2760  X122.8761  Y113.4684   
N2765  X110.2208  Y104.2560   
N2770  X99.8130  Y96.9461   
N2775  X95.7772  Y93.6123   
N2780  X100.5457  Y95.6587   
N2785  X111.3057  Y101.2835   
N2790  X122.1803  Y106.7778   
N2795  X125.6924  Y108.2327   
N2800  X127.2251  Y108.5098   
N2805  X137.4614  Y90.0001   
N2810  X146.5646  Y71.7378   
N2815 G0  Z0.1000 
N2820 G1  Z-2.0000  F100.00 
N2825  X143.7109  Y71.2073   F300.00 
N2830  X135.0152  Y70.8346   
N2835  X99.2929  Y70.5427   
N2840  X52.0208  Y71.0381   
N2845  X53.2798  Y74.7403   
N2850  X69.2802  Y121.1990   
N2855  X87.1645  Y175.2724   
N2860  X91.5619  Y190.1147   
N2865  X92.7263  Y196.1770   
N2870  X92.1031  Y195.6103   
N2875  X90.7211  Y192.8519   
N2880  X86.1238  Y181.8678   
N2885  X72.6822  Y145.7968   
N2890  X67.6041  Y131.5974   
N2895  X65.9529  Y127.9261   
N2900  X64.6125  Y126.4508   
N2905  X63.3727  Y127.1040   
N2910  X62.0217  Y129.8192   
N2915  X58.1451  Y141.1659   
N2920  X53.7538  Y154.2652   
N2925  X53.7657  Y173.0603   
N2930  X53.7777  Y191.8551   
N2935  X59.2716  Y207.7713   
N2940  X62.8980  Y219.2381   
N2945  X64.5196  Y227.4427   
N2950  X64.2574  Y233.6700   
N2955  X62.2328  Y239.2050   
N2960  X59.2400  Y243.8343   
N2965  X54.9798  Y249.0657   
N2970  X50.5236  Y253.6882   
N2975  X46.9427  Y256.4903   
N2980  X46.5259  Y256.4409   
N2985  X47.1100  Y255.3879   
N2990  X50.7780  Y250.9927   
N2995  X55.3537  Y245.3370   
N3000  X58.9875  Y239.5566   
N3005  X61.3875  Y234.1915   
N3010  X62.2616  Y229.7814   
N3015  X61.4088  Y225.3320   
N3020  X59.3433  Y218.9601   
N3025  X52.8778  Y201.2635   
N3030  X49.0857  Y191.5810   
N3035  X42.7390  Y207.7042   
N3040  X37.2127  Y224.3311   
N3045  X37.2993  Y225.6307   
N3050  X37.8472  Y226.0185   
N3055  X42.0538  Y223.9090   
N3060  X45.9288  Y222.0221   
N3065  X49.9201  Y220.5729   
N3070  X53.0395  Y219.8616   
N3075  X54.2991  Y220.1884   
N3080  X49.4580  Y222.9862   
N3085  X45.5252  Y225.1321   
N3090  X42.0680  Y227.8192   
N3095  X39.0587  Y231.0962   
N3100  X36.4698  Y235.0129   
N3105  X34.2735  Y239.6183   
N3110  X32.4420  Y244.9618   
N3115  X29.7634  Y258.0605   
N3120  X28.3197  Y266.9002   
N3125  X26.6940  Y273.5695   
N3130  X24.6604  Y278.8010   
N3135  X21.9937  Y283.3285   
N3140  X19.3992  Y287.7253   
N3145  X17.2869  Y292.8741   
N3150  X15.5026  Y299.2322   
N3155  X13.8920  Y307.2547   
N3160  X12.3754  Y317.8268   
N3165  X12.6253  Y317.8477   
N3170  X13.1449  Y316.8988   
N3175  X15.0279  Y312.2498   
N3180  X19.2439  Y303.5185   
N3185  X21.7076  Y299.9083   
N3190  X24.4150  Y296.7953   
N3195  X27.3704  Y294.1747   
N3200  X30.5787  Y292.0421   
N3205  X34.0439  Y290.3927   
N3210  X37.7717  Y289.2216   
N3215  X44.6105  Y286.8493   
N3220  X52.1823  Y283.0941   
N3225  X59.3950  Y278.5682   
N3230  X65.1563  Y273.8830   
N3235  X70.1966  Y268.4372   
N3240  X74.4455  Y262.6978   
N3245  X77.9508  Y256.5913   
N3250  X80.7606  Y250.0438   
N3255  X82.6353  Y245.6986   
N3260  X83.3130  Y244.6996   
N3265  X83.6899  Y244.7157   
N3270  X83.2707  Y247.7793   
N3275  X81.6024  Y253.1635   
N3280  X77.4742  Y262.2561   
N3285  X72.0313  Y270.8224   
N3290  X65.6875  Y278.2979   
N3295  X58.8577  Y284.1193   
N3300  X54.2639  Y287.3027   
N3305  X60.8263  Y289.9701   
N3310  X70.2415  Y294.7107   
N3315  X73.0874  Y297.6910   
N3320  X75.6554  Y301.9344   
N3325  X77.5259  Y306.5999   
N3330  X78.2798  Y310.8459   
N3335  X78.3396  Y314.8759   
N3340  X81.1096  Y309.2896   
N3345  X87.6579  Y294.3326   
N3350  X93.2661  Y278.2208   
N3355  X97.3849  Y262.7366   
N3360  X99.4659  Y249.6634   
N3365  X100.3077  Y243.0267   
N3370  X101.3032  Y240.2660   
N3375  X101.7359  Y240.9408   
N3380  X101.9099  Y242.8288   
N3385  X101.5612  Y249.4238   
N3390  X100.4143  Y258.4134   
N3395  X98.6261  Y268.1585   
N3400  X94.8405  Y283.0567   
N3405  X89.7592  Y298.5234   
N3410  X83.3818  Y314.5588   
N3415  X75.7087  Y331.1628   
N3420  X71.8317  Y339.1937   
N3425  X69.8605  Y344.1294   
N3430  X69.2767  Y347.6931   
N3435  X69.5628  Y351.6078   
N3440  X70.8889  Y358.6139   
N3445  X72.3141  Y357.9930   
N3450  X74.9415  Y355.7001   
N3455  X76.8075  Y353.5529   
N3460  X78.0277  Y351.1661   
N3465  X79.6114  Y342.6589   
N3470  X80.4048  Y337.3503   
N3475  X81.4713  Y333.3859   
N3480  X83.2004  Y329.7014   
N3485  X85.9811  Y325.2322   
N3490  X93.5826  Y314.6476   
N3495  X102.6316  Y303.4569   
N3500  X111.7164  Y293.3194   
N3505  X119.4267  Y285.8942   
N3510  X126.0908  Y280.6767   
N3515  X131.7788  Y277.1197   
N3520  X136.7530  Y275.0861   
N3525  X141.2744  Y274.4384   
N3530  X144.9883  Y275.0041   
N3535  X149.2139  Y276.4203   
N3540  X152.9255  Y278.2653   
N3545  X155.0976  Y280.1177   
N3550  X155.4928  Y280.9598   
N3555  X155.0795  Y281.1713   
N3560  X150.7273  Y279.5643   
N3565  X145.8152  Y278.1332   
N3570  X140.9941  Y277.8646   
N3575  X136.6286  Y278.7345   
N3580  X133.0849  Y280.7193   
N3585  X130.9509  Y283.1503   
N3590  X129.0504  Y286.5097   
N3595  X126.2022  Y294.9264   
N3600  X125.0446  Y303.7943   
N3605  X125.2574  Y307.7177   
N3610  X126.0818  Y310.9385   
N3615  X127.7078  Y313.5959   
N3620  X130.1573  Y315.3395   
N3625  X133.7075  Y316.2943   
N3630  X138.6361  Y316.5846   
N3635  X141.7255  Y316.4861   
N3640  X143.6483  Y316.0202   
N3645  X144.9308  Y314.9311   
N3650  X146.1006  Y312.9637   
N3655  X146.9363  Y310.6279   
N3660  X147.4506  Y307.6328   
N3665  X147.5669  Y300.5131   
N3670  X146.5553  Y293.2978   
N3675  X144.5217  Y287.6805   
N3680  X143.1562  Y284.7641   
N3685  X143.0173  Y283.8771   
N3690  X143.2950  Y283.5513   
N3695  X145.4087  Y284.1790   
N3700  X148.0599  Y285.6963   
N3705  X150.4335  Y287.5555   
N3710  X151.7131  Y289.2084   
N3715  X154.4309  Y291.9022   
N3720  X160.1373  Y295.9258   
N3725  X166.1702  Y299.9774   
N3730  X171.3032  Y303.9622   
N3735  X175.6564  Y308.0393   
N3740  X179.3496  Y312.3670   
N3745  X182.5023  Y317.1045   
N3750  X185.2349  Y322.4099   
N3755  X187.6666  Y328.4421   
N3760  X189.9178  Y335.3597   
N3765  X192.0760  Y341.4452   
N3770  X192.8609  Y342.6357   
N3775  X193.4324  Y342.5553   
N3780  X194.2400  Y340.1511   
N3785  X194.2903  Y337.0084   
N3790  X193.6245  Y333.5596   
N3795  X192.2820  Y330.2367   
N3800  X185.8607  Y314.3066   
N3805  X178.9967  Y296.3617   
N3810  X169.5369  Y273.8692   
N3815  X166.3801  Y265.5841   
N3820  X163.5880  Y255.8590   
N3825  X160.8877  Y243.5989   
N3830  X158.0053  Y227.7088   
N3835  X155.0169  Y211.7790   
N3840  X152.5859  Y201.5102   
N3845  X150.5513  Y195.2722   
N3850  X150.1923  Y199.6416   
N3855  X150.6395  Y209.5705   
N3860  X152.8784  Y227.1667   
N3865  X153.1306  Y230.2680   
N3870  X152.8920  Y230.5150   
N3875  X152.4009  Y229.9493   
N3880  X150.8148  Y225.1409   
N3885  X148.8604  Y216.2775   
N3890  X147.0567  Y206.0035   
N3895  X145.9230  Y196.9626   
N3900  X144.6383  Y187.0941   
N3905  X142.5417  Y175.3383   
N3910  X138.0103  Y152.1638   
N3915  X136.0794  Y143.4022   
N3920  X133.5625  Y134.5237   
N3925  X130.7039  Y126.3052   
N3930  X127.7476  Y119.5232   
N3935  X125.8590  Y116.5197   
N3940  X122.8761  Y113.4684   
N3945  X110.2208  Y104.2560   
N3950  X99.8130  Y96.9461   
N3955  X95.7772  Y93.6123   
N3960  X100.5457  Y95.6587   
N3965  X111.3057  Y101.2835   
N3970  X122.1803  Y106.7778   
N3975  X125.6924  Y108.2327   
N3980  X127.2251  Y108.5098   
N3985  X137.4614  Y90.0001   
N3990  X146.5646  Y71.7378   
N3995 G0  Z5.0000 
N4000  X153.9740  Y56.5891 
N4005  Z0.1000 
N4010 G1  Z-1.0000  F100.00 
N4015  X153.9956  Y55.9630   F300.00 
N4020  X153.1367  Y55.4835   
N4025  X146.6744  Y54.8865   
N4030  X100.0397  Y54.5955   
N4035  X45.2976   
N4040  X47.4648  Y59.4366   
N4045  X49.6321  Y64.2777   
N4050  X100.2612  Y64.5741   
N4055  X150.8900  Y64.8705   
N4060  X152.0282  Y61.7266   
N4065  X153.9740  Y56.5891   
N4070 G0  Z0.1000 
N4075 G1  Z-2.0000  F100.00 
N4080  X153.9956  Y55.9630   F300.00 
N4085  X153.1367  Y55.4835   
N4090  X146.6744  Y54.8865   
N4095  X100.0397  Y54.5955   
N4100  X45.2976   
N4105  X47.4648  Y59.4366   
N4110  X49.6321  Y64.2777   
N4115  X100.2612  Y64.5741   
N4120  X150.8900  Y64.8705   
N4125  X152.0282  Y61.7266   
N4130  X153.9740  Y56.5891   
N4135 G0  Z5.0000 
N4140  X162.3439  Y36.6551 
N4145  Z0.1000 
N4150 G1  Z-1.0000  F100.00 
N4155  X164.7569  Y30.6749   F300.00 
N4160  X100.4152   
N4165  X54.9740  Y30.8499   
N4170  X36.0736  Y31.2703   
N4175  X39.6490  Y40.3832   
N4180  X43.2240  Y48.9001   
N4185  X100.3400   
N4190  X157.4560   
N4195  X158.6937  Y45.7677   
N4200  X162.3439  Y36.6551   
N4205 G0  Z0.1000 
N4210 G1  Z-2.0000  F100.00 
N4215  X164.7569  Y30.6749   F300.00 
N4220  X100.4152   
N4225  X54.9740  Y30.8499   
N4230  X36.0736  Y31.2703   
N4235  X39.6490  Y40.3832   
N4240  X43.2240  Y48.9001   
N4245  X100.3400   
N4250  X157.4560   
N4255  X158.6937  Y45.7677   
N4260  X162.3439  Y36.6551   
N4265 G0  Z5.0000 
N4270  X170.4856  Y15.8439 
N4275  Z0.1000 
N4280 G1  Z-1.0000  F100.00 
N4285  X165.8279  Y15.3670   F300.00 
N4290  X152.1803  Y15.0170   
N4295  X99.8625  Y14.7277   
N4300  X29.2393  Y15.2030   
N4305  X31.4769  Y20.8981   
N4310  X33.7146  Y26.1186   
N4315  X100.2677   
N4320  X166.8208   
N4325  X168.6532  Y21.5390   
N4330  X170.4856  Y15.8439   
N4335 G0  Z0.1000 
N4340 G1  Z-2.0000  F100.00 
N4345  X165.8279  Y15.3670   F300.00 
N4350  X152.1803  Y15.0170   
N4355  X99.8625  Y14.7277   
N4360  X29.2393  Y15.2030   
N4365  X31.4769  Y20.8981   
N4370  X33.7146  Y26.1186   
N4375  X100.2677   
N4380  X166.8208   
N4385  X168.6532  Y21.5390   
N4390  X170.4856  Y15.8439   
N4395 G0  Z5.0000 
N4400  X172.7636  Y7.3238 
N4405  Z0.1000 
N4410 G1  Z-1.0000  F100.00 
N4415  X172.2628  Y6.8194   F300.00 
N4420  X170.4023  Y6.4236   
N4425  X160.4553  Y5.9066   
N4430  X100.6216  Y5.6151   
N4435  X49.4483  Y5.8382   
N4440  X27.7204  Y6.3745   
N4445  X26.9610  Y8.0832   
N4450  X48.3757  Y8.7535   
N4455  X99.8625  Y9.0322   
N4460  X160.3288  Y8.7410   
N4465  X170.3787  Y8.2240   
N4470  X172.2579  Y7.8281   
N4475  X172.7636  Y7.3238   
N4480 G0  Z0.1000 
N4485 G1  Z-2.0000  F100.00 
N4490  X172.2628  Y6.8194   F300.00 
N4495  X170.4023  Y6.4236   
N4500  X160.4553  Y5.9066   
N4505  X100.6216  Y5.6151   
N4510  X49.4483  Y5.8382   
N4515  X27.7204  Y6.3745   
N4520  X26.9610  Y8.0832   
N4525  X48.3757  Y8.7535   
N4530  X99.8625  Y9.0322   
N4535  X160.3288  Y8.7410   
N4540  X170.3787  Y8.2240   
N4545  X172.2579  Y7.8281   
N4550  X172.7636  Y7.3238   
N4555 G0  Z5.0000 
N4560  X122.0327  Y294.3220 
N4565  Z0.1000 
N4570 G1  Z-1.0000  F100.00 
N4575  X123.3472  Y288.4309   F300.00 
N4580  X115.5097  Y296.4895   
N4585  X102.1272  Y311.9405   
N4590  X99.2767  Y315.5639   
N4595  X97.7556  Y318.3024   
N4600  X97.1457  Y321.2768   
N4605  X97.0284  Y325.6094   
N4610  X97.0146  Y333.1014   
N4615  X91.1748  Y335.8737   
N4620  X85.3350  Y338.6464   
N4625  X84.6395  Y345.2999   
N4630  X83.7777  Y350.5888   
N4635  X82.3276  Y354.8206   
N4640  X80.1319  Y358.3275   
N4645  X77.0341  Y361.4427   
N4650  X74.4210  Y363.3113   
N4655  X72.0842  Y364.2929   
N4660  X70.0297  Y364.3917   
N4665  X68.2628  Y363.6119   
N4670  X66.7895  Y361.9578   
N4675  X65.6154  Y359.4334   
N4680  X64.1873  Y351.7919   
N4685  X63.8709  Y346.8862   
N4690  X64.1444  Y343.3674   
N4695  X65.2829  Y339.8669   
N4700  X67.5615  Y335.0165   
N4705  X69.7704  Y329.8851   
N4710  X71.3558  Y324.8070   
N4715  X72.3177  Y319.8774   
N4720  X72.6548  Y315.1907   
N4725  X72.3674  Y310.8420   
N4730  X71.4543  Y306.9257   
N4735  X69.9154  Y303.5373   
N4740  X67.7501  Y300.7711   
N4745  X63.6775  Y297.7553   
N4750  X58.7447  Y295.6323   
N4755  X53.2523  Y294.3979   
N4760  X47.4994  Y294.0469   
N4765  X41.7862  Y294.5751   
N4770  X36.4120  Y295.9781   
N4775  X31.6768  Y298.2506   
N4780  X27.8806  Y301.3884   
N4785  X25.7954  Y304.3784   
N4790  X23.5419  Y308.7878   
N4795  X18.9643  Y320.5678   
N4800  X15.0208  Y334.1327   
N4805  X12.5837  Y346.8875   
N4810  X12.4100  Y351.1274   
N4815  X12.7881  Y356.0350   
N4820  X15.0037  Y367.1169   
N4825  X18.8384  Y378.6628   
N4830  X23.8977  Y389.2013   
N4835  X25.6636  Y391.8157   
N4840  X26.8912  Y392.9032   
N4845  X27.9006  Y391.6478   
N4850  X29.0565  Y388.5164   
N4855  X30.6561  Y380.4390   
N4860  X30.9684  Y378.1665   
N4865  X31.9632  Y376.7658   
N4870  X34.3707  Y375.7096   
N4875  X38.9215  Y374.4710   
N4880  X45.0548  Y373.1372   
N4885  X48.6037  Y372.8049   
N4890  X49.6075  Y373.1168   
N4895  X49.0941  Y373.6512   
N4900  X40.3451  Y376.9986   
N4905  X36.6419  Y378.4384   
N4910  X34.6884  Y379.6418   
N4915  X33.9267  Y381.1710   
N4920  X33.7988  Y383.5875   
N4925  X33.0620  Y387.9414   
N4930  X31.2867  Y392.5257   
N4935  X28.7718  Y397.2742   
N4940  X33.2770  Y402.2589   
N4945  X37.9812  Y407.0590   
N4950  X43.1329  Y411.5698   
N4955  X48.6592  Y415.7467   
N4960  X54.4874  Y419.5462   
N4965  X60.5441  Y422.9236   
N4970  X66.7569  Y425.8354   
N4975  X73.0529  Y428.2377   
N4980  X79.3589  Y430.0859   
N4985  X89.6898  Y431.7511   
N4990  X101.3445  Y432.1976   
N4995  X112.9456  Y431.4434   
N5000  X123.1170  Y429.5063   
N5005  X133.0652  Y426.1286   
N5010  X142.3845  Y421.7725   
N5015  X151.0147  Y416.4897   
N5020  X158.8968  Y410.3331   
N5025  X165.9713  Y403.3542   
N5030  X172.1792  Y395.6055   
N5035  X177.4603  Y387.1390   
N5040  X181.7557  Y378.0073   
N5045  X186.1432  Y365.0217   
N5050  X186.7538  Y361.2348   
N5055  X186.6140  Y360.2206   
N5060  X186.1587  Y359.8696   
N5065  X182.8035  Y360.3782   
N5070  X179.4061  Y361.7569   
N5075  X176.3816  Y363.7860   
N5080  X174.1449  Y366.2444   
N5085  X172.0064  Y370.6868   
N5090  X170.1127  Y376.6770   
N5095  X168.7501  Y383.1193   
N5100  X168.2066  Y388.9165   
N5105  X167.8883  Y392.5987   
N5110  X167.1711  Y395.0537   
N5115  X166.5683  Y395.4250   
N5120  X166.1311  Y394.5322   
N5125  X165.7598  Y389.8990   
N5130  X166.0675  Y383.0438   
N5135  X167.0649  Y375.8562   
N5140  X169.0843  Y368.4511   
N5145  X171.8986  Y363.1512   
N5150  X173.6925  Y361.1728   
N5155  X175.7926  Y359.5790   
N5160  X181.0522  Y357.3566   
N5165  X184.4338  Y356.3343   
N5170  X186.2465  Y355.3207   
N5175  X187.0340  Y353.7822   
N5180  X187.3411  Y351.1852   
N5185  X186.5549  Y344.6831   
N5190  X183.7221  Y334.5806   
N5195  X180.6880  Y326.2109   
N5200  X177.5898  Y319.4364   
N5205  X174.4219  Y314.2459   
N5210  X171.1785  Y310.6283   
N5215  X161.8347  Y303.4924   
N5220  X154.3934  Y298.3620   
N5225  X153.8500  Y304.9609   
N5230  X153.5151  Y309.5605   
N5235  X152.6046  Y313.2982   
N5240  X150.9798  Y316.5562   
N5245  X148.5020  Y319.7170   
N5250  X147.0309  Y321.0243   
N5255  X145.2430  Y321.8048   
N5260  X138.8495  Y322.2801   
N5265  X132.8883  Y321.8361   
N5270  X128.0624  Y320.5187   
N5275  X124.4237  Y318.3489   
N5280  X122.0240  Y315.3486   
N5285  X120.8280  Y311.3234   
N5290  X120.4309  Y305.9489   
N5295  X120.8325  Y300.0174   
N5300  X122.0327  Y294.3220   
N5305 G0  Z0.1000 
N5310 G1  Z-2.0000  F100.00 
N5315  X123.3472  Y288.4309   F300.00 
N5320  X115.5097  Y296.4895   
N5325  X102.1272  Y311.9405   
N5330  X99.2767  Y315.5639   
N5335  X97.7556  Y318.3024   
N5340  X97.1457  Y321.2768   
N5345  X97.0284  Y325.6094   
N5350  X97.0146  Y333.1014   
N5355  X91.1748  Y335.8737   
N5360  X85.3350  Y338.6464   
N5365  X84.6395  Y345.2999   
N5370  X83.7777  Y350.5888   
N5375  X82.3276  Y354.8206   
N5380  X80.1319  Y358.3275   
N5385  X77.0341  Y361.4427   
N5390  X74.4210  Y363.3113   
N5395  X72.0842  Y364.2929   
N5400  X70.0297  Y364.3917   
N5405  X68.2628  Y363.6119   
N5410  X66.7895  Y361.9578   
N5415  X65.6154  Y359.4334   
N5420  X64.1873  Y351.7919   
N5425  X63.8709  Y346.8862   
N5430  X64.1444  Y343.3674   
N5435  X65.2829  Y339.8669   
N5440  X67.5615  Y335.0165   
N5445  X69.7704  Y329.8851   
N5450  X71.3558  Y324.8070   
N5455  X72.3177  Y319.8774   
N5460  X72.6548  Y315.1907   
N5465  X72.3674  Y310.8420   
N5470  X71.4543  Y306.9257   
N5475  X69.9154  Y303.5373   
N5480  X67.7501  Y300.7711   
N5485  X63.6775  Y297.7553   
N5490  X58.7447  Y295.6323   
N5495  X53.2523  Y294.3979   
N5500  X47.4994  Y294.0469   
N5505  X41.7862  Y294.5751   
N5510  X36.4120  Y295.9781   
N5515  X31.6768  Y298.2506   
N5520  X27.8806  Y301.3884   
N5525  X25.7954  Y304.3784   
N5530  X23.5419  Y308.7878   
N5535  X18.9643  Y320.5678   
N5540  X15.0208  Y334.1327   
N5545  X12.5837  Y346.8875   
N5550  X12.4100  Y351.1274   
N5555  X12.7881  Y356.0350   
N5560  X15.0037  Y367.1169   
N5565  X18.8384  Y378.6628   
N5570  X23.8977  Y389.2013   
N5575  X25.6636  Y391.8157   
N5580  X26.8912  Y392.9032   
N5585  X27.9006  Y391.6478   
N5590  X29.0565  Y388.5164   
N5595  X30.6561  Y380.4390   
N5600  X30.9684  Y378.1665   
N5605  X31.9632  Y376.7658   
N5610  X34.3707  Y375.7096   
N5615  X38.9215  Y374.4710   
N5620  X45.0548  Y373.1372   
N5625  X48.6037  Y372.8049   
N5630  X49.6075  Y373.1168   
N5635  X49.0941  Y373.6512   
N5640  X40.3451  Y376.9986   
N5645  X36.6419  Y378.4384   
N5650  X34.6884  Y379.6418   
N5655  X33.9267  Y381.1710   
N5660  X33.7988  Y383.5875   
N5665  X33.0620  Y387.9414   
N5670  X31.2867  Y392.5257   
N5675  X28.7718  Y397.2742   
N5680  X33.2770  Y402.2589   
N5685  X37.9812  Y407.0590   
N5690  X43.1329  Y411.5698   
N5695  X48.6592  Y415.7467   
N5700  X54.4874  Y419.5462   
N5705  X60.5441  Y422.9236   
N5710  X66.7569  Y425.8354   
N5715  X73.0529  Y428.2377   
N5720  X79.3589  Y430.0859   
N5725  X89.6898  Y431.7511   
N5730  X101.3445  Y432.1976   
N5735  X112.9456  Y431.4434   
N5740  X123.1170  Y429.5063   
N5745  X133.0652  Y426.1286   
N5750  X142.3845  Y421.7725   
N5755  X151.0147  Y416.4897   
N5760  X158.8968  Y410.3331   
N5765  X165.9713  Y403.3542   
N5770  X172.1792  Y395.6055   
N5775  X177.4603  Y387.1390   
N5780  X181.7557  Y378.0073   
N5785  X186.1432  Y365.0217   
N5790  X186.7538  Y361.2348   
N5795  X186.6140  Y360.2206   
N5800  X186.1587  Y359.8696   
N5805  X182.8035  Y360.3782   
N5810  X179.4061  Y361.7569   
N5815  X176.3816  Y363.7860   
N5820  X174.1449  Y366.2444   
N5825  X172.0064  Y370.6868   
N5830  X170.1127  Y376.6770   
N5835  X168.7501  Y383.1193   
N5840  X168.2066  Y388.9165   
N5845  X167.8883  Y392.5987   
N5850  X167.1711  Y395.0537   
N5855  X166.5683  Y395.4250   
N5860  X166.1311  Y394.5322   
N5865  X165.7598  Y389.8990   
N5870  X166.0675  Y383.0438   
N5875  X167.0649  Y375.8562   
N5880  X169.0843  Y368.4511   
N5885  X171.8986  Y363.1512   
N5890  X173.6925  Y361.1728   
N5895  X175.7926  Y359.5790   
N5900  X181.0522  Y357.3566   
N5905  X184.4338  Y356.3343   
N5910  X186.2465  Y355.3207   
N5915  X187.0340  Y353.7822   
N5920  X187.3411  Y351.1852   
N5925  X186.5549  Y344.6831   
N5930  X183.7221  Y334.5806   
N5935  X180.6880  Y326.2109   
N5940  X177.5898  Y319.4364   
N5945  X174.4219  Y314.2459   
N5950  X171.1785  Y310.6283   
N5955  X161.8347  Y303.4924   
N5960  X154.3934  Y298.3620   
N5965  X153.8500  Y304.9609   
N5970  X153.5151  Y309.5605   
N5975  X152.6046  Y313.2982   
N5980  X150.9798  Y316.5562   
N5985  X148.5020  Y319.7170   
N5990  X147.0309  Y321.0243   
N5995  X145.2430  Y321.8048   
N6000  X138.8495  Y322.2801   
N6005  X132.8883  Y321.8361   
N6010  X128.0624  Y320.5187   
N6015  X124.4237  Y318.3489   
N6020  X122.0240  Y315.3486   
N6025  X120.8280  Y311.3234   
N6030  X120.4309  Y305.9489   
N6035  X120.8325  Y300.0174   
N6040  X122.0327  Y294.3220   
N6045 G0  Z5.0000 
N6050  X108.9792  Y312.8827 
N6055  Z0.1000 
N6060 G1  Z-1.0000  F100.00 
N6065  X109.8856  Y315.3521   F300.00 
N6070  X112.2973  Y318.7296   
N6075  X115.7803  Y322.4896   
N6080  X119.9007  Y326.1066   
N6085  X125.6878  Y331.8098   
N6090  X132.5951  Y340.0012   
N6095  X138.3916  Y347.8620   
N6100  X140.1762  Y350.7880   
N6105  X140.8462  Y352.5739   
N6110  X140.2602  Y353.9795   
N6115  X138.8269  Y355.6352   
N6120  X137.0955  Y357.0150   
N6125  X135.6148  Y357.5916   
N6130  X133.0287  Y359.4318   
N6135  X128.3394  Y363.8567   
N6140  X124.7925  Y367.3119   
N6145  X122.2565  Y369.1905   
N6150  X119.8435  Y369.9680   
N6155  X116.6660  Y370.1214   
N6160  X110.2598  Y371.0465   
N6165  X102.2806  Y373.5534   
N6170  X97.0046  Y375.5114   
N6175  X93.4392  Y376.3509   
N6180  X89.9610  Y376.2398   
N6185  X84.9462  Y375.3467   
N6190  X77.9721  Y373.6735   
N6195  X73.0500  Y371.9515   
N6200  X70.8976  Y371.0574   
N6205  X68.7242  Y371.1259   
N6210  X65.3894  Y372.4449   
N6215  X59.7524  Y375.3018   
N6220  X52.0718  Y379.7222   
N6225  X47.2407  Y383.6611   
N6230  X45.7855  Y385.5675   
N6235  X44.9124  Y387.4948   
N6240  X44.5779  Y389.4903   
N6245  X44.7390  Y391.6010   
N6250  X45.6728  Y395.9913   
N6255  X54.7570  Y398.1873   
N6260  X62.8283  Y399.5034   
N6265  X65.6526  Y399.4172   
N6270  X68.3752  Y398.8702   
N6275  X71.1734  Y398.2548   
N6280  X73.4255  Y398.4214   
N6285  X76.1029  Y399.6435   
N6290  X80.1771  Y402.1953   
N6295  X88.6197  Y406.7826   
N6300  X98.9719  Y411.3557   
N6305  X111.6014  Y416.7764   
N6310  X111.2401  Y417.8003   
N6315  X109.0829  Y419.0573   
N6320  X107.0480  Y419.7082   
N6325  X104.9838  Y419.7954   
N6330  X98.4940  Y418.0647   
N6335  X91.9319  Y416.2578   
N6340  X90.2723  Y416.5982   
N6345  X88.5542  Y417.7296   
N6350  X86.2510  Y419.7493   
N6355  X85.5022  Y421.3547   
N6360  X86.3114  Y422.7621   
N6365  X88.6837  Y424.1867   
N6370  X91.5145  Y425.4405   
N6375  X89.8955  Y424.1147   
N6380  X88.1157  Y422.5887   
N6385  X87.4635  Y421.3479   
N6390  X87.9271  Y420.2530   
N6395  X89.4951  Y419.1639   
N6400  X90.8506  Y418.7431   
N6405  X92.6436  Y418.7719   
N6410  X98.2167  Y420.2630   
N6415  X106.3215  Y422.5193   
N6420  X108.7413  Y421.7295   
N6425  X111.8662  Y419.8987   
N6430  X114.5000  Y417.8361   
N6435  X115.4464  Y416.3502   
N6440  X111.2243  Y413.9924   
N6445  X101.5402  Y409.7884   
N6450  X89.9707  Y404.5001   
N6455  X81.2165  Y399.5350   
N6460  X77.2921  Y396.8790   
N6465  X74.6515  Y395.5951   
N6470  X72.2576  Y395.3740   
N6475  X69.0739  Y395.9048   
N6480  X62.5971  Y396.2884   
N6485  X55.7195  Y395.3620   
N6490  X50.1758  Y393.5141   
N6495  X48.4464  Y392.3653   
N6500  X47.7005  Y391.1312   
N6505  X48.2630  Y388.3324   
N6510  X50.6973  Y385.3014   
N6515  X54.9704  Y382.0693   
N6520  X61.0495  Y378.6670   
N6525  X65.8715  Y376.3357   
N6530  X68.8246  Y375.2783   
N6535  X70.9002  Y375.2870   
N6540  X73.0903  Y376.1555   
N6545  X78.1316  Y377.7671   
N6550  X85.2220  Y379.2427   
N6555  X90.1799  Y379.9476   
N6560  X93.7272  Y380.0025   
N6565  X97.2190  Y379.2795   
N6570  X102.0106  Y377.6499   
N6575  X109.7148  Y375.4743   
N6580  X116.4919  Y374.6780   
N6585  X120.1787  Y374.5369   
N6590  X122.9568  Y373.7090   
N6595  X126.0327  Y371.5854   
N6600  X130.6122  Y367.5586   
N6605  X142.4975  Y357.2210   
N6610  X144.7671  Y355.3204   
N6615  X145.7409  Y354.0247   
N6620  X145.6072  Y352.7606   
N6625  X144.5537  Y350.9559   
N6630  X138.7003  Y342.4032   
N6635  X132.6765  Y334.6277   
N6640  X127.0414  Y328.3062   
N6645  X122.3550  Y324.1150   
N6650  X117.2417  Y319.8619   
N6655  X113.5827  Y315.8568   
N6660  X110.3622  Y312.2879   
N6665  X109.3512  Y312.0067   
N6670  X108.9792  Y312.8827   
N6675 G0  Z0.1000 
N6680 G1  Z-2.0000  F100.00 
N6685  X109.8856  Y315.3521   F300.00 
N6690  X112.2973  Y318.7296   
N6695  X115.7803  Y322.4896   
N6700  X119.9007  Y326.1066   
N6705  X125.6878  Y331.8098   
N6710  X132.5951  Y340.0012   
N6715  X138.3916  Y347.8620   
N6720  X140.1762  Y350.7880   
N6725  X140.8462  Y352.5739   
N6730  X140.2602  Y353.9795   
N6735  X138.8269  Y355.6352   
N6740  X137.0955  Y357.0150   
N6745  X135.6148  Y357.5916   
N6750  X133.0287  Y359.4318   
N6755  X128.3394  Y363.8567   
N6760  X124.7925  Y367.3119   
N6765  X122.2565  Y369.1905   
N6770  X119.8435  Y369.9680   
N6775  X116.6660  Y370.1214   
N6780  X110.2598  Y371.0465   
N6785  X102.2806  Y373.5534   
N6790  X97.0046  Y375.5114   
N6795  X93.4392  Y376.3509   
N6800  X89.9610  Y376.2398   
N6805  X84.9462  Y375.3467   
N6810  X77.9721  Y373.6735   
N6815  X73.0500  Y371.9515   
N6820  X70.8976  Y371.0574   
N6825  X68.7242  Y371.1259   
N6830  X65.3894  Y372.4449   
N6835  X59.7524  Y375.3018   
N6840  X52.0718  Y379.7222   
N6845  X47.2407  Y383.6611   
N6850  X45.7855  Y385.5675   
N6855  X44.9124  Y387.4948   
N6860  X44.5779  Y389.4903   
N6865  X44.7390  Y391.6010   
N6870  X45.6728  Y395.9913   
N6875  X54.7570  Y398.1873   
N6880  X62.8283  Y399.5034   
N6885  X65.6526  Y399.4172   
N6890  X68.3752  Y398.8702   
N6895  X71.1734  Y398.2548   
N6900  X73.4255  Y398.4214   
N6905  X76.1029  Y399.6435   
N6910  X80.1771  Y402.1953   
N6915  X88.6197  Y406.7826   
N6920  X98.9719  Y411.3557   
N6925  X111.6014  Y416.7764   
N6930  X111.2401  Y417.8003   
N6935  X109.0829  Y419.0573   
N6940  X107.0480  Y419.7082   
N6945  X104.9838  Y419.7954   
N6950  X98.4940  Y418.0647   
N6955  X91.9319  Y416.2578   
N6960  X90.2723  Y416.5982   
N6965  X88.5542  Y417.7296   
N6970  X86.2510  Y419.7493   
N6975  X85.5022  Y421.3547   
N6980  X86.3114  Y422.7621   
N6985  X88.6837  Y424.1867   
N6990  X91.5145  Y425.4405   
N6995  X89.8955  Y424.1147   
N7000  X88.1157  Y422.5887   
N7005  X87.4635  Y421.3479   
N7010  X87.9271  Y420.2530   
N7015  X89.4951  Y419.1639   
N7020  X90.8506  Y418.7431   
N7025  X92.6436  Y418.7719   
N7030  X98.2167  Y420.2630   
N7035  X106.3215  Y422.5193   
N7040  X108.7413  Y421.7295   
N7045  X111.8662  Y419.8987   
N7050  X114.5000  Y417.8361   
N7055  X115.4464  Y416.3502   
N7060  X111.2243  Y413.9924   
N7065  X101.5402  Y409.7884   
N7070  X89.9707  Y404.5001   
N7075  X81.2165  Y399.5350   
N7080  X77.2921  Y396.8790   
N7085  X74.6515  Y395.5951   
N7090  X72.2576  Y395.3740   
N7095  X69.0739  Y395.9048   
N7100  X62.5971  Y396.2884   
N7105  X55.7195  Y395.3620   
N7110  X50.1758  Y393.5141   
N7115  X48.4464  Y392.3653   
N7120  X47.7005  Y391.1312   
N7125  X48.2630  Y388.3324   
N7130  X50.6973  Y385.3014   
N7135  X54.9704  Y382.0693   
N7140  X61.0495  Y378.6670   
N7145  X65.8715  Y376.3357   
N7150  X68.8246  Y375.2783   
N7155  X70.9002  Y375.2870   
N7160  X73.0903  Y376.1555   
N7165  X78.1316  Y377.7671   
N7170  X85.2220  Y379.2427   
N7175  X90.1799  Y379.9476   
N7180  X93.7272  Y380.0025   
N7185  X97.2190  Y379.2795   
N7190  X102.0106  Y377.6499   
N7195  X109.7148  Y375.4743   
N7200  X116.4919  Y374.6780   
N7205  X120.1787  Y374.5369   
N7210  X122.9568  Y373.7090   
N7215  X126.0327  Y371.5854   
N7220  X130.6122  Y367.5586   
N7225  X142.4975  Y357.2210   
N7230  X144.7671  Y355.3204   
N7235  X145.7409  Y354.0247   
N7240  X145.6072  Y352.7606   
N7245  X144.5537  Y350.9559   
N7250  X138.7003  Y342.4032   
N7255  X132.6765  Y334.6277   
N7260  X127.0414  Y328.3062   
N7265  X122.3550  Y324.1150   
N7270  X117.2417  Y319.8619   
N7275  X113.5827  Y315.8568   
N7280  X110.3622  Y312.2879   
N7285  X109.3512  Y312.0067   
N7290  X108.9792  Y312.8827   
N7295 G0  Z5.0000 
N7300  X95.3058  Y325.7140 
N7305  Z0.1000 
N7310 G1  Z-1.0000  F100.00 
N7315  X94.9297  Y322.2801   F300.00 
N7320  X90.7912  Y327.5370   
N7325  X87.5494  Y333.1285   
N7330  X88.9449  Y332.8001   
N7335  X91.6568  Y331.3672   
N7340  X94.5344  Y328.8912   
N7345  X95.1308  Y327.4721   
N7350  X95.3058  Y325.7140   
N7355 G0  Z0.1000 
N7360 G1  Z-2.0000  F100.00 
N7365  X94.9297  Y322.2801   F300.00 
N7370  X90.7912  Y327.5370   
N7375  X87.5494  Y333.1285   
N7380  X88.9449  Y332.8001   
N7385  X91.6568  Y331.3672   
N7390  X94.5344  Y328.8912   
N7395  X95.1308  Y327.4721   
N7400  X95.3058  Y325.7140   
N7405 G0  Z5.0000 
N7410  X9.7032  Y330.3678 
N7415  Z0.1000 
N7420 G1  Z-1.0000  F100.00 
N7425  X10.6224  Y323.7870   F300.00 
N7430  X10.1387  Y323.9633   
N7435  X9.4549  Y325.0327   
N7440  X7.8469  Y328.8476   
N7445  X6.5169  Y333.2270   
N7450  X6.1840  Y336.1653   
N7455  X6.8640  Y337.5873   
N7460  X7.6712  Y337.1052   
N7465  X9.7032  Y330.3678   
N7470 G0  Z0.1000 
N7475 G1  Z-2.0000  F100.00 
N7480  X10.6224  Y323.7870   F300.00 
N7485  X10.1387  Y323.9633   
N7490  X9.4549  Y325.0327   
N7495  X7.8469  Y328.8476   
N7500  X6.5169  Y333.2270   
N7505  X6.1840  Y336.1653   
N7510  X6.8640  Y337.5873   
N7515  X7.6712  Y337.1052   
N7520  X9.7032  Y330.3678   
N7525 G0  Z5.0000 
N7530 M5
N7535 M30

