N5 (File Name = Escudo_del_Club_Atlético_Independiente on Saturday, November 11, 2023)
N10 (Default Mill Post)
N15  G91.1
N20 G0  Z3.0000 
N25 M3 S4000 
N30  X50.7221  Y77.5960 
N35  Z0.1000 
N40 G1  Z-0.7000  F100.00 
N45  X81.5069  Y48.8826   F300.00 
N50  X102.0908  Y29.6294   
N55  X101.4179  Y28.9578   
N60  X99.7490  Y27.4824   
N65  X97.6085  Y25.6576   
N70  X95.5210  Y23.9379   
N75  X93.2228  Y22.1398   
N80  X90.8219  Y20.3545   
N85  X88.3463  Y18.6002   
N90  X85.8234  Y16.8953   
N95  X83.2808  Y15.2578   
N100  X80.7463  Y13.7060   
N105  X78.2475  Y12.2583   
N110  X75.8119  Y10.9327   
N115  X74.9907  Y10.5012   
N120  X74.2086  Y10.9277   
N125  X70.5900  Y12.9712   
N130  X67.0639  Y15.1032   
N135  X63.6311  Y17.3230   
N140  X60.2926  Y19.6299   
N145  X57.0491  Y22.0229   
N150  X53.9016  Y24.5012   
N155  X50.8509  Y27.0642   
N160  X47.8979  Y29.7111   
N165  X45.0434  Y32.4409   
N170  X42.2882  Y35.2530   
N175  X39.6333  Y38.1465   
N180  X37.0795  Y41.1207   
N185  X34.6276  Y44.1747   
N190  X32.2786  Y47.3077   
N195  X30.0332  Y50.5190   
N200  X27.8923  Y53.8077   
N205  X26.1019  Y56.7585   
N210  X24.3996  Y59.7648   
N215  X22.7857  Y62.8256   
N220  X21.2607  Y65.9401   
N225  X19.8247  Y69.1071   
N230  X18.4782  Y72.3259   
N235  X17.2215  Y75.5954   
N240  X16.0548  Y78.9147   
N245  X14.9785  Y82.2828   
N250  X13.9928  Y85.6989   
N255  X13.0983  Y89.1619   
N260  X12.2950  Y92.6708   
N265  X11.5834  Y96.2248   
N270  X10.9638  Y99.8229   
N275  X10.4365  Y103.4641   
N280  X10.0019  Y107.1475   
N285  X9.5241  Y112.7325   
N290  X9.3715  Y115.0980   
N295  X9.3538  Y116.1106   
N300  X19.9373  Y106.3093   
N305  X50.7221  Y77.5960   
N310 G0  Z0.1000 
N315 G1  Z-1.4000  F100.00 
N320  X81.5069  Y48.8826   F300.00 
N325  X102.0908  Y29.6294   
N330  X101.4179  Y28.9578   
N335  X99.7490  Y27.4824   
N340  X97.6085  Y25.6576   
N345  X95.5210  Y23.9379   
N350  X93.2228  Y22.1398   
N355  X90.8219  Y20.3545   
N360  X88.3463  Y18.6002   
N365  X85.8234  Y16.8953   
N370  X83.2808  Y15.2578   
N375  X80.7463  Y13.7060   
N380  X78.2475  Y12.2583   
N385  X75.8119  Y10.9327   
N390  X74.9907  Y10.5012   
N395  X74.2086  Y10.9277   
N400  X70.5900  Y12.9712   
N405  X67.0639  Y15.1032   
N410  X63.6311  Y17.3230   
N415  X60.2926  Y19.6299   
N420  X57.0491  Y22.0229   
N425  X53.9016  Y24.5012   
N430  X50.8509  Y27.0642   
N435  X47.8979  Y29.7111   
N440  X45.0434  Y32.4409   
N445  X42.2882  Y35.2530   
N450  X39.6333  Y38.1465   
N455  X37.0795  Y41.1207   
N460  X34.6276  Y44.1747   
N465  X32.2786  Y47.3077   
N470  X30.0332  Y50.5190   
N475  X27.8923  Y53.8077   
N480  X26.1019  Y56.7585   
N485  X24.3996  Y59.7648   
N490  X22.7857  Y62.8256   
N495  X21.2607  Y65.9401   
N500  X19.8247  Y69.1071   
N505  X18.4782  Y72.3259   
N510  X17.2215  Y75.5954   
N515  X16.0548  Y78.9147   
N520  X14.9785  Y82.2828   
N525  X13.9928  Y85.6989   
N530  X13.0983  Y89.1619   
N535  X12.2950  Y92.6708   
N540  X11.5834  Y96.2248   
N545  X10.9638  Y99.8229   
N550  X10.4365  Y103.4641   
N555  X10.0019  Y107.1475   
N560  X9.5241  Y112.7325   
N565  X9.3715  Y115.0980   
N570  X9.3538  Y116.1106   
N575  X19.9373  Y106.3093   
N580  X50.7221  Y77.5960   
N585 G0  Z3.0000 
N590  X69.4968  Y86.7072 
N595  Z0.1000 
N600 G1  Z-0.7000  F100.00 
N605  X69.8348  Y83.7862   F300.00 
N610  X66.4203  Y86.9422   
N615  X63.0245  Y90.1694   
N620  X65.2512  Y95.1007   
N625  X67.4778  Y99.9669   
N630  X67.6535  Y99.7627   
N635  X67.7764  Y99.6135   
N640  X67.8796  Y99.4036   
N645  X67.9822  Y99.0037   
N650  X68.1035  Y98.2844   
N655  X68.4787  Y95.3707   
N660  X69.1589  Y89.6283   
N665  X69.4968  Y86.7072   
N670 G0  Z0.1000 
N675 G1  Z-1.4000  F100.00 
N680  X69.8348  Y83.7862   F300.00 
N685  X66.4203  Y86.9422   
N690  X63.0245  Y90.1694   
N695  X65.2512  Y95.1007   
N700  X67.4778  Y99.9669   
N705  X67.6535  Y99.7627   
N710  X67.7764  Y99.6135   
N715  X67.8796  Y99.4036   
N720  X67.9822  Y99.0037   
N725  X68.1035  Y98.2844   
N730  X68.4787  Y95.3707   
N735  X69.1589  Y89.6283   
N740  X69.4968  Y86.7072   
N745 G0  Z3.0000 
N750  X70.3867  Y103.0618 
N755  Z0.1000 
N760 G1  Z-0.7000  F100.00 
N765  X74.5997  Y99.1472   F300.00 
N770  X76.4270  Y97.4027   
N775  X77.2449  Y96.5379   
N780  X77.3450  Y96.2315   
N785  X77.3839  Y95.8626   
N790  X77.3602  Y95.4988   
N795  X77.2724  Y95.2075   
N800  X77.0203  Y94.8705   
N805  X76.6231  Y94.6070   
N810  X76.4370  Y94.4851   
N815  X76.3334  Y94.3658   
N820  X76.7236  Y90.6927   
N825  X77.6502  Y82.6924   
N830  X78.6199  Y74.5621   
N835  X79.1391  Y70.4989   
N840  X79.3140  Y69.7873   
N845  X79.5656  Y68.9647   
N850  X80.2424  Y67.1565   
N855  X80.5531  Y66.3468   
N860  X80.7033  Y65.7564   
N865  X80.7047  Y65.3053   
N870  X80.5689  Y64.9137   
N875  X80.3740  Y64.6232   
N880  X80.2701  Y64.5635   
N885  X80.1349  Y64.5373   
N890  X79.9909  Y64.5399   
N895  X79.8526  Y64.5887   
N900  X79.4719  Y64.8893   
N905  X77.2997  Y66.9120   
N910  X72.0969  Y71.7496   
N915  X68.4015  Y75.2052   
N920  X68.2220  Y75.4659   
N925  X68.1446  Y75.7577   
N930  X68.1707  Y76.0641   
N935  X68.3018  Y76.3684   
N940  X68.4756  Y76.5812   
N945  X68.7155  Y76.7240   
N950  X69.0702  Y76.8164   
N955  X69.5886  Y76.8776   
N960  X70.2077  Y76.9751   
N965  X70.3919  Y77.0804   
N970  X70.5033  Y77.2535   
N975  X70.5504  Y77.5173   
N980  X70.5412  Y77.8944   
N985  X70.3875  Y79.0798   
N990  X70.2981  Y79.6764   
N995  X66.0952  Y83.5965   
N1000  X61.8279  Y87.5166   
N1005  X61.6599  Y87.2606   
N1010  X61.4055  Y86.6678   
N1015  X61.1675  Y86.0008   
N1020  X61.0484  Y85.5222   
N1025  X61.0722  Y85.0846   
N1030  X61.2613  Y84.5126   
N1035  X61.4009  Y84.0928   
N1040  X61.4810  Y83.6949   
N1045  X61.5037  Y83.3293   
N1050  X61.4711  Y83.0065   
N1055  X61.3852  Y82.7371   
N1060  X61.2483  Y82.5317   
N1065  X61.0624  Y82.4007   
N1070  X60.8297  Y82.3547   
N1075  X60.5380  Y82.5460   
N1080  X60.0229  Y83.0060   
N1085  X57.6280  Y85.2447   
N1090  X55.7704  Y86.9874   
N1095  X55.6756  Y87.1669   
N1100  X55.6386  Y87.4010   
N1105  X55.6607  Y87.6546   
N1110  X55.7429  Y87.8921   
N1115  X55.9105  Y88.1531   
N1120  X56.1366  Y88.3145   
N1125  X56.5076  Y88.4143   
N1130  X57.1101  Y88.4902   
N1135  X57.8581  Y88.5953   
N1140  X58.2479  Y88.7179   
N1145  X58.4688  Y88.9677   
N1150  X58.7177  Y89.3832   
N1155  X61.6000  Y95.6272   
N1160  X64.2549  Y101.5163   
N1165  X64.3751  Y102.0385   
N1170  X64.3736  Y102.8850   
N1175  X64.2766  Y103.9140   
N1180  X63.9743  Y105.2477   
N1185  X63.7281  Y106.2976   
N1190  X63.6196  Y107.0211   
N1195  X63.6422  Y107.5105   
N1200  X63.7895  Y107.8583   
N1205  X63.9723  Y108.0703   
N1210  X64.1786  Y108.1918   
N1215  X64.4175  Y108.2259   
N1220  X64.6978  Y108.1759   
N1225  X64.8216  Y108.1270   
N1230  X65.0315  Y107.9814   
N1235  X66.1737  Y106.9765   
N1240  X70.3867  Y103.0618   
N1245 G0  Z0.1000 
N1250 G1  Z-1.4000  F100.00 
N1255  X74.5997  Y99.1472   F300.00 
N1260  X76.4270  Y97.4027   
N1265  X77.2449  Y96.5379   
N1270  X77.3450  Y96.2315   
N1275  X77.3839  Y95.8626   
N1280  X77.3602  Y95.4988   
N1285  X77.2724  Y95.2075   
N1290  X77.0203  Y94.8705   
N1295  X76.6231  Y94.6070   
N1300  X76.4370  Y94.4851   
N1305  X76.3334  Y94.3658   
N1310  X76.7236  Y90.6927   
N1315  X77.6502  Y82.6924   
N1320  X78.6199  Y74.5621   
N1325  X79.1391  Y70.4989   
N1330  X79.3140  Y69.7873   
N1335  X79.5656  Y68.9647   
N1340  X80.2424  Y67.1565   
N1345  X80.5531  Y66.3468   
N1350  X80.7033  Y65.7564   
N1355  X80.7047  Y65.3053   
N1360  X80.5689  Y64.9137   
N1365  X80.3740  Y64.6232   
N1370  X80.2701  Y64.5635   
N1375  X80.1349  Y64.5373   
N1380  X79.9909  Y64.5399   
N1385  X79.8526  Y64.5887   
N1390  X79.4719  Y64.8893   
N1395  X77.2997  Y66.9120   
N1400  X72.0969  Y71.7496   
N1405  X68.4015  Y75.2052   
N1410  X68.2220  Y75.4659   
N1415  X68.1446  Y75.7577   
N1420  X68.1707  Y76.0641   
N1425  X68.3018  Y76.3684   
N1430  X68.4756  Y76.5812   
N1435  X68.7155  Y76.7240   
N1440  X69.0702  Y76.8164   
N1445  X69.5886  Y76.8776   
N1450  X70.2077  Y76.9751   
N1455  X70.3919  Y77.0804   
N1460  X70.5033  Y77.2535   
N1465  X70.5504  Y77.5173   
N1470  X70.5412  Y77.8944   
N1475  X70.3875  Y79.0798   
N1480  X70.2981  Y79.6764   
N1485  X66.0952  Y83.5965   
N1490  X61.8279  Y87.5166   
N1495  X61.6599  Y87.2606   
N1500  X61.4055  Y86.6678   
N1505  X61.1675  Y86.0008   
N1510  X61.0484  Y85.5222   
N1515  X61.0722  Y85.0846   
N1520  X61.2613  Y84.5126   
N1525  X61.4009  Y84.0928   
N1530  X61.4810  Y83.6949   
N1535  X61.5037  Y83.3293   
N1540  X61.4711  Y83.0065   
N1545  X61.3852  Y82.7371   
N1550  X61.2483  Y82.5317   
N1555  X61.0624  Y82.4007   
N1560  X60.8297  Y82.3547   
N1565  X60.5380  Y82.5460   
N1570  X60.0229  Y83.0060   
N1575  X57.6280  Y85.2447   
N1580  X55.7704  Y86.9874   
N1585  X55.6756  Y87.1669   
N1590  X55.6386  Y87.4010   
N1595  X55.6607  Y87.6546   
N1600  X55.7429  Y87.8921   
N1605  X55.9105  Y88.1531   
N1610  X56.1366  Y88.3145   
N1615  X56.5076  Y88.4143   
N1620  X57.1101  Y88.4902   
N1625  X57.8581  Y88.5953   
N1630  X58.2479  Y88.7179   
N1635  X58.4688  Y88.9677   
N1640  X58.7177  Y89.3832   
N1645  X61.6000  Y95.6272   
N1650  X64.2549  Y101.5163   
N1655  X64.3751  Y102.0385   
N1660  X64.3736  Y102.8850   
N1665  X64.2766  Y103.9140   
N1670  X63.9743  Y105.2477   
N1675  X63.7281  Y106.2976   
N1680  X63.6196  Y107.0211   
N1685  X63.6422  Y107.5105   
N1690  X63.7895  Y107.8583   
N1695  X63.9723  Y108.0703   
N1700  X64.1786  Y108.1918   
N1705  X64.4175  Y108.2259   
N1710  X64.6978  Y108.1759   
N1715  X64.8216  Y108.1270   
N1720  X65.0315  Y107.9814   
N1725  X66.1737  Y106.9765   
N1730  X70.3867  Y103.0618   
N1735 G0  Z3.0000 
N1740  X52.8178  Y103.9896 
N1745  Z0.1000 
N1750 G1  Z-0.7000  F100.00 
N1755  X52.9779  Y104.2487   F300.00 
N1760  X53.2966  Y104.5624   
N1765  X53.7073  Y104.8347   
N1770  X54.1653  Y105.0410   
N1775  X54.6257  Y105.1566   
N1780  X55.0056  Y105.1600   
N1785  X55.4420  Y105.0874   
N1790  X55.8749  Y104.9531   
N1795  X56.2445  Y104.7714   
N1800  X56.6686  Y104.4287   
N1805  X56.9953  Y104.0102   
N1810  X57.2215  Y103.5363   
N1815  X57.3447  Y103.0272   
N1820  X57.3619  Y102.5031   
N1825  X57.2706  Y101.9846   
N1830  X57.0679  Y101.4918   
N1835  X56.7510  Y101.0450   
N1840  X56.3716  Y100.6854   
N1845  X55.9685  Y100.4330   
N1850  X55.5209  Y100.2779   
N1855  X55.0079  Y100.2101   
N1860  X54.4444  Y100.2225   
N1865  X53.9591  Y100.3757   
N1870  X53.4320  Y100.6744   
N1875  X53.0096  Y101.0693   
N1880  X52.6972  Y101.5389   
N1885  X52.5003  Y102.0614   
N1890  X52.4245  Y102.6153   
N1895  X52.4751  Y103.1789   
N1900  X52.6578  Y103.7306   
N1905  X52.8178  Y103.9896   
N1910 G0  Z0.1000 
N1915 G1  Z-1.4000  F100.00 
N1920  X52.9779  Y104.2487   F300.00 
N1925  X53.2966  Y104.5624   
N1930  X53.7073  Y104.8347   
N1935  X54.1653  Y105.0410   
N1940  X54.6257  Y105.1566   
N1945  X55.0056  Y105.1600   
N1950  X55.4420  Y105.0874   
N1955  X55.8749  Y104.9531   
N1960  X56.2445  Y104.7714   
N1965  X56.6686  Y104.4287   
N1970  X56.9953  Y104.0102   
N1975  X57.2215  Y103.5363   
N1980  X57.3447  Y103.0272   
N1985  X57.3619  Y102.5031   
N1990  X57.2706  Y101.9846   
N1995  X57.0679  Y101.4918   
N2000  X56.7510  Y101.0450   
N2005  X56.3716  Y100.6854   
N2010  X55.9685  Y100.4330   
N2015  X55.5209  Y100.2779   
N2020  X55.0079  Y100.2101   
N2025  X54.4444  Y100.2225   
N2030  X53.9591  Y100.3757   
N2035  X53.4320  Y100.6744   
N2040  X53.0096  Y101.0693   
N2045  X52.6972  Y101.5389   
N2050  X52.5003  Y102.0614   
N2055  X52.4245  Y102.6153   
N2060  X52.4751  Y103.1789   
N2065  X52.6578  Y103.7306   
N2070  X52.8178  Y103.9896   
N2075 G0  Z3.0000 
N2080  X39.4947  Y118.6805 
N2085  Z0.1000 
N2090 G1  Z-0.7000  F100.00 
N2095  X39.4833  Y117.0802   F300.00 
N2100  X39.4960  Y114.6820   
N2105  X39.5470  Y113.0227   
N2110  X39.6565  Y111.7314   
N2115  X39.8446  Y110.4370   
N2120  X40.0138  Y109.5476   
N2125  X40.2097  Y108.7809   
N2130  X40.4394  Y108.1127   
N2135  X40.7102  Y107.5190   
N2140  X41.0211  Y106.9992   
N2145  X41.3650  Y106.5729   
N2150  X41.7450  Y106.2371   
N2155  X42.1641  Y105.9885   
N2160  X42.4308  Y105.8758   
N2165  X42.6846  Y105.8126   
N2170  X43.5126  Y105.7788   
N2175  X44.3589  Y105.8151   
N2180  X44.6221  Y105.8913   
N2185  X44.9310  Y106.0335   
N2190  X45.4153  Y106.3432   
N2195  X45.7928  Y106.7543   
N2200  X46.0818  Y107.2933   
N2205  X46.3010  Y107.9866   
N2210  X46.4008  Y108.7115   
N2215  X46.4208  Y109.9631   
N2220  X46.4365  Y111.0558   
N2225  X46.4879  Y111.6512   
N2230  X46.5733  Y111.8438   
N2235  X46.7015  Y112.0196   
N2240  X47.0884  Y112.3222   
N2245  X47.6516  Y112.5605   
N2250  X48.3942  Y112.7365   
N2255  X49.0713  Y112.8256   
N2260  X49.6554  Y112.8401   
N2265  X50.1473  Y112.7796   
N2270  X50.5479  Y112.6436   
N2275  X50.8580  Y112.4319   
N2280  X51.0784  Y112.1439   
N2285  X51.2101  Y111.7792   
N2290  X51.2538  Y111.3375   
N2295  X51.1633  Y110.8541   
N2300  X50.9458  Y110.1246   
N2305  X50.4290  Y108.7564   
N2310  X49.8534  Y107.5174   
N2315  X49.2185  Y106.4067   
N2320  X48.5235  Y105.4236   
N2325  X47.7679  Y104.5671   
N2330  X46.9509  Y103.8364   
N2335  X46.0720  Y103.2309   
N2340  X45.1304  Y102.7495   
N2345  X44.4942  Y102.5071   
N2350  X43.8070  Y102.3044   
N2355  X43.0792  Y102.1428   
N2360  X42.3213  Y102.0235   
N2365  X41.5437  Y101.9479   
N2370  X40.7569  Y101.9173   
N2375  X39.9712  Y101.9330   
N2380  X39.1972  Y101.9965   
N2385  X38.2879  Y102.1446   
N2390  X37.3938  Y102.3765   
N2395  X36.5231  Y102.6880   
N2400  X35.6839  Y103.0750   
N2405  X34.8844  Y103.5332   
N2410  X34.1327  Y104.0584   
N2415  X33.4369  Y104.6463   
N2420  X32.8053  Y105.2930   
N2425  X32.3303  Y105.8657   
N2430  X31.8943  Y106.4673   
N2435  X31.4960  Y107.1002   
N2440  X31.1340  Y107.7669   
N2445  X30.8073  Y108.4699   
N2450  X30.5144  Y109.2117   
N2455  X30.0254  Y110.8217   
N2460  X29.7702  Y111.9884   
N2465  X29.6014  Y113.1494   
N2470  X29.5087  Y114.3983   
N2475  X29.4821  Y115.8288   
N2480  X29.5392  Y117.5020   
N2485  X29.7038  Y119.0742   
N2490  X29.9760  Y120.5459   
N2495  X30.3560  Y121.9176   
N2500  X30.8439  Y123.1896   
N2505  X31.4399  Y124.3624   
N2510  X32.1440  Y125.4362   
N2515  X32.9563  Y126.4115   
N2520  X33.4889  Y126.9444   
N2525  X34.0415  Y127.4244   
N2530  X34.6186  Y127.8542   
N2535  X35.2250  Y128.2365   
N2540  X35.8653  Y128.5739   
N2545  X36.5441  Y128.8691   
N2550  X37.2662  Y129.1249   
N2555  X38.0362  Y129.3439   
N2560  X38.5321  Y129.4586   
N2565  X38.9971  Y129.5210   
N2570  X40.6171  Y129.5518   
N2575  X42.1940  Y129.5223   
N2580  X42.6563  Y129.4713   
N2585  X43.0880  Y129.3834   
N2590  X43.7754  Y129.1980   
N2595  X44.4347  Y128.9735   
N2600  X45.0659  Y128.7098   
N2605  X45.6693  Y128.4068   
N2610  X46.2448  Y128.0644   
N2615  X46.7927  Y127.6825   
N2620  X47.3130  Y127.2609   
N2625  X47.8059  Y126.7996   
N2630  X48.2714  Y126.2984   
N2635  X48.7097  Y125.7572   
N2640  X49.1209  Y125.1760   
N2645  X49.5050  Y124.5545   
N2650  X50.1929  Y123.1905   
N2655  X50.7740  Y121.6642   
N2660  X51.1102  Y120.5203   
N2665  X51.3911  Y119.3522   
N2670  X51.5715  Y118.3707   
N2675  X51.6061  Y117.7863   
N2680  X51.5215  Y117.4827   
N2685  X51.3786  Y117.2214   
N2690  X51.1789  Y117.0051   
N2695  X50.9244  Y116.8361   
N2700  X50.5547  Y116.7167   
N2705  X50.0757  Y116.6655   
N2710  X49.5237  Y116.6769   
N2715  X48.9350  Y116.7450   
N2720  X48.3459  Y116.8641   
N2725  X47.7928  Y117.0284   
N2730  X47.3120  Y117.2322   
N2735  X46.9397  Y117.4696   
N2740  X46.6780  Y117.7425   
N2745  X46.4735  Y118.1075   
N2750  X46.3011  Y118.6232   
N2755  X46.1357  Y119.3484   
N2760  X45.8487  Y120.5550   
N2765  X45.5066  Y121.5825   
N2770  X45.1088  Y122.4317   
N2775  X44.6544  Y123.1035   
N2780  X44.1428  Y123.5988   
N2785  X43.8653  Y123.7806   
N2790  X43.5733  Y123.9186   
N2795  X43.2665  Y124.0128   
N2800  X42.9450  Y124.0635   
N2805  X42.2574  Y124.0346   
N2810  X41.7936  Y123.9231   
N2815  X41.3670  Y123.7446   
N2820  X40.9782  Y123.4996   
N2825  X40.6280  Y123.1890   
N2830  X40.3170  Y122.8133   
N2835  X40.0459  Y122.3734   
N2840  X39.8155  Y121.8699   
N2845  X39.6263  Y121.3036   
N2850  X39.5492  Y120.9226   
N2855  X39.5061  Y120.2808   
N2860  X39.4947  Y118.6805   
N2865 G0  Z0.1000 
N2870 G1  Z-1.4000  F100.00 
N2875  X39.4833  Y117.0802   F300.00 
N2880  X39.4960  Y114.6820   
N2885  X39.5470  Y113.0227   
N2890  X39.6565  Y111.7314   
N2895  X39.8446  Y110.4370   
N2900  X40.0138  Y109.5476   
N2905  X40.2097  Y108.7809   
N2910  X40.4394  Y108.1127   
N2915  X40.7102  Y107.5190   
N2920  X41.0211  Y106.9992   
N2925  X41.3650  Y106.5729   
N2930  X41.7450  Y106.2371   
N2935  X42.1641  Y105.9885   
N2940  X42.4308  Y105.8758   
N2945  X42.6846  Y105.8126   
N2950  X43.5126  Y105.7788   
N2955  X44.3589  Y105.8151   
N2960  X44.6221  Y105.8913   
N2965  X44.9310  Y106.0335   
N2970  X45.4153  Y106.3432   
N2975  X45.7928  Y106.7543   
N2980  X46.0818  Y107.2933   
N2985  X46.3010  Y107.9866   
N2990  X46.4008  Y108.7115   
N2995  X46.4208  Y109.9631   
N3000  X46.4365  Y111.0558   
N3005  X46.4879  Y111.6512   
N3010  X46.5733  Y111.8438   
N3015  X46.7015  Y112.0196   
N3020  X47.0884  Y112.3222   
N3025  X47.6516  Y112.5605   
N3030  X48.3942  Y112.7365   
N3035  X49.0713  Y112.8256   
N3040  X49.6554  Y112.8401   
N3045  X50.1473  Y112.7796   
N3050  X50.5479  Y112.6436   
N3055  X50.8580  Y112.4319   
N3060  X51.0784  Y112.1439   
N3065  X51.2101  Y111.7792   
N3070  X51.2538  Y111.3375   
N3075  X51.1633  Y110.8541   
N3080  X50.9458  Y110.1246   
N3085  X50.4290  Y108.7564   
N3090  X49.8534  Y107.5174   
N3095  X49.2185  Y106.4067   
N3100  X48.5235  Y105.4236   
N3105  X47.7679  Y104.5671   
N3110  X46.9509  Y103.8364   
N3115  X46.0720  Y103.2309   
N3120  X45.1304  Y102.7495   
N3125  X44.4942  Y102.5071   
N3130  X43.8070  Y102.3044   
N3135  X43.0792  Y102.1428   
N3140  X42.3213  Y102.0235   
N3145  X41.5437  Y101.9479   
N3150  X40.7569  Y101.9173   
N3155  X39.9712  Y101.9330   
N3160  X39.1972  Y101.9965   
N3165  X38.2879  Y102.1446   
N3170  X37.3938  Y102.3765   
N3175  X36.5231  Y102.6880   
N3180  X35.6839  Y103.0750   
N3185  X34.8844  Y103.5332   
N3190  X34.1327  Y104.0584   
N3195  X33.4369  Y104.6463   
N3200  X32.8053  Y105.2930   
N3205  X32.3303  Y105.8657   
N3210  X31.8943  Y106.4673   
N3215  X31.4960  Y107.1002   
N3220  X31.1340  Y107.7669   
N3225  X30.8073  Y108.4699   
N3230  X30.5144  Y109.2117   
N3235  X30.0254  Y110.8217   
N3240  X29.7702  Y111.9884   
N3245  X29.6014  Y113.1494   
N3250  X29.5087  Y114.3983   
N3255  X29.4821  Y115.8288   
N3260  X29.5392  Y117.5020   
N3265  X29.7038  Y119.0742   
N3270  X29.9760  Y120.5459   
N3275  X30.3560  Y121.9176   
N3280  X30.8439  Y123.1896   
N3285  X31.4399  Y124.3624   
N3290  X32.1440  Y125.4362   
N3295  X32.9563  Y126.4115   
N3300  X33.4889  Y126.9444   
N3305  X34.0415  Y127.4244   
N3310  X34.6186  Y127.8542   
N3315  X35.2250  Y128.2365   
N3320  X35.8653  Y128.5739   
N3325  X36.5441  Y128.8691   
N3330  X37.2662  Y129.1249   
N3335  X38.0362  Y129.3439   
N3340  X38.5321  Y129.4586   
N3345  X38.9971  Y129.5210   
N3350  X40.6171  Y129.5518   
N3355  X42.1940  Y129.5223   
N3360  X42.6563  Y129.4713   
N3365  X43.0880  Y129.3834   
N3370  X43.7754  Y129.1980   
N3375  X44.4347  Y128.9735   
N3380  X45.0659  Y128.7098   
N3385  X45.6693  Y128.4068   
N3390  X46.2448  Y128.0644   
N3395  X46.7927  Y127.6825   
N3400  X47.3130  Y127.2609   
N3405  X47.8059  Y126.7996   
N3410  X48.2714  Y126.2984   
N3415  X48.7097  Y125.7572   
N3420  X49.1209  Y125.1760   
N3425  X49.5050  Y124.5545   
N3430  X50.1929  Y123.1905   
N3435  X50.7740  Y121.6642   
N3440  X51.1102  Y120.5203   
N3445  X51.3911  Y119.3522   
N3450  X51.5715  Y118.3707   
N3455  X51.6061  Y117.7863   
N3460  X51.5215  Y117.4827   
N3465  X51.3786  Y117.2214   
N3470  X51.1789  Y117.0051   
N3475  X50.9244  Y116.8361   
N3480  X50.5547  Y116.7167   
N3485  X50.0757  Y116.6655   
N3490  X49.5237  Y116.6769   
N3495  X48.9350  Y116.7450   
N3500  X48.3459  Y116.8641   
N3505  X47.7928  Y117.0284   
N3510  X47.3120  Y117.2322   
N3515  X46.9397  Y117.4696   
N3520  X46.6780  Y117.7425   
N3525  X46.4735  Y118.1075   
N3530  X46.3011  Y118.6232   
N3535  X46.1357  Y119.3484   
N3540  X45.8487  Y120.5550   
N3545  X45.5066  Y121.5825   
N3550  X45.1088  Y122.4317   
N3555  X44.6544  Y123.1035   
N3560  X44.1428  Y123.5988   
N3565  X43.8653  Y123.7806   
N3570  X43.5733  Y123.9186   
N3575  X43.2665  Y124.0128   
N3580  X42.9450  Y124.0635   
N3585  X42.2574  Y124.0346   
N3590  X41.7936  Y123.9231   
N3595  X41.3670  Y123.7446   
N3600  X40.9782  Y123.4996   
N3605  X40.6280  Y123.1890   
N3610  X40.3170  Y122.8133   
N3615  X40.0459  Y122.3734   
N3620  X39.8155  Y121.8699   
N3625  X39.6263  Y121.3036   
N3630  X39.5492  Y120.9226   
N3635  X39.5061  Y120.2808   
N3640  X39.4947  Y118.6805   
N3645 G0  Z3.0000 
N3650  X25.6787  Y132.0374 
N3655  Z0.1000 
N3660 G1  Z-0.7000  F100.00 
N3665  X25.9917  Y132.0565   F300.00 
N3670  X26.6076  Y132.0182   
N3675  X27.0507  Y131.8484   
N3680  X27.4875  Y131.5635   
N3685  X27.8471  Y131.2144   
N3690  X28.1257  Y130.8133   
N3695  X28.3192  Y130.3720   
N3700  X28.4238  Y129.9024   
N3705  X28.4356  Y129.4165   
N3710  X28.3506  Y128.9262   
N3715  X28.1650  Y128.4435   
N3720  X27.9521  Y128.1161   
N3725  X27.6574  Y127.7961   
N3730  X27.3179  Y127.5186   
N3735  X26.9708  Y127.3184   
N3740  X26.5950  Y127.1981   
N3745  X26.1678  Y127.1345   
N3750  X25.7395  Y127.1317   
N3755  X25.3605  Y127.1935   
N3760  X24.9753  Y127.3352   
N3765  X24.6114  Y127.5312   
N3770  X24.2908  Y127.7678   
N3775  X24.0354  Y128.0310   
N3780  X23.7292  Y128.5248   
N3785  X23.5498  Y129.0549   
N3790  X23.4927  Y129.6007   
N3795  X23.5532  Y130.1414   
N3800  X23.7268  Y130.6562   
N3805  X24.0089  Y131.1244   
N3810  X24.3948  Y131.5253   
N3815  X24.8800  Y131.8381   
N3820  X25.3656  Y132.0184   
N3825  X25.6787  Y132.0374   
N3830 G0  Z0.1000 
N3835 G1  Z-1.4000  F100.00 
N3840  X25.9917  Y132.0565   F300.00 
N3845  X26.6076  Y132.0182   
N3850  X27.0507  Y131.8484   
N3855  X27.4875  Y131.5635   
N3860  X27.8471  Y131.2144   
N3865  X28.1257  Y130.8133   
N3870  X28.3192  Y130.3720   
N3875  X28.4238  Y129.9024   
N3880  X28.4356  Y129.4165   
N3885  X28.3506  Y128.9262   
N3890  X28.1650  Y128.4435   
N3895  X27.9521  Y128.1161   
N3900  X27.6574  Y127.7961   
N3905  X27.3179  Y127.5186   
N3910  X26.9708  Y127.3184   
N3915  X26.5950  Y127.1981   
N3920  X26.1678  Y127.1345   
N3925  X25.7395  Y127.1317   
N3930  X25.3605  Y127.1935   
N3935  X24.9753  Y127.3352   
N3940  X24.6114  Y127.5312   
N3945  X24.2908  Y127.7678   
N3950  X24.0354  Y128.0310   
N3955  X23.7292  Y128.5248   
N3960  X23.5498  Y129.0549   
N3965  X23.4927  Y129.6007   
N3970  X23.5532  Y130.1414   
N3975  X23.7268  Y130.6562   
N3980  X24.0089  Y131.1244   
N3985  X24.3948  Y131.5253   
N3990  X24.8800  Y131.8381   
N3995  X25.3656  Y132.0184   
N4000  X25.6787  Y132.0374   
N4005 G0  Z3.0000 
N4010  X4.6622  Y133.2601 
N4015  Z0.1000 
N4020 G1  Z-0.7000  F100.00 
N4025  X4.8422  Y136.8089   F300.00 
N4030  X4.8914  Y137.4932   
N4035  X7.7187   
N4040  X9.6377  Y137.5101   
N4045  X11.0713  Y137.5716   
N4050  X12.2488  Y137.6937   
N4055  X13.3998  Y137.8927   
N4060  X14.7693  Y138.2216   
N4065  X16.1138  Y138.6540   
N4070  X17.4261  Y139.1859   
N4075  X18.6991  Y139.8138   
N4080  X19.9257  Y140.5336   
N4085  X21.0988  Y141.3415   
N4090  X22.2112  Y142.2337   
N4095  X23.2559  Y143.2065   
N4100  X24.2385  Y144.2493   
N4105  X25.1261  Y145.3737   
N4110  X26.1634  Y146.9192   
N4115  X27.5950  Y149.2249   
N4120  X29.1005  Y151.6794   
N4125  X29.2917  Y151.9831   
N4130  X31.9628  Y149.3265   
N4135  X34.0561  Y147.2780   
N4140  X35.3379  Y146.0835   
N4145  X36.8655  Y144.8979   
N4150  X38.4554  Y143.8338   
N4155  X40.1068  Y142.8917   
N4160  X41.8189  Y142.0717   
N4165  X43.5910  Y141.3743   
N4170  X45.4223  Y140.7998   
N4175  X47.3120  Y140.3486   
N4180  X49.2594  Y140.0209   
N4185  X50.7159  Y139.9120   
N4190  X52.6211  Y139.8757   
N4195  X54.5151  Y139.9120   
N4200  X55.9379  Y140.0208   
N4205  X57.9393  Y140.3657   
N4210  X59.8612  Y140.8282   
N4215  X61.7085  Y141.4106   
N4220  X63.4866  Y142.1151   
N4225  X65.2004  Y142.9441   
N4230  X66.8553  Y143.8998   
N4235  X68.4562  Y144.9844   
N4240  X70.0085  Y146.2002   
N4245  X71.1704  Y147.2679   
N4250  X72.8983  Y148.9418   
N4255  X75.0293  Y151.0472   
N4260  X77.2781  Y148.8255   
N4265  X78.8879  Y147.2689   
N4270  X80.1988  Y146.0913   
N4275  X81.3859  Y145.1436   
N4280  X82.6242  Y144.2770   
N4285  X83.9388  Y143.4576   
N4290  X85.2807  Y142.7230   
N4295  X86.6536  Y142.0721   
N4300  X88.0613  Y141.5033   
N4305  X89.5074  Y141.0154   
N4310  X90.9956  Y140.6070   
N4315  X92.5297  Y140.2766   
N4320  X94.1132  Y140.0230   
N4325  X95.4823  Y139.9192   
N4330  X97.2998  Y139.8759   
N4335  X99.1078  Y139.8960   
N4340  X100.4483  Y139.9824   
N4345  X102.2737  Y140.2665   
N4350  X104.0387  Y140.6506   
N4355  X105.7445  Y141.1349   
N4360  X107.3920  Y141.7200   
N4365  X108.9825  Y142.4062   
N4370  X110.5170  Y143.1941   
N4375  X111.9966  Y144.0840   
N4380  X113.4225  Y145.0763   
N4385  X114.3713  Y145.8070   
N4390  X115.2680  Y146.5787   
N4395  X118.1338  Y149.3626   
N4400  X120.7637  Y151.9768   
N4405  X122.3883  Y149.3299   
N4410  X124.2880  Y146.2899   
N4415  X124.8489  Y145.4630   
N4420  X125.3157  Y144.8450   
N4425  X126.4265  Y143.5760   
N4430  X127.6470  Y142.4052   
N4435  X128.9633  Y141.3411   
N4440  X130.3615  Y140.3925   
N4445  X131.8277  Y139.5679   
N4450  X133.3480  Y138.8759   
N4455  X134.9085  Y138.3251   
N4460  X136.4954  Y137.9241   
N4465  X137.5949  Y137.7168   
N4470  X138.5736  Y137.6012   
N4475  X139.8594  Y137.5447   
N4480  X141.8803  Y137.5148   
N4485  X145.1847  Y137.4789   
N4490  X145.1855  Y137.3101   
N4495  X145.3374  Y134.4039   
N4500  X145.5073  Y131.0002   
N4505  X145.6058  Y128.0528   
N4510  X145.6435  Y125.1136   
N4515  X145.6307  Y121.7345   
N4520  X145.5419  Y116.6343   
N4525  X145.2997  Y112.2312   
N4530  X145.0838  Y109.4039   
N4535  X144.8151  Y106.5922   
N4540  X144.4939  Y103.7977   
N4545  X144.1205  Y101.0217   
N4550  X143.6953  Y98.2655   
N4555  X143.2185  Y95.5305   
N4560  X142.6905  Y92.8182   
N4565  X142.1116  Y90.1298   
N4570  X141.4821  Y87.4669   
N4575  X140.8023  Y84.8308   
N4580  X140.0725  Y82.2228   
N4585  X139.2930  Y79.6443   
N4590  X138.4642  Y77.0969   
N4595  X137.5864  Y74.5817   
N4600  X136.6598  Y72.1002   
N4605  X135.6848  Y69.6539   
N4610  X133.8220  Y65.3572   
N4615  X131.8062  Y61.1510   
N4620  X129.6381  Y57.0359   
N4625  X128.4970  Y55.0128   
N4630  X127.3179  Y53.0127   
N4635  X126.1010  Y51.0358   
N4640  X124.8462  Y49.0821   
N4645  X123.5536  Y47.1517   
N4650  X122.2234  Y45.2447   
N4655  X119.4498  Y41.5015   
N4660  X116.5261  Y37.8530   
N4665  X114.4862  Y35.4654   
N4670  X112.3848  Y33.1274   
N4675  X110.2226  Y30.8396   
N4680  X108.0008  Y28.6029   
N4685  X105.7203  Y26.4180   
N4690  X103.3821  Y24.2858   
N4695  X100.9872  Y22.2069   
N4700  X98.5365  Y20.1824   
N4705  X96.0311  Y18.2128   
N4710  X93.4719  Y16.2991   
N4715  X90.8598  Y14.4419   
N4720  X88.1960  Y12.6422   
N4725  X85.4813  Y10.9006   
N4730  X82.7168  Y9.2180   
N4735  X79.9034  Y7.5952   
N4740  X77.0421  Y6.0329   
N4745  X75.0086  Y5.0071   
N4750  X74.3265  Y5.3310   
N4755  X72.8034  Y6.1360   
N4760  X69.0213  Y8.2278   
N4765  X66.7653  Y9.5471   
N4770  X64.5429  Y10.9055   
N4775  X62.3514  Y12.3051   
N4780  X60.1882  Y13.7476   
N4785  X58.0504  Y15.2349   
N4790  X55.9353  Y16.7689   
N4795  X53.8401  Y18.3515   
N4800  X51.7621  Y19.9845   
N4805  X49.7365  Y21.6411   
N4810  X47.7492  Y23.3340   
N4815  X45.8009  Y25.0622   
N4820  X43.8922  Y26.8250   
N4825  X42.0239  Y28.6219   
N4830  X40.1966  Y30.4518   
N4835  X38.4111  Y32.3141   
N4840  X36.6680  Y34.2080   
N4845  X34.9680  Y36.1328   
N4850  X33.3118  Y38.0876   
N4855  X31.7002  Y40.0718   
N4860  X30.1337  Y42.0845   
N4865  X28.6131  Y44.1250   
N4870  X27.1390  Y46.1925   
N4875  X25.7122  Y48.2863   
N4880  X24.3333  Y50.4056   
N4885  X22.0949  Y54.0652   
N4890  X19.9911  Y57.7876   
N4895  X18.0214  Y61.5740   
N4900  X16.1857  Y65.4254   
N4905  X14.4836  Y69.3430   
N4910  X12.9147  Y73.3279   
N4915  X11.4787  Y77.3811   
N4920  X10.1753  Y81.5038   
N4925  X9.0041  Y85.6970   
N4930  X7.9649  Y89.9620   
N4935  X7.0573  Y94.2998   
N4940  X6.2809  Y98.7115   
N4945  X5.6355  Y103.1981   
N4950  X5.1207  Y107.7610   
N4955  X4.7362  Y112.4010   
N4960  X4.4817  Y117.1194   
N4965  X4.4227  Y119.8292   
N4970  X4.4032  Y123.4225   
N4975  X4.4231  Y127.0122   
N4980  X4.4822  Y129.7113   
N4985  X4.6622  Y133.2601   
N4990 G0  Z0.1000 
N4995 G1  Z-1.4000  F100.00 
N5000  X4.8422  Y136.8089   F300.00 
N5005  X4.8914  Y137.4932   
N5010  X7.7187   
N5015  X9.6377  Y137.5101   
N5020  X11.0713  Y137.5716   
N5025  X12.2488  Y137.6937   
N5030  X13.3998  Y137.8927   
N5035  X14.7693  Y138.2216   
N5040  X16.1138  Y138.6540   
N5045  X17.4261  Y139.1859   
N5050  X18.6991  Y139.8138   
N5055  X19.9257  Y140.5336   
N5060  X21.0988  Y141.3415   
N5065  X22.2112  Y142.2337   
N5070  X23.2559  Y143.2065   
N5075  X24.2385  Y144.2493   
N5080  X25.1261  Y145.3737   
N5085  X26.1634  Y146.9192   
N5090  X27.5950  Y149.2249   
N5095  X29.1005  Y151.6794   
N5100  X29.2917  Y151.9831   
N5105  X31.9628  Y149.3265   
N5110  X34.0561  Y147.2780   
N5115  X35.3379  Y146.0835   
N5120  X36.8655  Y144.8979   
N5125  X38.4554  Y143.8338   
N5130  X40.1068  Y142.8917   
N5135  X41.8189  Y142.0717   
N5140  X43.5910  Y141.3743   
N5145  X45.4223  Y140.7998   
N5150  X47.3120  Y140.3486   
N5155  X49.2594  Y140.0209   
N5160  X50.7159  Y139.9120   
N5165  X52.6211  Y139.8757   
N5170  X54.5151  Y139.9120   
N5175  X55.9379  Y140.0208   
N5180  X57.9393  Y140.3657   
N5185  X59.8612  Y140.8282   
N5190  X61.7085  Y141.4106   
N5195  X63.4866  Y142.1151   
N5200  X65.2004  Y142.9441   
N5205  X66.8553  Y143.8998   
N5210  X68.4562  Y144.9844   
N5215  X70.0085  Y146.2002   
N5220  X71.1704  Y147.2679   
N5225  X72.8983  Y148.9418   
N5230  X75.0293  Y151.0472   
N5235  X77.2781  Y148.8255   
N5240  X78.8879  Y147.2689   
N5245  X80.1988  Y146.0913   
N5250  X81.3859  Y145.1436   
N5255  X82.6242  Y144.2770   
N5260  X83.9388  Y143.4576   
N5265  X85.2807  Y142.7230   
N5270  X86.6536  Y142.0721   
N5275  X88.0613  Y141.5033   
N5280  X89.5074  Y141.0154   
N5285  X90.9956  Y140.6070   
N5290  X92.5297  Y140.2766   
N5295  X94.1132  Y140.0230   
N5300  X95.4823  Y139.9192   
N5305  X97.2998  Y139.8759   
N5310  X99.1078  Y139.8960   
N5315  X100.4483  Y139.9824   
N5320  X102.2737  Y140.2665   
N5325  X104.0387  Y140.6506   
N5330  X105.7445  Y141.1349   
N5335  X107.3920  Y141.7200   
N5340  X108.9825  Y142.4062   
N5345  X110.5170  Y143.1941   
N5350  X111.9966  Y144.0840   
N5355  X113.4225  Y145.0763   
N5360  X114.3713  Y145.8070   
N5365  X115.2680  Y146.5787   
N5370  X118.1338  Y149.3626   
N5375  X120.7637  Y151.9768   
N5380  X122.3883  Y149.3299   
N5385  X124.2880  Y146.2899   
N5390  X124.8489  Y145.4630   
N5395  X125.3157  Y144.8450   
N5400  X126.4265  Y143.5760   
N5405  X127.6470  Y142.4052   
N5410  X128.9633  Y141.3411   
N5415  X130.3615  Y140.3925   
N5420  X131.8277  Y139.5679   
N5425  X133.3480  Y138.8759   
N5430  X134.9085  Y138.3251   
N5435  X136.4954  Y137.9241   
N5440  X137.5949  Y137.7168   
N5445  X138.5736  Y137.6012   
N5450  X139.8594  Y137.5447   
N5455  X141.8803  Y137.5148   
N5460  X145.1847  Y137.4789   
N5465  X145.1855  Y137.3101   
N5470  X145.3374  Y134.4039   
N5475  X145.5073  Y131.0002   
N5480  X145.6058  Y128.0528   
N5485  X145.6435  Y125.1136   
N5490  X145.6307  Y121.7345   
N5495  X145.5419  Y116.6343   
N5500  X145.2997  Y112.2312   
N5505  X145.0838  Y109.4039   
N5510  X144.8151  Y106.5922   
N5515  X144.4939  Y103.7977   
N5520  X144.1205  Y101.0217   
N5525  X143.6953  Y98.2655   
N5530  X143.2185  Y95.5305   
N5535  X142.6905  Y92.8182   
N5540  X142.1116  Y90.1298   
N5545  X141.4821  Y87.4669   
N5550  X140.8023  Y84.8308   
N5555  X140.0725  Y82.2228   
N5560  X139.2930  Y79.6443   
N5565  X138.4642  Y77.0969   
N5570  X137.5864  Y74.5817   
N5575  X136.6598  Y72.1002   
N5580  X135.6848  Y69.6539   
N5585  X133.8220  Y65.3572   
N5590  X131.8062  Y61.1510   
N5595  X129.6381  Y57.0359   
N5600  X128.4970  Y55.0128   
N5605  X127.3179  Y53.0127   
N5610  X126.1010  Y51.0358   
N5615  X124.8462  Y49.0821   
N5620  X123.5536  Y47.1517   
N5625  X122.2234  Y45.2447   
N5630  X119.4498  Y41.5015   
N5635  X116.5261  Y37.8530   
N5640  X114.4862  Y35.4654   
N5645  X112.3848  Y33.1274   
N5650  X110.2226  Y30.8396   
N5655  X108.0008  Y28.6029   
N5660  X105.7203  Y26.4180   
N5665  X103.3821  Y24.2858   
N5670  X100.9872  Y22.2069   
N5675  X98.5365  Y20.1824   
N5680  X96.0311  Y18.2128   
N5685  X93.4719  Y16.2991   
N5690  X90.8598  Y14.4419   
N5695  X88.1960  Y12.6422   
N5700  X85.4813  Y10.9006   
N5705  X82.7168  Y9.2180   
N5710  X79.9034  Y7.5952   
N5715  X77.0421  Y6.0329   
N5720  X75.0086  Y5.0071   
N5725  X74.3265  Y5.3310   
N5730  X72.8034  Y6.1360   
N5735  X69.0213  Y8.2278   
N5740  X66.7653  Y9.5471   
N5745  X64.5429  Y10.9055   
N5750  X62.3514  Y12.3051   
N5755  X60.1882  Y13.7476   
N5760  X58.0504  Y15.2349   
N5765  X55.9353  Y16.7689   
N5770  X53.8401  Y18.3515   
N5775  X51.7621  Y19.9845   
N5780  X49.7365  Y21.6411   
N5785  X47.7492  Y23.3340   
N5790  X45.8009  Y25.0622   
N5795  X43.8922  Y26.8250   
N5800  X42.0239  Y28.6219   
N5805  X40.1966  Y30.4518   
N5810  X38.4111  Y32.3141   
N5815  X36.6680  Y34.2080   
N5820  X34.9680  Y36.1328   
N5825  X33.3118  Y38.0876   
N5830  X31.7002  Y40.0718   
N5835  X30.1337  Y42.0845   
N5840  X28.6131  Y44.1250   
N5845  X27.1390  Y46.1925   
N5850  X25.7122  Y48.2863   
N5855  X24.3333  Y50.4056   
N5860  X22.0949  Y54.0652   
N5865  X19.9911  Y57.7876   
N5870  X18.0214  Y61.5740   
N5875  X16.1857  Y65.4254   
N5880  X14.4836  Y69.3430   
N5885  X12.9147  Y73.3279   
N5890  X11.4787  Y77.3811   
N5895  X10.1753  Y81.5038   
N5900  X9.0041  Y85.6970   
N5905  X7.9649  Y89.9620   
N5910  X7.0573  Y94.2998   
N5915  X6.2809  Y98.7115   
N5920  X5.6355  Y103.1981   
N5925  X5.1207  Y107.7610   
N5930  X4.7362  Y112.4010   
N5935  X4.4817  Y117.1194   
N5940  X4.4227  Y119.8292   
N5945  X4.4032  Y123.4225   
N5950  X4.4231  Y127.0122   
N5955  X4.4822  Y129.7113   
N5960  X4.6622  Y133.2601   
N5965 G0  Z3.0000 
N5970  X0.3949  Y135.6651 
N5975  Z0.1000 
N5980 G1  Z-0.7000  F100.00 
N5985  X0.6964  Y141.3842   F300.00 
N5990  X0.7421  Y141.8730   
N5995  X5.4202   
N6000  X8.9992  Y141.8963   
N6005  X10.9083  Y141.9550   
N6010  X12.0190  Y142.1079   
N6015  X13.1095  Y142.3394   
N6020  X14.1764  Y142.6480   
N6025  X15.2165  Y143.0323   
N6030  X16.2263  Y143.4910   
N6035  X17.2026  Y144.0227   
N6040  X18.1419  Y144.6261   
N6045  X19.0410  Y145.2997   
N6050  X19.7169  Y145.8994   
N6055  X20.4466  Y146.6358   
N6060  X21.1369  Y147.4095   
N6065  X21.6944  Y148.1212   
N6070  X24.8959  Y153.2377   
N6075  X27.8088  Y157.9649   
N6080  X28.0327  Y158.2973   
N6085  X28.5937   
N6090  X29.1546   
N6095  X33.3021  Y154.1652   
N6100  X36.4265  Y151.0857   
N6105  X38.1144  Y149.4842   
N6110  X39.3838  Y148.5000   
N6115  X40.6800  Y147.6226   
N6120  X42.0095  Y146.8493   
N6125  X43.3785  Y146.1771   
N6130  X44.7934  Y145.6033   
N6135  X46.2605  Y145.1251   
N6140  X47.7862  Y144.7395   
N6145  X49.3767  Y144.4438   
N6150  X50.7647  Y144.3088   
N6155  X52.4630  Y144.2552   
N6160  X54.1627  Y144.2851   
N6165  X55.5554  Y144.4007   
N6170  X57.0244  Y144.6502   
N6175  X58.4447  Y144.9810   
N6180  X59.8205  Y145.3949   
N6185  X61.1564  Y145.8938   
N6190  X62.4569  Y146.4795   
N6195  X63.7262  Y147.1537   
N6200  X64.9689  Y147.9184   
N6205  X66.1893  Y148.7753   
N6210  X66.8777  Y149.3253   
N6215  X67.7667  Y150.1301   
N6220  X71.1395  Y153.4392   
N6225  X75.0312  Y157.3132   
N6230  X78.8824  Y153.4791   
N6235  X81.8091  Y150.6089   
N6240  X83.4375  Y149.0923   
N6245  X84.4501  Y148.3398   
N6250  X85.4915  Y147.6488   
N6255  X86.5600  Y147.0199   
N6260  X87.6536  Y146.4535   
N6265  X88.7705  Y145.9501   
N6270  X89.9089  Y145.5100   
N6275  X91.0669  Y145.1338   
N6280  X92.2426  Y144.8218   
N6285  X93.4342  Y144.5745   
N6290  X94.6398  Y144.3924   
N6295  X95.8575  Y144.2758   
N6300  X97.0855  Y144.2253   
N6305  X98.3220  Y144.2412   
N6310  X99.5651  Y144.3239   
N6315  X100.8129  Y144.4740   
N6320  X102.0636  Y144.6919   
N6325  X103.4282  Y145.0171   
N6330  X104.7866  Y145.4402   
N6335  X106.1289  Y145.9562   
N6340  X107.4454  Y146.5603   
N6345  X108.7264  Y147.2477   
N6350  X109.9620  Y148.0135   
N6355  X111.1425  Y148.8528   
N6360  X112.2581  Y149.7608   
N6365  X116.8787  Y154.2882   
N6370  X120.9126  Y158.3047   
N6375  X121.4888  Y158.2814   
N6380  X122.0650  Y158.2582   
N6385  X124.9412  Y153.5655   
N6390  X128.3085  Y148.1735   
N6395  X128.8538  Y147.4804   
N6400  X129.5716  Y146.6776   
N6405  X130.3334  Y145.9022   
N6410  X131.0106  Y145.2914   
N6415  X131.7184  Y144.7529   
N6420  X132.4761  Y144.2490   
N6425  X133.2744  Y143.7842   
N6430  X134.1043  Y143.3627   
N6435  X134.9569  Y142.9887   
N6440  X135.8229  Y142.6666   
N6445  X136.6934  Y142.4005   
N6450  X137.5593  Y142.1950   
N6455  X138.5783  Y142.0257   
N6460  X139.8205  Y141.9283   
N6465  X141.7016  Y141.8837   
N6470  X144.6374  Y141.8730   
N6475  X149.3134   
N6480  X149.3628  Y141.1887   
N6485  X149.6032  Y136.9067   
N6490  X149.8945  Y131.4710   
N6495  X149.9713  Y128.2481   
N6500  X149.9969  Y123.4142   
N6505  X149.9713  Y118.5906   
N6510  X149.8945  Y115.3987   
N6515  X149.6333  Y111.2864   
N6520  X149.3264  Y107.5873   
N6525  X148.9559  Y104.1082   
N6530  X148.5034  Y100.6560   
N6535  X148.0383  Y97.6164   
N6540  X147.5145  Y94.6093   
N6545  X146.9320  Y91.6344   
N6550  X146.2905  Y88.6917   
N6555  X145.5902  Y85.7808   
N6560  X144.8310  Y82.9016   
N6565  X144.0126  Y80.0538   
N6570  X143.1352  Y77.2372   
N6575  X142.1985  Y74.4516   
N6580  X141.2026  Y71.6967   
N6585  X140.1474  Y68.9725   
N6590  X139.0327  Y66.2786   
N6595  X137.8586  Y63.6148   
N6600  X136.6250  Y60.9809   
N6605  X135.3318  Y58.3768   
N6610  X133.9788  Y55.8021   
N6615  X131.7293  Y51.8162   
N6620  X129.3327  Y47.9134   
N6625  X126.7920  Y44.0971   
N6630  X124.1106  Y40.3703   
N6635  X121.2916  Y36.7363   
N6640  X118.3381  Y33.1981   
N6645  X115.2534  Y29.7591   
N6650  X112.0406  Y26.4224   
N6655  X108.7028  Y23.1912   
N6660  X105.2434  Y20.0687   
N6665  X101.6653  Y17.0580   
N6670  X97.9719  Y14.1624   
N6675  X94.1663  Y11.3850   
N6680  X90.2517  Y8.7290   
N6685  X86.2312  Y6.1976   
N6690  X82.1080  Y3.7940   
N6695  X78.0554  Y1.5990   
N6700  X75.0161  Y0.0000   
N6705  X74.2869  Y0.3798   
N6710  X74.2868   
N6715  X71.0533  Y2.1054   
N6720  X66.8899  Y4.3936   
N6725  X63.0427  Y6.6647   
N6730  X59.3458  Y9.0204   
N6735  X55.6336  Y11.5623   
N6740  X53.3590  Y13.2054   
N6745  X51.1237  Y14.8909   
N6750  X48.9284  Y16.6181   
N6755  X46.7736  Y18.3863   
N6760  X44.6600  Y20.1951   
N6765  X42.5883  Y22.0437   
N6770  X40.5590  Y23.9315   
N6775  X38.5728  Y25.8579   
N6780  X36.6303  Y27.8223   
N6785  X34.7321  Y29.8240   
N6790  X32.8788  Y31.8625   
N6795  X31.0712  Y33.9372   
N6800  X29.3097  Y36.0473   
N6805  X27.5951  Y38.1923   
N6810  X25.9280  Y40.3716   
N6815  X24.3089  Y42.5845   
N6820  X21.8981  Y46.1204   
N6825  X19.5624  Y49.7490   
N6830  X17.4860  Y53.2582   
N6835  X15.5267  Y56.8233   
N6840  X13.6842  Y60.4446   
N6845  X11.9585  Y64.1228   
N6850  X10.3493  Y67.8581   
N6855  X8.8566  Y71.6512   
N6860  X7.4802  Y75.5024   
N6865  X6.2200  Y79.4122   
N6870  X5.0757  Y83.3812   
N6875  X4.0474  Y87.4096   
N6880  X3.1348  Y91.4981   
N6885  X2.3378  Y95.6471   
N6890  X1.6562  Y99.8570   
N6895  X1.0900  Y104.1283   
N6900  X0.6389  Y108.4614   
N6905  X0.3028  Y112.8569   
N6910  X0.1115  Y116.9807   
N6915  X0.0083  Y121.5740   
N6920  X0.0000  Y126.0809   
N6925  X0.0934  Y129.9459   
N6930  X0.3949  Y135.6651   
N6935 G0  Z0.1000 
N6940 G1  Z-1.4000  F100.00 
N6945  X0.6964  Y141.3842   F300.00 
N6950  X0.7421  Y141.8730   
N6955  X5.4202   
N6960  X8.9992  Y141.8963   
N6965  X10.9083  Y141.9550   
N6970  X12.0190  Y142.1079   
N6975  X13.1095  Y142.3394   
N6980  X14.1764  Y142.6480   
N6985  X15.2165  Y143.0323   
N6990  X16.2263  Y143.4910   
N6995  X17.2026  Y144.0227   
N7000  X18.1419  Y144.6261   
N7005  X19.0410  Y145.2997   
N7010  X19.7169  Y145.8994   
N7015  X20.4466  Y146.6358   
N7020  X21.1369  Y147.4095   
N7025  X21.6944  Y148.1212   
N7030  X24.8959  Y153.2377   
N7035  X27.8088  Y157.9649   
N7040  X28.0327  Y158.2973   
N7045  X28.5937   
N7050  X29.1546   
N7055  X33.3021  Y154.1652   
N7060  X36.4265  Y151.0857   
N7065  X38.1144  Y149.4842   
N7070  X39.3838  Y148.5000   
N7075  X40.6800  Y147.6226   
N7080  X42.0095  Y146.8493   
N7085  X43.3785  Y146.1771   
N7090  X44.7934  Y145.6033   
N7095  X46.2605  Y145.1251   
N7100  X47.7862  Y144.7395   
N7105  X49.3767  Y144.4438   
N7110  X50.7647  Y144.3088   
N7115  X52.4630  Y144.2552   
N7120  X54.1627  Y144.2851   
N7125  X55.5554  Y144.4007   
N7130  X57.0244  Y144.6502   
N7135  X58.4447  Y144.9810   
N7140  X59.8205  Y145.3949   
N7145  X61.1564  Y145.8938   
N7150  X62.4569  Y146.4795   
N7155  X63.7262  Y147.1537   
N7160  X64.9689  Y147.9184   
N7165  X66.1893  Y148.7753   
N7170  X66.8777  Y149.3253   
N7175  X67.7667  Y150.1301   
N7180  X71.1395  Y153.4392   
N7185  X75.0312  Y157.3132   
N7190  X78.8824  Y153.4791   
N7195  X81.8091  Y150.6089   
N7200  X83.4375  Y149.0923   
N7205  X84.4501  Y148.3398   
N7210  X85.4915  Y147.6488   
N7215  X86.5600  Y147.0199   
N7220  X87.6536  Y146.4535   
N7225  X88.7705  Y145.9501   
N7230  X89.9089  Y145.5100   
N7235  X91.0669  Y145.1338   
N7240  X92.2426  Y144.8218   
N7245  X93.4342  Y144.5745   
N7250  X94.6398  Y144.3924   
N7255  X95.8575  Y144.2758   
N7260  X97.0855  Y144.2253   
N7265  X98.3220  Y144.2412   
N7270  X99.5651  Y144.3239   
N7275  X100.8129  Y144.4740   
N7280  X102.0636  Y144.6919   
N7285  X103.4282  Y145.0171   
N7290  X104.7866  Y145.4402   
N7295  X106.1289  Y145.9562   
N7300  X107.4454  Y146.5603   
N7305  X108.7264  Y147.2477   
N7310  X109.9620  Y148.0135   
N7315  X111.1425  Y148.8528   
N7320  X112.2581  Y149.7608   
N7325  X116.8787  Y154.2882   
N7330  X120.9126  Y158.3047   
N7335  X121.4888  Y158.2814   
N7340  X122.0650  Y158.2582   
N7345  X124.9412  Y153.5655   
N7350  X128.3085  Y148.1735   
N7355  X128.8538  Y147.4804   
N7360  X129.5716  Y146.6776   
N7365  X130.3334  Y145.9022   
N7370  X131.0106  Y145.2914   
N7375  X131.7184  Y144.7529   
N7380  X132.4761  Y144.2490   
N7385  X133.2744  Y143.7842   
N7390  X134.1043  Y143.3627   
N7395  X134.9569  Y142.9887   
N7400  X135.8229  Y142.6666   
N7405  X136.6934  Y142.4005   
N7410  X137.5593  Y142.1950   
N7415  X138.5783  Y142.0257   
N7420  X139.8205  Y141.9283   
N7425  X141.7016  Y141.8837   
N7430  X144.6374  Y141.8730   
N7435  X149.3134   
N7440  X149.3628  Y141.1887   
N7445  X149.6032  Y136.9067   
N7450  X149.8945  Y131.4710   
N7455  X149.9713  Y128.2481   
N7460  X149.9969  Y123.4142   
N7465  X149.9713  Y118.5906   
N7470  X149.8945  Y115.3987   
N7475  X149.6333  Y111.2864   
N7480  X149.3264  Y107.5873   
N7485  X148.9559  Y104.1082   
N7490  X148.5034  Y100.6560   
N7495  X148.0383  Y97.6164   
N7500  X147.5145  Y94.6093   
N7505  X146.9320  Y91.6344   
N7510  X146.2905  Y88.6917   
N7515  X145.5902  Y85.7808   
N7520  X144.8310  Y82.9016   
N7525  X144.0126  Y80.0538   
N7530  X143.1352  Y77.2372   
N7535  X142.1985  Y74.4516   
N7540  X141.2026  Y71.6967   
N7545  X140.1474  Y68.9725   
N7550  X139.0327  Y66.2786   
N7555  X137.8586  Y63.6148   
N7560  X136.6250  Y60.9809   
N7565  X135.3318  Y58.3768   
N7570  X133.9788  Y55.8021   
N7575  X131.7293  Y51.8162   
N7580  X129.3327  Y47.9134   
N7585  X126.7920  Y44.0971   
N7590  X124.1106  Y40.3703   
N7595  X121.2916  Y36.7363   
N7600  X118.3381  Y33.1981   
N7605  X115.2534  Y29.7591   
N7610  X112.0406  Y26.4224   
N7615  X108.7028  Y23.1912   
N7620  X105.2434  Y20.0687   
N7625  X101.6653  Y17.0580   
N7630  X97.9719  Y14.1624   
N7635  X94.1663  Y11.3850   
N7640  X90.2517  Y8.7290   
N7645  X86.2312  Y6.1976   
N7650  X82.1080  Y3.7940   
N7655  X78.0554  Y1.5990   
N7660  X75.0161  Y0.0000   
N7665  X74.2869  Y0.3798   
N7670  X74.2868   
N7675  X71.0533  Y2.1054   
N7680  X66.8899  Y4.3936   
N7685  X63.0427  Y6.6647   
N7690  X59.3458  Y9.0204   
N7695  X55.6336  Y11.5623   
N7700  X53.3590  Y13.2054   
N7705  X51.1237  Y14.8909   
N7710  X48.9284  Y16.6181   
N7715  X46.7736  Y18.3863   
N7720  X44.6600  Y20.1951   
N7725  X42.5883  Y22.0437   
N7730  X40.5590  Y23.9315   
N7735  X38.5728  Y25.8579   
N7740  X36.6303  Y27.8223   
N7745  X34.7321  Y29.8240   
N7750  X32.8788  Y31.8625   
N7755  X31.0712  Y33.9372   
N7760  X29.3097  Y36.0473   
N7765  X27.5951  Y38.1923   
N7770  X25.9280  Y40.3716   
N7775  X24.3089  Y42.5845   
N7780  X21.8981  Y46.1204   
N7785  X19.5624  Y49.7490   
N7790  X17.4860  Y53.2582   
N7795  X15.5267  Y56.8233   
N7800  X13.6842  Y60.4446   
N7805  X11.9585  Y64.1228   
N7810  X10.3493  Y67.8581   
N7815  X8.8566  Y71.6512   
N7820  X7.4802  Y75.5024   
N7825  X6.2200  Y79.4122   
N7830  X5.0757  Y83.3812   
N7835  X4.0474  Y87.4096   
N7840  X3.1348  Y91.4981   
N7845  X2.3378  Y95.6471   
N7850  X1.6562  Y99.8570   
N7855  X1.0900  Y104.1283   
N7860  X0.6389  Y108.4614   
N7865  X0.3028  Y112.8569   
N7870  X0.1115  Y116.9807   
N7875  X0.0083  Y121.5740   
N7880  X0.0000  Y126.0809   
N7885  X0.0934  Y129.9459   
N7890  X0.3949  Y135.6651   
N7895 G0  Z3.0000 
N7900  X87.0796  Y75.7423 
N7905  Z0.1000 
N7910 G1  Z-0.7000  F100.00 
N7915  X87.3528  Y75.6286   F300.00 
N7920  X87.7393  Y75.3894   
N7925  X88.0585  Y75.1065   
N7930  X88.3119  Y74.7877   
N7935  X88.5013  Y74.4408   
N7940  X88.6283  Y74.0738   
N7945  X88.6946  Y73.6946   
N7950  X88.7017  Y73.3110   
N7955  X88.6514  Y72.9311   
N7960  X88.5454  Y72.5627   
N7965  X88.3851  Y72.2137   
N7970  X88.1724  Y71.8920   
N7975  X87.9088  Y71.6055   
N7980  X87.5961  Y71.3621   
N7985  X87.2358  Y71.1697   
N7990  X86.8296  Y71.0363   
N7995  X86.3792  Y70.9698   
N8000  X85.9180  Y70.9740   
N8005  X85.5492  Y71.0403   
N8010  X85.0272  Y71.2661   
N8015  X84.5902  Y71.5697   
N8020  X84.2347  Y71.9540   
N8025  X83.9574  Y72.4219   
N8030  X83.7965  Y72.8834   
N8035  X83.7570  Y73.4386   
N8040  X83.7937  Y73.9319   
N8045  X83.9119  Y74.3570   
N8050  X84.1263  Y74.7504   
N8055  X84.4515  Y75.1483   
N8060  X84.8277  Y75.4861   
N8065  X85.2335  Y75.7173   
N8070  X85.6908  Y75.8512   
N8075  X86.2217  Y75.8971   
N8080  X86.8064  Y75.8561   
N8085  X87.0796  Y75.7423   
N8090 G0  Z0.1000 
N8095 G1  Z-1.4000  F100.00 
N8100  X87.3528  Y75.6286   F300.00 
N8105  X87.7393  Y75.3894   
N8110  X88.0585  Y75.1065   
N8115  X88.3119  Y74.7877   
N8120  X88.5013  Y74.4408   
N8125  X88.6283  Y74.0738   
N8130  X88.6946  Y73.6946   
N8135  X88.7017  Y73.3110   
N8140  X88.6514  Y72.9311   
N8145  X88.5454  Y72.5627   
N8150  X88.3851  Y72.2137   
N8155  X88.1724  Y71.8920   
N8160  X87.9088  Y71.6055   
N8165  X87.5961  Y71.3621   
N8170  X87.2358  Y71.1697   
N8175  X86.8296  Y71.0363   
N8180  X86.3792  Y70.9698   
N8185  X85.9180  Y70.9740   
N8190  X85.5492  Y71.0403   
N8195  X85.0272  Y71.2661   
N8200  X84.5902  Y71.5697   
N8205  X84.2347  Y71.9540   
N8210  X83.9574  Y72.4219   
N8215  X83.7965  Y72.8834   
N8220  X83.7570  Y73.4386   
N8225  X83.7937  Y73.9319   
N8230  X83.9119  Y74.3570   
N8235  X84.1263  Y74.7504   
N8240  X84.4515  Y75.1483   
N8245  X84.8277  Y75.4861   
N8250  X85.2335  Y75.7173   
N8255  X85.6908  Y75.8512   
N8260  X86.2217  Y75.8971   
N8265  X86.8064  Y75.8561   
N8270  X87.0796  Y75.7423   
N8275 G0  Z3.0000 
N8280  X94.2396  Y60.8378 
N8285  Z0.1000 
N8290 G1  Z-0.7000  F100.00 
N8295  X94.2495  Y65.7349   F300.00 
N8300  X94.2274  Y71.5670   
N8305  X94.1715  Y74.5223   
N8310  X94.1123  Y75.3087   
N8315  X94.0223  Y75.8408   
N8320  X93.7203  Y76.7626   
N8325  X92.9938  Y78.4832   
N8330  X92.5968  Y79.4071   
N8335  X92.5190  Y79.7095   
N8340  X92.4877  Y80.0083   
N8345  X92.5018  Y80.4254   
N8350  X92.5949  Y80.7586   
N8355  X92.7723  Y81.0190   
N8360  X93.0391  Y81.2180   
N8365  X93.3283  Y81.3327   
N8370  X93.6714  Y81.2180   
N8375  X94.2665  Y80.7436   
N8380  X95.5229  Y79.6263   
N8385  X99.1204  Y76.3051   
N8390  X102.6650  Y72.9387   
N8395  X103.8554  Y71.7649   
N8400  X104.3580  Y71.2114   
N8405  X104.4928  Y70.7869   
N8410  X104.5001  Y70.3647   
N8415  X104.3848  Y69.9809   
N8420  X104.1518  Y69.6721   
N8425  X103.9461  Y69.5535   
N8430  X103.6550  Y69.4500   
N8435  X103.3212  Y69.3369   
N8440  X103.0395  Y69.1896   
N8445  X102.8206  Y69.0151   
N8450  X102.6754  Y68.8205   
N8455  X102.6192  Y67.9006   
N8460  X102.5788  Y65.6736   
N8465  X102.5458  Y59.0075   
N8470  X102.5769  Y52.2402   
N8475  X102.6167  Y49.8867   
N8480  X102.6726  Y48.7896   
N8485  X102.8246  Y48.1598   
N8490  X103.0510  Y47.4589   
N8495  X103.7737  Y45.7129   
N8500  X104.2089  Y44.6752   
N8505  X104.2862  Y44.3741   
N8510  X104.3059  Y44.1096   
N8515  X104.2699  Y43.7433   
N8520  X104.1684  Y43.4368   
N8525  X104.0117  Y43.1961   
N8530  X103.8099  Y43.0273   
N8535  X103.5731  Y42.9363   
N8540  X103.3114  Y42.9290   
N8545  X103.0349  Y43.0116   
N8550  X102.7538  Y43.1900   
N8555  X102.7538   
N8560  X97.7102  Y47.8764   
N8565  X92.6901  Y52.6049   
N8570  X92.4072  Y53.0123   
N8575  X92.2613  Y53.4581   
N8580  X92.2604  Y53.8956   
N8585  X92.3167  Y54.0965   
N8590  X92.4122  Y54.2777   
N8595  X92.5486  Y54.4605   
N8600  X92.6953  Y54.5858   
N8605  X93.2920  Y54.8370   
N8610  X93.7070  Y55.0238   
N8615  X93.9837  Y55.2491   
N8620  X94.1490  Y55.5442   
N8625  X94.2297  Y55.9408   
N8630  X94.2396  Y60.8378   
N8635 G0  Z0.1000 
N8640 G1  Z-1.4000  F100.00 
N8645  X94.2495  Y65.7349   F300.00 
N8650  X94.2274  Y71.5670   
N8655  X94.1715  Y74.5223   
N8660  X94.1123  Y75.3087   
N8665  X94.0223  Y75.8408   
N8670  X93.7203  Y76.7626   
N8675  X92.9938  Y78.4832   
N8680  X92.5968  Y79.4071   
N8685  X92.5190  Y79.7095   
N8690  X92.4877  Y80.0083   
N8695  X92.5018  Y80.4254   
N8700  X92.5949  Y80.7586   
N8705  X92.7723  Y81.0190   
N8710  X93.0391  Y81.2180   
N8715  X93.3283  Y81.3327   
N8720  X93.6714  Y81.2180   
N8725  X94.2665  Y80.7436   
N8730  X95.5229  Y79.6263   
N8735  X99.1204  Y76.3051   
N8740  X102.6650  Y72.9387   
N8745  X103.8554  Y71.7649   
N8750  X104.3580  Y71.2114   
N8755  X104.4928  Y70.7869   
N8760  X104.5001  Y70.3647   
N8765  X104.3848  Y69.9809   
N8770  X104.1518  Y69.6721   
N8775  X103.9461  Y69.5535   
N8780  X103.6550  Y69.4500   
N8785  X103.3212  Y69.3369   
N8790  X103.0395  Y69.1896   
N8795  X102.8206  Y69.0151   
N8800  X102.6754  Y68.8205   
N8805  X102.6192  Y67.9006   
N8810  X102.5788  Y65.6736   
N8815  X102.5458  Y59.0075   
N8820  X102.5769  Y52.2402   
N8825  X102.6167  Y49.8867   
N8830  X102.6726  Y48.7896   
N8835  X102.8246  Y48.1598   
N8840  X103.0510  Y47.4589   
N8845  X103.7737  Y45.7129   
N8850  X104.2089  Y44.6752   
N8855  X104.2862  Y44.3741   
N8860  X104.3059  Y44.1096   
N8865  X104.2699  Y43.7433   
N8870  X104.1684  Y43.4368   
N8875  X104.0117  Y43.1961   
N8880  X103.8099  Y43.0273   
N8885  X103.5731  Y42.9363   
N8890  X103.3114  Y42.9290   
N8895  X103.0349  Y43.0116   
N8900  X102.7538  Y43.1900   
N8905  X102.7538   
N8910  X97.7102  Y47.8764   
N8915  X92.6901  Y52.6049   
N8920  X92.4072  Y53.0123   
N8925  X92.2613  Y53.4581   
N8930  X92.2604  Y53.8956   
N8935  X92.3167  Y54.0965   
N8940  X92.4122  Y54.2777   
N8945  X92.5486  Y54.4605   
N8950  X92.6953  Y54.5858   
N8955  X93.2920  Y54.8370   
N8960  X93.7070  Y55.0238   
N8965  X93.9837  Y55.2491   
N8970  X94.1490  Y55.5442   
N8975  X94.2297  Y55.9408   
N8980  X94.2396  Y60.8378   
N8985 G0  Z3.0000 
N8990  X109.7576  Y48.3117 
N8995  Z0.1000 
N9000 G1  Z-0.7000  F100.00 
N9005  X109.4469  Y48.4566   F300.00 
N9010  X108.9445  Y48.8617   
N9015  X108.5688  Y49.3559   
N9020  X108.3277  Y49.9127   
N9025  X108.2290  Y50.5057   
N9030  X108.2805  Y51.1084   
N9035  X108.4899  Y51.6944   
N9040  X108.8652  Y52.2373   
N9045  X109.2622  Y52.6067   
N9050  X109.6926  Y52.8637   
N9055  X110.1689  Y53.0138   
N9060  X110.7034  Y53.0627   
N9065  X111.2898  Y53.0167   
N9070  X111.8349  Y52.7900   
N9075  X112.2254  Y52.5482   
N9080  X112.5472  Y52.2620   
N9085  X112.8021  Y51.9397   
N9090  X112.9919  Y51.5891   
N9095  X113.1182  Y51.2186   
N9100  X113.1829  Y50.8360   
N9105  X113.1878  Y50.4495   
N9110  X113.1344  Y50.0671   
N9115  X113.0247  Y49.6970   
N9120  X112.8604  Y49.3472   
N9125  X112.6431  Y49.0258   
N9130  X112.3747  Y48.7408   
N9135  X112.0570  Y48.5005   
N9140  X111.6915  Y48.3127   
N9145  X111.2802  Y48.1857   
N9150  X110.8248  Y48.1274   
N9155  X110.3711  Y48.1287   
N9160  X110.0683  Y48.1669   
N9165  X109.7576  Y48.3117   
N9170 G0  Z0.1000 
N9175 G1  Z-1.4000  F100.00 
N9180  X109.4469  Y48.4566   F300.00 
N9185  X108.9445  Y48.8617   
N9190  X108.5688  Y49.3559   
N9195  X108.3277  Y49.9127   
N9200  X108.2290  Y50.5057   
N9205  X108.2805  Y51.1084   
N9210  X108.4899  Y51.6944   
N9215  X108.8652  Y52.2373   
N9220  X109.2622  Y52.6067   
N9225  X109.6926  Y52.8637   
N9230  X110.1689  Y53.0138   
N9235  X110.7034  Y53.0627   
N9240  X111.2898  Y53.0167   
N9245  X111.8349  Y52.7900   
N9250  X112.2254  Y52.5482   
N9255  X112.5472  Y52.2620   
N9260  X112.8021  Y51.9397   
N9265  X112.9919  Y51.5891   
N9270  X113.1182  Y51.2186   
N9275  X113.1829  Y50.8360   
N9280  X113.1878  Y50.4495   
N9285  X113.1344  Y50.0671   
N9290  X113.0247  Y49.6970   
N9295  X112.8604  Y49.3472   
N9300  X112.6431  Y49.0258   
N9305  X112.3747  Y48.7408   
N9310  X112.0570  Y48.5005   
N9315  X111.6915  Y48.3127   
N9320  X111.2802  Y48.1857   
N9325  X110.8248  Y48.1274   
N9330  X110.3711  Y48.1287   
N9335  X110.0683  Y48.1669   
N9340  X109.7576  Y48.3117   
N9345 G0  Z3.0000 
N9350  X104.6891  Y85.1631 
N9355  Z0.1000 
N9360 G1  Z-0.7000  F100.00 
N9365  X86.4073  Y102.2196   F300.00 
N9370  X54.6667  Y131.8265   
N9375  X51.4351  Y134.8537   
N9380  X51.2151  Y135.0704   
N9385  X51.2538  Y135.0502   
N9390  X51.8990  Y135.0490   
N9395  X52.8139  Y135.0395   
N9400  X54.0736  Y135.0816   
N9405  X55.3880  Y135.1614   
N9410  X56.4667  Y135.2654   
N9415  X58.6949  Y135.6275   
N9420  X60.8658  Y136.1317   
N9425  X62.9767  Y136.7769   
N9430  X65.0251  Y137.5618   
N9435  X67.0084  Y138.4856   
N9440  X68.9238  Y139.5469   
N9445  X70.7689  Y140.7447   
N9450  X72.5409  Y142.0779   
N9455  X74.2427  Y143.5650   
N9460  X75.0313  Y144.3148   
N9465  X75.6758  Y143.6935   
N9470  X77.3537  Y142.1985   
N9475  X79.1555  Y140.8250   
N9480  X81.0670  Y139.5802   
N9485  X83.0737  Y138.4714   
N9490  X85.1614  Y137.5058   
N9495  X87.3158  Y136.6907   
N9500  X89.5224  Y136.0334   
N9505  X91.7669  Y135.5411   
N9510  X92.9747  Y135.3473   
N9515  X94.1868  Y135.2004   
N9520  X95.4019  Y135.1001   
N9525  X96.6183  Y135.0464   
N9530  X97.8346  Y135.0390   
N9535  X99.0493  Y135.0777   
N9540  X100.2608  Y135.1623   
N9545  X101.4677  Y135.2927   
N9550  X102.6683  Y135.4685   
N9555  X103.8612  Y135.6898   
N9560  X105.0450  Y135.9562   
N9565  X106.2179  Y136.2675   
N9570  X107.3787  Y136.6236   
N9575  X108.5256  Y137.0243   
N9580  X109.6573  Y137.4694   
N9585  X110.7721  Y137.9586   
N9590  X111.9021  Y138.5070   
N9595  X112.9936  Y139.0903   
N9600  X114.0542  Y139.7139   
N9605  X115.0915  Y140.3827   
N9610  X116.1130  Y141.1019   
N9615  X117.1264  Y141.8767   
N9620  X118.1391  Y142.7121   
N9625  X119.1589  Y143.6132   
N9630  X119.8664  Y144.2194   
N9635  X120.1605  Y143.8087   
N9640  X120.7577  Y142.9231   
N9645  X121.5137  Y141.9474   
N9650  X122.3833  Y140.9369   
N9655  X123.3211  Y139.9470   
N9660  X124.6945  Y138.6425   
N9665  X126.0322  Y137.5393   
N9670  X127.4259  Y136.5677   
N9675  X128.9673  Y135.6578   
N9680  X130.2386  Y135.0152   
N9685  X131.5771  Y134.4402   
N9690  X132.9619  Y133.9384   
N9695  X134.3727  Y133.5154   
N9700  X135.7888  Y133.1768   
N9705  X137.1895  Y132.9280   
N9710  X138.5543  Y132.7747   
N9715  X139.8627  Y132.7224   
N9720  X140.6244   
N9725  X140.6749  Y131.6696   
N9730  X140.8301  Y127.0941   
N9735  X140.8638  Y122.4607   
N9740  X140.7767  Y117.8850   
N9745  X140.5694  Y113.4825   
N9750  X140.3547  Y110.5182   
N9755  X140.0825  Y107.5776   
N9760  X139.7530  Y104.6617   
N9765  X139.3663  Y101.7712   
N9770  X138.9227  Y98.9071   
N9775  X138.4224  Y96.0701   
N9780  X137.8655  Y93.2610   
N9785  X137.2522  Y90.4806   
N9790  X136.5827  Y87.7299   
N9795  X135.8573  Y85.0095   
N9800  X135.0761  Y82.3203   
N9805  X134.2392  Y79.6633   
N9810  X133.3470  Y77.0390   
N9815  X132.3995  Y74.4485   
N9820  X131.3970  Y71.8924   
N9825  X130.3396  Y69.3717   
N9830  X128.6452  Y65.6274   
N9835  X127.9895  Y64.2735   
N9840  X127.6882  Y63.7463   
N9845  X122.9709  Y68.1066   
N9850  X104.6891  Y85.1631   
N9855 G0  Z0.1000 
N9860 G1  Z-1.4000  F100.00 
N9865  X86.4073  Y102.2196   F300.00 
N9870  X54.6667  Y131.8265   
N9875  X51.4351  Y134.8537   
N9880  X51.2151  Y135.0704   
N9885  X51.2538  Y135.0502   
N9890  X51.8990  Y135.0490   
N9895  X52.8139  Y135.0395   
N9900  X54.0736  Y135.0816   
N9905  X55.3880  Y135.1614   
N9910  X56.4667  Y135.2654   
N9915  X58.6949  Y135.6275   
N9920  X60.8658  Y136.1317   
N9925  X62.9767  Y136.7769   
N9930  X65.0251  Y137.5618   
N9935  X67.0084  Y138.4856   
N9940  X68.9238  Y139.5469   
N9945  X70.7689  Y140.7447   
N9950  X72.5409  Y142.0779   
N9955  X74.2427  Y143.5650   
N9960  X75.0313  Y144.3148   
N9965  X75.6758  Y143.6935   
N9970  X77.3537  Y142.1985   
N9975  X79.1555  Y140.8250   
N9980  X81.0670  Y139.5802   
N9985  X83.0737  Y138.4714   
N9990  X85.1614  Y137.5058   
N9995  X87.3158  Y136.6907   
N10000  X89.5224  Y136.0334   
N10005  X91.7669  Y135.5411   
N10010  X92.9747  Y135.3473   
N10015  X94.1868  Y135.2004   
N10020  X95.4019  Y135.1001   
N10025  X96.6183  Y135.0464   
N10030  X97.8346  Y135.0390   
N10035  X99.0493  Y135.0777   
N10040  X100.2608  Y135.1623   
N10045  X101.4677  Y135.2927   
N10050  X102.6683  Y135.4685   
N10055  X103.8612  Y135.6898   
N10060  X105.0450  Y135.9562   
N10065  X106.2179  Y136.2675   
N10070  X107.3787  Y136.6236   
N10075  X108.5256  Y137.0243   
N10080  X109.6573  Y137.4694   
N10085  X110.7721  Y137.9586   
N10090  X111.9021  Y138.5070   
N10095  X112.9936  Y139.0903   
N10100  X114.0542  Y139.7139   
N10105  X115.0915  Y140.3827   
N10110  X116.1130  Y141.1019   
N10115  X117.1264  Y141.8767   
N10120  X118.1391  Y142.7121   
N10125  X119.1589  Y143.6132   
N10130  X119.8664  Y144.2194   
N10135  X120.1605  Y143.8087   
N10140  X120.7577  Y142.9231   
N10145  X121.5137  Y141.9474   
N10150  X122.3833  Y140.9369   
N10155  X123.3211  Y139.9470   
N10160  X124.6945  Y138.6425   
N10165  X126.0322  Y137.5393   
N10170  X127.4259  Y136.5677   
N10175  X128.9673  Y135.6578   
N10180  X130.2386  Y135.0152   
N10185  X131.5771  Y134.4402   
N10190  X132.9619  Y133.9384   
N10195  X134.3727  Y133.5154   
N10200  X135.7888  Y133.1768   
N10205  X137.1895  Y132.9280   
N10210  X138.5543  Y132.7747   
N10215  X139.8627  Y132.7224   
N10220  X140.6244   
N10225  X140.6749  Y131.6696   
N10230  X140.8301  Y127.0941   
N10235  X140.8638  Y122.4607   
N10240  X140.7767  Y117.8850   
N10245  X140.5694  Y113.4825   
N10250  X140.3547  Y110.5182   
N10255  X140.0825  Y107.5776   
N10260  X139.7530  Y104.6617   
N10265  X139.3663  Y101.7712   
N10270  X138.9227  Y98.9071   
N10275  X138.4224  Y96.0701   
N10280  X137.8655  Y93.2610   
N10285  X137.2522  Y90.4806   
N10290  X136.5827  Y87.7299   
N10295  X135.8573  Y85.0095   
N10300  X135.0761  Y82.3203   
N10305  X134.2392  Y79.6633   
N10310  X133.3470  Y77.0390   
N10315  X132.3995  Y74.4485   
N10320  X131.3970  Y71.8924   
N10325  X130.3396  Y69.3717   
N10330  X128.6452  Y65.6274   
N10335  X127.9895  Y64.2735   
N10340  X127.6882  Y63.7463   
N10345  X122.9709  Y68.1066   
N10350  X104.6891  Y85.1631   
N10355 G0  Z3.0000 
N10360 M5
N10365 M30

