N5 (File Name = Escudo_de_Racing_Club on Saturday, November 11, 2023)
N10 (Default Mill Post)
N15  G91.1
N20 G0  Z3.0000 
N25 M3 S4000 
N30  X106.3656  Y51.5337 
N35  Z0.1000 
N40 G1  Z-0.7000  F100.00 
N45  Y82.7252   F300.00 
N50  Y145.1083   
N55  X116.7828   
N60  X127.1998   
N65  X127.2907  Y119.9033   
N70  X127.3281  Y91.5860   
N75  X127.2906  Y58.8982   
N80  X127.1998  Y23.0980   
N85  X126.8948  Y22.9821   
N90  X125.7550  Y22.6200   
N95  X124.2950  Y22.2632   
N100  X122.6585  Y21.9431   
N105  X120.9893  Y21.6913   
N110  X118.6292  Y21.4579   
N115  X112.7071  Y21.0540   
N120  X108.3950  Y20.6750   
N125  X106.6469  Y20.4125   
N130  X106.3656  Y20.3422   
N135  Y51.5337   
N140 G0  Z0.1000 
N145 G1  Z-1.4000  F100.00 
N150  Y82.7252   F300.00 
N155  Y145.1083   
N160  X116.7828   
N165  X127.1998   
N170  X127.2907  Y119.9033   
N175  X127.3281  Y91.5860   
N180  X127.2906  Y58.8982   
N185  X127.1998  Y23.0980   
N190  X126.8948  Y22.9821   
N195  X125.7550  Y22.6200   
N200  X124.2950  Y22.2632   
N205  X122.6585  Y21.9431   
N210  X120.9893  Y21.6913   
N215  X118.6292  Y21.4579   
N220  X112.7071  Y21.0540   
N225  X108.3950  Y20.6750   
N230  X106.6469  Y20.4125   
N235  X106.3656  Y20.3422   
N240  Y51.5337   
N245 G0  Z3.0000 
N250  X85.2425  Y111.9961 
N255  Z0.1000 
N260 G1  Z-0.7000  F100.00 
N265  Y78.8840   F300.00 
N270  Y12.6597   
N275  X84.6462  Y12.3351   
N280  X82.8135  Y11.2289   
N285  X80.6681  Y9.7645   
N290  X78.4735  Y8.1304   
N295  X76.4933  Y6.5145   
N300  X75.0399  Y5.3750   
N305  X74.7275  Y5.5796   
N310  X73.1363  Y7.0041   
N315  X70.7999  Y8.8882   
N320  X68.1872  Y10.7383   
N325  X65.6505  Y12.3650   
N330  X64.7443  Y12.8984   
N335  Y79.0034   
N340  Y145.1083   
N345  X74.9934   
N350  X85.2425   
N355  Y111.9961   
N360 G0  Z0.1000 
N365 G1  Z-1.4000  F100.00 
N370  Y78.8840   F300.00 
N375  Y12.6597   
N380  X84.6462  Y12.3351   
N385  X82.8135  Y11.2289   
N390  X80.6681  Y9.7645   
N395  X78.4735  Y8.1304   
N400  X76.4933  Y6.5145   
N405  X75.0399  Y5.3750   
N410  X74.7275  Y5.5796   
N415  X73.1363  Y7.0041   
N420  X70.7999  Y8.8882   
N425  X68.1872  Y10.7383   
N430  X65.6505  Y12.3650   
N435  X64.7443  Y12.8984   
N440  Y79.0034   
N445  Y145.1083   
N450  X74.9934   
N455  X85.2425   
N460  Y111.9961   
N465 G0  Z3.0000 
N470  X43.6212  Y113.9235 
N475  Z0.1000 
N480 G1  Z-0.7000  F100.00 
N485  Y82.7388   F300.00 
N490  X43.5898  Y29.3104   
N495  X43.5244  Y21.7793   
N500  X43.4716  Y20.6269   
N505  X43.4024  Y20.3851   
N510  X42.3713  Y20.5072   
N515  X37.7467  Y20.9321   
N520  X32.6735  Y21.4146   
N525  X28.8640  Y21.9306   
N530  X25.9180  Y22.5470   
N535  X23.4354  Y23.3310   
N540  X22.8105  Y23.5643   
N545  X22.7791  Y84.3363   
N550  X22.7478  Y145.1083   
N555  X33.1844   
N560  X43.6212   
N565  Y113.9235   
N570 G0  Z0.1000 
N575 G1  Z-1.4000  F100.00 
N580  Y82.7388   F300.00 
N585  X43.5898  Y29.3104   
N590  X43.5244  Y21.7793   
N595  X43.4716  Y20.6269   
N600  X43.4024  Y20.3851   
N605  X42.3713  Y20.5072   
N610  X37.7467  Y20.9321   
N615  X32.6735  Y21.4146   
N620  X28.8640  Y21.9306   
N625  X25.9180  Y22.5470   
N630  X23.4354  Y23.3310   
N635  X22.8105  Y23.5643   
N640  X22.7791  Y84.3363   
N645  X22.7478  Y145.1083   
N650  X33.1844   
N655  X43.6212   
N660  Y113.9235   
N665 G0  Z3.0000 
N670  X38.6150  Y157.2018 
N675  Z0.1000 
N680 G1  Z-0.7000  F100.00 
N685  X40.3175  Y161.8898   F300.00 
N690  X43.4337  Y170.4844   
N695  X45.7337  Y170.4515   
N700  X48.0336  Y170.4186   
N705  X51.3841  Y161.1694   
N710  X54.7399  Y151.8265   
N715  X54.1965  Y151.7602   
N720  X52.8826  Y151.7327   
N725  X51.0200   
N730  X50.8745  Y152.1389   
N735  X50.1246  Y154.2950   
N740  X49.4313  Y156.2654   
N745  X49.2893  Y156.3855   
N750  X48.8041  Y156.4475   
N755  X45.7086  Y156.4529   
N760  X42.0748  Y156.4198   
N765  X41.2685  Y154.0762   
N770  X40.4622  Y151.7327   
N775  X38.5431   
N780  X36.6239   
N785  X36.9126  Y152.5139   
N790  X38.6150  Y157.2018   
N795 G0  Z0.1000 
N800 G1  Z-1.4000  F100.00 
N805  X40.3175  Y161.8898   F300.00 
N810  X43.4337  Y170.4844   
N815  X45.7337  Y170.4515   
N820  X48.0336  Y170.4186   
N825  X51.3841  Y161.1694   
N830  X54.7399  Y151.8265   
N835  X54.1965  Y151.7602   
N840  X52.8826  Y151.7327   
N845  X51.0200   
N850  X50.8745  Y152.1389   
N855  X50.1246  Y154.2950   
N860  X49.4313  Y156.2654   
N865  X49.2893  Y156.3855   
N870  X48.8041  Y156.4475   
N875  X45.7086  Y156.4529   
N880  X42.0748  Y156.4198   
N885  X41.2685  Y154.0762   
N890  X40.4622  Y151.7327   
N895  X38.5431   
N900  X36.6239   
N905  X36.9126  Y152.5139   
N910  X38.6150  Y157.2018   
N915 G0  Z3.0000 
N920  X47.1191  Y163.5173 
N925  Z0.1000 
N930 G1  Z-0.7000  F100.00 
N935  X48.4440  Y159.5617   F300.00 
N940  X48.4072  Y159.4514   
N945  X48.0689  Y159.3897   
N950  X45.7594  Y159.3571   
N955  X42.9962  Y159.4105   
N960  X44.3788  Y163.5907   
N965  X45.3385  Y166.3071   
N970  X45.7943  Y167.4729   
N975  X47.1191  Y163.5173   
N980 G0  Z0.1000 
N985 G1  Z-1.4000  F100.00 
N990  X48.4440  Y159.5617   F300.00 
N995  X48.4072  Y159.4514   
N1000  X48.0689  Y159.3897   
N1005  X45.7594  Y159.3571   
N1010  X42.9962  Y159.4105   
N1015  X44.3788  Y163.5907   
N1020  X45.3385  Y166.3071   
N1025  X45.7943  Y167.4729   
N1030  X47.1191  Y163.5173   
N1035 G0  Z3.0000 
N1040  X37.4967  Y177.6054 
N1045  Z0.1000 
N1050 G1  Z-0.7000  F100.00 
N1055  X74.9934   F300.00 
N1060  X149.9868   
N1065  Y108.3630   
N1070  Y39.1206   
N1075  X149.5972  Y37.9005   
N1080  X149.0067  Y36.2661   
N1085  X148.2904  Y34.6580   
N1090  X147.4578  Y33.0903   
N1095  X146.5184  Y31.5771   
N1100  X145.4818  Y30.1328   
N1105  X144.3574  Y28.7715   
N1110  X143.1547  Y27.5075   
N1115  X141.8832  Y26.3549   
N1120  X139.8130  Y24.7880   
N1125  X137.4415  Y23.2771   
N1130  X134.9402  Y21.9229   
N1135  X132.4801  Y20.8261   
N1140  X130.6557  Y20.1644   
N1145  X128.7320  Y19.5696   
N1150  X126.7224  Y19.0445   
N1155  X124.6408  Y18.5918   
N1160  X122.5005  Y18.2140   
N1165  X120.3154  Y17.9140   
N1170  X118.0990  Y17.6944   
N1175  X115.8648  Y17.5578   
N1180  X113.0379  Y17.3790   
N1185  X110.2422  Y17.0826   
N1190  X107.4810  Y16.6697   
N1195  X104.7573  Y16.1418   
N1200  X102.0745  Y15.5000   
N1205  X99.4355  Y14.7458   
N1210  X96.8437  Y13.8803   
N1215  X94.3020  Y12.9050   
N1220  X91.8139  Y11.8211   
N1225  X89.3823  Y10.6299   
N1230  X87.0106  Y9.3326   
N1235  X84.7017  Y7.9307   
N1240  X82.4590  Y6.4253   
N1245  X80.2855  Y4.8178   
N1250  X78.1845  Y3.1095   
N1255  X76.1591  Y1.3017   
N1260  X75.1240  Y0.3808   
N1265  X74.5967  Y0.0000   
N1270  X74.4075  Y0.1015   
N1275  X74.1855  Y0.3402   
N1280  X73.0757  Y1.6559   
N1285  X71.5200  Y3.2359   
N1290  X69.7497  Y4.8577   
N1295  X67.9957  Y6.2988   
N1300  X65.5155  Y8.0626   
N1305  X62.8639  Y9.6899   
N1310  X60.0402  Y11.1810   
N1315  X57.0434  Y12.5364   
N1320  X53.8727  Y13.7563   
N1325  X50.5273  Y14.8412   
N1330  X47.0063  Y15.7914   
N1335  X43.3087  Y16.6073   
N1340  X40.9251  Y17.0160   
N1345  X38.8716  Y17.1818   
N1350  X35.1735  Y17.4038   
N1355  X31.7685  Y17.7599   
N1360  X28.6042  Y18.2634   
N1365  X25.6283  Y18.9280   
N1370  X22.7883  Y19.7672   
N1375  X20.0320  Y20.7944   
N1380  X17.3071  Y22.0233   
N1385  X14.5612  Y23.4673   
N1390  X12.5372  Y24.7104   
N1395  X10.5791  Y26.1289   
N1400  X8.6958  Y27.7136   
N1405  X6.8960  Y29.4555   
N1410  X5.1886  Y31.3455   
N1415  X3.5823  Y33.3745   
N1420  X2.0858  Y35.5335   
N1425  X0.7080  Y37.8132   
N1430  X0.0000  Y39.0711   
N1435  Y108.3382   
N1440  Y177.6054   
N1445  X37.4967   
N1450 G0  Z0.1000 
N1455 G1  Z-1.4000  F100.00 
N1460  X74.9934   F300.00 
N1465  X149.9868   
N1470  Y108.3630   
N1475  Y39.1206   
N1480  X149.5972  Y37.9005   
N1485  X149.0067  Y36.2661   
N1490  X148.2904  Y34.6580   
N1495  X147.4578  Y33.0903   
N1500  X146.5184  Y31.5771   
N1505  X145.4818  Y30.1328   
N1510  X144.3574  Y28.7715   
N1515  X143.1547  Y27.5075   
N1520  X141.8832  Y26.3549   
N1525  X139.8130  Y24.7880   
N1530  X137.4415  Y23.2771   
N1535  X134.9402  Y21.9229   
N1540  X132.4801  Y20.8261   
N1545  X130.6557  Y20.1644   
N1550  X128.7320  Y19.5696   
N1555  X126.7224  Y19.0445   
N1560  X124.6408  Y18.5918   
N1565  X122.5005  Y18.2140   
N1570  X120.3154  Y17.9140   
N1575  X118.0990  Y17.6944   
N1580  X115.8648  Y17.5578   
N1585  X113.0379  Y17.3790   
N1590  X110.2422  Y17.0826   
N1595  X107.4810  Y16.6697   
N1600  X104.7573  Y16.1418   
N1605  X102.0745  Y15.5000   
N1610  X99.4355  Y14.7458   
N1615  X96.8437  Y13.8803   
N1620  X94.3020  Y12.9050   
N1625  X91.8139  Y11.8211   
N1630  X89.3823  Y10.6299   
N1635  X87.0106  Y9.3326   
N1640  X84.7017  Y7.9307   
N1645  X82.4590  Y6.4253   
N1650  X80.2855  Y4.8178   
N1655  X78.1845  Y3.1095   
N1660  X76.1591  Y1.3017   
N1665  X75.1240  Y0.3808   
N1670  X74.5967  Y0.0000   
N1675  X74.4075  Y0.1015   
N1680  X74.1855  Y0.3402   
N1685  X73.0757  Y1.6559   
N1690  X71.5200  Y3.2359   
N1695  X69.7497  Y4.8577   
N1700  X67.9957  Y6.2988   
N1705  X65.5155  Y8.0626   
N1710  X62.8639  Y9.6899   
N1715  X60.0402  Y11.1810   
N1720  X57.0434  Y12.5364   
N1725  X53.8727  Y13.7563   
N1730  X50.5273  Y14.8412   
N1735  X47.0063  Y15.7914   
N1740  X43.3087  Y16.6073   
N1745  X40.9251  Y17.0160   
N1750  X38.8716  Y17.1818   
N1755  X35.1735  Y17.4038   
N1760  X31.7685  Y17.7599   
N1765  X28.6042  Y18.2634   
N1770  X25.6283  Y18.9280   
N1775  X22.7883  Y19.7672   
N1780  X20.0320  Y20.7944   
N1785  X17.3071  Y22.0233   
N1790  X14.5612  Y23.4673   
N1795  X12.5372  Y24.7104   
N1800  X10.5791  Y26.1289   
N1805  X8.6958  Y27.7136   
N1810  X6.8960  Y29.4555   
N1815  X5.1886  Y31.3455   
N1820  X3.5823  Y33.3745   
N1825  X2.0858  Y35.5335   
N1830  X0.7080  Y37.8132   
N1835  X0.0000  Y39.0711   
N1840  Y108.3382   
N1845  Y177.6054   
N1850  X37.4967   
N1855 G0  Z3.0000 
N1860  X19.2327  Y161.7361 
N1865  Z0.1000 
N1870 G1  Z-0.7000  F100.00 
N1875  X17.6234  Y161.7131   F300.00 
N1880  Y164.5347   
N1885  Y167.3563   
N1890  X20.6630   
N1895  X22.6578  Y167.3327   
N1900  X23.9380  Y167.2404   
N1905  X24.7390  Y167.0468   
N1910  X25.2966  Y166.7198   
N1915  X25.6546  Y166.3470   
N1920  X25.9203  Y165.8722   
N1925  X26.0861  Y165.3130   
N1930  X26.1449  Y164.6868   
N1935  X26.0517  Y163.7835   
N1940  X25.7561  Y163.0489   
N1945  X25.2471  Y162.4649   
N1950  X24.5140  Y162.0137   
N1955  X24.1573  Y161.9061   
N1960  X23.5394  Y161.8356   
N1965  X20.8419  Y161.7591   
N1970  X19.2327  Y161.7361   
N1975 G0  Z0.1000 
N1980 G1  Z-1.4000  F100.00 
N1985  X17.6234  Y161.7131   F300.00 
N1990  Y164.5347   
N1995  Y167.3563   
N2000  X20.6630   
N2005  X22.6578  Y167.3327   
N2010  X23.9380  Y167.2404   
N2015  X24.7390  Y167.0468   
N2020  X25.2966  Y166.7198   
N2025  X25.6546  Y166.3470   
N2030  X25.9203  Y165.8722   
N2035  X26.0861  Y165.3130   
N2040  X26.1449  Y164.6868   
N2045  X26.0517  Y163.7835   
N2050  X25.7561  Y163.0489   
N2055  X25.2471  Y162.4649   
N2060  X24.5140  Y162.0137   
N2065  X24.1573  Y161.9061   
N2070  X23.5394  Y161.8356   
N2075  X20.8419  Y161.7591   
N2080  X19.2327  Y161.7361   
N2085 G0  Z3.0000 
N2090  X13.7488  Y156.2988 
N2095  Z0.1000 
N2100 G1  Z-0.7000  F100.00 
N2105  Y160.9899   F300.00 
N2110  Y170.3720   
N2115  X19.4670  Y170.3233   
N2120  X24.3293  Y170.2451   
N2125  X25.3508  Y170.1717   
N2130  X25.9352  Y170.0546   
N2135  X27.1459  Y169.5796   
N2140  X28.1718  Y168.9252   
N2145  X28.9956  Y168.1053   
N2150  X29.5999  Y167.1336   
N2155  X29.7819  Y166.7028   
N2160  X29.8826  Y166.2867   
N2165  X29.9349  Y164.8565   
N2170  X29.8790  Y163.3969   
N2175  X29.7608  Y162.9607   
N2180  X29.5393  Y162.4593   
N2185  X29.1003  Y161.6803   
N2190  X28.5766  Y161.0286   
N2195  X27.9534  Y160.4889   
N2200  X27.2161  Y160.0458   
N2205  X26.1538  Y159.6070   
N2210  X26.0336  Y159.5489   
N2215  X26.0282  Y159.3883   
N2220  X28.4881  Y155.4199   
N2225  X30.8882  Y151.6702   
N2230  X28.7873  Y151.6358   
N2235  X27.0010  Y151.6430   
N2240  X26.6727  Y151.7054   
N2245  X26.5226  Y151.8233   
N2250  X24.3347  Y155.3886   
N2255  X22.3106  Y158.7320   
N2260  X19.9670  Y158.7321   
N2265  X17.6234  Y158.7321   
N2270  Y155.1699   
N2275  Y151.6077   
N2280  X15.6861   
N2285  X13.7488   
N2290  Y156.2988   
N2295 G0  Z0.1000 
N2300 G1  Z-1.4000  F100.00 
N2305  Y160.9899   F300.00 
N2310  Y170.3720   
N2315  X19.4670  Y170.3233   
N2320  X24.3293  Y170.2451   
N2325  X25.3508  Y170.1717   
N2330  X25.9352  Y170.0546   
N2335  X27.1459  Y169.5796   
N2340  X28.1718  Y168.9252   
N2345  X28.9956  Y168.1053   
N2350  X29.5999  Y167.1336   
N2355  X29.7819  Y166.7028   
N2360  X29.8826  Y166.2867   
N2365  X29.9349  Y164.8565   
N2370  X29.8790  Y163.3969   
N2375  X29.7608  Y162.9607   
N2380  X29.5393  Y162.4593   
N2385  X29.1003  Y161.6803   
N2390  X28.5766  Y161.0286   
N2395  X27.9534  Y160.4889   
N2400  X27.2161  Y160.0458   
N2405  X26.1538  Y159.6070   
N2410  X26.0336  Y159.5489   
N2415  X26.0282  Y159.3883   
N2420  X28.4881  Y155.4199   
N2425  X30.8882  Y151.6702   
N2430  X28.7873  Y151.6358   
N2435  X27.0010  Y151.6430   
N2440  X26.6727  Y151.7054   
N2445  X26.5226  Y151.8233   
N2450  X24.3347  Y155.3886   
N2455  X22.3106  Y158.7320   
N2460  X19.9670  Y158.7321   
N2465  X17.6234  Y158.7321   
N2470  Y155.1699   
N2475  Y151.6077   
N2480  X15.6861   
N2485  X13.7488   
N2490  Y156.2988   
N2495 G0  Z3.0000 
N2500  X68.4890  Y171.0062 
N2505  Z0.1000 
N2510 G1  Z-0.7000  F100.00 
N2515  X69.4223  Y170.9762   F300.00 
N2520  X70.4094  Y170.8424   
N2525  X71.3328  Y170.6345   
N2530  X72.1908  Y170.3534   
N2535  X72.9817  Y170.0000   
N2540  X73.7038  Y169.5752   
N2545  X74.3554  Y169.0798   
N2550  X74.9348  Y168.5148   
N2555  X75.4401  Y167.8810   
N2560  X75.9974  Y166.8649   
N2565  X76.3683  Y166.0041   
N2570  X75.9369  Y165.8049   
N2575  X74.8997  Y165.4895   
N2580  X73.2367  Y165.0358   
N2585  X73.0355  Y165.1171   
N2590  X72.8203  Y165.4832   
N2595  X72.4599  Y166.1164   
N2600  X71.9796  Y166.6702   
N2605  X71.3935  Y167.1381   
N2610  X70.7151  Y167.5140   
N2615  X69.9584  Y167.7916   
N2620  X69.1372  Y167.9646   
N2625  X68.2652  Y168.0266   
N2630  X67.3564  Y167.9714   
N2635  X66.5620  Y167.8174   
N2640  X65.8372  Y167.5646   
N2645  X65.1840  Y167.2152   
N2650  X64.6049  Y166.7711   
N2655  X64.1019  Y166.2345   
N2660  X63.6774  Y165.6073   
N2665  X63.3336  Y164.8916   
N2670  X63.0728  Y164.0893   
N2675  X62.9036  Y163.1950   
N2680  X62.8063  Y162.1604   
N2685  X62.7875  Y161.1050   
N2690  X62.8539  Y160.1485   
N2695  X63.1290  Y158.7428   
N2700  X63.5657  Y157.5591   
N2705  X64.1652  Y156.5953   
N2710  X64.9285  Y155.8489   
N2715  X65.4989  Y155.4700   
N2720  X66.0897  Y155.1919   
N2725  X66.7513  Y154.9954   
N2730  X67.5338  Y154.8616   
N2735  X68.4074  Y154.8087   
N2740  X69.2372  Y154.8739   
N2745  X70.0167  Y155.0540   
N2750  X70.7393  Y155.3457   
N2755  X71.3986  Y155.7457   
N2760  X71.9880  Y156.2509   
N2765  X72.5010  Y156.8578   
N2770  X72.9311  Y157.5633   
N2775  X73.3118  Y158.3212   
N2780  X74.9366  Y157.7367   
N2785  X76.1666  Y157.2262   
N2790  X76.4530  Y157.0576   
N2795  X76.5398  Y156.9370   
N2800  X76.3482  Y156.4207   
N2805  X75.9047  Y155.6775   
N2810  X75.3165  Y154.8690   
N2815  X74.6912  Y154.1569   
N2820  X73.9669  Y153.5251   
N2825  X73.1509  Y152.9871   
N2830  X72.2517  Y152.5452   
N2835  X71.2780  Y152.2022   
N2840  X70.2383  Y151.9603   
N2845  X69.1412  Y151.8221   
N2850  X67.9951  Y151.7901   
N2855  X66.8088  Y151.8667   
N2860  X65.6364  Y152.0579   
N2865  X64.5476  Y152.3642   
N2870  X63.5451  Y152.7837   
N2875  X62.6320  Y153.3144   
N2880  X61.8112  Y153.9543   
N2885  X61.0856  Y154.7015   
N2890  X60.4582  Y155.5540   
N2895  X59.9318  Y156.5097   
N2900  X59.5757  Y157.3503   
N2905  X59.3133  Y158.1889   
N2910  X59.1228  Y159.1103   
N2915  X58.9823  Y160.1992   
N2920  X58.9237  Y161.4082   
N2925  X58.9755  Y162.6934   
N2930  X59.1299  Y163.9593   
N2935  X59.3793  Y165.1105   
N2940  X59.6263  Y165.8709   
N2945  X59.9317  Y166.5833   
N2950  X60.2939  Y167.2467   
N2955  X60.7112  Y167.8601   
N2960  X61.1820  Y168.4226   
N2965  X61.7047  Y168.9333   
N2970  X62.2775  Y169.3911   
N2975  X62.8990  Y169.7951   
N2980  X64.2810  Y170.4380   
N2985  X65.8376  Y170.8542   
N2990  X67.5558  Y171.0362   
N2995  X68.4890  Y171.0062   
N3000 G0  Z0.1000 
N3005 G1  Z-1.4000  F100.00 
N3010  X69.4223  Y170.9762   F300.00 
N3015  X70.4094  Y170.8424   
N3020  X71.3328  Y170.6345   
N3025  X72.1908  Y170.3534   
N3030  X72.9817  Y170.0000   
N3035  X73.7038  Y169.5752   
N3040  X74.3554  Y169.0798   
N3045  X74.9348  Y168.5148   
N3050  X75.4401  Y167.8810   
N3055  X75.9974  Y166.8649   
N3060  X76.3683  Y166.0041   
N3065  X75.9369  Y165.8049   
N3070  X74.8997  Y165.4895   
N3075  X73.2367  Y165.0358   
N3080  X73.0355  Y165.1171   
N3085  X72.8203  Y165.4832   
N3090  X72.4599  Y166.1164   
N3095  X71.9796  Y166.6702   
N3100  X71.3935  Y167.1381   
N3105  X70.7151  Y167.5140   
N3110  X69.9584  Y167.7916   
N3115  X69.1372  Y167.9646   
N3120  X68.2652  Y168.0266   
N3125  X67.3564  Y167.9714   
N3130  X66.5620  Y167.8174   
N3135  X65.8372  Y167.5646   
N3140  X65.1840  Y167.2152   
N3145  X64.6049  Y166.7711   
N3150  X64.1019  Y166.2345   
N3155  X63.6774  Y165.6073   
N3160  X63.3336  Y164.8916   
N3165  X63.0728  Y164.0893   
N3170  X62.9036  Y163.1950   
N3175  X62.8063  Y162.1604   
N3180  X62.7875  Y161.1050   
N3185  X62.8539  Y160.1485   
N3190  X63.1290  Y158.7428   
N3195  X63.5657  Y157.5591   
N3200  X64.1652  Y156.5953   
N3205  X64.9285  Y155.8489   
N3210  X65.4989  Y155.4700   
N3215  X66.0897  Y155.1919   
N3220  X66.7513  Y154.9954   
N3225  X67.5338  Y154.8616   
N3230  X68.4074  Y154.8087   
N3235  X69.2372  Y154.8739   
N3240  X70.0167  Y155.0540   
N3245  X70.7393  Y155.3457   
N3250  X71.3986  Y155.7457   
N3255  X71.9880  Y156.2509   
N3260  X72.5010  Y156.8578   
N3265  X72.9311  Y157.5633   
N3270  X73.3118  Y158.3212   
N3275  X74.9366  Y157.7367   
N3280  X76.1666  Y157.2262   
N3285  X76.4530  Y157.0576   
N3290  X76.5398  Y156.9370   
N3295  X76.3482  Y156.4207   
N3300  X75.9047  Y155.6775   
N3305  X75.3165  Y154.8690   
N3310  X74.6912  Y154.1569   
N3315  X73.9669  Y153.5251   
N3320  X73.1509  Y152.9871   
N3325  X72.2517  Y152.5452   
N3330  X71.2780  Y152.2022   
N3335  X70.2383  Y151.9603   
N3340  X69.1412  Y151.8221   
N3345  X67.9951  Y151.7901   
N3350  X66.8088  Y151.8667   
N3355  X65.6364  Y152.0579   
N3360  X64.5476  Y152.3642   
N3365  X63.5451  Y152.7837   
N3370  X62.6320  Y153.3144   
N3375  X61.8112  Y153.9543   
N3380  X61.0856  Y154.7015   
N3385  X60.4582  Y155.5540   
N3390  X59.9318  Y156.5097   
N3395  X59.5757  Y157.3503   
N3400  X59.3133  Y158.1889   
N3405  X59.1228  Y159.1103   
N3410  X58.9823  Y160.1992   
N3415  X58.9237  Y161.4082   
N3420  X58.9755  Y162.6934   
N3425  X59.1299  Y163.9593   
N3430  X59.3793  Y165.1105   
N3435  X59.6263  Y165.8709   
N3440  X59.9317  Y166.5833   
N3445  X60.2939  Y167.2467   
N3450  X60.7112  Y167.8601   
N3455  X61.1820  Y168.4226   
N3460  X61.7047  Y168.9333   
N3465  X62.2775  Y169.3911   
N3470  X62.8990  Y169.7951   
N3475  X64.2810  Y170.4380   
N3480  X65.8376  Y170.8542   
N3485  X67.5558  Y171.0362   
N3490  X68.4890  Y171.0062   
N3495 G0  Z3.0000 
N3500  X87.7423  Y156.2948 
N3505  Z0.1000 
N3510 G1  Z-0.7000  F100.00 
N3515  Y151.6077   F300.00 
N3520  X85.8049   
N3525  X83.8676   
N3530  Y160.9819   
N3535  Y170.3561   
N3540  X85.8049   
N3545  X87.7423   
N3550  Y160.9819   
N3555  Y156.2948   
N3560 G0  Z0.1000 
N3565 G1  Z-1.4000  F100.00 
N3570  Y151.6077   F300.00 
N3575  X85.8049   
N3580  X83.8676   
N3585  Y160.9819   
N3590  Y170.3561   
N3595  X85.8049   
N3600  X87.7423   
N3605  Y160.9819   
N3610  Y156.2948   
N3615 G0  Z3.0000 
N3620  X110.5837  Y148.6080 
N3625  Z0.1000 
N3630 G1  Z-0.7000  F100.00 
N3635  X74.9303   F300.00 
N3640  X3.6235   
N3645  X3.6553  Y161.2631   
N3650  X3.6872  Y173.9183   
N3655  X74.9622  Y173.9496   
N3660  X146.2371  Y173.9810   
N3665  Y161.2945   
N3670  Y148.6080   
N3675  X110.5837   
N3680 G0  Z0.1000 
N3685 G1  Z-1.4000  F100.00 
N3690  X74.9303   F300.00 
N3695  X3.6235   
N3700  X3.6553  Y161.2631   
N3705  X3.6872  Y173.9183   
N3710  X74.9622  Y173.9496   
N3715  X146.2371  Y173.9810   
N3720  Y161.2945   
N3725  Y148.6080   
N3730  X110.5837   
N3735 G0  Z3.0000 
N3740  X113.3650  Y156.2948 
N3745  Z0.1000 
N3750 G1  Z-0.7000  F100.00 
N3755  Y151.6077   F300.00 
N3760  X111.0840  Y151.6092   
N3765  X108.8029  Y151.6106   
N3770  X104.7590  Y158.7967   
N3775  X100.5819  Y166.0651   
N3780  X100.5086  Y166.0680   
N3785  X100.5580  Y165.9082   
N3790  X100.6491  Y163.6740   
N3795  X100.7142  Y158.6383   
N3800  X100.7610  Y151.6077   
N3805  X99.0637   
N3810  X97.3665   
N3815  Y160.9819   
N3820  Y170.3561   
N3825  X99.5909   
N3830  X101.8154   
N3835  X105.9252  Y163.1082   
N3840  X110.0735  Y155.8988   
N3845  X109.9910  Y158.1159   
N3850  X109.8677  Y165.3253   
N3855  X109.8654  Y170.3561   
N3860  X111.6152   
N3865  X113.3650   
N3870  Y160.9819   
N3875  Y156.2948   
N3880 G0  Z0.1000 
N3885 G1  Z-1.4000  F100.00 
N3890  Y151.6077   F300.00 
N3895  X111.0840  Y151.6092   
N3900  X108.8029  Y151.6106   
N3905  X104.7590  Y158.7967   
N3910  X100.5819  Y166.0651   
N3915  X100.5086  Y166.0680   
N3920  X100.5580  Y165.9082   
N3925  X100.6491  Y163.6740   
N3930  X100.7142  Y158.6383   
N3935  X100.7610  Y151.6077   
N3940  X99.0637   
N3945  X97.3665   
N3950  Y160.9819   
N3955  Y170.3561   
N3960  X99.5909   
N3965  X101.8154   
N3970  X105.9252  Y163.1082   
N3975  X110.0735  Y155.8988   
N3980  X109.9910  Y158.1159   
N3985  X109.8677  Y165.3253   
N3990  X109.8654  Y170.3561   
N3995  X111.6152   
N4000  X113.3650   
N4005  Y160.9819   
N4010  Y156.2948   
N4015 G0  Z3.0000 
N4020  X135.7068  Y161.9818 
N4025  Z0.1000 
N4030 G1  Z-0.7000  F100.00 
N4035  X137.7379   F300.00 
N4040  Y158.4919   
N4045  Y155.0019   
N4050  X137.2067  Y154.5441   
N4055  X136.5576  Y154.0500   
N4060  X135.7714  Y153.5543   
N4065  X134.9214  Y153.0996   
N4070  X134.0808  Y152.7285   
N4075  X132.5274  Y152.2590   
N4080  X130.7624  Y151.9438   
N4085  X128.9622  Y151.8055   
N4090  X127.3035  Y151.8663   
N4095  X126.1328  Y152.0592   
N4100  X125.0363  Y152.3696   
N4105  X124.0211  Y152.7932   
N4110  X123.0938  Y153.3254   
N4115  X122.2613  Y153.9616   
N4120  X121.5305  Y154.6973   
N4125  X120.9081  Y155.5280   
N4130  X120.4011  Y156.4491   
N4135  X119.9244  Y157.7305   
N4140  X119.6066  Y159.1374   
N4145  X119.4455  Y160.6191   
N4150  X119.4387  Y162.1250   
N4155  X119.5839  Y163.6049   
N4160  X119.8787  Y165.0080   
N4165  X120.3208  Y166.2838   
N4170  X120.9078  Y167.3819   
N4175  X121.3234  Y167.9376   
N4180  X121.8105  Y168.4660   
N4185  X122.9582  Y169.4123   
N4190  X124.2686  Y170.1640   
N4195  X125.6592  Y170.6641   
N4200  X127.2243  Y170.9332   
N4205  X128.9668  Y171.0232   
N4210  X130.7061  Y170.9341   
N4215  X132.2613  Y170.6658   
N4220  X133.2240  Y170.3519   
N4225  X134.1408  Y169.9210   
N4230  X134.9720  Y169.3948   
N4235  X135.6773  Y168.7952   
N4240  X136.2485  Y168.1214   
N4245  X136.7829  Y167.3348   
N4250  X137.1480  Y166.6517   
N4255  X137.2257  Y166.4166   
N4260  X137.2115  Y166.2883   
N4265  X135.5684  Y165.7326   
N4270  X133.8550  Y165.2322   
N4275  X133.5192  Y165.7003   
N4280  X133.1101  Y166.2944   
N4285  X132.6054  Y166.8070   
N4290  X132.0135  Y167.2345   
N4295  X131.3431  Y167.5734   
N4300  X130.6023  Y167.8202   
N4305  X129.8000  Y167.9714   
N4310  X128.9444  Y168.0234   
N4315  X128.0440  Y167.9727   
N4320  X127.1828  Y167.8133   
N4325  X126.3970  Y167.5385   
N4330  X125.6902  Y167.1521   
N4335  X125.0663  Y166.6576   
N4340  X124.5291  Y166.0585   
N4345  X124.0823  Y165.3583   
N4350  X123.7297  Y164.5607   
N4355  X123.4751  Y163.6692   
N4360  X123.3473  Y162.6393   
N4365  X123.3165  Y161.3558   
N4370  X123.3791  Y160.0884   
N4375  X123.5319  Y159.1071   
N4380  X123.9148  Y157.9964   
N4385  X124.4346  Y157.0433   
N4390  X125.0852  Y156.2515   
N4395  X125.8605  Y155.6253   
N4400  X126.7542  Y155.1684   
N4405  X127.7601  Y154.8851   
N4410  X128.8721  Y154.7792   
N4415  X130.0841  Y154.8548   
N4420  X131.0994  Y155.0371   
N4425  X132.0816  Y155.3005   
N4430  X132.9551  Y155.6211   
N4435  X133.6445  Y155.9752   
N4440  X134.2382  Y156.3518   
N4445  Y157.7294   
N4450  Y159.1071   
N4455  X131.9259   
N4460  X129.6136   
N4465  Y160.5444   
N4470  Y161.9818   
N4475  X133.6757   
N4480  X135.7068   
N4485 G0  Z0.1000 
N4490 G1  Z-1.4000  F100.00 
N4495  X137.7379   F300.00 
N4500  Y158.4919   
N4505  Y155.0019   
N4510  X137.2067  Y154.5441   
N4515  X136.5576  Y154.0500   
N4520  X135.7714  Y153.5543   
N4525  X134.9214  Y153.0996   
N4530  X134.0808  Y152.7285   
N4535  X132.5274  Y152.2590   
N4540  X130.7624  Y151.9438   
N4545  X128.9622  Y151.8055   
N4550  X127.3035  Y151.8663   
N4555  X126.1328  Y152.0592   
N4560  X125.0363  Y152.3696   
N4565  X124.0211  Y152.7932   
N4570  X123.0938  Y153.3254   
N4575  X122.2613  Y153.9616   
N4580  X121.5305  Y154.6973   
N4585  X120.9081  Y155.5280   
N4590  X120.4011  Y156.4491   
N4595  X119.9244  Y157.7305   
N4600  X119.6066  Y159.1374   
N4605  X119.4455  Y160.6191   
N4610  X119.4387  Y162.1250   
N4615  X119.5839  Y163.6049   
N4620  X119.8787  Y165.0080   
N4625  X120.3208  Y166.2838   
N4630  X120.9078  Y167.3819   
N4635  X121.3234  Y167.9376   
N4640  X121.8105  Y168.4660   
N4645  X122.9582  Y169.4123   
N4650  X124.2686  Y170.1640   
N4655  X125.6592  Y170.6641   
N4660  X127.2243  Y170.9332   
N4665  X128.9668  Y171.0232   
N4670  X130.7061  Y170.9341   
N4675  X132.2613  Y170.6658   
N4680  X133.2240  Y170.3519   
N4685  X134.1408  Y169.9210   
N4690  X134.9720  Y169.3948   
N4695  X135.6773  Y168.7952   
N4700  X136.2485  Y168.1214   
N4705  X136.7829  Y167.3348   
N4710  X137.1480  Y166.6517   
N4715  X137.2257  Y166.4166   
N4720  X137.2115  Y166.2883   
N4725  X135.5684  Y165.7326   
N4730  X133.8550  Y165.2322   
N4735  X133.5192  Y165.7003   
N4740  X133.1101  Y166.2944   
N4745  X132.6054  Y166.8070   
N4750  X132.0135  Y167.2345   
N4755  X131.3431  Y167.5734   
N4760  X130.6023  Y167.8202   
N4765  X129.8000  Y167.9714   
N4770  X128.9444  Y168.0234   
N4775  X128.0440  Y167.9727   
N4780  X127.1828  Y167.8133   
N4785  X126.3970  Y167.5385   
N4790  X125.6902  Y167.1521   
N4795  X125.0663  Y166.6576   
N4800  X124.5291  Y166.0585   
N4805  X124.0823  Y165.3583   
N4810  X123.7297  Y164.5607   
N4815  X123.4751  Y163.6692   
N4820  X123.3473  Y162.6393   
N4825  X123.3165  Y161.3558   
N4830  X123.3791  Y160.0884   
N4835  X123.5319  Y159.1071   
N4840  X123.9148  Y157.9964   
N4845  X124.4346  Y157.0433   
N4850  X125.0852  Y156.2515   
N4855  X125.8605  Y155.6253   
N4860  X126.7542  Y155.1684   
N4865  X127.7601  Y154.8851   
N4870  X128.8721  Y154.7792   
N4875  X130.0841  Y154.8548   
N4880  X131.0994  Y155.0371   
N4885  X132.0816  Y155.3005   
N4890  X132.9551  Y155.6211   
N4895  X133.6445  Y155.9752   
N4900  X134.2382  Y156.3518   
N4905  Y157.7294   
N4910  Y159.1071   
N4915  X131.9259   
N4920  X129.6136   
N4925  Y160.5444   
N4930  Y161.9818   
N4935  X133.6757   
N4940  X135.7068   
N4945 G0  Z3.0000 
N4950 M5
N4955 M30

