N5 (File Name = flash on Friday, November 10, 2023)
N10 (Default Mill Post)
N15  G91.1
N20 G0  Z3.0000 
N25 M3 S4000 
N30  X7.9784  Y0.6118 
N35  Z0.1000 
N40 G1  Z-0.7000  F100.00 
N45  X9.2290  Y2.8526   F300.00 
N50  X13.8199  Y9.5397   
N55  X36.2241  Y40.8111   
N60  X40.5457  Y46.7998   
N65  X35.5808  Y51.9012   
N70  X28.8226  Y59.3677   
N75  X22.7761  Y67.1525   
N80  X17.4341  Y75.2694   
N85  X12.7901  Y83.7326   
N90  X8.8369  Y92.5557   
N95  X5.5677  Y101.7529   
N100  X2.9755  Y111.3378   
N105  X1.0532  Y121.3245   
N110  X0.2631  Y129.4748   
N115  X0.0000  Y139.2946   
N120  X0.2641  Y149.1124   
N125  X1.0551  Y157.2560   
N130  X2.6140  Y165.5897   
N135  X4.6470  Y173.6639   
N140  X7.1576  Y181.4859   
N145  X10.1483  Y189.0623   
N150  X13.6222  Y196.3999   
N155  X17.5823  Y203.5059   
N160  X22.0317  Y210.3871   
N165  X26.9733  Y217.0503   
N170  X31.3105  Y222.0620   
N175  X36.8007  Y227.7681   
N180  X42.4532  Y233.1804   
N185  X47.2778  Y237.3103   
N190  X52.7370  Y241.3236   
N195  X58.3381  Y245.0222   
N200  X64.0714  Y248.4037   
N205  X69.9275  Y251.4655   
N210  X75.8965  Y254.2053   
N215  X81.9693  Y256.6207   
N220  X88.1362  Y258.7093   
N225  X94.3876  Y260.4687   
N230  X100.7140  Y261.8963   
N235  X107.1059  Y262.9898   
N240  X113.5536  Y263.7468   
N245  X120.0479  Y264.1649   
N250  X126.5789  Y264.2417   
N255  X133.1373  Y263.9748   
N260  X139.7134  Y263.3617   
N265  X146.2978  Y262.4000   
N270  X151.8830  Y261.2951   
N275  X157.4840  Y259.9116   
N280  X163.0569  Y258.2658   
N285  X168.5578  Y256.3738   
N290  X173.9429  Y254.2519   
N295  X179.1682  Y251.9162   
N300  X184.1898  Y249.3828   
N305  X188.9639  Y246.6681   
N310  X193.1715  Y244.4235   
N315  X197.7677  Y247.4472   
N320  X218.9509  Y262.8250   
N325  X238.3527  Y276.9296   
N330  X239.8353  Y277.9006   
N335  X240.9941  Y278.3657   
N340  X241.7486  Y278.3074   
N345  X242.0180  Y277.7085   
N350  X233.9518  Y266.0501   
N355  X219.0265  Y245.3107   
N360  X210.7186  Y233.7834   
N365  X209.2697  Y231.7936   
N370  X214.4440  Y226.4641   
N375  X218.6407  Y221.9896   
N380  X222.2781  Y217.7535   
N385  X225.6174  Y213.4349   
N390  X228.9199  Y208.7137   
N395  X232.6232  Y202.8475   
N400  X235.9752  Y196.8285   
N405  X238.9737  Y190.6697   
N410  X241.6168  Y184.3844   
N415  X243.9027  Y177.9855   
N420  X245.8293  Y171.4860   
N425  X247.3944  Y164.8991   
N430  X248.5964  Y158.2378   
N435  X249.4330  Y151.5153   
N440  X249.9023  Y144.7444   
N445  X250.0022  Y137.9384   
N450  X249.7311  Y131.1101   
N455  X249.0866  Y124.2729   
N460  X248.0669  Y117.4396   
N465  X246.6698  Y110.6232   
N470  X244.8936  Y103.8372   
N475  X242.3908  Y96.2015   
N480  X239.3766  Y88.7433   
N485  X235.8643  Y81.4848   
N490  X231.8676  Y74.4477   
N495  X227.3996  Y67.6542   
N500  X222.4739  Y61.1258   
N505  X217.1041  Y54.8850   
N510  X211.3034  Y48.9534   
N515  X205.4522  Y43.7128   
N520  X199.1853  Y38.8076   
N525  X192.5620  Y34.2707   
N530  X185.6420  Y30.1355   
N535  X178.4845  Y26.4348   
N540  X171.1490  Y23.2016   
N545  X163.6948  Y20.4693   
N550  X156.1815  Y18.2707   
N555  X146.8785  Y16.2746   
N560  X137.4430  Y14.9905   
N565  X127.9356  Y14.4151   
N570  X118.4166  Y14.5455   
N575  X108.9465  Y15.3786   
N580  X99.5860  Y16.9112   
N585  X90.3952  Y19.1404   
N590  X81.4348  Y22.0632   
N595  X76.5474  Y24.0651   
N600  X70.8779  Y26.6745   
N605  X65.3217  Y29.4609   
N610  X60.7739  Y31.9942   
N615  X56.7480  Y34.4271   
N620  X53.6012  Y32.1850   
N625  X24.5580  Y11.1725   
N630  X8.6855  Y0.0000   
N635  X8.2829  Y0.1797   
N640  X7.9783  Y0.6118   
N645  X7.9784   
N650 G0  Z0.1000 
N655 G1  Z-1.4000  F100.00 
N660  X9.2290  Y2.8526   F300.00 
N665  X13.8199  Y9.5397   
N670  X36.2241  Y40.8111   
N675  X40.5457  Y46.7998   
N680  X35.5808  Y51.9012   
N685  X28.8226  Y59.3677   
N690  X22.7761  Y67.1525   
N695  X17.4341  Y75.2694   
N700  X12.7901  Y83.7326   
N705  X8.8369  Y92.5557   
N710  X5.5677  Y101.7529   
N715  X2.9755  Y111.3378   
N720  X1.0532  Y121.3245   
N725  X0.2631  Y129.4748   
N730  X0.0000  Y139.2946   
N735  X0.2641  Y149.1124   
N740  X1.0551  Y157.2560   
N745  X2.6140  Y165.5897   
N750  X4.6470  Y173.6639   
N755  X7.1576  Y181.4859   
N760  X10.1483  Y189.0623   
N765  X13.6222  Y196.3999   
N770  X17.5823  Y203.5059   
N775  X22.0317  Y210.3871   
N780  X26.9733  Y217.0503   
N785  X31.3105  Y222.0620   
N790  X36.8007  Y227.7681   
N795  X42.4532  Y233.1804   
N800  X47.2778  Y237.3103   
N805  X52.7370  Y241.3236   
N810  X58.3381  Y245.0222   
N815  X64.0714  Y248.4037   
N820  X69.9275  Y251.4655   
N825  X75.8965  Y254.2053   
N830  X81.9693  Y256.6207   
N835  X88.1362  Y258.7093   
N840  X94.3876  Y260.4687   
N845  X100.7140  Y261.8963   
N850  X107.1059  Y262.9898   
N855  X113.5536  Y263.7468   
N860  X120.0479  Y264.1649   
N865  X126.5789  Y264.2417   
N870  X133.1373  Y263.9748   
N875  X139.7134  Y263.3617   
N880  X146.2978  Y262.4000   
N885  X151.8830  Y261.2951   
N890  X157.4840  Y259.9116   
N895  X163.0569  Y258.2658   
N900  X168.5578  Y256.3738   
N905  X173.9429  Y254.2519   
N910  X179.1682  Y251.9162   
N915  X184.1898  Y249.3828   
N920  X188.9639  Y246.6681   
N925  X193.1715  Y244.4235   
N930  X197.7677  Y247.4472   
N935  X218.9509  Y262.8250   
N940  X238.3527  Y276.9296   
N945  X239.8353  Y277.9006   
N950  X240.9941  Y278.3657   
N955  X241.7486  Y278.3074   
N960  X242.0180  Y277.7085   
N965  X233.9518  Y266.0501   
N970  X219.0265  Y245.3107   
N975  X210.7186  Y233.7834   
N980  X209.2697  Y231.7936   
N985  X214.4440  Y226.4641   
N990  X218.6407  Y221.9896   
N995  X222.2781  Y217.7535   
N1000  X225.6174  Y213.4349   
N1005  X228.9199  Y208.7137   
N1010  X232.6232  Y202.8475   
N1015  X235.9752  Y196.8285   
N1020  X238.9737  Y190.6697   
N1025  X241.6168  Y184.3844   
N1030  X243.9027  Y177.9855   
N1035  X245.8293  Y171.4860   
N1040  X247.3944  Y164.8991   
N1045  X248.5964  Y158.2378   
N1050  X249.4330  Y151.5153   
N1055  X249.9023  Y144.7444   
N1060  X250.0022  Y137.9384   
N1065  X249.7311  Y131.1101   
N1070  X249.0866  Y124.2729   
N1075  X248.0669  Y117.4396   
N1080  X246.6698  Y110.6232   
N1085  X244.8936  Y103.8372   
N1090  X242.3908  Y96.2015   
N1095  X239.3766  Y88.7433   
N1100  X235.8643  Y81.4848   
N1105  X231.8676  Y74.4477   
N1110  X227.3996  Y67.6542   
N1115  X222.4739  Y61.1258   
N1120  X217.1041  Y54.8850   
N1125  X211.3034  Y48.9534   
N1130  X205.4522  Y43.7128   
N1135  X199.1853  Y38.8076   
N1140  X192.5620  Y34.2707   
N1145  X185.6420  Y30.1355   
N1150  X178.4845  Y26.4348   
N1155  X171.1490  Y23.2016   
N1160  X163.6948  Y20.4693   
N1165  X156.1815  Y18.2707   
N1170  X146.8785  Y16.2746   
N1175  X137.4430  Y14.9905   
N1180  X127.9356  Y14.4151   
N1185  X118.4166  Y14.5455   
N1190  X108.9465  Y15.3786   
N1195  X99.5860  Y16.9112   
N1200  X90.3952  Y19.1404   
N1205  X81.4348  Y22.0632   
N1210  X76.5474  Y24.0651   
N1215  X70.8779  Y26.6745   
N1220  X65.3217  Y29.4609   
N1225  X60.7739  Y31.9942   
N1230  X56.7480  Y34.4271   
N1235  X53.6012  Y32.1850   
N1240  X24.5580  Y11.1725   
N1245  X8.6855  Y0.0000   
N1250  X8.2829  Y0.1797   
N1255  X7.9783  Y0.6118   
N1260  X7.9784   
N1265 G0  Z0.1000 
N1270 G1  Z-1.5000  F100.00 
N1275  X9.2290  Y2.8526   F300.00 
N1280  X13.8199  Y9.5397   
N1285  X36.2241  Y40.8111   
N1290  X40.5457  Y46.7998   
N1295  X35.5808  Y51.9012   
N1300  X28.8226  Y59.3677   
N1305  X22.7761  Y67.1525   
N1310  X17.4341  Y75.2694   
N1315  X12.7901  Y83.7326   
N1320  X8.8369  Y92.5557   
N1325  X5.5677  Y101.7529   
N1330  X2.9755  Y111.3378   
N1335  X1.0532  Y121.3245   
N1340  X0.2631  Y129.4748   
N1345  X0.0000  Y139.2946   
N1350  X0.2641  Y149.1124   
N1355  X1.0551  Y157.2560   
N1360  X2.6140  Y165.5897   
N1365  X4.6470  Y173.6639   
N1370  X7.1576  Y181.4859   
N1375  X10.1483  Y189.0623   
N1380  X13.6222  Y196.3999   
N1385  X17.5823  Y203.5059   
N1390  X22.0317  Y210.3871   
N1395  X26.9733  Y217.0503   
N1400  X31.3105  Y222.0620   
N1405  X36.8007  Y227.7681   
N1410  X42.4532  Y233.1804   
N1415  X47.2778  Y237.3103   
N1420  X52.7370  Y241.3236   
N1425  X58.3381  Y245.0222   
N1430  X64.0714  Y248.4037   
N1435  X69.9275  Y251.4655   
N1440  X75.8965  Y254.2053   
N1445  X81.9693  Y256.6207   
N1450  X88.1362  Y258.7093   
N1455  X94.3876  Y260.4687   
N1460  X100.7140  Y261.8963   
N1465  X107.1059  Y262.9898   
N1470  X113.5536  Y263.7468   
N1475  X120.0479  Y264.1649   
N1480  X126.5789  Y264.2417   
N1485  X133.1373  Y263.9748   
N1490  X139.7134  Y263.3617   
N1495  X146.2978  Y262.4000   
N1500  X151.8830  Y261.2951   
N1505  X157.4840  Y259.9116   
N1510  X163.0569  Y258.2658   
N1515  X168.5578  Y256.3738   
N1520  X173.9429  Y254.2519   
N1525  X179.1682  Y251.9162   
N1530  X184.1898  Y249.3828   
N1535  X188.9639  Y246.6681   
N1540  X193.1715  Y244.4235   
N1545  X197.7677  Y247.4472   
N1550  X218.9509  Y262.8250   
N1555  X238.3527  Y276.9296   
N1560  X239.8353  Y277.9006   
N1565  X240.9941  Y278.3657   
N1570  X241.7486  Y278.3074   
N1575  X242.0180  Y277.7085   
N1580  X233.9518  Y266.0501   
N1585  X219.0265  Y245.3107   
N1590  X210.7186  Y233.7834   
N1595  X209.2697  Y231.7936   
N1600  X214.4440  Y226.4641   
N1605  X218.6407  Y221.9896   
N1610  X222.2781  Y217.7535   
N1615  X225.6174  Y213.4349   
N1620  X228.9199  Y208.7137   
N1625  X232.6232  Y202.8475   
N1630  X235.9752  Y196.8285   
N1635  X238.9737  Y190.6697   
N1640  X241.6168  Y184.3844   
N1645  X243.9027  Y177.9855   
N1650  X245.8293  Y171.4860   
N1655  X247.3944  Y164.8991   
N1660  X248.5964  Y158.2378   
N1665  X249.4330  Y151.5153   
N1670  X249.9023  Y144.7444   
N1675  X250.0022  Y137.9384   
N1680  X249.7311  Y131.1101   
N1685  X249.0866  Y124.2729   
N1690  X248.0669  Y117.4396   
N1695  X246.6698  Y110.6232   
N1700  X244.8936  Y103.8372   
N1705  X242.3908  Y96.2015   
N1710  X239.3766  Y88.7433   
N1715  X235.8643  Y81.4848   
N1720  X231.8676  Y74.4477   
N1725  X227.3996  Y67.6542   
N1730  X222.4739  Y61.1258   
N1735  X217.1041  Y54.8850   
N1740  X211.3034  Y48.9534   
N1745  X205.4522  Y43.7128   
N1750  X199.1853  Y38.8076   
N1755  X192.5620  Y34.2707   
N1760  X185.6420  Y30.1355   
N1765  X178.4845  Y26.4348   
N1770  X171.1490  Y23.2016   
N1775  X163.6948  Y20.4693   
N1780  X156.1815  Y18.2707   
N1785  X146.8785  Y16.2746   
N1790  X137.4430  Y14.9905   
N1795  X127.9356  Y14.4151   
N1800  X118.4166  Y14.5455   
N1805  X108.9465  Y15.3786   
N1810  X99.5860  Y16.9112   
N1815  X90.3952  Y19.1404   
N1820  X81.4348  Y22.0632   
N1825  X76.5474  Y24.0651   
N1830  X70.8779  Y26.6745   
N1835  X65.3217  Y29.4609   
N1840  X60.7739  Y31.9942   
N1845  X56.7480  Y34.4271   
N1850  X53.6012  Y32.1850   
N1855  X24.5580  Y11.1725   
N1860  X8.6855  Y0.0000   
N1865  X8.2829  Y0.1797   
N1870  X7.9783  Y0.6118   
N1875  X7.9784   
N1880 G0  Z3.0000 
N1885  X35.0788  Y21.2452 
N1890  Z0.1000 
N1895 G1  Z-0.7000  F100.00 
N1900  X84.9838  Y57.4475   F300.00 
N1905  X111.5999  Y76.7514   
N1910  X142.2082  Y98.9380   
N1915  X194.2702  Y136.6452   
N1920  X196.4273  Y138.1813   
N1925  X168.5414  Y138.4032   
N1930  X145.4432  Y138.7011   
N1935  X141.5973  Y138.9335   
N1940  X140.8822  Y139.0933   
N1945  X140.6989  Y139.2911   
N1950  X142.1403  Y141.7160   
N1955  X145.5451  Y146.6105   
N1960  X153.5080  Y157.6997   
N1965  X163.5602  Y171.6731   
N1970  X234.7349  Y270.5959   
N1975  X236.4732  Y273.0357   
N1980  X234.2552  Y271.4493   
N1985  X214.0713  Y256.8353   
N1990  X180.1359  Y232.2314   
N1995  X124.0206  Y191.5230   
N2000  X110.2690  Y181.5525   
N2005  X86.5364  Y164.3611   
N2010  X59.5533  Y144.8210   
N2015  X53.4195  Y140.3993   
N2020  X81.2898  Y140.1775   
N2025  X104.5102  Y139.8784   
N2030  X108.2685  Y139.6412   
N2035  X108.9461  Y139.4757   
N2040  X109.1135  Y139.2696   
N2045  X99.5461  Y125.4382   
N2050  X72.9925  Y88.4982   
N2055  X42.8390  Y46.5780   
N2060  X14.9385  Y7.7680   
N2065  X13.3424  Y5.5549   
N2070  X14.8951  Y6.6452   
N2075  X35.0788  Y21.2452   
N2080 G0  Z0.1000 
N2085 G1  Z-1.4000  F100.00 
N2090  X84.9838  Y57.4475   F300.00 
N2095  X111.5999  Y76.7514   
N2100  X142.2082  Y98.9380   
N2105  X194.2702  Y136.6452   
N2110  X196.4273  Y138.1813   
N2115  X168.5414  Y138.4032   
N2120  X145.4432  Y138.7011   
N2125  X141.5973  Y138.9335   
N2130  X140.8822  Y139.0933   
N2135  X140.6989  Y139.2911   
N2140  X142.1403  Y141.7160   
N2145  X145.5451  Y146.6105   
N2150  X153.5080  Y157.6997   
N2155  X163.5602  Y171.6731   
N2160  X234.7349  Y270.5959   
N2165  X236.4732  Y273.0357   
N2170  X234.2552  Y271.4493   
N2175  X214.0713  Y256.8353   
N2180  X180.1359  Y232.2314   
N2185  X124.0206  Y191.5230   
N2190  X110.2690  Y181.5525   
N2195  X86.5364  Y164.3611   
N2200  X59.5533  Y144.8210   
N2205  X53.4195  Y140.3993   
N2210  X81.2898  Y140.1775   
N2215  X104.5102  Y139.8784   
N2220  X108.2685  Y139.6412   
N2225  X108.9461  Y139.4757   
N2230  X109.1135  Y139.2696   
N2235  X99.5461  Y125.4382   
N2240  X72.9925  Y88.4982   
N2245  X42.8390  Y46.5780   
N2250  X14.9385  Y7.7680   
N2255  X13.3424  Y5.5549   
N2260  X14.8951  Y6.6452   
N2265  X35.0788  Y21.2452   
N2270 G0  Z0.1000 
N2275 G1  Z-1.5000  F100.00 
N2280  X84.9838  Y57.4475   F300.00 
N2285  X111.5999  Y76.7514   
N2290  X142.2082  Y98.9380   
N2295  X194.2702  Y136.6452   
N2300  X196.4273  Y138.1813   
N2305  X168.5414  Y138.4032   
N2310  X145.4432  Y138.7011   
N2315  X141.5973  Y138.9335   
N2320  X140.8822  Y139.0933   
N2325  X140.6989  Y139.2911   
N2330  X142.1403  Y141.7160   
N2335  X145.5451  Y146.6105   
N2340  X153.5080  Y157.6997   
N2345  X163.5602  Y171.6731   
N2350  X234.7349  Y270.5959   
N2355  X236.4732  Y273.0357   
N2360  X234.2552  Y271.4493   
N2365  X214.0713  Y256.8353   
N2370  X180.1359  Y232.2314   
N2375  X124.0206  Y191.5230   
N2380  X110.2690  Y181.5525   
N2385  X86.5364  Y164.3611   
N2390  X59.5533  Y144.8210   
N2395  X53.4195  Y140.3993   
N2400  X81.2898  Y140.1775   
N2405  X104.5102  Y139.8784   
N2410  X108.2685  Y139.6412   
N2415  X108.9461  Y139.4757   
N2420  X109.1135  Y139.2696   
N2425  X99.5461  Y125.4382   
N2430  X72.9925  Y88.4982   
N2435  X42.8390  Y46.5780   
N2440  X14.9385  Y7.7680   
N2445  X13.3424  Y5.5549   
N2450  X14.8951  Y6.6452   
N2455  X35.0788  Y21.2452   
N2460 G0  Z3.0000 
N2465 M5
N2470 M30

