N5 (File Name = flu on Friday, November 10, 2023)
N10 (Default Mill Post)
N15  G91.1
N20 G0  Z3.0000 
N25 M3 S4000 
N30  X141.5912  Y29.2205 
N35  Z0.1000 
N40 G1  Z-0.7000  F100.00 
N45  X126.4328  Y42.6603   F300.00 
N50  X112.3776  Y56.0626   
N55  X99.4053  Y69.4512   
N60  X87.4955  Y82.8503   
N65  X76.6278  Y96.2838   
N70  X66.7820  Y109.7756   
N75  X57.9378  Y123.3497   
N80  X50.0748  Y137.0299   
N85  X45.4278  Y146.2169   
N90  X40.6936  Y156.3594   
N95  X37.0147  Y164.9171   
N100  X35.9283  Y167.8076   
N105  X35.5343  Y169.3492   
N110  X36.0915  Y169.5732   
N115  X37.6738  Y169.7447   
N120  X43.3761  Y169.8933   
N125  X49.6295  Y169.7521   
N130  X50.6039  Y169.5231   
N135  X50.5939  Y169.1414   
N140  X50.4012  Y168.7021   
N145  X50.6058  Y168.2211   
N150  X52.4655  Y166.8119   
N155  X53.8077  Y165.8082   
N160  X55.0780  Y164.4813   
N165  X58.0028  Y160.1377   
N170  X60.8291  Y155.6610   
N175  X63.8567  Y151.3538   
N180  X67.0526  Y147.2523   
N185  X70.3835  Y143.3928   
N190  X73.8167  Y139.8118   
N195  X77.3188  Y136.5454   
N200  X80.8570  Y133.6302   
N205  X84.3982  Y131.1024   
N210  X89.6733  Y127.6341   
N215  X90.3624  Y129.3132   
N220  X91.8190  Y135.8044   
N225  X92.4478  Y139.5639   
N230  X92.5781  Y141.3249   
N235  X89.9510  Y142.9771   
N240  X86.7375  Y145.2324   
N245  X83.6263  Y147.9089   
N250  X80.6897  Y150.9128   
N255  X78.0000  Y154.1491   
N260  X75.6294  Y157.5237   
N265  X73.6503  Y160.9421   
N270  X72.1345  Y164.3102   
N275  X71.1549  Y167.5334   
N280  X70.6345  Y169.8933   
N285  X83.4130   
N290  X96.1915   
N295  X95.8240  Y163.9241   
N300  X94.4153  Y146.1239   
N305  X92.5529  Y131.8047   
N310  X91.4195  Y125.7566   
N315  X90.1339  Y120.3462   
N320  X88.6834  Y115.4957   
N325  X87.0549  Y111.1277   
N330  X85.3671  Y107.0562   
N335  X87.7746  Y104.6032   
N340  X90.1822  Y102.1501   
N345  X95.2530   
N350  X98.0659  Y102.0988   
N355  X100.0505  Y101.8716   
N360  X101.7549  Y101.3585   
N365  X103.7266  Y100.4497   
N370  X107.1175  Y98.2609   
N375  X110.4844  Y95.0879   
N380  X112.9060  Y92.5684   
N385  X114.0171  Y91.6521   
N390  X116.2810  Y95.6643   
N395  X118.3673  Y99.4510   
N400  X116.8224  Y101.6801   
N405  X114.9497  Y103.8133   
N410  X112.3443  Y105.9636   
N415  X109.2128  Y107.9810   
N420  X105.7615  Y109.7155   
N425  X103.2228  Y110.9897   
N430  X102.1669  Y111.8539   
N435  X103.2454  Y116.1974   
N440  X105.1432  Y123.8162   
N445  X106.8781  Y132.8897   
N450  X108.4865  Y143.6335   
N455  X110.0048  Y156.2633   
N460  X111.2486  Y167.6877   
N465  X114.0651  Y168.5803   
N470  X117.5630  Y169.2919   
N475  X122.0179  Y169.7493   
N480  X127.1542  Y170.0257   
N485  X127.1331  Y167.8772   
N490  X126.3505  Y150.4588   
N495  X125.8304  Y134.9433   
N500  X128.1085  Y134.5591   
N505  X132.7746  Y134.1578   
N510  X137.5268  Y133.9003   
N515  X140.0630  Y133.9477   
N520  X140.5102  Y134.6880   
N525  X140.8200  Y137.0304   
N530  X141.2723  Y149.7225   
N535  X141.8709  Y167.1169   
N540  X142.1254  Y169.4768   
N545  X143.5948  Y169.7709   
N550  X147.0979  Y169.8933   
N555  X152.0493   
N560  X152.6473  Y167.1050   
N565  X153.5124  Y164.1542   
N570  X154.7826  Y161.3958   
N575  X156.4123  Y158.9115   
N580  X158.3564  Y156.7831   
N585  X160.5431  Y155.0717   
N590  X163.2022  Y153.4376   
N595  X165.9451  Y152.0947   
N600  X168.3831  Y151.2572   
N605  X169.6399  Y151.1755   
N610  X169.8565  Y151.4970   
N615  X169.9100  Y152.1233   
N620  X169.5015  Y153.3130   
N625  X168.5195  Y154.4467   
N630  X167.3044  Y155.6050   
N635  X166.0880  Y157.1290   
N640  X163.8525  Y160.8710   
N645  X162.2160  Y164.8677   
N650  X161.7482  Y166.7101   
N655  X161.5810  Y168.3144   
N660  X161.6389  Y169.2209   
N665  X162.0206  Y169.6904   
N670  X163.0379  Y169.8666   
N675  X165.0026  Y169.8933   
N680  X167.8273  Y169.6027   
N685  X170.3773  Y168.7370   
N690  X172.6351  Y167.3041   
N695  X174.5832  Y165.3127   
N700  X176.0058  Y163.5076   
N705  X176.0119  Y166.7005   
N710  X176.0181  Y169.8933   
N715  X220.4398   
N720  X251.8132  Y169.7709   
N725  X264.8636  Y169.4768   
N730  X263.7457  Y166.0982   
N735  X260.9070  Y159.3560   
N740  X257.1359  Y151.0458   
N745  X253.2204  Y142.9626   
N750  X249.3463  Y135.5724   
N755  X245.2298  Y128.2604   
N760  X240.8640  Y121.0176   
N765  X236.2413  Y113.8356   
N770  X231.3545  Y106.7057   
N775  X226.1967  Y99.6191   
N780  X220.7601  Y92.5671   
N785  X215.0378  Y85.5411   
N790  X202.7066  Y71.5323   
N795  X189.1449  Y57.5232   
N800  X174.2948  Y43.4443   
N805  X158.0982  Y29.2262   
N810  X152.4970  Y24.6573   
N815  X149.7691  Y22.7720   
N820  X147.0856  Y24.6769   
N825  X141.5912  Y29.2205   
N830 G0  Z0.1000 
N835 G1  Z-1.4000  F100.00 
N840  X126.4328  Y42.6603   F300.00 
N845  X112.3776  Y56.0626   
N850  X99.4053  Y69.4512   
N855  X87.4955  Y82.8503   
N860  X76.6278  Y96.2838   
N865  X66.7820  Y109.7756   
N870  X57.9378  Y123.3497   
N875  X50.0748  Y137.0299   
N880  X45.4278  Y146.2169   
N885  X40.6936  Y156.3594   
N890  X37.0147  Y164.9171   
N895  X35.9283  Y167.8076   
N900  X35.5343  Y169.3492   
N905  X36.0915  Y169.5732   
N910  X37.6738  Y169.7447   
N915  X43.3761  Y169.8933   
N920  X49.6295  Y169.7521   
N925  X50.6039  Y169.5231   
N930  X50.5939  Y169.1414   
N935  X50.4012  Y168.7021   
N940  X50.6058  Y168.2211   
N945  X52.4655  Y166.8119   
N950  X53.8077  Y165.8082   
N955  X55.0780  Y164.4813   
N960  X58.0028  Y160.1377   
N965  X60.8291  Y155.6610   
N970  X63.8567  Y151.3538   
N975  X67.0526  Y147.2523   
N980  X70.3835  Y143.3928   
N985  X73.8167  Y139.8118   
N990  X77.3188  Y136.5454   
N995  X80.8570  Y133.6302   
N1000  X84.3982  Y131.1024   
N1005  X89.6733  Y127.6341   
N1010  X90.3624  Y129.3132   
N1015  X91.8190  Y135.8044   
N1020  X92.4478  Y139.5639   
N1025  X92.5781  Y141.3249   
N1030  X89.9510  Y142.9771   
N1035  X86.7375  Y145.2324   
N1040  X83.6263  Y147.9089   
N1045  X80.6897  Y150.9128   
N1050  X78.0000  Y154.1491   
N1055  X75.6294  Y157.5237   
N1060  X73.6503  Y160.9421   
N1065  X72.1345  Y164.3102   
N1070  X71.1549  Y167.5334   
N1075  X70.6345  Y169.8933   
N1080  X83.4130   
N1085  X96.1915   
N1090  X95.8240  Y163.9241   
N1095  X94.4153  Y146.1239   
N1100  X92.5529  Y131.8047   
N1105  X91.4195  Y125.7566   
N1110  X90.1339  Y120.3462   
N1115  X88.6834  Y115.4957   
N1120  X87.0549  Y111.1277   
N1125  X85.3671  Y107.0562   
N1130  X87.7746  Y104.6032   
N1135  X90.1822  Y102.1501   
N1140  X95.2530   
N1145  X98.0659  Y102.0988   
N1150  X100.0505  Y101.8716   
N1155  X101.7549  Y101.3585   
N1160  X103.7266  Y100.4497   
N1165  X107.1175  Y98.2609   
N1170  X110.4844  Y95.0879   
N1175  X112.9060  Y92.5684   
N1180  X114.0171  Y91.6521   
N1185  X116.2810  Y95.6643   
N1190  X118.3673  Y99.4510   
N1195  X116.8224  Y101.6801   
N1200  X114.9497  Y103.8133   
N1205  X112.3443  Y105.9636   
N1210  X109.2128  Y107.9810   
N1215  X105.7615  Y109.7155   
N1220  X103.2228  Y110.9897   
N1225  X102.1669  Y111.8539   
N1230  X103.2454  Y116.1974   
N1235  X105.1432  Y123.8162   
N1240  X106.8781  Y132.8897   
N1245  X108.4865  Y143.6335   
N1250  X110.0048  Y156.2633   
N1255  X111.2486  Y167.6877   
N1260  X114.0651  Y168.5803   
N1265  X117.5630  Y169.2919   
N1270  X122.0179  Y169.7493   
N1275  X127.1542  Y170.0257   
N1280  X127.1331  Y167.8772   
N1285  X126.3505  Y150.4588   
N1290  X125.8304  Y134.9433   
N1295  X128.1085  Y134.5591   
N1300  X132.7746  Y134.1578   
N1305  X137.5268  Y133.9003   
N1310  X140.0630  Y133.9477   
N1315  X140.5102  Y134.6880   
N1320  X140.8200  Y137.0304   
N1325  X141.2723  Y149.7225   
N1330  X141.8709  Y167.1169   
N1335  X142.1254  Y169.4768   
N1340  X143.5948  Y169.7709   
N1345  X147.0979  Y169.8933   
N1350  X152.0493   
N1355  X152.6473  Y167.1050   
N1360  X153.5124  Y164.1542   
N1365  X154.7826  Y161.3958   
N1370  X156.4123  Y158.9115   
N1375  X158.3564  Y156.7831   
N1380  X160.5431  Y155.0717   
N1385  X163.2022  Y153.4376   
N1390  X165.9451  Y152.0947   
N1395  X168.3831  Y151.2572   
N1400  X169.6399  Y151.1755   
N1405  X169.8565  Y151.4970   
N1410  X169.9100  Y152.1233   
N1415  X169.5015  Y153.3130   
N1420  X168.5195  Y154.4467   
N1425  X167.3044  Y155.6050   
N1430  X166.0880  Y157.1290   
N1435  X163.8525  Y160.8710   
N1440  X162.2160  Y164.8677   
N1445  X161.7482  Y166.7101   
N1450  X161.5810  Y168.3144   
N1455  X161.6389  Y169.2209   
N1460  X162.0206  Y169.6904   
N1465  X163.0379  Y169.8666   
N1470  X165.0026  Y169.8933   
N1475  X167.8273  Y169.6027   
N1480  X170.3773  Y168.7370   
N1485  X172.6351  Y167.3041   
N1490  X174.5832  Y165.3127   
N1495  X176.0058  Y163.5076   
N1500  X176.0119  Y166.7005   
N1505  X176.0181  Y169.8933   
N1510  X220.4398   
N1515  X251.8132  Y169.7709   
N1520  X264.8636  Y169.4768   
N1525  X263.7457  Y166.0982   
N1530  X260.9070  Y159.3560   
N1535  X257.1359  Y151.0458   
N1540  X253.2204  Y142.9626   
N1545  X249.3463  Y135.5724   
N1550  X245.2298  Y128.2604   
N1555  X240.8640  Y121.0176   
N1560  X236.2413  Y113.8356   
N1565  X231.3545  Y106.7057   
N1570  X226.1967  Y99.6191   
N1575  X220.7601  Y92.5671   
N1580  X215.0378  Y85.5411   
N1585  X202.7066  Y71.5323   
N1590  X189.1449  Y57.5232   
N1595  X174.2948  Y43.4443   
N1600  X158.0982  Y29.2262   
N1605  X152.4970  Y24.6573   
N1610  X149.7691  Y22.7720   
N1615  X147.0856  Y24.6769   
N1620  X141.5912  Y29.2205   
N1625 G0  Z3.0000 
N1630  X147.0834  Y2.0822 
N1635  Z0.1000 
N1640 G1  Z-0.7000  F100.00 
N1645  X139.8869  Y7.7540   F300.00 
N1650  X128.7020  Y16.6934   
N1655  X117.9179  Y25.7823   
N1660  X107.5870  Y34.9697   
N1665  X97.7616  Y44.2050   
N1670  X88.4945  Y53.4375   
N1675  X79.8380  Y62.6162   
N1680  X71.8444  Y71.6907   
N1685  X64.5664  Y80.6100   
N1690  X59.2602  Y87.6033   
N1695  X54.1853  Y94.7203   
N1700  X49.3413  Y101.9617   
N1705  X44.7280  Y109.3278   
N1710  X40.3452  Y116.8193   
N1715  X36.1927  Y124.4367   
N1720  X32.2703  Y132.1804   
N1725  X28.5775  Y140.0511   
N1730  X25.1144  Y148.0493   
N1735  X21.8805  Y156.1756   
N1740  X18.8757  Y164.4303   
N1745  X16.0997  Y172.8142   
N1750  X13.5521  Y181.3278   
N1755  X11.2330  Y189.9716   
N1760  X9.1419  Y198.7460   
N1765  X7.2788  Y207.6517   
N1770  X5.6818  Y216.5493   
N1775  X4.2555  Y225.9423   
N1780  X1.9656  Y245.6652   
N1785  X0.5127  Y265.7209   
N1790  X0.1324  Y275.5303   
N1795  X0.0000  Y285.0106   
N1800  X0.1492  Y290.9685   
N1805  X0.4410  Y291.7932   
N1810  X0.9686  Y291.8209   
N1815  X9.1589  Y290.3967   
N1820  X19.0802  Y289.1392   
N1825  X28.8168  Y288.4651   
N1830  X38.3650  Y288.3727   
N1835  X47.7207  Y288.8608   
N1840  X56.8800  Y289.9277   
N1845  X65.8388  Y291.5722   
N1850  X74.5933  Y293.7926   
N1855  X83.1393  Y296.5877   
N1860  X91.4730  Y299.9559   
N1865  X99.5904  Y303.8958   
N1870  X107.4875  Y308.4059   
N1875  X115.1605  Y313.4849   
N1880  X122.6050  Y319.1312   
N1885  X129.8174  Y325.3433   
N1890  X136.7937  Y332.1198   
N1895  X143.5296  Y339.4594   
N1900  X147.9399  Y344.3736   
N1905  X149.9896  Y346.3345   
N1910  X156.4323  Y339.2510   
N1915  X161.2042  Y333.9792   
N1920  X166.0254  Y329.0168   
N1925  X170.9038  Y324.3594   
N1930  X175.8478  Y320.0022   
N1935  X180.8649  Y315.9407   
N1940  X185.9637  Y312.1700   
N1945  X191.1519  Y308.6858   
N1950  X196.4377  Y305.4833   
N1955  X201.8293  Y302.5579   
N1960  X207.3345  Y299.9051   
N1965  X212.9616  Y297.5200   
N1970  X218.7185  Y295.3982   
N1975  X224.6133  Y293.5349   
N1980  X230.6541  Y291.9257   
N1985  X236.8489  Y290.5659   
N1990  X243.2058  Y289.4507   
N1995  X251.2397  Y288.6781   
N2000  X263.7509  Y288.4845   
N2005  X272.2749  Y288.5384   
N2010  X278.6152  Y288.8493   
N2015  X285.9763  Y289.6856   
N2020  X297.5634  Y291.3158   
N2025  X300.0030  Y291.6653   
N2030  X299.6222  Y277.8385   
N2035  X298.9797  Y261.8774   
N2040  X297.9448  Y246.8356   
N2045  X296.4966  Y232.5807   
N2050  X294.6141  Y218.9801   
N2055  X292.2762  Y205.9011   
N2060  X289.4622  Y193.2112   
N2065  X286.1512  Y180.7778   
N2070  X282.3218  Y168.4685   
N2075  X278.2618  Y157.0296   
N2080  X273.7919  Y145.8722   
N2085  X268.8951  Y134.9735   
N2090  X263.5545  Y124.3118   
N2095  X257.7530  Y113.8647   
N2100  X251.4737  Y103.6103   
N2105  X244.6995  Y93.5260   
N2110  X237.4138  Y83.5898   
N2115  X229.5994  Y73.7795   
N2120  X221.2392  Y64.0731   
N2125  X212.3165  Y54.4483   
N2130  X202.8143  Y44.8828   
N2135  X192.7155  Y35.3546   
N2140  X182.0032  Y25.8415   
N2145  X170.6605  Y16.3211   
N2150  X158.6704  Y6.7715   
N2155  X149.7861  Y0.0000   
N2160  X147.0834  Y2.0822   
N2165 G0  Z0.1000 
N2170 G1  Z-1.4000  F100.00 
N2175  X139.8869  Y7.7540   F300.00 
N2180  X128.7020  Y16.6934   
N2185  X117.9179  Y25.7823   
N2190  X107.5870  Y34.9697   
N2195  X97.7616  Y44.2050   
N2200  X88.4945  Y53.4375   
N2205  X79.8380  Y62.6162   
N2210  X71.8444  Y71.6907   
N2215  X64.5664  Y80.6100   
N2220  X59.2602  Y87.6033   
N2225  X54.1853  Y94.7203   
N2230  X49.3413  Y101.9617   
N2235  X44.7280  Y109.3278   
N2240  X40.3452  Y116.8193   
N2245  X36.1927  Y124.4367   
N2250  X32.2703  Y132.1804   
N2255  X28.5775  Y140.0511   
N2260  X25.1144  Y148.0493   
N2265  X21.8805  Y156.1756   
N2270  X18.8757  Y164.4303   
N2275  X16.0997  Y172.8142   
N2280  X13.5521  Y181.3278   
N2285  X11.2330  Y189.9716   
N2290  X9.1419  Y198.7460   
N2295  X7.2788  Y207.6517   
N2300  X5.6818  Y216.5493   
N2305  X4.2555  Y225.9423   
N2310  X1.9656  Y245.6652   
N2315  X0.5127  Y265.7209   
N2320  X0.1324  Y275.5303   
N2325  X0.0000  Y285.0106   
N2330  X0.1492  Y290.9685   
N2335  X0.4410  Y291.7932   
N2340  X0.9686  Y291.8209   
N2345  X9.1589  Y290.3967   
N2350  X19.0802  Y289.1392   
N2355  X28.8168  Y288.4651   
N2360  X38.3650  Y288.3727   
N2365  X47.7207  Y288.8608   
N2370  X56.8800  Y289.9277   
N2375  X65.8388  Y291.5722   
N2380  X74.5933  Y293.7926   
N2385  X83.1393  Y296.5877   
N2390  X91.4730  Y299.9559   
N2395  X99.5904  Y303.8958   
N2400  X107.4875  Y308.4059   
N2405  X115.1605  Y313.4849   
N2410  X122.6050  Y319.1312   
N2415  X129.8174  Y325.3433   
N2420  X136.7937  Y332.1198   
N2425  X143.5296  Y339.4594   
N2430  X147.9399  Y344.3736   
N2435  X149.9896  Y346.3345   
N2440  X156.4323  Y339.2510   
N2445  X161.2042  Y333.9792   
N2450  X166.0254  Y329.0168   
N2455  X170.9038  Y324.3594   
N2460  X175.8478  Y320.0022   
N2465  X180.8649  Y315.9407   
N2470  X185.9637  Y312.1700   
N2475  X191.1519  Y308.6858   
N2480  X196.4377  Y305.4833   
N2485  X201.8293  Y302.5579   
N2490  X207.3345  Y299.9051   
N2495  X212.9616  Y297.5200   
N2500  X218.7185  Y295.3982   
N2505  X224.6133  Y293.5349   
N2510  X230.6541  Y291.9257   
N2515  X236.8489  Y290.5659   
N2520  X243.2058  Y289.4507   
N2525  X251.2397  Y288.6781   
N2530  X263.7509  Y288.4845   
N2535  X272.2749  Y288.5384   
N2540  X278.6152  Y288.8493   
N2545  X285.9763  Y289.6856   
N2550  X297.5634  Y291.3158   
N2555  X300.0030  Y291.6653   
N2560  X299.6222  Y277.8385   
N2565  X298.9797  Y261.8774   
N2570  X297.9448  Y246.8356   
N2575  X296.4966  Y232.5807   
N2580  X294.6141  Y218.9801   
N2585  X292.2762  Y205.9011   
N2590  X289.4622  Y193.2112   
N2595  X286.1512  Y180.7778   
N2600  X282.3218  Y168.4685   
N2605  X278.2618  Y157.0296   
N2610  X273.7919  Y145.8722   
N2615  X268.8951  Y134.9735   
N2620  X263.5545  Y124.3118   
N2625  X257.7530  Y113.8647   
N2630  X251.4737  Y103.6103   
N2635  X244.6995  Y93.5260   
N2640  X237.4138  Y83.5898   
N2645  X229.5994  Y73.7795   
N2650  X221.2392  Y64.0731   
N2655  X212.3165  Y54.4483   
N2660  X202.8143  Y44.8828   
N2665  X192.7155  Y35.3546   
N2670  X182.0032  Y25.8415   
N2675  X170.6605  Y16.3211   
N2680  X158.6704  Y6.7715   
N2685  X149.7861  Y0.0000   
N2690  X147.0834  Y2.0822   
N2695 G0  Z3.0000 
N2700  X132.7946  Y72.4383 
N2705  Z0.1000 
N2710 G1  Z-0.7000  F100.00 
N2715  X131.0873  Y72.1887   F300.00 
N2720  X129.0781  Y72.6228   
N2725  X126.7714  Y73.8795   
N2730  X124.1337  Y75.9815   
N2735  X121.1311  Y78.9520   
N2740  X119.2727  Y80.9362   
N2745  X121.4088  Y82.9215   
N2750  X123.0860  Y84.3278   
N2755  X124.1192  Y84.9217   
N2760  X125.0080  Y83.9128   
N2765  X126.3385  Y81.4663   
N2770  X128.2470  Y78.2390   
N2775  X130.5254  Y75.3534   
N2780  X132.2406  Y73.4071   
N2785  X132.7946  Y72.4383   
N2790 G0  Z0.1000 
N2795 G1  Z-1.4000  F100.00 
N2800  X131.0873  Y72.1887   F300.00 
N2805  X129.0781  Y72.6228   
N2810  X126.7714  Y73.8795   
N2815  X124.1337  Y75.9815   
N2820  X121.1311  Y78.9520   
N2825  X119.2727  Y80.9362   
N2830  X121.4088  Y82.9215   
N2835  X123.0860  Y84.3278   
N2840  X124.1192  Y84.9217   
N2845  X125.0080  Y83.9128   
N2850  X126.3385  Y81.4663   
N2855  X128.2470  Y78.2390   
N2860  X130.5254  Y75.3534   
N2865  X132.2406  Y73.4071   
N2870  X132.7946  Y72.4383   
N2875 G0  Z3.0000 
N2880  X177.8724  Y77.7181 
N2885  Z0.1000 
N2890 G1  Z-0.7000  F100.00 
N2895  X173.1803  Y77.5135   F300.00 
N2900  X168.8115  Y77.4864   
N2905  X163.5548  Y77.9629   
N2910  X158.1288  Y78.8509   
N2915  X153.2519  Y80.0588   
N2920  X148.5825  Y81.8201   
N2925  X142.4240  Y84.5011   
N2930  X138.5520  Y86.2007   
N2935  X135.2969  Y87.3866   
N2940  X132.5199  Y88.0508   
N2945  X130.0813  Y88.1856   
N2950  X127.8420  Y87.7826   
N2955  X125.6625  Y86.8340   
N2960  X123.4036  Y85.3317   
N2965  X120.9260  Y83.2681   
N2970  X117.7876  Y80.4708   
N2975  X115.2289  Y84.0565   
N2980  X112.6702  Y87.6421   
N2985  X114.7262  Y90.3152   
N2990  X116.2153  Y92.4837   
N2995  X117.6818  Y95.0647   
N3000  X120.4378  Y101.1857   
N3005  X122.7766  Y108.1207   
N3010  X124.4809  Y115.3128   
N3015  X125.1522  Y118.9560   
N3020  X129.6236  Y118.6078   
N3025  X138.0481  Y118.2564   
N3030  X142.0012  Y118.2530   
N3035  X142.6447  Y113.2347   
N3040  X143.5145  Y108.2641   
N3045  X144.7823  Y103.6459   
N3050  X146.3959  Y99.5390   
N3055  X148.3021  Y96.1028   
N3060  X149.9729  Y93.8225   
N3065  X151.8084  Y91.7834   
N3070  X153.8853  Y89.9363   
N3075  X156.2807  Y88.2318   
N3080  X159.0716  Y86.6210   
N3085  X162.3350  Y85.0546   
N3090  X170.5863  Y81.8582   
N3095  X176.1086  Y79.8547   
N3100  X179.0132  Y78.5823   
N3105  X179.5545  Y78.1803   
N3110  X179.5260  Y77.9128   
N3115  X177.8724  Y77.7181   
N3120 G0  Z0.1000 
N3125 G1  Z-1.4000  F100.00 
N3130  X173.1803  Y77.5135   F300.00 
N3135  X168.8115  Y77.4864   
N3140  X163.5548  Y77.9629   
N3145  X158.1288  Y78.8509   
N3150  X153.2519  Y80.0588   
N3155  X148.5825  Y81.8201   
N3160  X142.4240  Y84.5011   
N3165  X138.5520  Y86.2007   
N3170  X135.2969  Y87.3866   
N3175  X132.5199  Y88.0508   
N3180  X130.0813  Y88.1856   
N3185  X127.8420  Y87.7826   
N3190  X125.6625  Y86.8340   
N3195  X123.4036  Y85.3317   
N3200  X120.9260  Y83.2681   
N3205  X117.7876  Y80.4708   
N3210  X115.2289  Y84.0565   
N3215  X112.6702  Y87.6421   
N3220  X114.7262  Y90.3152   
N3225  X116.2153  Y92.4837   
N3230  X117.6818  Y95.0647   
N3235  X120.4378  Y101.1857   
N3240  X122.7766  Y108.1207   
N3245  X124.4809  Y115.3128   
N3250  X125.1522  Y118.9560   
N3255  X129.6236  Y118.6078   
N3260  X138.0481  Y118.2564   
N3265  X142.0012  Y118.2530   
N3270  X142.6447  Y113.2347   
N3275  X143.5145  Y108.2641   
N3280  X144.7823  Y103.6459   
N3285  X146.3959  Y99.5390   
N3290  X148.3021  Y96.1028   
N3295  X149.9729  Y93.8225   
N3300  X151.8084  Y91.7834   
N3305  X153.8853  Y89.9363   
N3310  X156.2807  Y88.2318   
N3315  X159.0716  Y86.6210   
N3320  X162.3350  Y85.0546   
N3325  X170.5863  Y81.8582   
N3330  X176.1086  Y79.8547   
N3335  X179.0132  Y78.5823   
N3340  X179.5545  Y78.1803   
N3345  X179.5260  Y77.9128   
N3350  X177.8724  Y77.7181   
N3355 G0  Z3.0000 
N3360  X154.9176  Y120.7293 
N3365  Z0.1000 
N3370 G1  Z-0.7000  F100.00 
N3375  X148.7737  Y120.1288   F300.00 
N3380  X139.8175  Y119.6947   
N3385  X130.8458  Y119.5215   
N3390  X124.6554  Y119.7041   
N3395  X114.1693  Y121.2125   
N3400  X107.0180  Y122.6382   
N3405  X107.0510  Y124.8566   
N3410  X107.4784  Y129.4643   
N3415  X108.0463  Y134.1035   
N3420  X108.5009  Y136.4165   
N3425  X114.4076  Y135.4953   
N3430  X121.0431  Y134.4841   
N3435  X127.8261  Y133.7913   
N3440  X134.7062  Y133.4162   
N3445  X141.6329  Y133.3579   
N3450  X148.5559  Y133.6161   
N3455  X155.4249  Y134.1896   
N3460  X162.1895  Y135.0778   
N3465  X168.7995  Y136.2804   
N3470  X176.4284  Y138.1621   
N3475  X184.1150  Y140.6139   
N3480  X191.7395  Y143.5762   
N3485  X199.1812  Y146.9894   
N3490  X206.3202  Y150.7941   
N3495  X213.0360  Y154.9306   
N3500  X219.2086  Y159.3395   
N3505  X224.7176  Y163.9614   
N3510  X227.0522  Y166.1009   
N3515  X230.5480  Y164.3908   
N3520  X233.3384  Y163.1892   
N3525  X236.2454  Y162.3488   
N3530  X239.7803  Y161.7557   
N3535  X244.4553  Y161.2960   
N3540  X247.8866  Y160.9129   
N3545  X249.3139  Y160.5349   
N3550  X248.6519  Y159.8650   
N3555  X247.0601  Y158.7801   
N3560  X244.5601  Y156.7762   
N3565  X243.7257  Y155.6568   
N3570  X243.1618  Y154.4390   
N3575  X242.8630  Y153.1082   
N3580  X242.8244  Y151.6494   
N3585  X243.5082  Y148.2887   
N3590  X243.7043  Y147.5276   
N3595  X243.5077  Y147.1684   
N3600  X241.0405  Y147.2946   
N3605  X238.4169  Y147.9173   
N3610  X236.3717  Y149.1324   
N3615  X234.8748  Y150.2512   
N3620  X233.3933  Y151.0676   
N3625  X231.9226  Y151.5817   
N3630  X230.4574  Y151.7937   
N3635  X228.9928  Y151.7037   
N3640  X227.5239  Y151.3122   
N3645  X226.0458  Y150.6191   
N3650  X224.5535  Y149.6248   
N3655  X223.1217  Y148.3574   
N3660  X221.7040  Y146.7821   
N3665  X219.1169  Y143.0566   
N3670  X217.2033  Y139.1466   
N3675  X216.6277  Y137.3405   
N3680  X216.3748  Y135.7498   
N3685  X216.2752  Y133.8056   
N3690  X209.9768  Y133.8031   
N3695  X203.9920  Y133.5224   
N3700  X197.7871  Y132.5483   
N3705  X190.3780  Y130.6746   
N3710  X180.7805  Y127.6958   
N3715  X165.8075  Y123.0984   
N3720  X160.3509  Y121.7697   
N3725  X154.9176  Y120.7293   
N3730 G0  Z0.1000 
N3735 G1  Z-1.4000  F100.00 
N3740  X148.7737  Y120.1288   F300.00 
N3745  X139.8175  Y119.6947   
N3750  X130.8458  Y119.5215   
N3755  X124.6554  Y119.7041   
N3760  X114.1693  Y121.2125   
N3765  X107.0180  Y122.6382   
N3770  X107.0510  Y124.8566   
N3775  X107.4784  Y129.4643   
N3780  X108.0463  Y134.1035   
N3785  X108.5009  Y136.4165   
N3790  X114.4076  Y135.4953   
N3795  X121.0431  Y134.4841   
N3800  X127.8261  Y133.7913   
N3805  X134.7062  Y133.4162   
N3810  X141.6329  Y133.3579   
N3815  X148.5559  Y133.6161   
N3820  X155.4249  Y134.1896   
N3825  X162.1895  Y135.0778   
N3830  X168.7995  Y136.2804   
N3835  X176.4284  Y138.1621   
N3840  X184.1150  Y140.6139   
N3845  X191.7395  Y143.5762   
N3850  X199.1812  Y146.9894   
N3855  X206.3202  Y150.7941   
N3860  X213.0360  Y154.9306   
N3865  X219.2086  Y159.3395   
N3870  X224.7176  Y163.9614   
N3875  X227.0522  Y166.1009   
N3880  X230.5480  Y164.3908   
N3885  X233.3384  Y163.1892   
N3890  X236.2454  Y162.3488   
N3895  X239.7803  Y161.7557   
N3900  X244.4553  Y161.2960   
N3905  X247.8866  Y160.9129   
N3910  X249.3139  Y160.5349   
N3915  X248.6519  Y159.8650   
N3920  X247.0601  Y158.7801   
N3925  X244.5601  Y156.7762   
N3930  X243.7257  Y155.6568   
N3935  X243.1618  Y154.4390   
N3940  X242.8630  Y153.1082   
N3945  X242.8244  Y151.6494   
N3950  X243.5082  Y148.2887   
N3955  X243.7043  Y147.5276   
N3960  X243.5077  Y147.1684   
N3965  X241.0405  Y147.2946   
N3970  X238.4169  Y147.9173   
N3975  X236.3717  Y149.1324   
N3980  X234.8748  Y150.2512   
N3985  X233.3933  Y151.0676   
N3990  X231.9226  Y151.5817   
N3995  X230.4574  Y151.7937   
N4000  X228.9928  Y151.7037   
N4005  X227.5239  Y151.3122   
N4010  X226.0458  Y150.6191   
N4015  X224.5535  Y149.6248   
N4020  X223.1217  Y148.3574   
N4025  X221.7040  Y146.7821   
N4030  X219.1169  Y143.0566   
N4035  X217.2033  Y139.1466   
N4040  X216.6277  Y137.3405   
N4045  X216.3748  Y135.7498   
N4050  X216.2752  Y133.8056   
N4055  X209.9768  Y133.8031   
N4060  X203.9920  Y133.5224   
N4065  X197.7871  Y132.5483   
N4070  X190.3780  Y130.6746   
N4075  X180.7805  Y127.6958   
N4080  X165.8075  Y123.0984   
N4085  X160.3509  Y121.7697   
N4090  X154.9176  Y120.7293   
N4095 G0  Z3.0000 
N4100  X193.1470  Y194.1864 
N4105  Z0.1000 
N4110 G1  Z-0.7000  F100.00 
N4115  X194.5497  Y192.6593   F300.00 
N4120  X191.5306  Y192.6648   
N4125  X188.4048  Y193.0042   
N4130  X185.5965  Y193.9845   
N4135  X183.1363  Y195.5665   
N4140  X181.0550  Y197.7111   
N4145  X179.3831  Y200.3790   
N4150  X178.1510  Y203.5313   
N4155  X177.3892  Y207.1283   
N4160  X177.1285  Y211.1313   
N4165  X177.2881  Y214.9694   
N4170  X177.8396  Y218.5060   
N4175  X178.8927  Y222.2365   
N4180  X180.5564  Y226.6568   
N4185  X182.0822  Y230.8466   
N4190  X182.5925  Y233.6176   
N4195  X182.4672  Y234.5647   
N4200  X182.0880  Y235.2694   
N4205  X181.4554  Y235.7690   
N4210  X180.5691  Y236.1009   
N4215  X179.3878  Y236.5522   
N4220  X179.1121  Y236.8979   
N4225  X179.0529  Y237.4022   
N4230  X179.6043  Y239.1237   
N4235  X181.0818  Y242.1895   
N4240  X182.6692  Y245.3545   
N4245  X185.8680  Y244.2403   
N4250  X189.1874  Y243.3637   
N4255  X192.6762  Y242.8210   
N4260  X194.6615  Y242.7215   
N4265  X196.3236  Y242.8424   
N4270  X200.0996  Y243.9631   
N4275  X204.6737  Y245.4102   
N4280  X205.7294  Y244.2050   
N4285  X207.3753  Y241.5287   
N4290  X208.8098  Y238.7909   
N4295  X209.2312  Y237.4003   
N4300  X206.4559  Y236.3149   
N4305  X203.2914  Y234.8915   
N4310  X200.2644  Y233.0419   
N4315  X197.4281  Y230.8241   
N4320  X194.8360  Y228.2961   
N4325  X192.5413  Y225.5156   
N4330  X190.5972  Y222.5406   
N4335  X189.0572  Y219.4291   
N4340  X187.9746  Y216.2390   
N4345  X187.3642  Y213.1911   
N4350  X187.1236  Y210.1814   
N4355  X187.2473  Y207.2327   
N4360  X187.7300  Y204.3671   
N4365  X188.5666  Y201.6072   
N4370  X189.7518  Y198.9755   
N4375  X191.2804  Y196.4944   
N4380  X193.1470  Y194.1864   
N4385 G0  Z0.1000 
N4390 G1  Z-1.4000  F100.00 
N4395  X194.5497  Y192.6593   F300.00 
N4400  X191.5306  Y192.6648   
N4405  X188.4048  Y193.0042   
N4410  X185.5965  Y193.9845   
N4415  X183.1363  Y195.5665   
N4420  X181.0550  Y197.7111   
N4425  X179.3831  Y200.3790   
N4430  X178.1510  Y203.5313   
N4435  X177.3892  Y207.1283   
N4440  X177.1285  Y211.1313   
N4445  X177.2881  Y214.9694   
N4450  X177.8396  Y218.5060   
N4455  X178.8927  Y222.2365   
N4460  X180.5564  Y226.6568   
N4465  X182.0822  Y230.8466   
N4470  X182.5925  Y233.6176   
N4475  X182.4672  Y234.5647   
N4480  X182.0880  Y235.2694   
N4485  X181.4554  Y235.7690   
N4490  X180.5691  Y236.1009   
N4495  X179.3878  Y236.5522   
N4500  X179.1121  Y236.8979   
N4505  X179.0529  Y237.4022   
N4510  X179.6043  Y239.1237   
N4515  X181.0818  Y242.1895   
N4520  X182.6692  Y245.3545   
N4525  X185.8680  Y244.2403   
N4530  X189.1874  Y243.3637   
N4535  X192.6762  Y242.8210   
N4540  X194.6615  Y242.7215   
N4545  X196.3236  Y242.8424   
N4550  X200.0996  Y243.9631   
N4555  X204.6737  Y245.4102   
N4560  X205.7294  Y244.2050   
N4565  X207.3753  Y241.5287   
N4570  X208.8098  Y238.7909   
N4575  X209.2312  Y237.4003   
N4580  X206.4559  Y236.3149   
N4585  X203.2914  Y234.8915   
N4590  X200.2644  Y233.0419   
N4595  X197.4281  Y230.8241   
N4600  X194.8360  Y228.2961   
N4605  X192.5413  Y225.5156   
N4610  X190.5972  Y222.5406   
N4615  X189.0572  Y219.4291   
N4620  X187.9746  Y216.2390   
N4625  X187.3642  Y213.1911   
N4630  X187.1236  Y210.1814   
N4635  X187.2473  Y207.2327   
N4640  X187.7300  Y204.3671   
N4645  X188.5666  Y201.6072   
N4650  X189.7518  Y198.9755   
N4655  X191.2804  Y196.4944   
N4660  X193.1470  Y194.1864   
N4665 G0  Z3.0000 
N4670  X176.9088  Y218.0631 
N4675  Z0.1000 
N4680 G1  Z-0.7000  F100.00 
N4685  X176.5213  Y216.6158   F300.00 
N4690  X176.1317  Y216.0600   
N4695  X172.1766  Y216.6792   
N4700  X167.2529  Y217.1594   
N4705  X155.8125  Y217.6041   
N4710  X145.8793  Y217.6466   
N4715  X146.1656  Y222.6683   
N4720  X146.6971  Y227.9352   
N4725  X149.1368  Y228.3166   
N4730  X154.4052  Y228.5698   
N4735  X160.7115  Y228.6443   
N4740  X166.2659  Y228.4891   
N4745  X172.1772  Y227.9043   
N4750  X173.4556  Y227.3745   
N4755  X174.4988  Y226.4696   
N4760  X175.6606  Y225.4214   
N4765  X176.4811  Y224.9447   
N4770  X176.9680  Y225.0378   
N4775  X177.1285  Y225.6981   
N4780  X177.4524  Y226.2880   
N4785  X178.2391  Y226.5309   
N4790  X178.9937  Y226.5164   
N4795  X179.2526  Y226.2101   
N4800  X178.3221  Y223.1474   
N4805  X176.9088  Y218.0631   
N4810 G0  Z0.1000 
N4815 G1  Z-1.4000  F100.00 
N4820  X176.5213  Y216.6158   F300.00 
N4825  X176.1317  Y216.0600   
N4830  X172.1766  Y216.6792   
N4835  X167.2529  Y217.1594   
N4840  X155.8125  Y217.6041   
N4845  X145.8793  Y217.6466   
N4850  X146.1656  Y222.6683   
N4855  X146.6971  Y227.9352   
N4860  X149.1368  Y228.3166   
N4865  X154.4052  Y228.5698   
N4870  X160.7115  Y228.6443   
N4875  X166.2659  Y228.4891   
N4880  X172.1772  Y227.9043   
N4885  X173.4556  Y227.3745   
N4890  X174.4988  Y226.4696   
N4895  X175.6606  Y225.4214   
N4900  X176.4811  Y224.9447   
N4905  X176.9680  Y225.0378   
N4910  X177.1285  Y225.6981   
N4915  X177.4524  Y226.2880   
N4920  X178.2391  Y226.5309   
N4925  X178.9937  Y226.5164   
N4930  X179.2526  Y226.2101   
N4935  X178.3221  Y223.1474   
N4940  X176.9088  Y218.0631   
N4945 G0  Z3.0000 
N4950  X177.6972  Y234.3047 
N4955  Z0.1000 
N4960 G1  Z-0.7000  F100.00 
N4965  X176.6952  Y228.1544   F300.00 
N4970  X176.2957  Y225.6134   
N4975  X172.4167  Y230.1789   
N4980  X169.8536  Y233.4426   
N4985  X168.3851  Y236.1112   
N4990  X167.7974  Y238.7346   
N4995  X167.8765  Y241.8635   
N5000  X168.2526  Y243.9922   
N5005  X168.9741  Y246.0971   
N5010  X170.0466  Y248.1849   
N5015  X171.4753  Y250.2627   
N5020  X173.2659  Y252.3375   
N5025  X175.4237  Y254.4163   
N5030  X180.8624  Y258.6142   
N5035  X184.8739  Y261.3572   
N5040  X182.7246  Y262.3265   
N5045  X179.8648  Y264.0202   
N5050  X176.0072  Y266.7315   
N5055  X171.4393  Y270.1670   
N5060  X168.3147  Y268.6818   
N5065  X163.2041  Y266.6325   
N5070  X157.1664  Y264.8186   
N5075  X150.7854  Y263.3928   
N5080  X144.6452  Y262.5073   
N5085  X143.4962  Y262.2290   
N5090  X143.0733  Y261.7866   
N5095  X143.7989  Y256.6138   
N5100  X144.6973  Y251.3050   
N5105  X144.4490  Y250.9301   
N5110  X143.3440  Y250.5421   
N5115  X138.1413  Y249.6183   
N5120  X129.8604  Y248.3511   
N5125  X129.0455  Y248.2706   
N5130  X128.5250  Y248.5322   
N5135  X128.1444  Y249.3145   
N5140  X127.7493  Y250.7966   
N5145  X126.6163  Y253.9076   
N5150  X124.7800  Y257.5265   
N5155  X122.7389  Y260.7702   
N5160  X120.9923  Y262.7555   
N5165  X119.0087  Y263.6209   
N5170  X116.0951  Y264.1373   
N5175  X112.6400  Y264.4506   
N5180  X115.3161  Y267.1912   
N5185  X121.1215  Y272.6634   
N5190  X122.9307  Y274.2010   
N5195  X124.0443  Y274.9207   
N5200  X124.8742  Y274.9894   
N5205  X125.8323  Y274.5744   
N5210  X128.6037  Y273.5077   
N5215  X131.9343  Y272.9004   
N5220  X135.8420  Y272.7548   
N5225  X140.3451  Y273.0729   
N5230  X145.4612  Y273.8568   
N5235  X151.2084  Y275.1083   
N5240  X157.6045  Y276.8298   
N5245  X164.6676  Y279.0230   
N5250  X173.8530  Y282.0381   
N5255  X178.1283  Y278.8055   
N5260  X186.6980  Y272.7153   
N5265  X197.2949  Y266.1708   
N5270  X204.9677  Y261.6274   
N5275  X202.0147  Y260.6689   
N5280  X197.4676  Y258.8482   
N5285  X193.2241  Y256.4683   
N5290  X189.3480  Y253.5985   
N5295  X185.9025  Y250.3072   
N5300  X182.9512  Y246.6634   
N5305  X180.5576  Y242.7358   
N5310  X178.7852  Y238.5934   
N5315  X177.6972  Y234.3047   
N5320 G0  Z0.1000 
N5325 G1  Z-1.4000  F100.00 
N5330  X176.6952  Y228.1544   F300.00 
N5335  X176.2957  Y225.6134   
N5340  X172.4167  Y230.1789   
N5345  X169.8536  Y233.4426   
N5350  X168.3851  Y236.1112   
N5355  X167.7974  Y238.7346   
N5360  X167.8765  Y241.8635   
N5365  X168.2526  Y243.9922   
N5370  X168.9741  Y246.0971   
N5375  X170.0466  Y248.1849   
N5380  X171.4753  Y250.2627   
N5385  X173.2659  Y252.3375   
N5390  X175.4237  Y254.4163   
N5395  X180.8624  Y258.6142   
N5400  X184.8739  Y261.3572   
N5405  X182.7246  Y262.3265   
N5410  X179.8648  Y264.0202   
N5415  X176.0072  Y266.7315   
N5420  X171.4393  Y270.1670   
N5425  X168.3147  Y268.6818   
N5430  X163.2041  Y266.6325   
N5435  X157.1664  Y264.8186   
N5440  X150.7854  Y263.3928   
N5445  X144.6452  Y262.5073   
N5450  X143.4962  Y262.2290   
N5455  X143.0733  Y261.7866   
N5460  X143.7989  Y256.6138   
N5465  X144.6973  Y251.3050   
N5470  X144.4490  Y250.9301   
N5475  X143.3440  Y250.5421   
N5480  X138.1413  Y249.6183   
N5485  X129.8604  Y248.3511   
N5490  X129.0455  Y248.2706   
N5495  X128.5250  Y248.5322   
N5500  X128.1444  Y249.3145   
N5505  X127.7493  Y250.7966   
N5510  X126.6163  Y253.9076   
N5515  X124.7800  Y257.5265   
N5520  X122.7389  Y260.7702   
N5525  X120.9923  Y262.7555   
N5530  X119.0087  Y263.6209   
N5535  X116.0951  Y264.1373   
N5540  X112.6400  Y264.4506   
N5545  X115.3161  Y267.1912   
N5550  X121.1215  Y272.6634   
N5555  X122.9307  Y274.2010   
N5560  X124.0443  Y274.9207   
N5565  X124.8742  Y274.9894   
N5570  X125.8323  Y274.5744   
N5575  X128.6037  Y273.5077   
N5580  X131.9343  Y272.9004   
N5585  X135.8420  Y272.7548   
N5590  X140.3451  Y273.0729   
N5595  X145.4612  Y273.8568   
N5600  X151.2084  Y275.1083   
N5605  X157.6045  Y276.8298   
N5610  X164.6676  Y279.0230   
N5615  X173.8530  Y282.0381   
N5620  X178.1283  Y278.8055   
N5625  X186.6980  Y272.7153   
N5630  X197.2949  Y266.1708   
N5635  X204.9677  Y261.6274   
N5640  X202.0147  Y260.6689   
N5645  X197.4676  Y258.8482   
N5650  X193.2241  Y256.4683   
N5655  X189.3480  Y253.5985   
N5660  X185.9025  Y250.3072   
N5665  X182.9512  Y246.6634   
N5670  X180.5576  Y242.7358   
N5675  X178.7852  Y238.5934   
N5680  X177.6972  Y234.3047   
N5685 G0  Z3.0000 
N5690  X229.4894  Y184.9220 
N5695  Z0.1000 
N5700 G1  Z-0.7000  F100.00 
N5705  X226.5464  Y184.4840   F300.00 
N5710  X222.7048  Y184.3988   
N5715  X218.7471  Y184.6499   
N5720  X215.4557  Y185.2205   
N5725  X211.1387  Y186.7919   
N5730  X209.3710  Y187.8040   
N5735  X207.8314  Y188.9955   
N5740  X206.4964  Y190.3885   
N5745  X205.3417  Y192.0044   
N5750  X204.3433  Y193.8647   
N5755  X203.4773  Y195.9910   
N5760  X201.0697  Y201.5425   
N5765  X199.6998  Y203.8520   
N5770  X198.2019  Y205.8713   
N5775  X196.5633  Y207.6155   
N5780  X194.7713  Y209.1001   
N5785  X192.8130  Y210.3404   
N5790  X190.6753  Y211.3518   
N5795  X189.2268  Y211.9756   
N5800  X188.5156  Y212.5234   
N5805  X188.3398  Y213.2956   
N5810  X188.4974  Y214.5925   
N5815  X189.1396  Y217.0354   
N5820  X190.2004  Y219.7894   
N5825  X191.4839  Y222.0986   
N5830  X191.9918  Y222.4334   
N5835  X192.5344  Y222.3576   
N5840  X197.5781  Y220.7280   
N5845  X203.4921  Y219.5475   
N5850  X209.4575  Y218.9393   
N5855  X214.6557  Y219.0267   
N5860  X218.0335  Y219.3810   
N5865  X220.3471  Y216.3166   
N5870  X222.6609  Y213.0151   
N5875  X219.6169  Y211.5426   
N5880  X217.9875  Y210.7397   
N5885  X216.4727  Y209.7183   
N5890  X213.9132  Y207.1822   
N5895  X212.9318  Y205.7479   
N5900  X212.1917  Y204.2569   
N5905  X211.7244  Y202.7495   
N5910  X211.5617  Y201.2661   
N5915  X212.0455  Y198.6879   
N5920  X213.3548  Y196.0941   
N5925  X215.2755  Y193.8076   
N5930  X217.5945  Y192.1509   
N5935  X219.8288  Y191.1102   
N5940  X221.3422  Y190.7565   
N5945  X222.5922  Y191.0861   
N5950  X224.0372  Y192.0947   
N5955  X225.8123  Y193.2244   
N5960  X227.4792  Y193.6968   
N5965  X229.0568  Y193.5134   
N5970  X230.5646  Y192.6763   
N5975  X231.5193  Y191.7066   
N5980  X232.1447  Y190.6064   
N5985  X232.4501  Y189.4410   
N5990  X232.4441  Y188.2759   
N5995  X232.1359  Y187.1761   
N6000  X231.5348  Y186.2070   
N6005  X230.6496  Y185.4339   
N6010  X229.4894  Y184.9220   
N6015 G0  Z0.1000 
N6020 G1  Z-1.4000  F100.00 
N6025  X226.5464  Y184.4840   F300.00 
N6030  X222.7048  Y184.3988   
N6035  X218.7471  Y184.6499   
N6040  X215.4557  Y185.2205   
N6045  X211.1387  Y186.7919   
N6050  X209.3710  Y187.8040   
N6055  X207.8314  Y188.9955   
N6060  X206.4964  Y190.3885   
N6065  X205.3417  Y192.0044   
N6070  X204.3433  Y193.8647   
N6075  X203.4773  Y195.9910   
N6080  X201.0697  Y201.5425   
N6085  X199.6998  Y203.8520   
N6090  X198.2019  Y205.8713   
N6095  X196.5633  Y207.6155   
N6100  X194.7713  Y209.1001   
N6105  X192.8130  Y210.3404   
N6110  X190.6753  Y211.3518   
N6115  X189.2268  Y211.9756   
N6120  X188.5156  Y212.5234   
N6125  X188.3398  Y213.2956   
N6130  X188.4974  Y214.5925   
N6135  X189.1396  Y217.0354   
N6140  X190.2004  Y219.7894   
N6145  X191.4839  Y222.0986   
N6150  X191.9918  Y222.4334   
N6155  X192.5344  Y222.3576   
N6160  X197.5781  Y220.7280   
N6165  X203.4921  Y219.5475   
N6170  X209.4575  Y218.9393   
N6175  X214.6557  Y219.0267   
N6180  X218.0335  Y219.3810   
N6185  X220.3471  Y216.3166   
N6190  X222.6609  Y213.0151   
N6195  X219.6169  Y211.5426   
N6200  X217.9875  Y210.7397   
N6205  X216.4727  Y209.7183   
N6210  X213.9132  Y207.1822   
N6215  X212.9318  Y205.7479   
N6220  X212.1917  Y204.2569   
N6225  X211.7244  Y202.7495   
N6230  X211.5617  Y201.2661   
N6235  X212.0455  Y198.6879   
N6240  X213.3548  Y196.0941   
N6245  X215.2755  Y193.8076   
N6250  X217.5945  Y192.1509   
N6255  X219.8288  Y191.1102   
N6260  X221.3422  Y190.7565   
N6265  X222.5922  Y191.0861   
N6270  X224.0372  Y192.0947   
N6275  X225.8123  Y193.2244   
N6280  X227.4792  Y193.6968   
N6285  X229.0568  Y193.5134   
N6290  X230.5646  Y192.6763   
N6295  X231.5193  Y191.7066   
N6300  X232.1447  Y190.6064   
N6305  X232.4501  Y189.4410   
N6310  X232.4441  Y188.2759   
N6315  X232.1359  Y187.1761   
N6320  X231.5348  Y186.2070   
N6325  X230.6496  Y185.4339   
N6330  X229.4894  Y184.9220   
N6335 G0  Z3.0000 
N6340  X105.4986  Y221.8726 
N6345  Z0.1000 
N6350 G1  Z-0.7000  F100.00 
N6355  X98.6964  Y219.1071   F300.00 
N6360  X96.6142  Y218.1869   
N6365  Y222.3401   
N6370  X96.5137  Y224.6858   
N6375  X96.2035  Y226.6898   
N6380  X95.6699  Y228.3709   
N6385  X94.8995  Y229.7473   
N6390  X93.8786  Y230.8381   
N6395  X92.5939  Y231.6615   
N6400  X91.0318  Y232.2363   
N6405  X89.1787  Y232.5812   
N6410  X86.3315  Y232.9166   
N6415  X92.2709  Y238.6469   
N6420  X98.2102  Y244.3772   
N6425  X102.5485  Y243.1594   
N6430  X106.6320  Y242.3234   
N6435  X110.7139  Y242.3138   
N6440  X115.6065  Y243.2112   
N6445  X122.1223  Y245.0957   
N6450  X129.4259  Y247.2379   
N6455  X135.5560  Y248.5950   
N6460  X141.2940  Y249.3033   
N6465  X147.4215  Y249.4987   
N6470  X153.1710  Y249.3282   
N6475  X159.3077  Y248.9154   
N6480  X164.5153  Y248.3711   
N6485  X167.4777  Y247.8066   
N6490  X168.0332  Y247.2724   
N6495  X167.9563  Y246.3053   
N6500  X167.2876  Y241.5977   
N6505  X166.9960  Y238.0628   
N6510  X164.4273  Y238.4097   
N6515  X158.6915  Y238.8912   
N6520  X151.3442  Y239.1407   
N6525  X144.1236  Y239.1300   
N6530  X138.7678  Y238.8306   
N6535  X133.7406  Y238.0555   
N6540  X128.4718  Y236.9046   
N6545  X123.1572  Y235.4265   
N6550  X117.9921  Y233.6696   
N6555  X115.1061  Y232.5591   
N6560  X113.6238  Y231.7912   
N6565  X113.0798  Y231.0098   
N6570  X113.0091  Y229.8596   
N6575  X113.3906  Y225.8369   
N6580  X113.5680  Y224.6485   
N6585  X113.4763  Y224.0265   
N6590  X112.9912  Y223.7844   
N6595  X111.9881  Y223.7362   
N6600  X109.3518  Y223.1811   
N6605  X105.4986  Y221.8726   
N6610 G0  Z0.1000 
N6615 G1  Z-1.4000  F100.00 
N6620  X98.6964  Y219.1071   F300.00 
N6625  X96.6142  Y218.1869   
N6630  Y222.3401   
N6635  X96.5137  Y224.6858   
N6640  X96.2035  Y226.6898   
N6645  X95.6699  Y228.3709   
N6650  X94.8995  Y229.7473   
N6655  X93.8786  Y230.8381   
N6660  X92.5939  Y231.6615   
N6665  X91.0318  Y232.2363   
N6670  X89.1787  Y232.5812   
N6675  X86.3315  Y232.9166   
N6680  X92.2709  Y238.6469   
N6685  X98.2102  Y244.3772   
N6690  X102.5485  Y243.1594   
N6695  X106.6320  Y242.3234   
N6700  X110.7139  Y242.3138   
N6705  X115.6065  Y243.2112   
N6710  X122.1223  Y245.0957   
N6715  X129.4259  Y247.2379   
N6720  X135.5560  Y248.5950   
N6725  X141.2940  Y249.3033   
N6730  X147.4215  Y249.4987   
N6735  X153.1710  Y249.3282   
N6740  X159.3077  Y248.9154   
N6745  X164.5153  Y248.3711   
N6750  X167.4777  Y247.8066   
N6755  X168.0332  Y247.2724   
N6760  X167.9563  Y246.3053   
N6765  X167.2876  Y241.5977   
N6770  X166.9960  Y238.0628   
N6775  X164.4273  Y238.4097   
N6780  X158.6915  Y238.8912   
N6785  X151.3442  Y239.1407   
N6790  X144.1236  Y239.1300   
N6795  X138.7678  Y238.8306   
N6800  X133.7406  Y238.0555   
N6805  X128.4718  Y236.9046   
N6810  X123.1572  Y235.4265   
N6815  X117.9921  Y233.6696   
N6820  X115.1061  Y232.5591   
N6825  X113.6238  Y231.7912   
N6830  X113.0798  Y231.0098   
N6835  X113.0091  Y229.8596   
N6840  X113.3906  Y225.8369   
N6845  X113.5680  Y224.6485   
N6850  X113.4763  Y224.0265   
N6855  X112.9912  Y223.7844   
N6860  X111.9881  Y223.7362   
N6865  X109.3518  Y223.1811   
N6870  X105.4986  Y221.8726   
N6875 G0  Z3.0000 
N6880  X30.6311  Y183.3595 
N6885  Z0.1000 
N6890 G1  Z-0.7000  F100.00 
N6895  X28.1203  Y192.1391   F300.00 
N6900  X25.8799  Y201.2283   
N6905  X23.9171  Y210.5831   
N6910  X22.2386  Y220.1595   
N6915  X20.8516  Y229.9136   
N6920  X19.7630  Y239.8011   
N6925  X18.9798  Y249.7782   
N6930  X18.5088  Y259.8011   
N6935  X18.1485  Y271.3741   
N6940  X19.7617  Y271.1772   
N6945  X26.2361  Y271.1670   
N6950  X38.0792  Y271.5762   
N6955  X50.8711  Y272.2167   
N6960  X60.1923  Y272.9000   
N6965  X69.2031  Y274.0358   
N6970  X77.6739  Y275.4983   
N6975  X85.6341  Y277.2966   
N6980  X93.1128  Y279.4404   
N6985  X100.1395  Y281.9390   
N6990  X106.7432  Y284.8016   
N6995  X112.9532  Y288.0376   
N7000  X118.7991  Y291.6565   
N7005  X123.9544  Y295.2978   
N7010  X128.7313  Y299.1379   
N7015  X133.9416  Y303.8741   
N7020  X140.3972  Y310.2034   
N7025  X150.0308  Y319.8495   
N7030  X157.3403  Y312.7533   
N7035  X163.2748  Y307.1637   
N7040  X169.0671  Y302.0799   
N7045  X174.7798  Y297.4791   
N7050  X180.4748  Y293.3380   
N7055  X186.2144  Y289.6343   
N7060  X192.0611  Y286.3444   
N7065  X198.0766  Y283.4458   
N7070  X204.3231  Y280.9154   
N7075  X210.8631  Y278.7302   
N7080  X217.7588  Y276.8675   
N7085  X225.0721  Y275.3042   
N7090  X232.8653  Y274.0175   
N7095  X241.2005  Y272.9843   
N7100  X250.1401  Y272.1817   
N7105  X270.0808  Y271.1767   
N7110  X281.6857  Y270.8245   
N7115  X281.2998  Y259.9755   
N7120  X280.8195  Y249.7870   
N7125  X280.1144  Y240.0435   
N7130  X279.1739  Y230.6739   
N7135  X277.9878  Y221.6082   
N7140  X276.5457  Y212.7754   
N7145  X274.8371  Y204.1047   
N7150  X272.8516  Y195.5257   
N7155  X270.5793  Y186.9679   
N7160  X267.9537  Y177.6670   
N7165  X221.9858   
N7170  X176.0181   
N7175  Y180.1657   
N7180  Y182.6644   
N7185  X173.3805  Y182.6597   
N7190  X167.8800  Y182.3109   
N7195  X166.2837  Y182.0676   
N7200  X165.3027  Y181.6945   
N7205  X164.6524  Y181.0061   
N7210  X164.0476  Y179.8169   
N7215  X163.2696  Y178.4134   
N7220  X162.6175  Y177.7244   
N7225  X162.3979  Y177.6813   
N7230  X162.2807  Y177.8566   
N7235  X162.4483  Y178.9164   
N7240  X163.4465  Y181.4085   
N7245  X164.8926  Y183.9863   
N7250  X166.6945  Y186.5056   
N7255  X168.7607  Y188.8225   
N7260  X171.9242  Y191.9861   
N7265  X169.5410  Y196.7291   
N7270  X168.1347  Y199.4502   
N7275  X167.1546  Y200.9019   
N7280  X166.1702  Y201.5431   
N7285  X164.7509  Y201.8331   
N7290  X161.5857  Y201.8446   
N7295  X157.2424  Y201.3135   
N7300  X153.1475  Y200.7166   
N7305  X149.7908  Y200.4735   
N7310  X147.1005  Y200.5828   
N7315  X145.0057  Y201.0428   
N7320  X144.3046  Y201.2830   
N7325  X143.7984  Y201.6206   
N7330  X143.4784  Y202.3185   
N7335  X143.3358  Y203.6399   
N7340  X143.5486  Y209.2057   
N7345  X144.3676  Y220.4230   
N7350  X145.4711  Y236.5409   
N7355  X145.4781  Y237.9443   
N7360  X139.8830  Y237.5295   
N7365  X134.9895  Y236.9723   
N7370  X131.0815  Y236.2151   
N7375  X127.8751  Y235.3154   
N7380  X127.5148  Y226.0645   
N7385  X127.1227  Y199.8779   
N7390  X127.0909  Y182.9421   
N7395  X129.6213  Y182.9652   
N7400  X136.7239  Y183.0597   
N7405  X140.4546  Y183.2816   
N7410  X141.9558  Y183.7906   
N7415  X142.3699  Y184.7467   
N7420  X142.7936  Y188.8767   
N7425  X142.9922  Y190.6616   
N7430  X143.2830  Y191.2210   
N7435  X143.8054  Y191.6074   
N7440  X145.8566  Y192.0071   
N7445  X149.7696  Y192.1536   
N7450  X153.4013  Y192.1174   
N7455  X154.4864  Y191.9070   
N7460  X155.1493  Y191.4946   
N7465  X155.4386  Y190.8248   
N7470  X155.4031  Y189.8423   
N7475  X154.5525  Y186.7178   
N7480  X152.8749  Y180.0697   
N7485  X152.5005  Y178.3594   
N7490  X152.0766  Y177.7353   
N7495  X151.7298  Y178.2199   
N7500  X151.5861  Y179.8363   
N7505  Y182.0056   
N7510  X146.2715  Y182.4041   
N7515  X138.9471  Y182.5262   
N7520  X130.0248  Y182.0909   
N7525  X121.2885  Y181.2289   
N7530  X114.5217  Y180.0716   
N7535  X113.2723  Y179.7678   
N7540  Y188.6260   
N7545  X112.9068  Y203.4578   
N7550  X112.5413  Y209.4314   
N7555  X110.2692  Y209.0847   
N7560  X107.6873  Y208.3708   
N7565  X104.6605  Y207.0621   
N7570  X101.6823  Y205.4024   
N7575  X99.2467  Y203.6359   
N7580  X97.1594  Y201.8214   
N7585  X96.7988  Y189.7441   
N7590  X96.4380  Y177.6670   
N7595  X84.0231   
N7600  X71.6083   
N7605  X73.0723  Y180.5822   
N7610  X74.7505  Y183.5955   
N7615  X76.7183  Y186.5499   
N7620  X78.9509  Y189.4292   
N7625  X81.4240  Y192.2169   
N7630  X86.9929  Y197.4522   
N7635  X93.2290  Y202.1244   
N7640  X99.9353  Y206.1022   
N7645  X106.9158  Y209.2545   
N7650  X110.4474  Y210.4800   
N7655  X113.9740  Y211.4499   
N7660  X117.4708  Y212.1477   
N7665  X120.9133  Y212.5571   
N7670  X125.7659  Y212.9268   
N7675  X125.8160  Y218.6698   
N7680  X125.6948  Y223.1038   
N7685  X125.4958  Y224.2194   
N7690  X125.1978  Y224.6693   
N7695  X122.8556  Y224.6029   
N7700  X118.4909  Y223.8497   
N7705  X113.2960  Y222.6527   
N7710  X108.4636  Y221.2553   
N7715  X101.5811  Y218.5825   
N7720  X94.8664  Y215.2110   
N7725  X88.3428  Y211.1598   
N7730  X82.0337  Y206.4480   
N7735  X75.9625  Y201.0947   
N7740  X70.1529  Y195.1190   
N7745  X64.6278  Y188.5397   
N7750  X59.4109  Y181.3760   
N7755  X56.9122  Y177.6934   
N7760  X44.6456  Y177.6802   
N7765  X32.3789  Y177.6670   
N7770  X30.6311  Y183.3595   
N7775 G0  Z0.1000 
N7780 G1  Z-1.4000  F100.00 
N7785  X28.1203  Y192.1391   F300.00 
N7790  X25.8799  Y201.2283   
N7795  X23.9171  Y210.5831   
N7800  X22.2386  Y220.1595   
N7805  X20.8516  Y229.9136   
N7810  X19.7630  Y239.8011   
N7815  X18.9798  Y249.7782   
N7820  X18.5088  Y259.8011   
N7825  X18.1485  Y271.3741   
N7830  X19.7617  Y271.1772   
N7835  X26.2361  Y271.1670   
N7840  X38.0792  Y271.5762   
N7845  X50.8711  Y272.2167   
N7850  X60.1923  Y272.9000   
N7855  X69.2031  Y274.0358   
N7860  X77.6739  Y275.4983   
N7865  X85.6341  Y277.2966   
N7870  X93.1128  Y279.4404   
N7875  X100.1395  Y281.9390   
N7880  X106.7432  Y284.8016   
N7885  X112.9532  Y288.0376   
N7890  X118.7991  Y291.6565   
N7895  X123.9544  Y295.2978   
N7900  X128.7313  Y299.1379   
N7905  X133.9416  Y303.8741   
N7910  X140.3972  Y310.2034   
N7915  X150.0308  Y319.8495   
N7920  X157.3403  Y312.7533   
N7925  X163.2748  Y307.1637   
N7930  X169.0671  Y302.0799   
N7935  X174.7798  Y297.4791   
N7940  X180.4748  Y293.3380   
N7945  X186.2144  Y289.6343   
N7950  X192.0611  Y286.3444   
N7955  X198.0766  Y283.4458   
N7960  X204.3231  Y280.9154   
N7965  X210.8631  Y278.7302   
N7970  X217.7588  Y276.8675   
N7975  X225.0721  Y275.3042   
N7980  X232.8653  Y274.0175   
N7985  X241.2005  Y272.9843   
N7990  X250.1401  Y272.1817   
N7995  X270.0808  Y271.1767   
N8000  X281.6857  Y270.8245   
N8005  X281.2998  Y259.9755   
N8010  X280.8195  Y249.7870   
N8015  X280.1144  Y240.0435   
N8020  X279.1739  Y230.6739   
N8025  X277.9878  Y221.6082   
N8030  X276.5457  Y212.7754   
N8035  X274.8371  Y204.1047   
N8040  X272.8516  Y195.5257   
N8045  X270.5793  Y186.9679   
N8050  X267.9537  Y177.6670   
N8055  X221.9858   
N8060  X176.0181   
N8065  Y180.1657   
N8070  Y182.6644   
N8075  X173.3805  Y182.6597   
N8080  X167.8800  Y182.3109   
N8085  X166.2837  Y182.0676   
N8090  X165.3027  Y181.6945   
N8095  X164.6524  Y181.0061   
N8100  X164.0476  Y179.8169   
N8105  X163.2696  Y178.4134   
N8110  X162.6175  Y177.7244   
N8115  X162.3979  Y177.6813   
N8120  X162.2807  Y177.8566   
N8125  X162.4483  Y178.9164   
N8130  X163.4465  Y181.4085   
N8135  X164.8926  Y183.9863   
N8140  X166.6945  Y186.5056   
N8145  X168.7607  Y188.8225   
N8150  X171.9242  Y191.9861   
N8155  X169.5410  Y196.7291   
N8160  X168.1347  Y199.4502   
N8165  X167.1546  Y200.9019   
N8170  X166.1702  Y201.5431   
N8175  X164.7509  Y201.8331   
N8180  X161.5857  Y201.8446   
N8185  X157.2424  Y201.3135   
N8190  X153.1475  Y200.7166   
N8195  X149.7908  Y200.4735   
N8200  X147.1005  Y200.5828   
N8205  X145.0057  Y201.0428   
N8210  X144.3046  Y201.2830   
N8215  X143.7984  Y201.6206   
N8220  X143.4784  Y202.3185   
N8225  X143.3358  Y203.6399   
N8230  X143.5486  Y209.2057   
N8235  X144.3676  Y220.4230   
N8240  X145.4711  Y236.5409   
N8245  X145.4781  Y237.9443   
N8250  X139.8830  Y237.5295   
N8255  X134.9895  Y236.9723   
N8260  X131.0815  Y236.2151   
N8265  X127.8751  Y235.3154   
N8270  X127.5148  Y226.0645   
N8275  X127.1227  Y199.8779   
N8280  X127.0909  Y182.9421   
N8285  X129.6213  Y182.9652   
N8290  X136.7239  Y183.0597   
N8295  X140.4546  Y183.2816   
N8300  X141.9558  Y183.7906   
N8305  X142.3699  Y184.7467   
N8310  X142.7936  Y188.8767   
N8315  X142.9922  Y190.6616   
N8320  X143.2830  Y191.2210   
N8325  X143.8054  Y191.6074   
N8330  X145.8566  Y192.0071   
N8335  X149.7696  Y192.1536   
N8340  X153.4013  Y192.1174   
N8345  X154.4864  Y191.9070   
N8350  X155.1493  Y191.4946   
N8355  X155.4386  Y190.8248   
N8360  X155.4031  Y189.8423   
N8365  X154.5525  Y186.7178   
N8370  X152.8749  Y180.0697   
N8375  X152.5005  Y178.3594   
N8380  X152.0766  Y177.7353   
N8385  X151.7298  Y178.2199   
N8390  X151.5861  Y179.8363   
N8395  Y182.0056   
N8400  X146.2715  Y182.4041   
N8405  X138.9471  Y182.5262   
N8410  X130.0248  Y182.0909   
N8415  X121.2885  Y181.2289   
N8420  X114.5217  Y180.0716   
N8425  X113.2723  Y179.7678   
N8430  Y188.6260   
N8435  X112.9068  Y203.4578   
N8440  X112.5413  Y209.4314   
N8445  X110.2692  Y209.0847   
N8450  X107.6873  Y208.3708   
N8455  X104.6605  Y207.0621   
N8460  X101.6823  Y205.4024   
N8465  X99.2467  Y203.6359   
N8470  X97.1594  Y201.8214   
N8475  X96.7988  Y189.7441   
N8480  X96.4380  Y177.6670   
N8485  X84.0231   
N8490  X71.6083   
N8495  X73.0723  Y180.5822   
N8500  X74.7505  Y183.5955   
N8505  X76.7183  Y186.5499   
N8510  X78.9509  Y189.4292   
N8515  X81.4240  Y192.2169   
N8520  X86.9929  Y197.4522   
N8525  X93.2290  Y202.1244   
N8530  X99.9353  Y206.1022   
N8535  X106.9158  Y209.2545   
N8540  X110.4474  Y210.4800   
N8545  X113.9740  Y211.4499   
N8550  X117.4708  Y212.1477   
N8555  X120.9133  Y212.5571   
N8560  X125.7659  Y212.9268   
N8565  X125.8160  Y218.6698   
N8570  X125.6948  Y223.1038   
N8575  X125.4958  Y224.2194   
N8580  X125.1978  Y224.6693   
N8585  X122.8556  Y224.6029   
N8590  X118.4909  Y223.8497   
N8595  X113.2960  Y222.6527   
N8600  X108.4636  Y221.2553   
N8605  X101.5811  Y218.5825   
N8610  X94.8664  Y215.2110   
N8615  X88.3428  Y211.1598   
N8620  X82.0337  Y206.4480   
N8625  X75.9625  Y201.0947   
N8630  X70.1529  Y195.1190   
N8635  X64.6278  Y188.5397   
N8640  X59.4109  Y181.3760   
N8645  X56.9122  Y177.6934   
N8650  X44.6456  Y177.6802   
N8655  X32.3789  Y177.6670   
N8660  X30.6311  Y183.3595   
N8665 G0  Z3.0000 
N8670 M5
N8675 M30

