N5 (File Name = ghostbusters on Friday, November 10, 2023)
N10 (Default Mill Post)
N15  G91.1
N20 G0  Z3.0000 
N25 M3 S4000 
N30  X45.6372  Y0.0254 
N35  Z0.1000 
N40 G1  Z-0.7000  F100.00 
N45  X43.2397  Y0.4300   F300.00 
N50  X40.9291  Y0.9215   
N55  X38.6882  Y1.5057   
N60  X36.5000  Y2.1883   
N65  X34.3475  Y2.9751   
N70  X32.2135  Y3.8719   
N75  X30.0812  Y4.8844   
N80  X27.9334  Y6.0185   
N85  X25.9519  Y7.2008   
N90  X24.0363  Y8.5141   
N95  X22.1917  Y9.9509   
N100  X20.4231  Y11.5040   
N105  X18.7353  Y13.1662   
N110  X17.1334  Y14.9303   
N115  X15.6224  Y16.7890   
N120  X14.2071  Y18.7352   
N125  X12.8927  Y20.7615   
N130  X11.6840  Y22.8607   
N135  X10.5860  Y25.0257   
N140  X9.6038  Y27.2490   
N145  X8.7422  Y29.5236   
N150  X8.0063  Y31.8422   
N155  X7.4010  Y34.1975   
N160  X6.9313  Y36.5824   
N165  X6.5930  Y38.6083   
N170  X5.8932  Y38.7514   
N175  X5.3372  Y38.9577   
N180  X4.8858  Y39.3035   
N185  X4.5829  Y39.7432   
N190  X4.4722  Y40.2312   
N195  X4.6277  Y40.7671   
N200  X5.0110  Y41.5091   
N205  X5.4974  Y42.2452   
N210  X5.9621  Y42.7635   
N215  X6.1255  Y42.9697   
N220  X6.2300  Y43.3005   
N225  X6.3018  Y44.5423   
N230  Y46.0420   
N235  X3.8115  Y46.0427   
N240  X1.6510  Y46.1159   
N245  X1.0920  Y46.2384   
N250  X0.6607  Y46.4463   
N255  X0.3300  Y46.6769   
N260  X0.1282  Y46.9066   
N265  X0.0274  Y47.1815   
N270  X0.0000  Y47.5480   
N275  X0.0808  Y48.1005   
N280  X0.3212  Y48.6073   
N285  X0.7175  Y49.0664   
N290  X1.2665  Y49.4756   
N295  X1.9645  Y49.8327   
N300  X2.8082  Y50.1356   
N305  X4.9191  Y50.5708   
N310  X6.7885  Y50.8192   
N315  X7.2374  Y52.7492   
N320  X7.5243  Y53.9982   
N325  X7.5597  Y54.4139   
N330  X7.4926  Y54.7768   
N335  X7.3002  Y55.1519   
N340  X6.9599  Y55.6039   
N345  X5.7438  Y56.9984   
N350  X4.6211  Y58.4737   
N355  X4.2394  Y59.1440   
N360  X3.9801  Y59.7621   
N365  X3.8450  Y60.3223   
N370  X3.8359  Y60.8191   
N375  X3.9547  Y61.2469   
N380  X4.2033  Y61.6001   
N385  X4.6996  Y61.8169   
N390  X5.5247  Y61.8135   
N395  X6.6649  Y61.5915   
N400  X8.1062  Y61.1527   
N405  X9.3493  Y60.7894   
N410  X9.6308  Y60.7948   
N415  X9.7803  Y60.9114   
N420  X9.9577  Y61.3434   
N425  X10.3012  Y62.1976   
N430  X11.1371  Y63.8551   
N435  X13.1874  Y67.4884   
N440  X14.7167  Y69.7512   
N445  X16.4183  Y71.9358   
N450  X18.2786  Y74.0292   
N455  X20.2836  Y76.0188   
N460  X22.4196  Y77.8915   
N465  X24.6729  Y79.6347   
N470  X27.0297  Y81.2353   
N475  X29.4761  Y82.6806   
N480  X31.6200  Y83.7678   
N485  X33.8649  Y84.7357   
N490  X36.2006  Y85.5818   
N495  X38.6172  Y86.3033   
N500  X41.1044  Y86.8974   
N505  X43.6523  Y87.3615   
N510  X46.2508  Y87.6929   
N515  X48.8897  Y87.8888   
N520  X51.7357  Y88.0253   
N525  X50.9226  Y88.4628   
N530  X50.1806  Y88.9562   
N535  X49.4813  Y89.5894   
N540  X48.8590  Y90.3055   
N545  X48.3478  Y91.0477   
N550  X47.9822  Y91.7590   
N555  X47.7963  Y92.3828   
N560  X47.8246  Y92.8620   
N565  X47.9298  Y93.0296   
N570  X48.1014  Y93.1398   
N575  X48.6106  Y93.1301   
N580  X49.3718  Y92.9292   
N585  X50.1362  Y92.7168   
N590  X50.8901  Y92.6112   
N595  X51.5290  Y92.6197   
N600  X51.9487  Y92.7495   
N605  X52.7032  Y93.8366   
N610  X53.5549  Y95.0005   
N615  X54.5791  Y95.8908   
N620  X55.7050  Y96.4594   
N625  X56.2841  Y96.6081   
N630  X56.8621  Y96.6585   
N635  X57.7803  Y96.5811   
N640  X58.6588  Y96.3167   
N645  X59.6243  Y95.8124   
N650  X60.8033  Y95.0155   
N655  X62.4119  Y93.9080   
N660  X63.8221  Y93.0608   
N665  X65.0675  Y92.4555   
N670  X66.1817  Y92.0738   
N675  X67.5043  Y91.6244   
N680  X68.7735  Y90.9816   
N685  X69.9779  Y90.1523   
N690  X71.1057  Y89.1433   
N695  X72.2031  Y87.9299   
N700  X73.0115  Y86.7060   
N705  X73.6951  Y85.1672   
N710  X74.4183  Y83.0098   
N715  X75.3074  Y80.1469   
N720  X76.8362  Y79.0014   
N725  X78.6250  Y77.5057   
N730  X80.7791  Y75.5181   
N735  X83.5387  Y72.6543   
N740  X84.7391  Y71.2422   
N745  X85.8433  Y69.8114   
N750  X86.8689  Y68.3380   
N755  X87.8333  Y66.7980   
N760  X89.6488  Y63.4228   
N765  X90.6068  Y61.3578   
N770  X91.4445  Y59.3096   
N775  X92.1672  Y57.2590   
N780  X92.7799  Y55.1867   
N785  X93.2879  Y53.0735   
N790  X93.6961  Y50.9001   
N795  X94.0099  Y48.6475   
N800  X94.2343  Y46.2961   
N805  X94.4491  Y44.4157   
N810  X96.2016  Y45.1107   
N815  X99.4401  Y46.3911   
N820  X102.8232  Y47.6370   
N825  X105.7052  Y48.6189   
N830  X107.4406  Y49.1071   
N835  X108.2220  Y49.2028   
N840  X108.9195  Y49.2059   
N845  X109.5269  Y49.1193   
N850  X110.0379  Y48.9460   
N855  X110.4463  Y48.6889   
N860  X110.7458  Y48.3509   
N865  X110.9301  Y47.9349   
N870  X110.9929  Y47.4439   
N875  X110.8200  Y46.8672   
N880  X110.2936  Y46.2441   
N885  X109.4014  Y45.5634   
N890  X108.1318  Y44.8141   
N895  X106.9939  Y44.1213   
N900  X106.5206  Y43.6731   
N905  X106.5802  Y43.4798   
N910  X106.7233  Y43.3993   
N915  X107.1777  Y43.1489   
N920  X107.9024  Y42.5053   
N925  X108.7325  Y41.6298   
N930  X109.5029  Y40.6834   
N935  X110.1998  Y39.5746   
N940  X110.3418  Y39.1381   
N945  X110.3830  Y38.6971   
N950  X110.3583  Y38.3004   
N955  X110.2682  Y37.9953   
N960  X110.0885  Y37.7750   
N965  X109.7953  Y37.6321   
N970  X108.7722  Y37.5503   
N975  X107.0066  Y37.6924   
N980  X105.2439  Y37.8246   
N985  X104.4594  Y37.7604   
N990  X104.4578  Y37.6226   
N995  X104.6080  Y37.3886   
N1000  X105.2997  Y36.7117   
N1005  X105.9718  Y36.0720   
N1010  X106.4979  Y35.4203   
N1015  X106.8731  Y34.7773   
N1020  X107.0926  Y34.1639   
N1025  X107.1513  Y33.6008   
N1030  X107.0446  Y33.1088   
N1035  X106.7672  Y32.7085   
N1040  X106.3145  Y32.4208   
N1045  X105.7968  Y32.2820   
N1050  X105.2042  Y32.3212   
N1055  X104.3966  Y32.5669   
N1060  X103.2340  Y33.0477   
N1065  X102.1151  Y33.4672   
N1070  X101.3283  Y33.6417   
N1075  X100.2923  Y33.4035   
N1080  X98.5744  Y32.8309   
N1085  X96.4947  Y32.1669   
N1090  X94.5887  Y31.7092   
N1095  X93.2612  Y31.4162   
N1100  X92.5725  Y31.1479   
N1105  X92.3020  Y30.6426   
N1110  X91.9801  Y29.7793   
N1115  X91.3118  Y27.9507   
N1120  X90.4170  Y25.8534   
N1125  X89.4180  Y23.7580   
N1130  X88.4370  Y21.9351   
N1135  X87.1373  Y19.8337   
N1140  X85.7453  Y17.8253   
N1145  X84.2636  Y15.9119   
N1150  X82.6945  Y14.0952   
N1155  X81.0406  Y12.3769   
N1160  X79.3044  Y10.7587   
N1165  X77.4883  Y9.2425   
N1170  X75.5948  Y7.8299   
N1175  X73.6264  Y6.5227   
N1180  X71.5857  Y5.3227   
N1185  X69.4751  Y4.2315   
N1190  X67.2970  Y3.2511   
N1195  X65.0540  Y2.3830   
N1200  X62.7486  Y1.6292   
N1205  X60.3832  Y0.9913   
N1210  X57.9603  Y0.4710   
N1215  X56.6912  Y0.2718   
N1220  X55.2534  Y0.1364   
N1225  X51.0242  Y0.0000   
N1230  X45.6372  Y0.0254   
N1235 G0  Z0.1000 
N1240 G1  Z-1.4000  F100.00 
N1245  X43.2397  Y0.4300   F300.00 
N1250  X40.9291  Y0.9215   
N1255  X38.6882  Y1.5057   
N1260  X36.5000  Y2.1883   
N1265  X34.3475  Y2.9751   
N1270  X32.2135  Y3.8719   
N1275  X30.0812  Y4.8844   
N1280  X27.9334  Y6.0185   
N1285  X25.9519  Y7.2008   
N1290  X24.0363  Y8.5141   
N1295  X22.1917  Y9.9509   
N1300  X20.4231  Y11.5040   
N1305  X18.7353  Y13.1662   
N1310  X17.1334  Y14.9303   
N1315  X15.6224  Y16.7890   
N1320  X14.2071  Y18.7352   
N1325  X12.8927  Y20.7615   
N1330  X11.6840  Y22.8607   
N1335  X10.5860  Y25.0257   
N1340  X9.6038  Y27.2490   
N1345  X8.7422  Y29.5236   
N1350  X8.0063  Y31.8422   
N1355  X7.4010  Y34.1975   
N1360  X6.9313  Y36.5824   
N1365  X6.5930  Y38.6083   
N1370  X5.8932  Y38.7514   
N1375  X5.3372  Y38.9577   
N1380  X4.8858  Y39.3035   
N1385  X4.5829  Y39.7432   
N1390  X4.4722  Y40.2312   
N1395  X4.6277  Y40.7671   
N1400  X5.0110  Y41.5091   
N1405  X5.4974  Y42.2452   
N1410  X5.9621  Y42.7635   
N1415  X6.1255  Y42.9697   
N1420  X6.2300  Y43.3005   
N1425  X6.3018  Y44.5423   
N1430  Y46.0420   
N1435  X3.8115  Y46.0427   
N1440  X1.6510  Y46.1159   
N1445  X1.0920  Y46.2384   
N1450  X0.6607  Y46.4463   
N1455  X0.3300  Y46.6769   
N1460  X0.1282  Y46.9066   
N1465  X0.0274  Y47.1815   
N1470  X0.0000  Y47.5480   
N1475  X0.0808  Y48.1005   
N1480  X0.3212  Y48.6073   
N1485  X0.7175  Y49.0664   
N1490  X1.2665  Y49.4756   
N1495  X1.9645  Y49.8327   
N1500  X2.8082  Y50.1356   
N1505  X4.9191  Y50.5708   
N1510  X6.7885  Y50.8192   
N1515  X7.2374  Y52.7492   
N1520  X7.5243  Y53.9982   
N1525  X7.5597  Y54.4139   
N1530  X7.4926  Y54.7768   
N1535  X7.3002  Y55.1519   
N1540  X6.9599  Y55.6039   
N1545  X5.7438  Y56.9984   
N1550  X4.6211  Y58.4737   
N1555  X4.2394  Y59.1440   
N1560  X3.9801  Y59.7621   
N1565  X3.8450  Y60.3223   
N1570  X3.8359  Y60.8191   
N1575  X3.9547  Y61.2469   
N1580  X4.2033  Y61.6001   
N1585  X4.6996  Y61.8169   
N1590  X5.5247  Y61.8135   
N1595  X6.6649  Y61.5915   
N1600  X8.1062  Y61.1527   
N1605  X9.3493  Y60.7894   
N1610  X9.6308  Y60.7948   
N1615  X9.7803  Y60.9114   
N1620  X9.9577  Y61.3434   
N1625  X10.3012  Y62.1976   
N1630  X11.1371  Y63.8551   
N1635  X13.1874  Y67.4884   
N1640  X14.7167  Y69.7512   
N1645  X16.4183  Y71.9358   
N1650  X18.2786  Y74.0292   
N1655  X20.2836  Y76.0188   
N1660  X22.4196  Y77.8915   
N1665  X24.6729  Y79.6347   
N1670  X27.0297  Y81.2353   
N1675  X29.4761  Y82.6806   
N1680  X31.6200  Y83.7678   
N1685  X33.8649  Y84.7357   
N1690  X36.2006  Y85.5818   
N1695  X38.6172  Y86.3033   
N1700  X41.1044  Y86.8974   
N1705  X43.6523  Y87.3615   
N1710  X46.2508  Y87.6929   
N1715  X48.8897  Y87.8888   
N1720  X51.7357  Y88.0253   
N1725  X50.9226  Y88.4628   
N1730  X50.1806  Y88.9562   
N1735  X49.4813  Y89.5894   
N1740  X48.8590  Y90.3055   
N1745  X48.3478  Y91.0477   
N1750  X47.9822  Y91.7590   
N1755  X47.7963  Y92.3828   
N1760  X47.8246  Y92.8620   
N1765  X47.9298  Y93.0296   
N1770  X48.1014  Y93.1398   
N1775  X48.6106  Y93.1301   
N1780  X49.3718  Y92.9292   
N1785  X50.1362  Y92.7168   
N1790  X50.8901  Y92.6112   
N1795  X51.5290  Y92.6197   
N1800  X51.9487  Y92.7495   
N1805  X52.7032  Y93.8366   
N1810  X53.5549  Y95.0005   
N1815  X54.5791  Y95.8908   
N1820  X55.7050  Y96.4594   
N1825  X56.2841  Y96.6081   
N1830  X56.8621  Y96.6585   
N1835  X57.7803  Y96.5811   
N1840  X58.6588  Y96.3167   
N1845  X59.6243  Y95.8124   
N1850  X60.8033  Y95.0155   
N1855  X62.4119  Y93.9080   
N1860  X63.8221  Y93.0608   
N1865  X65.0675  Y92.4555   
N1870  X66.1817  Y92.0738   
N1875  X67.5043  Y91.6244   
N1880  X68.7735  Y90.9816   
N1885  X69.9779  Y90.1523   
N1890  X71.1057  Y89.1433   
N1895  X72.2031  Y87.9299   
N1900  X73.0115  Y86.7060   
N1905  X73.6951  Y85.1672   
N1910  X74.4183  Y83.0098   
N1915  X75.3074  Y80.1469   
N1920  X76.8362  Y79.0014   
N1925  X78.6250  Y77.5057   
N1930  X80.7791  Y75.5181   
N1935  X83.5387  Y72.6543   
N1940  X84.7391  Y71.2422   
N1945  X85.8433  Y69.8114   
N1950  X86.8689  Y68.3380   
N1955  X87.8333  Y66.7980   
N1960  X89.6488  Y63.4228   
N1965  X90.6068  Y61.3578   
N1970  X91.4445  Y59.3096   
N1975  X92.1672  Y57.2590   
N1980  X92.7799  Y55.1867   
N1985  X93.2879  Y53.0735   
N1990  X93.6961  Y50.9001   
N1995  X94.0099  Y48.6475   
N2000  X94.2343  Y46.2961   
N2005  X94.4491  Y44.4157   
N2010  X96.2016  Y45.1107   
N2015  X99.4401  Y46.3911   
N2020  X102.8232  Y47.6370   
N2025  X105.7052  Y48.6189   
N2030  X107.4406  Y49.1071   
N2035  X108.2220  Y49.2028   
N2040  X108.9195  Y49.2059   
N2045  X109.5269  Y49.1193   
N2050  X110.0379  Y48.9460   
N2055  X110.4463  Y48.6889   
N2060  X110.7458  Y48.3509   
N2065  X110.9301  Y47.9349   
N2070  X110.9929  Y47.4439   
N2075  X110.8200  Y46.8672   
N2080  X110.2936  Y46.2441   
N2085  X109.4014  Y45.5634   
N2090  X108.1318  Y44.8141   
N2095  X106.9939  Y44.1213   
N2100  X106.5206  Y43.6731   
N2105  X106.5802  Y43.4798   
N2110  X106.7233  Y43.3993   
N2115  X107.1777  Y43.1489   
N2120  X107.9024  Y42.5053   
N2125  X108.7325  Y41.6298   
N2130  X109.5029  Y40.6834   
N2135  X110.1998  Y39.5746   
N2140  X110.3418  Y39.1381   
N2145  X110.3830  Y38.6971   
N2150  X110.3583  Y38.3004   
N2155  X110.2682  Y37.9953   
N2160  X110.0885  Y37.7750   
N2165  X109.7953  Y37.6321   
N2170  X108.7722  Y37.5503   
N2175  X107.0066  Y37.6924   
N2180  X105.2439  Y37.8246   
N2185  X104.4594  Y37.7604   
N2190  X104.4578  Y37.6226   
N2195  X104.6080  Y37.3886   
N2200  X105.2997  Y36.7117   
N2205  X105.9718  Y36.0720   
N2210  X106.4979  Y35.4203   
N2215  X106.8731  Y34.7773   
N2220  X107.0926  Y34.1639   
N2225  X107.1513  Y33.6008   
N2230  X107.0446  Y33.1088   
N2235  X106.7672  Y32.7085   
N2240  X106.3145  Y32.4208   
N2245  X105.7968  Y32.2820   
N2250  X105.2042  Y32.3212   
N2255  X104.3966  Y32.5669   
N2260  X103.2340  Y33.0477   
N2265  X102.1151  Y33.4672   
N2270  X101.3283  Y33.6417   
N2275  X100.2923  Y33.4035   
N2280  X98.5744  Y32.8309   
N2285  X96.4947  Y32.1669   
N2290  X94.5887  Y31.7092   
N2295  X93.2612  Y31.4162   
N2300  X92.5725  Y31.1479   
N2305  X92.3020  Y30.6426   
N2310  X91.9801  Y29.7793   
N2315  X91.3118  Y27.9507   
N2320  X90.4170  Y25.8534   
N2325  X89.4180  Y23.7580   
N2330  X88.4370  Y21.9351   
N2335  X87.1373  Y19.8337   
N2340  X85.7453  Y17.8253   
N2345  X84.2636  Y15.9119   
N2350  X82.6945  Y14.0952   
N2355  X81.0406  Y12.3769   
N2360  X79.3044  Y10.7587   
N2365  X77.4883  Y9.2425   
N2370  X75.5948  Y7.8299   
N2375  X73.6264  Y6.5227   
N2380  X71.5857  Y5.3227   
N2385  X69.4751  Y4.2315   
N2390  X67.2970  Y3.2511   
N2395  X65.0540  Y2.3830   
N2400  X62.7486  Y1.6292   
N2405  X60.3832  Y0.9913   
N2410  X57.9603  Y0.4710   
N2415  X56.6912  Y0.2718   
N2420  X55.2534  Y0.1364   
N2425  X51.0242  Y0.0000   
N2430  X45.6372  Y0.0254   
N2435 G0  Z3.0000 
N2440  X52.6467  Y14.7430 
N2445  Z0.1000 
N2450 G1  Z-0.7000  F100.00 
N2455  X50.2111  Y14.5632   F300.00 
N2460  X48.1782  Y14.7524   
N2465  X46.4027  Y14.9568   
N2470  X44.6522  Y15.2676   
N2475  X42.9309  Y15.6821   
N2480  X41.2431  Y16.1976   
N2485  X39.5932  Y16.8115   
N2490  X37.9853  Y17.5210   
N2495  X36.4238  Y18.3233   
N2500  X34.9128  Y19.2160   
N2505  X33.4567  Y20.1961   
N2510  X32.0598  Y21.2611   
N2515  X30.7263  Y22.4082   
N2520  X29.4605  Y23.6348   
N2525  X28.2667  Y24.9381   
N2530  X27.1491  Y26.3155   
N2535  X26.1120  Y27.7642   
N2540  X25.1597  Y29.2815   
N2545  X23.8802  Y31.8276   
N2550  X22.7453  Y34.7311   
N2555  X21.9051  Y37.5565   
N2560  X21.6425  Y38.8038   
N2565  X21.5099  Y39.8682   
N2570  X21.4464  Y40.8574   
N2575  X22.4494  Y40.9730   
N2580  X23.0145  Y41.0124   
N2585  X23.4698  Y40.9558   
N2590  X23.9422  Y40.7702   
N2595  X24.5584  Y40.4225   
N2600  X25.7576  Y39.8020   
N2605  X27.0517  Y39.3027   
N2610  X28.3053  Y38.9688   
N2615  X29.3827  Y38.8447   
N2620  X30.3625  Y38.9577   
N2625  X31.1885  Y39.2919   
N2630  X31.8499  Y39.8255   
N2635  X32.3359  Y40.5367   
N2640  X32.6355  Y41.4034   
N2645  X32.7379  Y42.4040   
N2650  X32.6321  Y43.5165   
N2655  X32.3074  Y44.7191   
N2660  X31.8391  Y46.0454   
N2665  X32.5036  Y46.7311   
N2670  X33.1681  Y47.4166   
N2675  X44.4847  Y39.0736   
N2680  X58.7411  Y28.5338   
N2685  X60.4591  Y27.1942   
N2690  X60.6579  Y26.9860   
N2695  X60.6802  Y26.8872   
N2700  X60.5253  Y26.6779   
N2705  X59.9536  Y26.4710   
N2710  X56.9194  Y25.8954   
N2715  X54.4119  Y25.6137   
N2720  X51.4682  Y25.4795   
N2725  X48.6073  Y25.5027   
N2730  X46.3487  Y25.6933   
N2735  X43.8932  Y26.0518   
N2740  X43.6485  Y26.0457   
N2745  X43.8334  Y25.9380   
N2750  X45.2679  Y25.4903   
N2755  X47.3525  Y25.0622   
N2760  X49.6786  Y24.7246   
N2765  X51.8373  Y24.5485   
N2770  X53.7507  Y24.5377   
N2775  X55.8769  Y24.6148   
N2780  X57.8189  Y24.7581   
N2785  X59.1794  Y24.9462   
N2790  X59.2991  Y24.9059   
N2795  X59.4086  Y24.7354   
N2800  X59.5852  Y24.0310   
N2805  X59.8641  Y22.9986   
N2810  X60.4077  Y21.9508   
N2815  X61.2544  Y20.8278   
N2820  X62.4422  Y19.5698   
N2825  X64.0424  Y17.9998   
N2830  X63.0728  Y17.5092   
N2835  X60.8375  Y16.5600   
N2840  X58.2163  Y15.7458   
N2845  X55.4168  Y15.1218   
N2850  X52.6467  Y14.7430   
N2855 G0  Z0.1000 
N2860 G1  Z-1.4000  F100.00 
N2865  X50.2111  Y14.5632   F300.00 
N2870  X48.1782  Y14.7524   
N2875  X46.4027  Y14.9568   
N2880  X44.6522  Y15.2676   
N2885  X42.9309  Y15.6821   
N2890  X41.2431  Y16.1976   
N2895  X39.5932  Y16.8115   
N2900  X37.9853  Y17.5210   
N2905  X36.4238  Y18.3233   
N2910  X34.9128  Y19.2160   
N2915  X33.4567  Y20.1961   
N2920  X32.0598  Y21.2611   
N2925  X30.7263  Y22.4082   
N2930  X29.4605  Y23.6348   
N2935  X28.2667  Y24.9381   
N2940  X27.1491  Y26.3155   
N2945  X26.1120  Y27.7642   
N2950  X25.1597  Y29.2815   
N2955  X23.8802  Y31.8276   
N2960  X22.7453  Y34.7311   
N2965  X21.9051  Y37.5565   
N2970  X21.6425  Y38.8038   
N2975  X21.5099  Y39.8682   
N2980  X21.4464  Y40.8574   
N2985  X22.4494  Y40.9730   
N2990  X23.0145  Y41.0124   
N2995  X23.4698  Y40.9558   
N3000  X23.9422  Y40.7702   
N3005  X24.5584  Y40.4225   
N3010  X25.7576  Y39.8020   
N3015  X27.0517  Y39.3027   
N3020  X28.3053  Y38.9688   
N3025  X29.3827  Y38.8447   
N3030  X30.3625  Y38.9577   
N3035  X31.1885  Y39.2919   
N3040  X31.8499  Y39.8255   
N3045  X32.3359  Y40.5367   
N3050  X32.6355  Y41.4034   
N3055  X32.7379  Y42.4040   
N3060  X32.6321  Y43.5165   
N3065  X32.3074  Y44.7191   
N3070  X31.8391  Y46.0454   
N3075  X32.5036  Y46.7311   
N3080  X33.1681  Y47.4166   
N3085  X44.4847  Y39.0736   
N3090  X58.7411  Y28.5338   
N3095  X60.4591  Y27.1942   
N3100  X60.6579  Y26.9860   
N3105  X60.6802  Y26.8872   
N3110  X60.5253  Y26.6779   
N3115  X59.9536  Y26.4710   
N3120  X56.9194  Y25.8954   
N3125  X54.4119  Y25.6137   
N3130  X51.4682  Y25.4795   
N3135  X48.6073  Y25.5027   
N3140  X46.3487  Y25.6933   
N3145  X43.8932  Y26.0518   
N3150  X43.6485  Y26.0457   
N3155  X43.8334  Y25.9380   
N3160  X45.2679  Y25.4903   
N3165  X47.3525  Y25.0622   
N3170  X49.6786  Y24.7246   
N3175  X51.8373  Y24.5485   
N3180  X53.7507  Y24.5377   
N3185  X55.8769  Y24.6148   
N3190  X57.8189  Y24.7581   
N3195  X59.1794  Y24.9462   
N3200  X59.2991  Y24.9059   
N3205  X59.4086  Y24.7354   
N3210  X59.5852  Y24.0310   
N3215  X59.8641  Y22.9986   
N3220  X60.4077  Y21.9508   
N3225  X61.2544  Y20.8278   
N3230  X62.4422  Y19.5698   
N3235  X64.0424  Y17.9998   
N3240  X63.0728  Y17.5092   
N3245  X60.8375  Y16.5600   
N3250  X58.2163  Y15.7458   
N3255  X55.4168  Y15.1218   
N3260  X52.6467  Y14.7430   
N3265 G0  Z3.0000 
N3270  X67.3451  Y19.9462 
N3275  Z0.1000 
N3280 G1  Z-0.7000  F100.00 
N3285  X66.2716  Y19.2812   F300.00 
N3290  X65.6280  Y19.0048   
N3295  X65.0932  Y19.2315   
N3300  X64.2730  Y19.8198   
N3305  X63.3386  Y20.6331   
N3310  X62.4607  Y21.5348   
N3315  X61.8374  Y22.3022   
N3320  X61.3669  Y23.0105   
N3325  X61.0505  Y23.6520   
N3330  X60.8892  Y24.2191   
N3335  X60.8844  Y24.7040   
N3340  X61.0372  Y25.0991   
N3345  X61.3489  Y25.3967   
N3350  X61.8207  Y25.5891   
N3355  X62.2853  Y25.6500   
N3360  X62.8204  Y25.4659   
N3365  X63.7186  Y24.8794   
N3370  X65.2724  Y23.7333   
N3375  X68.3615  Y21.2926   
N3380  X68.5421  Y21.0449   
N3385  X68.4921  Y20.8164   
N3390  X68.1227  Y20.4895   
N3395  X67.3451  Y19.9462   
N3400 G0  Z0.1000 
N3405 G1  Z-1.4000  F100.00 
N3410  X66.2716  Y19.2812   F300.00 
N3415  X65.6280  Y19.0048   
N3420  X65.0932  Y19.2315   
N3425  X64.2730  Y19.8198   
N3430  X63.3386  Y20.6331   
N3435  X62.4607  Y21.5348   
N3440  X61.8374  Y22.3022   
N3445  X61.3669  Y23.0105   
N3450  X61.0505  Y23.6520   
N3455  X60.8892  Y24.2191   
N3460  X60.8844  Y24.7040   
N3465  X61.0372  Y25.0991   
N3470  X61.3489  Y25.3967   
N3475  X61.8207  Y25.5891   
N3480  X62.2853  Y25.6500   
N3485  X62.8204  Y25.4659   
N3490  X63.7186  Y24.8794   
N3495  X65.2724  Y23.7333   
N3500  X68.3615  Y21.2926   
N3505  X68.5421  Y21.0449   
N3510  X68.4921  Y20.8164   
N3515  X68.1227  Y20.4895   
N3520  X67.3451  Y19.9462   
N3525 G0  Z3.0000 
N3530  X78.3167  Y34.6073 
N3535  Z0.1000 
N3540 G1  Z-0.7000  F100.00 
N3545  X77.9119  Y33.4946   F300.00 
N3550  X77.6590  Y33.0319   
N3555  X75.4744  Y34.5371   
N3560  X73.3131  Y36.2368   
N3565  X73.3249  Y36.4132   
N3570  X73.4805  Y36.6870   
N3575  X74.0851  Y37.3882   
N3580  X74.8503  Y38.0626   
N3585  X75.4993  Y38.4323   
N3590  X75.8555  Y38.4694   
N3595  X76.2784  Y38.3949   
N3600  X77.5952  Y37.8342   
N3605  X78.8283  Y37.1374   
N3610  X78.9911  Y36.8997   
N3615  X78.9658  Y36.6357   
N3620  X78.3167  Y34.6073   
N3625 G0  Z0.1000 
N3630 G1  Z-1.4000  F100.00 
N3635  X77.9119  Y33.4946   F300.00 
N3640  X77.6590  Y33.0319   
N3645  X75.4744  Y34.5371   
N3650  X73.3131  Y36.2368   
N3655  X73.3249  Y36.4132   
N3660  X73.4805  Y36.6870   
N3665  X74.0851  Y37.3882   
N3670  X74.8503  Y38.0626   
N3675  X75.4993  Y38.4323   
N3680  X75.8555  Y38.4694   
N3685  X76.2784  Y38.3949   
N3690  X77.5952  Y37.8342   
N3695  X78.8283  Y37.1374   
N3700  X78.9911  Y36.8997   
N3705  X78.9658  Y36.6357   
N3710  X78.3167  Y34.6073   
N3715 G0  Z3.0000 
N3720  X87.8093  Y28.7629 
N3725  Z0.1000 
N3730 G1  Z-0.7000  F100.00 
N3735  X87.3778  Y28.6667   F300.00 
N3740  X87.0772  Y28.6578   
N3745  X86.7559  Y28.7836   
N3750  X86.5000  Y28.9939   
N3755  X86.3955  Y29.2387   
N3760  X86.6936  Y29.8889   
N3765  X87.4102  Y31.0978   
N3770  X88.0997  Y32.2895   
N3775  X88.4860  Y33.2263   
N3780  X88.5900  Y33.9802   
N3785  X88.4324  Y34.6229   
N3790  X88.2824  Y34.9106   
N3795  X88.1635  Y34.9286   
N3800  X87.7897  Y33.8958   
N3805  X87.5072  Y33.1129   
N3810  X87.2220  Y32.7155   
N3815  X86.8561  Y32.6478   
N3820  X86.3313  Y32.8540   
N3825  X84.7858  Y33.9119   
N3830  X82.4315  Y35.7617   
N3835  X80.5461  Y37.1969   
N3840  X78.6571  Y38.4247   
N3845  X76.9120  Y39.3572   
N3850  X75.4590  Y39.9064   
N3855  X72.9045  Y40.4315   
N3860  X72.2506  Y40.4754   
N3865  X72.1965  Y40.4269   
N3870  X72.3690  Y40.3253   
N3875  X73.8664  Y39.6727   
N3880  X74.6151  Y39.2816   
N3885  X74.6466  Y39.1570   
N3890  X74.4946  Y39.0337   
N3895  X73.0469  Y37.9582   
N3900  X71.9603  Y37.0911   
N3905  X60.0184  Y45.7686   
N3910  X41.0911  Y59.5260   
N3915  X34.1055  Y64.6059   
N3920  X34.5860  Y64.9839   
N3925  X35.6532  Y65.6422   
N3930  X37.2336  Y66.4193   
N3935  X38.9754  Y67.1548   
N3940  X40.5270  Y67.6889   
N3945  X42.0023  Y68.0031   
N3950  X43.5981  Y68.1696   
N3955  X45.1392  Y68.1787   
N3960  X46.4503  Y68.0203   
N3965  X46.7919  Y67.9262   
N3970  X46.9657  Y67.7726   
N3975  X47.0169  Y67.4678   
N3980  X46.9905  Y66.9202   
N3985  X46.9858  Y66.0634   
N3990  X47.0913  Y65.1955   
N3995  X47.3031  Y64.3250   
N4000  X47.6179  Y63.4607   
N4005  X48.0317  Y62.6113   
N4010  X48.5409  Y61.7852   
N4015  X49.1419  Y60.9914   
N4020  X49.8309  Y60.2383   
N4025  X50.9126  Y59.2229   
N4030  X51.6618  Y58.6250   
N4035  X51.8539  Y58.5211   
N4040  X51.8937  Y58.5678   
N4045  X51.4238  Y59.1747   
N4050  X50.7398  Y60.0376   
N4055  X50.0039  Y61.1427   
N4060  X49.2821  Y62.3835   
N4065  X48.6407  Y63.6537   
N4070  X48.3620  Y64.3203   
N4075  X48.1934  Y64.9285   
N4080  X48.0880  Y66.4720   
N4085  X48.1973  Y67.8841   
N4090  X48.5794  Y69.1452   
N4095  X49.3160  Y70.4419   
N4100  X50.4887  Y71.9607   
N4105  X51.9376  Y73.8422   
N4110  X52.4492  Y74.6817   
N4115  X52.8456  Y75.5199   
N4120  X53.1469  Y76.4060   
N4125  X53.3731  Y77.3899   
N4130  X53.6803  Y79.8484   
N4135  X54.0335  Y82.5665   
N4140  X54.5855  Y84.9355   
N4145  X55.3251  Y86.9182   
N4150  X55.7619  Y87.7531   
N4155  X56.2415  Y88.4775   
N4160  X56.5579  Y88.9448   
N4165  X56.5734  Y89.1063   
N4170  X55.6807  Y88.5133   
N4175  X54.8917  Y87.8883   
N4180  X53.4763  Y88.3351   
N4185  X52.2278  Y88.8145   
N4190  X51.1327  Y89.4132   
N4195  X50.2043  Y90.1226   
N4200  X49.4559  Y90.9343   
N4205  X49.0648  Y91.5261   
N4210  X48.9159  Y91.9304   
N4215  X49.0129  Y92.1062   
N4220  X49.3595  Y92.0128   
N4225  X50.6824  Y91.7093   
N4230  X51.5873  Y91.6881   
N4235  X52.2973  Y91.9289   
N4240  X52.8992  Y92.4842   
N4245  X53.4800  Y93.4071   
N4250  X54.0232  Y94.3225   
N4255  X54.5712  Y95.0418   
N4260  X55.1191  Y95.5596   
N4265  X55.6621  Y95.8704   
N4270  X56.3622  Y96.0231   
N4275  X57.1931  Y96.0305   
N4280  X58.0454  Y95.9005   
N4285  X58.8097  Y95.6411   
N4290  X59.5469  Y95.2248   
N4295  X60.3766  Y94.6495   
N4300  X61.9870  Y93.3217   
N4305  X62.9876  Y92.2567   
N4310  X63.0550  Y92.0098   
N4315  X62.7248  Y92.0531   
N4320  X62.4627  Y92.0681   
N4325  X62.1863  Y91.9684   
N4330  X62.1251  Y91.8889   
N4335  X62.2266  Y91.8315   
N4340  X62.9163  Y91.7828   
N4345  X64.2392  Y91.7097   
N4350  X65.4891  Y91.5008   
N4355  X66.6691  Y91.1546   
N4360  X67.7820  Y90.6695   
N4365  X68.8310  Y90.0440   
N4370  X69.8191  Y89.2766   
N4375  X70.7492  Y88.3656   
N4380  X71.6244  Y87.3096   
N4385  X72.4167  Y86.0305   
N4390  X72.9716  Y84.6191   
N4395  X74.1779  Y80.9179   
N4400  X75.4653  Y77.7591   
N4405  X76.8794  Y75.0435   
N4410  X78.4659  Y72.6721   
N4415  X80.0134  Y70.4415   
N4420  X80.5441  Y69.4903   
N4425  X80.9250  Y68.6150   
N4430  X81.1653  Y67.7907   
N4435  X81.2740  Y66.9923   
N4440  X81.2603  Y66.1950   
N4445  X81.1334  Y65.3737   
N4450  X80.7530  Y64.0850   
N4455  X80.1292  Y62.8373   
N4460  X79.1605  Y61.4632   
N4465  X77.7452  Y59.7951   
N4470  X76.2634  Y58.0559   
N4475  X75.7238  Y57.2558   
N4480  X75.8749  Y57.2669   
N4485  X76.0534  Y57.4784   
N4490  X76.3580  Y57.8136   
N4495  X76.8121  Y58.1224   
N4500  X77.1350  Y58.2648   
N4505  X77.4129  Y58.3022   
N4510  X78.1742  Y58.0421   
N4515  X79.0899  Y57.4702   
N4520  X80.0858  Y56.5500   
N4525  X81.1946  Y55.2472   
N4530  X82.4489  Y53.5273   
N4535  X84.4561  Y50.6690   
N4540  X85.9591  Y48.6926   
N4545  X87.2700  Y47.2148   
N4550  X88.7014  Y45.8519   
N4555  X90.3786  Y44.2610   
N4560  X90.8580  Y43.6960   
N4565  X91.1116  Y43.2469   
N4570  X91.1495  Y42.8854   
N4575  X90.9819  Y42.5832   
N4580  X90.6190  Y42.3121   
N4585  X90.0708  Y42.0435   
N4590  X89.6306  Y41.7926   
N4595  X89.5540  Y41.6946   
N4600  X89.5939  Y41.6328   
N4605  X90.0461  Y41.6719   
N4610  X90.9828  Y41.9726   
N4615  X94.5111  Y43.4322   
N4620  X100.6050  Y45.8472   
N4625  X106.3174  Y47.8854   
N4630  X107.5896  Y48.2115   
N4635  X108.5732  Y48.3259   
N4640  X109.3031  Y48.2289   
N4645  X109.8143  Y47.9208   
N4650  X110.2600  Y47.4750   
N4655  X109.7815  Y46.9656   
N4660  X108.9005  Y46.3029   
N4665  X107.4544  Y45.4250   
N4670  X106.0778  Y44.5399   
N4675  X104.6520  Y43.4663   
N4680  X103.6198  Y42.5607   
N4685  X103.3897  Y42.2823   
N4690  X103.3704  Y42.2062   
N4695  X103.4240  Y42.1796   
N4700  X104.6024  Y42.6639   
N4705  X105.6059  Y43.1482   
N4710  X106.4887  Y42.5143   
N4715  X107.5990  Y41.4924   
N4720  X108.5988  Y40.2232   
N4725  X109.2448  Y39.0658   
N4730  X109.3589  Y38.6413   
N4735  X109.2932  Y38.3794   
N4740  X108.6697  Y38.3701   
N4745  X107.3421  Y38.5193   
N4750  X105.7545  Y38.6694   
N4755  X104.5061  Y38.6622   
N4760  X103.6611  Y38.4870   
N4765  X102.8319  Y38.1856   
N4770  X102.1203  Y37.8031   
N4775  X101.6282  Y37.3849   
N4780  X101.4939  Y37.1946   
N4785  X101.5356  Y37.1060   
N4790  X102.3686  Y37.1690   
N4795  X103.4003  Y37.3054   
N4800  X104.7453  Y35.9122   
N4805  X105.8331  Y34.6157   
N4810  X106.1369  Y34.0993   
N4815  X106.2786  Y33.6815   
N4820  X106.2571  Y33.3707   
N4825  X106.0710  Y33.1749   
N4830  X105.7188  Y33.1023   
N4835  X105.1993  Y33.1611   
N4840  X104.4705  Y33.4015   
N4845  X103.5605  Y33.7985   
N4850  X102.7837  Y34.2027   
N4855  X102.4549  Y34.4646   
N4860  X103.0140  Y34.8706   
N4865  X103.5730  Y35.1484   
N4870  X103.0364  Y35.2196   
N4875  X101.9250  Y34.9953   
N4880  X99.9871  Y34.3464   
N4885  X96.2676  Y33.0323   
N4890  X95.2180  Y32.7375   
N4895  X94.7834  Y32.7076   
N4900  X94.8480  Y32.9048   
N4905  X95.1588  Y33.2233   
N4910  X95.4493  Y33.5112   
N4915  X95.4651  Y33.6350   
N4920  X94.5093  Y33.1921   
N4925  X92.6960  Y32.1271   
N4930  X90.7236  Y30.8685   
N4935  X89.2903  Y29.8450   
N4940  X87.8093  Y28.7629   
N4945 G0  Z0.1000 
N4950 G1  Z-1.4000  F100.00 
N4955  X87.3778  Y28.6667   F300.00 
N4960  X87.0772  Y28.6578   
N4965  X86.7559  Y28.7836   
N4970  X86.5000  Y28.9939   
N4975  X86.3955  Y29.2387   
N4980  X86.6936  Y29.8889   
N4985  X87.4102  Y31.0978   
N4990  X88.0997  Y32.2895   
N4995  X88.4860  Y33.2263   
N5000  X88.5900  Y33.9802   
N5005  X88.4324  Y34.6229   
N5010  X88.2824  Y34.9106   
N5015  X88.1635  Y34.9286   
N5020  X87.7897  Y33.8958   
N5025  X87.5072  Y33.1129   
N5030  X87.2220  Y32.7155   
N5035  X86.8561  Y32.6478   
N5040  X86.3313  Y32.8540   
N5045  X84.7858  Y33.9119   
N5050  X82.4315  Y35.7617   
N5055  X80.5461  Y37.1969   
N5060  X78.6571  Y38.4247   
N5065  X76.9120  Y39.3572   
N5070  X75.4590  Y39.9064   
N5075  X72.9045  Y40.4315   
N5080  X72.2506  Y40.4754   
N5085  X72.1965  Y40.4269   
N5090  X72.3690  Y40.3253   
N5095  X73.8664  Y39.6727   
N5100  X74.6151  Y39.2816   
N5105  X74.6466  Y39.1570   
N5110  X74.4946  Y39.0337   
N5115  X73.0469  Y37.9582   
N5120  X71.9603  Y37.0911   
N5125  X60.0184  Y45.7686   
N5130  X41.0911  Y59.5260   
N5135  X34.1055  Y64.6059   
N5140  X34.5860  Y64.9839   
N5145  X35.6532  Y65.6422   
N5150  X37.2336  Y66.4193   
N5155  X38.9754  Y67.1548   
N5160  X40.5270  Y67.6889   
N5165  X42.0023  Y68.0031   
N5170  X43.5981  Y68.1696   
N5175  X45.1392  Y68.1787   
N5180  X46.4503  Y68.0203   
N5185  X46.7919  Y67.9262   
N5190  X46.9657  Y67.7726   
N5195  X47.0169  Y67.4678   
N5200  X46.9905  Y66.9202   
N5205  X46.9858  Y66.0634   
N5210  X47.0913  Y65.1955   
N5215  X47.3031  Y64.3250   
N5220  X47.6179  Y63.4607   
N5225  X48.0317  Y62.6113   
N5230  X48.5409  Y61.7852   
N5235  X49.1419  Y60.9914   
N5240  X49.8309  Y60.2383   
N5245  X50.9126  Y59.2229   
N5250  X51.6618  Y58.6250   
N5255  X51.8539  Y58.5211   
N5260  X51.8937  Y58.5678   
N5265  X51.4238  Y59.1747   
N5270  X50.7398  Y60.0376   
N5275  X50.0039  Y61.1427   
N5280  X49.2821  Y62.3835   
N5285  X48.6407  Y63.6537   
N5290  X48.3620  Y64.3203   
N5295  X48.1934  Y64.9285   
N5300  X48.0880  Y66.4720   
N5305  X48.1973  Y67.8841   
N5310  X48.5794  Y69.1452   
N5315  X49.3160  Y70.4419   
N5320  X50.4887  Y71.9607   
N5325  X51.9376  Y73.8422   
N5330  X52.4492  Y74.6817   
N5335  X52.8456  Y75.5199   
N5340  X53.1469  Y76.4060   
N5345  X53.3731  Y77.3899   
N5350  X53.6803  Y79.8484   
N5355  X54.0335  Y82.5665   
N5360  X54.5855  Y84.9355   
N5365  X55.3251  Y86.9182   
N5370  X55.7619  Y87.7531   
N5375  X56.2415  Y88.4775   
N5380  X56.5579  Y88.9448   
N5385  X56.5734  Y89.1063   
N5390  X55.6807  Y88.5133   
N5395  X54.8917  Y87.8883   
N5400  X53.4763  Y88.3351   
N5405  X52.2278  Y88.8145   
N5410  X51.1327  Y89.4132   
N5415  X50.2043  Y90.1226   
N5420  X49.4559  Y90.9343   
N5425  X49.0648  Y91.5261   
N5430  X48.9159  Y91.9304   
N5435  X49.0129  Y92.1062   
N5440  X49.3595  Y92.0128   
N5445  X50.6824  Y91.7093   
N5450  X51.5873  Y91.6881   
N5455  X52.2973  Y91.9289   
N5460  X52.8992  Y92.4842   
N5465  X53.4800  Y93.4071   
N5470  X54.0232  Y94.3225   
N5475  X54.5712  Y95.0418   
N5480  X55.1191  Y95.5596   
N5485  X55.6621  Y95.8704   
N5490  X56.3622  Y96.0231   
N5495  X57.1931  Y96.0305   
N5500  X58.0454  Y95.9005   
N5505  X58.8097  Y95.6411   
N5510  X59.5469  Y95.2248   
N5515  X60.3766  Y94.6495   
N5520  X61.9870  Y93.3217   
N5525  X62.9876  Y92.2567   
N5530  X63.0550  Y92.0098   
N5535  X62.7248  Y92.0531   
N5540  X62.4627  Y92.0681   
N5545  X62.1863  Y91.9684   
N5550  X62.1251  Y91.8889   
N5555  X62.2266  Y91.8315   
N5560  X62.9163  Y91.7828   
N5565  X64.2392  Y91.7097   
N5570  X65.4891  Y91.5008   
N5575  X66.6691  Y91.1546   
N5580  X67.7820  Y90.6695   
N5585  X68.8310  Y90.0440   
N5590  X69.8191  Y89.2766   
N5595  X70.7492  Y88.3656   
N5600  X71.6244  Y87.3096   
N5605  X72.4167  Y86.0305   
N5610  X72.9716  Y84.6191   
N5615  X74.1779  Y80.9179   
N5620  X75.4653  Y77.7591   
N5625  X76.8794  Y75.0435   
N5630  X78.4659  Y72.6721   
N5635  X80.0134  Y70.4415   
N5640  X80.5441  Y69.4903   
N5645  X80.9250  Y68.6150   
N5650  X81.1653  Y67.7907   
N5655  X81.2740  Y66.9923   
N5660  X81.2603  Y66.1950   
N5665  X81.1334  Y65.3737   
N5670  X80.7530  Y64.0850   
N5675  X80.1292  Y62.8373   
N5680  X79.1605  Y61.4632   
N5685  X77.7452  Y59.7951   
N5690  X76.2634  Y58.0559   
N5695  X75.7238  Y57.2558   
N5700  X75.8749  Y57.2669   
N5705  X76.0534  Y57.4784   
N5710  X76.3580  Y57.8136   
N5715  X76.8121  Y58.1224   
N5720  X77.1350  Y58.2648   
N5725  X77.4129  Y58.3022   
N5730  X78.1742  Y58.0421   
N5735  X79.0899  Y57.4702   
N5740  X80.0858  Y56.5500   
N5745  X81.1946  Y55.2472   
N5750  X82.4489  Y53.5273   
N5755  X84.4561  Y50.6690   
N5760  X85.9591  Y48.6926   
N5765  X87.2700  Y47.2148   
N5770  X88.7014  Y45.8519   
N5775  X90.3786  Y44.2610   
N5780  X90.8580  Y43.6960   
N5785  X91.1116  Y43.2469   
N5790  X91.1495  Y42.8854   
N5795  X90.9819  Y42.5832   
N5800  X90.6190  Y42.3121   
N5805  X90.0708  Y42.0435   
N5810  X89.6306  Y41.7926   
N5815  X89.5540  Y41.6946   
N5820  X89.5939  Y41.6328   
N5825  X90.0461  Y41.6719   
N5830  X90.9828  Y41.9726   
N5835  X94.5111  Y43.4322   
N5840  X100.6050  Y45.8472   
N5845  X106.3174  Y47.8854   
N5850  X107.5896  Y48.2115   
N5855  X108.5732  Y48.3259   
N5860  X109.3031  Y48.2289   
N5865  X109.8143  Y47.9208   
N5870  X110.2600  Y47.4750   
N5875  X109.7815  Y46.9656   
N5880  X108.9005  Y46.3029   
N5885  X107.4544  Y45.4250   
N5890  X106.0778  Y44.5399   
N5895  X104.6520  Y43.4663   
N5900  X103.6198  Y42.5607   
N5905  X103.3897  Y42.2823   
N5910  X103.3704  Y42.2062   
N5915  X103.4240  Y42.1796   
N5920  X104.6024  Y42.6639   
N5925  X105.6059  Y43.1482   
N5930  X106.4887  Y42.5143   
N5935  X107.5990  Y41.4924   
N5940  X108.5988  Y40.2232   
N5945  X109.2448  Y39.0658   
N5950  X109.3589  Y38.6413   
N5955  X109.2932  Y38.3794   
N5960  X108.6697  Y38.3701   
N5965  X107.3421  Y38.5193   
N5970  X105.7545  Y38.6694   
N5975  X104.5061  Y38.6622   
N5980  X103.6611  Y38.4870   
N5985  X102.8319  Y38.1856   
N5990  X102.1203  Y37.8031   
N5995  X101.6282  Y37.3849   
N6000  X101.4939  Y37.1946   
N6005  X101.5356  Y37.1060   
N6010  X102.3686  Y37.1690   
N6015  X103.4003  Y37.3054   
N6020  X104.7453  Y35.9122   
N6025  X105.8331  Y34.6157   
N6030  X106.1369  Y34.0993   
N6035  X106.2786  Y33.6815   
N6040  X106.2571  Y33.3707   
N6045  X106.0710  Y33.1749   
N6050  X105.7188  Y33.1023   
N6055  X105.1993  Y33.1611   
N6060  X104.4705  Y33.4015   
N6065  X103.5605  Y33.7985   
N6070  X102.7837  Y34.2027   
N6075  X102.4549  Y34.4646   
N6080  X103.0140  Y34.8706   
N6085  X103.5730  Y35.1484   
N6090  X103.0364  Y35.2196   
N6095  X101.9250  Y34.9953   
N6100  X99.9871  Y34.3464   
N6105  X96.2676  Y33.0323   
N6110  X95.2180  Y32.7375   
N6115  X94.7834  Y32.7076   
N6120  X94.8480  Y32.9048   
N6125  X95.1588  Y33.2233   
N6130  X95.4493  Y33.5112   
N6135  X95.4651  Y33.6350   
N6140  X94.5093  Y33.1921   
N6145  X92.6960  Y32.1271   
N6150  X90.7236  Y30.8685   
N6155  X89.2903  Y29.8450   
N6160  X87.8093  Y28.7629   
N6165 G0  Z3.0000 
N6170  X62.4894  Y57.9138 
N6175  Z0.1000 
N6180 G1  Z-0.7000  F100.00 
N6185  X61.9559  Y58.5973   F300.00 
N6190  X61.7982  Y59.2625   
N6195  Y59.9201   
N6200  X62.2081  Y59.3990   
N6205  X62.6914  Y58.9092   
N6210  X63.2913  Y58.4713   
N6215  X63.8942  Y58.1565   
N6220  X64.3866  Y58.0358   
N6225  X64.8252  Y58.1551   
N6230  X65.3095  Y58.4423   
N6235  X65.9389  Y58.8269   
N6240  X65.9798  Y58.7120   
N6245  X65.8472  Y58.3915   
N6250  X65.5088  Y57.8951   
N6255  X65.0745  Y57.5310   
N6260  X64.5556  Y57.3061   
N6265  X63.9632  Y57.2271   
N6270  X63.5476  Y57.2556   
N6275  X63.1990  Y57.3630   
N6280  X62.4894  Y57.9138   
N6285 G0  Z0.1000 
N6290 G1  Z-1.4000  F100.00 
N6295  X61.9559  Y58.5973   F300.00 
N6300  X61.7982  Y59.2625   
N6305  Y59.9201   
N6310  X62.2081  Y59.3990   
N6315  X62.6914  Y58.9092   
N6320  X63.2913  Y58.4713   
N6325  X63.8942  Y58.1565   
N6330  X64.3866  Y58.0358   
N6335  X64.8252  Y58.1551   
N6340  X65.3095  Y58.4423   
N6345  X65.9389  Y58.8269   
N6350  X65.9798  Y58.7120   
N6355  X65.8472  Y58.3915   
N6360  X65.5088  Y57.8951   
N6365  X65.0745  Y57.5310   
N6370  X64.5556  Y57.3061   
N6375  X63.9632  Y57.2271   
N6380  X63.5476  Y57.2556   
N6385  X63.1990  Y57.3630   
N6390  X62.4894  Y57.9138   
N6395 G0  Z3.0000 
N6400  X63.8258  Y62.8885 
N6405  Z0.1000 
N6410 G1  Z-0.7000  F100.00 
N6415  X63.5023  Y63.2763   F300.00 
N6420  X63.2638  Y63.7010   
N6425  X63.1109  Y64.1524   
N6430  X63.0441  Y64.6203   
N6435  X63.0638  Y65.0944   
N6440  X63.1707  Y65.5644   
N6445  X63.3652  Y66.0202   
N6450  X63.6478  Y66.4514   
N6455  X64.0355  Y66.7947   
N6460  X64.4806  Y66.9521   
N6465  X64.9495  Y66.9412   
N6470  X65.4085  Y66.7795   
N6475  X65.8241  Y66.4846   
N6480  X66.1626  Y66.0740   
N6485  X66.3903  Y65.5655   
N6490  X66.4737  Y64.9763   
N6495  X66.4254  Y64.2822   
N6500  X66.2776  Y63.6820   
N6505  X66.0267  Y63.1646   
N6510  X65.6687  Y62.7194   
N6515  X65.2361  Y62.4076   
N6520  X64.7906  Y62.3313   
N6525  X64.3236  Y62.4913   
N6530  X63.8258  Y62.8885   
N6535 G0  Z0.1000 
N6540 G1  Z-1.4000  F100.00 
N6545  X63.5023  Y63.2763   F300.00 
N6550  X63.2638  Y63.7010   
N6555  X63.1109  Y64.1524   
N6560  X63.0441  Y64.6203   
N6565  X63.0638  Y65.0944   
N6570  X63.1707  Y65.5644   
N6575  X63.3652  Y66.0202   
N6580  X63.6478  Y66.4514   
N6585  X64.0355  Y66.7947   
N6590  X64.4806  Y66.9521   
N6595  X64.9495  Y66.9412   
N6600  X65.4085  Y66.7795   
N6605  X65.8241  Y66.4846   
N6610  X66.1626  Y66.0740   
N6615  X66.3903  Y65.5655   
N6620  X66.4737  Y64.9763   
N6625  X66.4254  Y64.2822   
N6630  X66.2776  Y63.6820   
N6635  X66.0267  Y63.1646   
N6640  X65.6687  Y62.7194   
N6645  X65.2361  Y62.4076   
N6650  X64.7906  Y62.3313   
N6655  X64.3236  Y62.4913   
N6660  X63.8258  Y62.8885   
N6665 G0  Z3.0000 
N6670  X65.8639  Y73.0787 
N6675  Z0.1000 
N6680 G1  Z-0.7000  F100.00 
N6685  X66.0384  Y72.9555   F300.00 
N6690  X66.0507  Y72.6423   
N6695  X65.9151  Y72.2239   
N6700  X65.6458  Y71.7848   
N6705  X65.2122  Y71.4010   
N6710  X64.7288  Y71.2666   
N6715  X64.2225  Y71.3821   
N6720  X63.7202  Y71.7481   
N6725  X63.4061  Y72.1109   
N6730  X63.2462  Y72.4042   
N6735  X63.2494  Y72.6006   
N6740  X63.4245  Y72.6721   
N6745  X63.5680  Y72.6220   
N6750  X63.6278  Y72.5015   
N6755  X63.7648  Y72.3186   
N6760  X64.0944  Y72.1183   
N6765  X64.5719  Y72.0474   
N6770  X65.0844  Y72.1732   
N6775  X65.4935  Y72.4370   
N6780  X65.6606  Y72.7803   
N6785  X65.7203  Y72.9911   
N6790  X65.8639  Y73.0787   
N6795 G0  Z0.1000 
N6800 G1  Z-1.4000  F100.00 
N6805  X66.0384  Y72.9555   F300.00 
N6810  X66.0507  Y72.6423   
N6815  X65.9151  Y72.2239   
N6820  X65.6458  Y71.7848   
N6825  X65.2122  Y71.4010   
N6830  X64.7288  Y71.2666   
N6835  X64.2225  Y71.3821   
N6840  X63.7202  Y71.7481   
N6845  X63.4061  Y72.1109   
N6850  X63.2462  Y72.4042   
N6855  X63.2494  Y72.6006   
N6860  X63.4245  Y72.6721   
N6865  X63.5680  Y72.6220   
N6870  X63.6278  Y72.5015   
N6875  X63.7648  Y72.3186   
N6880  X64.0944  Y72.1183   
N6885  X64.5719  Y72.0474   
N6890  X65.0844  Y72.1732   
N6895  X65.4935  Y72.4370   
N6900  X65.6606  Y72.7803   
N6905  X65.7203  Y72.9911   
N6910  X65.8639  Y73.0787   
N6915 G0  Z3.0000 
N6920  X60.2441  Y79.2953 
N6925  Z0.1000 
N6930 G1  Z-0.7000  F100.00 
N6935  X60.0633  Y79.5984   F300.00 
N6940  X60.0025  Y79.8273   
N6945  X60.2395  Y80.3939   
N6950  X60.5582  Y81.0667   
N6955  X60.4904  Y81.1818   
N6960  X60.2736  Y81.2101   
N6965  X60.0620  Y81.2831   
N6970  X59.9787  Y81.4691   
N6975  X60.0276  Y81.7187   
N6980  X60.2126  Y81.9825   
N6985  X60.5314  Y82.1851   
N6990  X60.8795  Y82.1977   
N6995  X61.2410  Y82.0240   
N7000  X61.6000  Y81.6674   
N7005  X61.9301  Y81.0455   
N7010  X61.9447  Y80.2446   
N7015  X61.7029  Y79.3268   
N7020  X61.5098  Y79.0233   
N7025  X61.2826  Y78.8312   
N7030  X61.0319  Y78.7565   
N7035  X60.7682  Y78.8050   
N7040  X60.5021  Y78.9826   
N7045  X60.2441  Y79.2953   
N7050 G0  Z0.1000 
N7055 G1  Z-1.4000  F100.00 
N7060  X60.0633  Y79.5984   F300.00 
N7065  X60.0025  Y79.8273   
N7070  X60.2395  Y80.3939   
N7075  X60.5582  Y81.0667   
N7080  X60.4904  Y81.1818   
N7085  X60.2736  Y81.2101   
N7090  X60.0620  Y81.2831   
N7095  X59.9787  Y81.4691   
N7100  X60.0276  Y81.7187   
N7105  X60.2126  Y81.9825   
N7110  X60.5314  Y82.1851   
N7115  X60.8795  Y82.1977   
N7120  X61.2410  Y82.0240   
N7125  X61.6000  Y81.6674   
N7130  X61.9301  Y81.0455   
N7135  X61.9447  Y80.2446   
N7140  X61.7029  Y79.3268   
N7145  X61.5098  Y79.0233   
N7150  X61.2826  Y78.8312   
N7155  X61.0319  Y78.7565   
N7160  X60.7682  Y78.8050   
N7165  X60.5021  Y78.9826   
N7170  X60.2441  Y79.2953   
N7175 G0  Z3.0000 
N7180  X58.9523  Y84.4416 
N7185  Z0.1000 
N7190 G1  Z-0.7000  F100.00 
N7195  X59.0107  Y84.6928   F300.00 
N7200  X59.1720  Y84.9641   
N7205  X59.7166  Y85.5009   
N7210  X60.4145  Y85.9199   
N7215  X61.0938  Y86.0889   
N7220  X61.7982  Y85.9958   
N7225  X60.9133  Y85.3841   
N7230  X60.1807  Y84.8990   
N7235  X59.6621  Y84.4608   
N7240  X59.3569  Y84.1733   
N7245  X59.1345  Y84.0742   
N7250  X58.9984  Y84.1636   
N7255  X58.9523  Y84.4416   
N7260 G0  Z0.1000 
N7265 G1  Z-1.4000  F100.00 
N7270  X59.0107  Y84.6928   F300.00 
N7275  X59.1720  Y84.9641   
N7280  X59.7166  Y85.5009   
N7285  X60.4145  Y85.9199   
N7290  X61.0938  Y86.0889   
N7295  X61.7982  Y85.9958   
N7300  X60.9133  Y85.3841   
N7305  X60.1807  Y84.8990   
N7310  X59.6621  Y84.4608   
N7315  X59.3569  Y84.1733   
N7320  X59.1345  Y84.0742   
N7325  X58.9984  Y84.1636   
N7330  X58.9523  Y84.4416   
N7335 G0  Z3.0000 
N7340  X67.6152  Y79.4750 
N7345  Z0.1000 
N7350 G1  Z-0.7000  F100.00 
N7355  X67.3826  Y79.9325   F300.00 
N7360  X67.3010  Y80.3526   
N7365  X67.3706  Y80.7169   
N7370  X67.5918  Y81.0068   
N7375  X67.8269  Y81.2600   
N7380  X67.8838  Y81.4534   
N7385  X67.7698  Y81.5507   
N7390  X67.4918  Y81.5155   
N7395  X67.1871  Y81.4909   
N7400  X67.2597  Y81.8576   
N7405  X67.5455  Y82.2454   
N7410  X67.9652  Y82.4017   
N7415  X68.4127  Y82.3177   
N7420  X68.7822  Y81.9847   
N7425  X69.0641  Y81.3052   
N7430  X69.1610  Y80.5318   
N7435  X69.0723  Y79.8120   
N7440  X68.7970  Y79.2934   
N7445  X68.4753  Y79.0499   
N7450  X68.1791  Y78.9977   
N7455  X67.8965  Y79.1389   
N7460  X67.6152  Y79.4750   
N7465 G0  Z0.1000 
N7470 G1  Z-1.4000  F100.00 
N7475  X67.3826  Y79.9325   F300.00 
N7480  X67.3010  Y80.3526   
N7485  X67.3706  Y80.7169   
N7490  X67.5918  Y81.0068   
N7495  X67.8269  Y81.2600   
N7500  X67.8838  Y81.4534   
N7505  X67.7698  Y81.5507   
N7510  X67.4918  Y81.5155   
N7515  X67.1871  Y81.4909   
N7520  X67.2597  Y81.8576   
N7525  X67.5455  Y82.2454   
N7530  X67.9652  Y82.4017   
N7535  X68.4127  Y82.3177   
N7540  X68.7822  Y81.9847   
N7545  X69.0641  Y81.3052   
N7550  X69.1610  Y80.5318   
N7555  X69.0723  Y79.8120   
N7560  X68.7970  Y79.2934   
N7565  X68.4753  Y79.0499   
N7570  X68.1791  Y78.9977   
N7575  X67.8965  Y79.1389   
N7580  X67.6152  Y79.4750   
N7585 G0  Z3.0000 
N7590  X69.0197  Y83.8434 
N7595  Z0.1000 
N7600 G1  Z-0.7000  F100.00 
N7605  X68.0504  Y85.1996   F300.00 
N7610  X67.5550  Y85.8221   
N7615  X67.6295  Y85.8657   
N7620  X67.9017  Y85.7994   
N7625  X68.5055  Y85.5943   
N7630  X68.9586  Y85.3583   
N7635  X69.2831  Y85.0769   
N7640  X69.5005  Y84.7356   
N7645  X69.7150  Y83.9805   
N7650  X69.6527  Y83.4807   
N7655  X69.5430  Y83.3731   
N7660  X69.3942  Y83.3853   
N7665  X69.2164  Y83.5358   
N7670  X69.0197  Y83.8434   
N7675 G0  Z0.1000 
N7680 G1  Z-1.4000  F100.00 
N7685  X68.0504  Y85.1996   F300.00 
N7690  X67.5550  Y85.8221   
N7695  X67.6295  Y85.8657   
N7700  X67.9017  Y85.7994   
N7705  X68.5055  Y85.5943   
N7710  X68.9586  Y85.3583   
N7715  X69.2831  Y85.0769   
N7720  X69.5005  Y84.7356   
N7725  X69.7150  Y83.9805   
N7730  X69.6527  Y83.4807   
N7735  X69.5430  Y83.3731   
N7740  X69.3942  Y83.3853   
N7745  X69.2164  Y83.5358   
N7750  X69.0197  Y83.8434   
N7755 G0  Z3.0000 
N7760  X34.5930  Y66.1413 
N7765  Z0.1000 
N7770 G1  Z-0.7000  F100.00 
N7775  X33.1653  Y65.3562   F300.00 
N7780  X32.3739  Y65.8784   
N7785  X31.7142  Y66.3983   
N7790  X32.2723  Y66.8654   
N7795  X33.5067  Y67.8042   
N7800  X34.9252  Y68.7176   
N7805  X36.4882  Y69.5879   
N7810  X38.1563  Y70.3972   
N7815  X39.8901  Y71.1276   
N7820  X41.6501  Y71.7613   
N7825  X43.3969  Y72.2805   
N7830  X45.0911  Y72.6672   
N7835  X48.3940  Y73.1626   
N7840  X49.5562  Y73.2534   
N7845  X50.0078  Y73.1981   
N7850  X49.1438  Y72.0060   
N7855  X48.3881  Y70.9376   
N7860  X47.7844  Y69.8672   
N7865  X47.3284  Y69.0614   
N7870  X47.1459  Y68.9178   
N7875  X46.9712  Y68.9208   
N7880  X46.1750  Y69.1310   
N7885  X45.1056  Y69.2827   
N7890  X43.9749  Y69.3544   
N7895  X42.9945  Y69.3247   
N7900  X41.0122  Y68.9805   
N7905  X38.9896  Y68.3497   
N7910  X36.8691  Y67.4107   
N7915  X34.5930  Y66.1413   
N7920 G0  Z0.1000 
N7925 G1  Z-1.4000  F100.00 
N7930  X33.1653  Y65.3562   F300.00 
N7935  X32.3739  Y65.8784   
N7940  X31.7142  Y66.3983   
N7945  X32.2723  Y66.8654   
N7950  X33.5067  Y67.8042   
N7955  X34.9252  Y68.7176   
N7960  X36.4882  Y69.5879   
N7965  X38.1563  Y70.3972   
N7970  X39.8901  Y71.1276   
N7975  X41.6501  Y71.7613   
N7980  X43.3969  Y72.2805   
N7985  X45.0911  Y72.6672   
N7990  X48.3940  Y73.1626   
N7995  X49.5562  Y73.2534   
N8000  X50.0078  Y73.1981   
N8005  X49.1438  Y72.0060   
N8010  X48.3881  Y70.9376   
N8015  X47.7844  Y69.8672   
N8020  X47.3284  Y69.0614   
N8025  X47.1459  Y68.9178   
N8030  X46.9712  Y68.9208   
N8035  X46.1750  Y69.1310   
N8040  X45.1056  Y69.2827   
N8045  X43.9749  Y69.3544   
N8050  X42.9945  Y69.3247   
N8055  X41.0122  Y68.9805   
N8060  X38.9896  Y68.3497   
N8065  X36.8691  Y67.4107   
N8070  X34.5930  Y66.1413   
N8075 G0  Z3.0000 
N8080  X8.5253  Y40.3597 
N8085  Z0.1000 
N8090 G1  Z-0.7000  F100.00 
N8095  X7.4879  Y39.9549   F300.00 
N8100  X6.5816  Y39.7599   
N8105  X5.9067  Y39.7853   
N8110  X5.6874  Y39.8841   
N8115  X5.5633  Y40.0420   
N8120  X5.5342  Y40.2665   
N8125  X5.6006  Y40.5387   
N8130  X6.0184  Y41.2251   
N8135  X6.8146  Y42.0981   
N8140  X7.9870  Y43.1549   
N8145  X9.3578  Y44.4399   
N8150  X9.7436  Y44.9450   
N8155  X9.9346  Y45.3804   
N8160  X9.9349  Y45.7625   
N8165  X9.7480  Y46.1077   
N8170  X9.3781  Y46.4324   
N8175  X8.8288  Y46.7530   
N8180  X8.2989  Y46.9670   
N8185  X7.5980  Y47.0899   
N8190  X4.6986  Y47.1596   
N8195  X1.8711  Y47.2199   
N8200  X1.3611  Y47.3314   
N8205  X1.1411  Y47.5295   
N8210  X1.0503  Y47.7364   
N8215  X1.0720  Y47.9231   
N8220  X1.5246  Y48.3967   
N8225  X2.2822  Y48.8633   
N8230  X3.3123  Y49.2257   
N8235  X4.6767  Y49.5005   
N8240  X6.4374  Y49.7041   
N8245  X8.2008  Y49.9045   
N8250  X9.2458  Y50.1063   
N8255  X9.5452  Y50.1976   
N8260  X9.7445  Y50.1648   
N8265  X9.9049  Y49.9691   
N8270  X10.0872  Y49.5718   
N8275  X10.3889  Y49.0576   
N8280  X10.5143  Y48.9965   
N8285  X10.6177  Y49.0593   
N8290  X10.7435  Y49.5364   
N8295  X10.7363  Y50.4483   
N8300  X10.4936  Y51.7034   
N8305  X9.9495  Y53.0536   
N8310  X9.1090  Y54.4887   
N8315  X7.9772  Y55.9985   
N8320  X5.7325  Y58.8648   
N8325  X5.3042  Y59.6375   
N8330  X5.1375  Y60.2724   
N8335  X5.0873  Y60.7342   
N8340  X5.1258  Y60.9763   
N8345  X5.2973  Y61.0696   
N8350  X5.6463  Y61.0850   
N8355  X6.1331  Y60.9916   
N8360  X6.8732  Y60.7098   
N8365  X9.1273  Y59.5738   
N8370  X12.4378  Y57.6609   
N8375  X16.8336  Y54.9551   
N8380  X18.8391  Y53.7668   
N8385  X18.8177  Y53.9212   
N8390  X18.6076  Y54.2926   
N8395  X18.3957  Y54.6955   
N8400  X18.3702  Y54.9257   
N8405  X19.2104  Y54.9150   
N8410  X21.0800  Y54.7389   
N8415  X23.6825  Y54.4448   
N8420  X27.3416  Y51.7440   
N8425  X31.7898  Y48.4191   
N8430  X32.5789  Y47.7950   
N8435  X32.0326  Y47.3250   
N8440  X31.5978  Y46.9882   
N8445  X31.2873  Y46.8929   
N8450  X31.0072  Y47.0486   
N8455  X30.6637  Y47.4650   
N8460  X30.2674  Y47.9454   
N8465  X30.0888  Y48.0373   
N8470  X30.1368  Y47.7542   
N8475  X30.4206  Y47.1092   
N8480  X30.8824  Y45.9284   
N8485  X31.3242  Y44.4452   
N8490  X31.5847  Y43.1169   
N8495  X31.6291  Y42.0407   
N8500  X31.4559  Y41.1951   
N8505  X31.0638  Y40.5587   
N8510  X30.7883  Y40.3123   
N8515  X30.4581  Y40.1858   
N8520  X29.0898  Y40.1919   
N8525  X27.7017  Y40.3950   
N8530  X26.2129  Y40.8525   
N8535  X24.5744  Y41.5827   
N8540  X22.7373  Y42.6045   
N8545  X21.5331  Y43.2801   
N8550  X20.9726  Y43.5015   
N8555  X21.1343  Y43.2228   
N8560  X21.6667  Y42.6963   
N8565  X22.4629  Y41.9932   
N8570  X21.0181  Y41.9848   
N8575  X19.3955  Y42.1257   
N8580  X17.3655  Y42.6092   
N8585  X15.5542  Y43.0536   
N8590  X14.8450  Y43.1378   
N8595  X14.2084  Y43.1238   
N8600  X13.6008  Y43.0070   
N8605  X12.9786  Y42.7829   
N8610  X11.5154  Y41.9944   
N8615  X8.5253  Y40.3597   
N8620 G0  Z0.1000 
N8625 G1  Z-1.4000  F100.00 
N8630  X7.4879  Y39.9549   F300.00 
N8635  X6.5816  Y39.7599   
N8640  X5.9067  Y39.7853   
N8645  X5.6874  Y39.8841   
N8650  X5.5633  Y40.0420   
N8655  X5.5342  Y40.2665   
N8660  X5.6006  Y40.5387   
N8665  X6.0184  Y41.2251   
N8670  X6.8146  Y42.0981   
N8675  X7.9870  Y43.1549   
N8680  X9.3578  Y44.4399   
N8685  X9.7436  Y44.9450   
N8690  X9.9346  Y45.3804   
N8695  X9.9349  Y45.7625   
N8700  X9.7480  Y46.1077   
N8705  X9.3781  Y46.4324   
N8710  X8.8288  Y46.7530   
N8715  X8.2989  Y46.9670   
N8720  X7.5980  Y47.0899   
N8725  X4.6986  Y47.1596   
N8730  X1.8711  Y47.2199   
N8735  X1.3611  Y47.3314   
N8740  X1.1411  Y47.5295   
N8745  X1.0503  Y47.7364   
N8750  X1.0720  Y47.9231   
N8755  X1.5246  Y48.3967   
N8760  X2.2822  Y48.8633   
N8765  X3.3123  Y49.2257   
N8770  X4.6767  Y49.5005   
N8775  X6.4374  Y49.7041   
N8780  X8.2008  Y49.9045   
N8785  X9.2458  Y50.1063   
N8790  X9.5452  Y50.1976   
N8795  X9.7445  Y50.1648   
N8800  X9.9049  Y49.9691   
N8805  X10.0872  Y49.5718   
N8810  X10.3889  Y49.0576   
N8815  X10.5143  Y48.9965   
N8820  X10.6177  Y49.0593   
N8825  X10.7435  Y49.5364   
N8830  X10.7363  Y50.4483   
N8835  X10.4936  Y51.7034   
N8840  X9.9495  Y53.0536   
N8845  X9.1090  Y54.4887   
N8850  X7.9772  Y55.9985   
N8855  X5.7325  Y58.8648   
N8860  X5.3042  Y59.6375   
N8865  X5.1375  Y60.2724   
N8870  X5.0873  Y60.7342   
N8875  X5.1258  Y60.9763   
N8880  X5.2973  Y61.0696   
N8885  X5.6463  Y61.0850   
N8890  X6.1331  Y60.9916   
N8895  X6.8732  Y60.7098   
N8900  X9.1273  Y59.5738   
N8905  X12.4378  Y57.6609   
N8910  X16.8336  Y54.9551   
N8915  X18.8391  Y53.7668   
N8920  X18.8177  Y53.9212   
N8925  X18.6076  Y54.2926   
N8930  X18.3957  Y54.6955   
N8935  X18.3702  Y54.9257   
N8940  X19.2104  Y54.9150   
N8945  X21.0800  Y54.7389   
N8950  X23.6825  Y54.4448   
N8955  X27.3416  Y51.7440   
N8960  X31.7898  Y48.4191   
N8965  X32.5789  Y47.7950   
N8970  X32.0326  Y47.3250   
N8975  X31.5978  Y46.9882   
N8980  X31.2873  Y46.8929   
N8985  X31.0072  Y47.0486   
N8990  X30.6637  Y47.4650   
N8995  X30.2674  Y47.9454   
N9000  X30.0888  Y48.0373   
N9005  X30.1368  Y47.7542   
N9010  X30.4206  Y47.1092   
N9015  X30.8824  Y45.9284   
N9020  X31.3242  Y44.4452   
N9025  X31.5847  Y43.1169   
N9030  X31.6291  Y42.0407   
N9035  X31.4559  Y41.1951   
N9040  X31.0638  Y40.5587   
N9045  X30.7883  Y40.3123   
N9050  X30.4581  Y40.1858   
N9055  X29.0898  Y40.1919   
N9060  X27.7017  Y40.3950   
N9065  X26.2129  Y40.8525   
N9070  X24.5744  Y41.5827   
N9075  X22.7373  Y42.6045   
N9080  X21.5331  Y43.2801   
N9085  X20.9726  Y43.5015   
N9090  X21.1343  Y43.2228   
N9095  X21.6667  Y42.6963   
N9100  X22.4629  Y41.9932   
N9105  X21.0181  Y41.9848   
N9110  X19.3955  Y42.1257   
N9115  X17.3655  Y42.6092   
N9120  X15.5542  Y43.0536   
N9125  X14.8450  Y43.1378   
N9130  X14.2084  Y43.1238   
N9135  X13.6008  Y43.0070   
N9140  X12.9786  Y42.7829   
N9145  X11.5154  Y41.9944   
N9150  X8.5253  Y40.3597   
N9155 G0  Z3.0000 
N9160 M5
N9165 M30

