N5 (File Name = ghostbusters on Friday, November 10, 2023)
N10 (Default Mill Post)
N15  G91.1
N20 G0  Z3.0000 
N25 M3 S4000 
N30  X61.6719  Y0.0343 
N35  Z0.1000 
N40 G1  Z-0.7000  F100.00 
N45  X58.4320  Y0.5811   F300.00 
N50  X55.3096  Y1.2453   
N55  X52.2813  Y2.0347   
N60  X49.3243  Y2.9572   
N65  X46.4155  Y4.0204   
N70  X43.5318  Y5.2323   
N75  X40.6503  Y6.6006   
N80  X37.7479  Y8.1331   
N85  X35.0702  Y9.7309   
N90  X32.4815  Y11.5055   
N95  X29.9888  Y13.4471   
N100  X27.5988  Y15.5459   
N105  X25.3180  Y17.7922   
N110  X23.1532  Y20.1761   
N115  X21.1113  Y22.6879   
N120  X19.1988  Y25.3179   
N125  X17.4226  Y28.0561   
N130  X15.7892  Y30.8929   
N135  X14.3054  Y33.8185   
N140  X12.9781  Y36.8230   
N145  X11.8138  Y39.8968   
N150  X10.8193  Y43.0300   
N155  X10.0013  Y46.2129   
N160  X9.3666  Y49.4356   
N165  X8.9095  Y52.1734   
N170  X7.9638  Y52.3667   
N175  X7.2124  Y52.6456   
N180  X6.6024  Y53.1129   
N185  X6.1932  Y53.7070   
N190  X6.0436  Y54.3664   
N195  X6.2537  Y55.0906   
N200  X6.7716  Y56.0933   
N205  X7.4289  Y57.0881   
N210  X8.0569  Y57.7886   
N215  X8.2777  Y58.0672   
N220  X8.4189  Y58.5142   
N225  X8.5159  Y60.1923   
N230  Y62.2189   
N235  X5.1507  Y62.2199   
N240  X2.2311  Y62.3188   
N245  X1.4757  Y62.4844   
N250  X0.8928  Y62.7653   
N255  X0.4459  Y63.0770   
N260  X0.1732  Y63.3873   
N265  X0.0370  Y63.7588   
N270  X0.0000  Y64.2541   
N275  X0.1093  Y65.0007   
N280  X0.4340  Y65.6856   
N285  X0.9696  Y66.3059   
N290  X1.7114  Y66.8589   
N295  X2.6547  Y67.3414   
N300  X3.7949  Y67.7509   
N305  X6.6475  Y68.3389   
N310  X9.1737  Y68.6746   
N315  X9.7803  Y71.2827   
N320  X10.1680  Y72.9705   
N325  X10.2158  Y73.5323   
N330  X10.1251  Y74.0227   
N335  X9.8652  Y74.5295   
N340  X9.4052  Y75.1404   
N345  X7.7619  Y77.0249   
N350  X6.2447  Y79.0185   
N355  X5.7290  Y79.9244   
N360  X5.3786  Y80.7596   
N365  X5.1960  Y81.5167   
N370  X5.1837  Y82.1880   
N375  X5.3441  Y82.7661   
N380  X5.6801  Y83.2434   
N385  X6.3508  Y83.5363   
N390  X7.4659  Y83.5317   
N395  X9.0066  Y83.2318   
N400  X10.9544  Y82.6388   
N405  X12.6342  Y82.1478   
N410  X13.0146  Y82.1552   
N415  X13.2166  Y82.3126   
N420  X13.4564  Y82.8965   
N425  X13.9205  Y84.0509   
N430  X15.0502  Y86.2907   
N435  X17.8208  Y91.2006   
N440  X19.8875  Y94.2584   
N445  X22.1870  Y97.2106   
N450  X24.7008  Y100.0395   
N455  X27.4102  Y102.7281   
N460  X30.2967  Y105.2588   
N465  X33.3418  Y107.6144   
N470  X36.5266  Y109.7774   
N475  X39.8326  Y111.7305   
N480  X42.7298  Y113.1997   
N485  X45.7633  Y114.5078   
N490  X48.9197  Y115.6511   
N495  X52.1854  Y116.6261   
N500  X55.5465  Y117.4289   
N505  X58.9896  Y118.0561   
N510  X62.5010  Y118.5039   
N515  X66.0672  Y118.7686   
N520  X69.9131  Y118.9530   
N525  X68.8143  Y119.5444   
N530  X67.8117  Y120.2111   
N535  X66.8667  Y121.0667   
N540  X66.0257  Y122.0345   
N545  X65.3349  Y123.0374   
N550  X64.8408  Y123.9987   
N555  X64.5897  Y124.8416   
N560  X64.6279  Y125.4891   
N565  X64.7700  Y125.7157   
N570  X65.0018  Y125.8646   
N575  X65.6900  Y125.8515   
N580  X66.7187  Y125.5799   
N585  X67.7516  Y125.2930   
N590  X68.7703  Y125.1503   
N595  X69.6338  Y125.1618   
N600  X70.2010  Y125.3372   
N605  X71.2206  Y126.8062   
N610  X72.3715  Y128.3791   
N615  X73.7556  Y129.5821   
N620  X75.2771  Y130.3506   
N625  X76.0596  Y130.5515   
N630  X76.8406  Y130.6196   
N635  X78.0815  Y130.5150   
N640  X79.2687  Y130.1577   
N645  X80.5734  Y129.4762   
N650  X82.1666  Y128.3993   
N655  X84.3405  Y126.9027   
N660  X86.2461  Y125.7579   
N665  X87.9291  Y124.9399   
N670  X89.4348  Y124.4241   
N675  X91.2220  Y123.8168   
N680  X92.9372  Y122.9481   
N685  X94.5647  Y121.8274   
N690  X96.0888  Y120.4640   
N695  X97.5717  Y118.8242   
N700  X98.6642  Y117.1702   
N705  X99.5880  Y115.0908   
N710  X100.5653  Y112.1754   
N715  X101.7668  Y108.3066   
N720  X103.8327  Y106.7586   
N725  X106.2500  Y104.7374   
N730  X109.1609  Y102.0515   
N735  X112.8902  Y98.1815   
N740  X114.5124  Y96.2733   
N745  X116.0045  Y94.3397   
N750  X117.3903  Y92.3486   
N755  X118.6936  Y90.2675   
N760  X121.1470  Y85.7064   
N765  X122.4416  Y82.9160   
N770  X123.5737  Y80.1482   
N775  X124.5503  Y77.3770   
N780  X125.3783  Y74.5766   
N785  X126.0647  Y71.7209   
N790  X126.6164  Y68.7840   
N795  X127.0404  Y65.7398   
N800  X127.3436  Y62.5623   
N805  X127.6339  Y60.0213   
N810  X130.0022  Y60.9604   
N815  X134.3785  Y62.6906   
N820  X138.9502  Y64.3743   
N825  X142.8449  Y65.7012   
N830  X145.1899  Y66.3609   
N835  X146.2459  Y66.4902   
N840  X147.1886  Y66.4944   
N845  X148.0094  Y66.3775   
N850  X148.6999  Y66.1432   
N855  X149.2518  Y65.7958   
N860  X149.6565  Y65.3390   
N865  X149.9055  Y64.7769   
N870  X149.9904  Y64.1133   
N875  X149.7568  Y63.3341   
N880  X149.0454  Y62.4920   
N885  X147.8398  Y61.5721   
N890  X146.1241  Y60.5597   
N895  X144.5864  Y59.6233   
N900  X143.9468  Y59.0178   
N905  X144.0273  Y58.7564   
N910  X144.2207  Y58.6477   
N915  X144.8347  Y58.3094   
N920  X145.8141  Y57.4396   
N925  X146.9358  Y56.2565   
N930  X147.9769  Y54.9776   
N935  X148.9187  Y53.4792   
N940  X149.1105  Y52.8894   
N945  X149.1662  Y52.2934   
N950  X149.1329  Y51.7572   
N955  X149.0110  Y51.3451   
N960  X148.7682  Y51.0473   
N965  X148.3720  Y50.8542   
N970  X146.9894  Y50.7436   
N975  X144.6035  Y50.9357   
N980  X142.2215  Y51.1143   
N985  X141.1614  Y51.0275   
N990  X141.1592  Y50.8414   
N995  X141.3622  Y50.5252   
N1000  X142.2969  Y49.6104   
N1005  X143.2051  Y48.7459   
N1010  X143.9161  Y47.8652   
N1015  X144.4231  Y46.9964   
N1020  X144.7197  Y46.1675   
N1025  X144.7991  Y45.4065   
N1030  X144.6548  Y44.7416   
N1035  X144.2800  Y44.2007   
N1040  X143.6683  Y43.8119   
N1045  X142.9686  Y43.6243   
N1050  X142.1678  Y43.6773   
N1055  X141.0765  Y44.0093   
N1060  X139.5054  Y44.6590   
N1065  X137.9933  Y45.2260   
N1070  X136.9301  Y45.4618   
N1075  X135.5302  Y45.1399   
N1080  X133.2087  Y44.3660   
N1085  X130.3982  Y43.4688   
N1090  X127.8225  Y42.8503   
N1095  X126.0287  Y42.4543   
N1100  X125.0980  Y42.0918   
N1105  X124.7325  Y41.4089   
N1110  X124.2975  Y40.2423   
N1115  X123.3943  Y37.7712   
N1120  X122.1851  Y34.9370   
N1125  X120.8351  Y32.1054   
N1130  X119.5094  Y29.6420   
N1135  X117.7531  Y26.8022   
N1140  X115.8720  Y24.0883   
N1145  X113.8697  Y21.5026   
N1150  X111.7493  Y19.0475   
N1155  X109.5143  Y16.7255   
N1160  X107.1680  Y14.5388   
N1165  X104.7139  Y12.4898   
N1170  X102.1552  Y10.5809   
N1175  X99.4952  Y8.8144   
N1180  X96.7374  Y7.1928   
N1185  X93.8852  Y5.7183   
N1190  X90.9419  Y4.3933   
N1195  X87.9108  Y3.2203   
N1200  X84.7954  Y2.2016   
N1205  X81.5989  Y1.3396   
N1210  X78.3248  Y0.6365   
N1215  X76.6098  Y0.3672   
N1220  X74.6668  Y0.1843   
N1225  X68.9516  Y0.0000   
N1230  X61.6719  Y0.0343   
N1235 G0  Z0.1000 
N1240 G1  Z-1.4000  F100.00 
N1245  X58.4320  Y0.5811   F300.00 
N1250  X55.3096  Y1.2453   
N1255  X52.2813  Y2.0347   
N1260  X49.3243  Y2.9572   
N1265  X46.4155  Y4.0204   
N1270  X43.5318  Y5.2323   
N1275  X40.6503  Y6.6006   
N1280  X37.7479  Y8.1331   
N1285  X35.0702  Y9.7309   
N1290  X32.4815  Y11.5055   
N1295  X29.9888  Y13.4471   
N1300  X27.5988  Y15.5459   
N1305  X25.3180  Y17.7922   
N1310  X23.1532  Y20.1761   
N1315  X21.1113  Y22.6879   
N1320  X19.1988  Y25.3179   
N1325  X17.4226  Y28.0561   
N1330  X15.7892  Y30.8929   
N1335  X14.3054  Y33.8185   
N1340  X12.9781  Y36.8230   
N1345  X11.8138  Y39.8968   
N1350  X10.8193  Y43.0300   
N1355  X10.0013  Y46.2129   
N1360  X9.3666  Y49.4356   
N1365  X8.9095  Y52.1734   
N1370  X7.9638  Y52.3667   
N1375  X7.2124  Y52.6456   
N1380  X6.6024  Y53.1129   
N1385  X6.1932  Y53.7070   
N1390  X6.0436  Y54.3664   
N1395  X6.2537  Y55.0906   
N1400  X6.7716  Y56.0933   
N1405  X7.4289  Y57.0881   
N1410  X8.0569  Y57.7886   
N1415  X8.2777  Y58.0672   
N1420  X8.4189  Y58.5142   
N1425  X8.5159  Y60.1923   
N1430  Y62.2189   
N1435  X5.1507  Y62.2199   
N1440  X2.2311  Y62.3188   
N1445  X1.4757  Y62.4844   
N1450  X0.8928  Y62.7653   
N1455  X0.4459  Y63.0770   
N1460  X0.1732  Y63.3873   
N1465  X0.0370  Y63.7588   
N1470  X0.0000  Y64.2541   
N1475  X0.1093  Y65.0007   
N1480  X0.4340  Y65.6856   
N1485  X0.9696  Y66.3059   
N1490  X1.7114  Y66.8589   
N1495  X2.6547  Y67.3414   
N1500  X3.7949  Y67.7509   
N1505  X6.6475  Y68.3389   
N1510  X9.1737  Y68.6746   
N1515  X9.7803  Y71.2827   
N1520  X10.1680  Y72.9705   
N1525  X10.2158  Y73.5323   
N1530  X10.1251  Y74.0227   
N1535  X9.8652  Y74.5295   
N1540  X9.4052  Y75.1404   
N1545  X7.7619  Y77.0249   
N1550  X6.2447  Y79.0185   
N1555  X5.7290  Y79.9244   
N1560  X5.3786  Y80.7596   
N1565  X5.1960  Y81.5167   
N1570  X5.1837  Y82.1880   
N1575  X5.3441  Y82.7661   
N1580  X5.6801  Y83.2434   
N1585  X6.3508  Y83.5363   
N1590  X7.4659  Y83.5317   
N1595  X9.0066  Y83.2318   
N1600  X10.9544  Y82.6388   
N1605  X12.6342  Y82.1478   
N1610  X13.0146  Y82.1552   
N1615  X13.2166  Y82.3126   
N1620  X13.4564  Y82.8965   
N1625  X13.9205  Y84.0509   
N1630  X15.0502  Y86.2907   
N1635  X17.8208  Y91.2006   
N1640  X19.8875  Y94.2584   
N1645  X22.1870  Y97.2106   
N1650  X24.7008  Y100.0395   
N1655  X27.4102  Y102.7281   
N1660  X30.2967  Y105.2588   
N1665  X33.3418  Y107.6144   
N1670  X36.5266  Y109.7774   
N1675  X39.8326  Y111.7305   
N1680  X42.7298  Y113.1997   
N1685  X45.7633  Y114.5078   
N1690  X48.9197  Y115.6511   
N1695  X52.1854  Y116.6261   
N1700  X55.5465  Y117.4289   
N1705  X58.9896  Y118.0561   
N1710  X62.5010  Y118.5039   
N1715  X66.0672  Y118.7686   
N1720  X69.9131  Y118.9530   
N1725  X68.8143  Y119.5444   
N1730  X67.8117  Y120.2111   
N1735  X66.8667  Y121.0667   
N1740  X66.0257  Y122.0345   
N1745  X65.3349  Y123.0374   
N1750  X64.8408  Y123.9987   
N1755  X64.5897  Y124.8416   
N1760  X64.6279  Y125.4891   
N1765  X64.7700  Y125.7157   
N1770  X65.0018  Y125.8646   
N1775  X65.6900  Y125.8515   
N1780  X66.7187  Y125.5799   
N1785  X67.7516  Y125.2930   
N1790  X68.7703  Y125.1503   
N1795  X69.6338  Y125.1618   
N1800  X70.2010  Y125.3372   
N1805  X71.2206  Y126.8062   
N1810  X72.3715  Y128.3791   
N1815  X73.7556  Y129.5821   
N1820  X75.2771  Y130.3506   
N1825  X76.0596  Y130.5515   
N1830  X76.8406  Y130.6196   
N1835  X78.0815  Y130.5150   
N1840  X79.2687  Y130.1577   
N1845  X80.5734  Y129.4762   
N1850  X82.1666  Y128.3993   
N1855  X84.3405  Y126.9027   
N1860  X86.2461  Y125.7579   
N1865  X87.9291  Y124.9399   
N1870  X89.4348  Y124.4241   
N1875  X91.2220  Y123.8168   
N1880  X92.9372  Y122.9481   
N1885  X94.5647  Y121.8274   
N1890  X96.0888  Y120.4640   
N1895  X97.5717  Y118.8242   
N1900  X98.6642  Y117.1702   
N1905  X99.5880  Y115.0908   
N1910  X100.5653  Y112.1754   
N1915  X101.7668  Y108.3066   
N1920  X103.8327  Y106.7586   
N1925  X106.2500  Y104.7374   
N1930  X109.1609  Y102.0515   
N1935  X112.8902  Y98.1815   
N1940  X114.5124  Y96.2733   
N1945  X116.0045  Y94.3397   
N1950  X117.3903  Y92.3486   
N1955  X118.6936  Y90.2675   
N1960  X121.1470  Y85.7064   
N1965  X122.4416  Y82.9160   
N1970  X123.5737  Y80.1482   
N1975  X124.5503  Y77.3770   
N1980  X125.3783  Y74.5766   
N1985  X126.0647  Y71.7209   
N1990  X126.6164  Y68.7840   
N1995  X127.0404  Y65.7398   
N2000  X127.3436  Y62.5623   
N2005  X127.6339  Y60.0213   
N2010  X130.0022  Y60.9604   
N2015  X134.3785  Y62.6906   
N2020  X138.9502  Y64.3743   
N2025  X142.8449  Y65.7012   
N2030  X145.1899  Y66.3609   
N2035  X146.2459  Y66.4902   
N2040  X147.1886  Y66.4944   
N2045  X148.0094  Y66.3775   
N2050  X148.6999  Y66.1432   
N2055  X149.2518  Y65.7958   
N2060  X149.6565  Y65.3390   
N2065  X149.9055  Y64.7769   
N2070  X149.9904  Y64.1133   
N2075  X149.7568  Y63.3341   
N2080  X149.0454  Y62.4920   
N2085  X147.8398  Y61.5721   
N2090  X146.1241  Y60.5597   
N2095  X144.5864  Y59.6233   
N2100  X143.9468  Y59.0178   
N2105  X144.0273  Y58.7564   
N2110  X144.2207  Y58.6477   
N2115  X144.8347  Y58.3094   
N2120  X145.8141  Y57.4396   
N2125  X146.9358  Y56.2565   
N2130  X147.9769  Y54.9776   
N2135  X148.9187  Y53.4792   
N2140  X149.1105  Y52.8894   
N2145  X149.1662  Y52.2934   
N2150  X149.1329  Y51.7572   
N2155  X149.0110  Y51.3451   
N2160  X148.7682  Y51.0473   
N2165  X148.3720  Y50.8542   
N2170  X146.9894  Y50.7436   
N2175  X144.6035  Y50.9357   
N2180  X142.2215  Y51.1143   
N2185  X141.1614  Y51.0275   
N2190  X141.1592  Y50.8414   
N2195  X141.3622  Y50.5252   
N2200  X142.2969  Y49.6104   
N2205  X143.2051  Y48.7459   
N2210  X143.9161  Y47.8652   
N2215  X144.4231  Y46.9964   
N2220  X144.7197  Y46.1675   
N2225  X144.7991  Y45.4065   
N2230  X144.6548  Y44.7416   
N2235  X144.2800  Y44.2007   
N2240  X143.6683  Y43.8119   
N2245  X142.9686  Y43.6243   
N2250  X142.1678  Y43.6773   
N2255  X141.0765  Y44.0093   
N2260  X139.5054  Y44.6590   
N2265  X137.9933  Y45.2260   
N2270  X136.9301  Y45.4618   
N2275  X135.5302  Y45.1399   
N2280  X133.2087  Y44.3660   
N2285  X130.3982  Y43.4688   
N2290  X127.8225  Y42.8503   
N2295  X126.0287  Y42.4543   
N2300  X125.0980  Y42.0918   
N2305  X124.7325  Y41.4089   
N2310  X124.2975  Y40.2423   
N2315  X123.3943  Y37.7712   
N2320  X122.1851  Y34.9370   
N2325  X120.8351  Y32.1054   
N2330  X119.5094  Y29.6420   
N2335  X117.7531  Y26.8022   
N2340  X115.8720  Y24.0883   
N2345  X113.8697  Y21.5026   
N2350  X111.7493  Y19.0475   
N2355  X109.5143  Y16.7255   
N2360  X107.1680  Y14.5388   
N2365  X104.7139  Y12.4898   
N2370  X102.1552  Y10.5809   
N2375  X99.4952  Y8.8144   
N2380  X96.7374  Y7.1928   
N2385  X93.8852  Y5.7183   
N2390  X90.9419  Y4.3933   
N2395  X87.9108  Y3.2203   
N2400  X84.7954  Y2.2016   
N2405  X81.5989  Y1.3396   
N2410  X78.3248  Y0.6365   
N2415  X76.6098  Y0.3672   
N2420  X74.6668  Y0.1843   
N2425  X68.9516  Y0.0000   
N2430  X61.6719  Y0.0343   
N2435 G0  Z3.0000 
N2440  X71.1442  Y19.9230 
N2445  Z0.1000 
N2450 G1  Z-0.7000  F100.00 
N2455  X67.8528  Y19.6800   F300.00 
N2460  X65.1057  Y19.9357   
N2465  X62.7064  Y20.2119   
N2470  X60.3408  Y20.6319   
N2475  X58.0148  Y21.1921   
N2480  X55.7340  Y21.8887   
N2485  X53.5043  Y22.7183   
N2490  X51.3315  Y23.6770   
N2495  X49.2213  Y24.7613   
N2500  X47.1795  Y25.9675   
N2505  X45.2118  Y27.2920   
N2510  X43.3241  Y28.7312   
N2515  X41.5221  Y30.2814   
N2520  X39.8115  Y31.9389   
N2525  X38.1982  Y33.7001   
N2530  X36.6880  Y35.5614   
N2535  X35.2865  Y37.5192   
N2540  X33.9996  Y39.5696   
N2545  X32.2705  Y43.0102   
N2550  X30.7368  Y46.9340   
N2555  X29.6015  Y50.7521   
N2560  X29.2466  Y52.4376   
N2565  X29.0675  Y53.8760   
N2570  X28.9817  Y55.2127   
N2575  X30.3370  Y55.3689   
N2580  X31.1007  Y55.4221   
N2585  X31.7160  Y55.3456   
N2590  X32.3543  Y55.0949   
N2595  X33.1870  Y54.6250   
N2600  X34.8075  Y53.7865   
N2605  X36.5563  Y53.1117   
N2610  X38.2504  Y52.6605   
N2615  X39.7064  Y52.4929   
N2620  X41.0304  Y52.6456   
N2625  X42.1466  Y53.0972   
N2630  X43.0405  Y53.8183   
N2635  X43.6971  Y54.7793   
N2640  X44.1020  Y55.9505   
N2645  X44.2404  Y57.3027   
N2650  X44.0975  Y58.8061   
N2655  X43.6586  Y60.4312   
N2660  X43.0258  Y62.2236   
N2665  X43.9238  Y63.1501   
N2670  X44.8217  Y64.0765   
N2675  X60.1145  Y52.8022   
N2680  X79.3798  Y38.5592   
N2685  X81.7015  Y36.7489   
N2690  X81.9701  Y36.4676   
N2695  X82.0002  Y36.3341   
N2700  X81.7909  Y36.0512   
N2705  X81.0184  Y35.7716   
N2710  X76.9181  Y34.9938   
N2715  X73.5296  Y34.6131   
N2720  X69.5516  Y34.4317   
N2725  X65.6856  Y34.4631   
N2730  X62.6333  Y34.7207   
N2735  X59.3151  Y35.2051   
N2740  X58.9844  Y35.1969   
N2745  X59.2343  Y35.0513   
N2750  X61.1728  Y34.4464   
N2755  X63.9899  Y33.8678   
N2760  X67.1333  Y33.4117   
N2765  X70.0505  Y33.1737   
N2770  X72.6361  Y33.1591   
N2775  X75.5094  Y33.2632   
N2780  X78.1336  Y33.4568   
N2785  X79.9722  Y33.7111   
N2790  X80.1339  Y33.6566   
N2795  X80.2819  Y33.4262   
N2800  X80.5205  Y32.4743   
N2805  X80.8974  Y31.0792   
N2810  X81.6321  Y29.6633   
N2815  X82.7762  Y28.1456   
N2820  X84.3814  Y26.4457   
N2825  X86.5438  Y24.3240   
N2830  X85.2335  Y23.6610   
N2835  X82.2129  Y22.3784   
N2840  X78.6707  Y21.2781   
N2845  X74.8875  Y20.4349   
N2850  X71.1442  Y19.9230   
N2855 G0  Z0.1000 
N2860 G1  Z-1.4000  F100.00 
N2865  X67.8528  Y19.6800   F300.00 
N2870  X65.1057  Y19.9357   
N2875  X62.7064  Y20.2119   
N2880  X60.3408  Y20.6319   
N2885  X58.0148  Y21.1921   
N2890  X55.7340  Y21.8887   
N2895  X53.5043  Y22.7183   
N2900  X51.3315  Y23.6770   
N2905  X49.2213  Y24.7613   
N2910  X47.1795  Y25.9675   
N2915  X45.2118  Y27.2920   
N2920  X43.3241  Y28.7312   
N2925  X41.5221  Y30.2814   
N2930  X39.8115  Y31.9389   
N2935  X38.1982  Y33.7001   
N2940  X36.6880  Y35.5614   
N2945  X35.2865  Y37.5192   
N2950  X33.9996  Y39.5696   
N2955  X32.2705  Y43.0102   
N2960  X30.7368  Y46.9340   
N2965  X29.6015  Y50.7521   
N2970  X29.2466  Y52.4376   
N2975  X29.0675  Y53.8760   
N2980  X28.9817  Y55.2127   
N2985  X30.3370  Y55.3689   
N2990  X31.1007  Y55.4221   
N2995  X31.7160  Y55.3456   
N3000  X32.3543  Y55.0949   
N3005  X33.1870  Y54.6250   
N3010  X34.8075  Y53.7865   
N3015  X36.5563  Y53.1117   
N3020  X38.2504  Y52.6605   
N3025  X39.7064  Y52.4929   
N3030  X41.0304  Y52.6456   
N3035  X42.1466  Y53.0972   
N3040  X43.0405  Y53.8183   
N3045  X43.6971  Y54.7793   
N3050  X44.1020  Y55.9505   
N3055  X44.2404  Y57.3027   
N3060  X44.0975  Y58.8061   
N3065  X43.6586  Y60.4312   
N3070  X43.0258  Y62.2236   
N3075  X43.9238  Y63.1501   
N3080  X44.8217  Y64.0765   
N3085  X60.1145  Y52.8022   
N3090  X79.3798  Y38.5592   
N3095  X81.7015  Y36.7489   
N3100  X81.9701  Y36.4676   
N3105  X82.0002  Y36.3341   
N3110  X81.7909  Y36.0512   
N3115  X81.0184  Y35.7716   
N3120  X76.9181  Y34.9938   
N3125  X73.5296  Y34.6131   
N3130  X69.5516  Y34.4317   
N3135  X65.6856  Y34.4631   
N3140  X62.6333  Y34.7207   
N3145  X59.3151  Y35.2051   
N3150  X58.9844  Y35.1969   
N3155  X59.2343  Y35.0513   
N3160  X61.1728  Y34.4464   
N3165  X63.9899  Y33.8678   
N3170  X67.1333  Y33.4117   
N3175  X70.0505  Y33.1737   
N3180  X72.6361  Y33.1591   
N3185  X75.5094  Y33.2632   
N3190  X78.1336  Y33.4568   
N3195  X79.9722  Y33.7111   
N3200  X80.1339  Y33.6566   
N3205  X80.2819  Y33.4262   
N3210  X80.5205  Y32.4743   
N3215  X80.8974  Y31.0792   
N3220  X81.6321  Y29.6633   
N3225  X82.7762  Y28.1456   
N3230  X84.3814  Y26.4457   
N3235  X86.5438  Y24.3240   
N3240  X85.2335  Y23.6610   
N3245  X82.2129  Y22.3784   
N3250  X78.6707  Y21.2781   
N3255  X74.8875  Y20.4349   
N3260  X71.1442  Y19.9230   
N3265 G0  Z3.0000 
N3270  X91.0069  Y26.9544 
N3275  Z0.1000 
N3280 G1  Z-0.7000  F100.00 
N3285  X89.5563  Y26.0556   F300.00 
N3290  X88.6865  Y25.6821   
N3295  X87.9637  Y25.9886   
N3300  X86.8554  Y26.7835   
N3305  X85.5927  Y27.8825   
N3310  X84.4063  Y29.1010   
N3315  X83.5641  Y30.1381   
N3320  X82.9283  Y31.0953   
N3325  X82.5006  Y31.9622   
N3330  X82.2827  Y32.7285   
N3335  X82.2762  Y33.3838   
N3340  X82.4827  Y33.9177   
N3345  X82.9040  Y34.3199   
N3350  X83.5415  Y34.5799   
N3355  X84.1694  Y34.6622   
N3360  X84.8924  Y34.4134   
N3365  X86.1062  Y33.6208   
N3370  X88.2060  Y32.0720   
N3375  X92.3804  Y28.7738   
N3380  X92.6244  Y28.4391   
N3385  X92.5569  Y28.1303   
N3390  X92.0578  Y27.6885   
N3395  X91.0069  Y26.9544   
N3400 G0  Z0.1000 
N3405 G1  Z-1.4000  F100.00 
N3410  X89.5563  Y26.0556   F300.00 
N3415  X88.6865  Y25.6821   
N3420  X87.9637  Y25.9886   
N3425  X86.8554  Y26.7835   
N3430  X85.5927  Y27.8825   
N3435  X84.4063  Y29.1010   
N3440  X83.5641  Y30.1381   
N3445  X82.9283  Y31.0953   
N3450  X82.5006  Y31.9622   
N3455  X82.2827  Y32.7285   
N3460  X82.2762  Y33.3838   
N3465  X82.4827  Y33.9177   
N3470  X82.9040  Y34.3199   
N3475  X83.5415  Y34.5799   
N3480  X84.1694  Y34.6622   
N3485  X84.8924  Y34.4134   
N3490  X86.1062  Y33.6208   
N3495  X88.2060  Y32.0720   
N3500  X92.3804  Y28.7738   
N3505  X92.6244  Y28.4391   
N3510  X92.5569  Y28.1303   
N3515  X92.0578  Y27.6885   
N3520  X91.0069  Y26.9544   
N3525 G0  Z3.0000 
N3530  X105.8334  Y46.7666 
N3535  Z0.1000 
N3540 G1  Z-0.7000  F100.00 
N3545  X105.2864  Y45.2630   F300.00 
N3550  X104.9445  Y44.6377   
N3555  X101.9924  Y46.6717   
N3560  X99.0718  Y48.9686   
N3565  X99.0877  Y49.2070   
N3570  X99.2980  Y49.5770   
N3575  X100.1150  Y50.5245   
N3580  X101.1490  Y51.4359   
N3585  X102.0261  Y51.9356   
N3590  X102.5074  Y51.9856   
N3595  X103.0789  Y51.8850   
N3600  X104.8584  Y51.1273   
N3605  X106.5248  Y50.1857   
N3610  X106.7447  Y49.8644   
N3615  X106.7106  Y49.5077   
N3620  X105.8334  Y46.7666   
N3625 G0  Z0.1000 
N3630 G1  Z-1.4000  F100.00 
N3635  X105.2864  Y45.2630   F300.00 
N3640  X104.9445  Y44.6377   
N3645  X101.9924  Y46.6717   
N3650  X99.0718  Y48.9686   
N3655  X99.0877  Y49.2070   
N3660  X99.2980  Y49.5770   
N3665  X100.1150  Y50.5245   
N3670  X101.1490  Y51.4359   
N3675  X102.0261  Y51.9356   
N3680  X102.5074  Y51.9856   
N3685  X103.0789  Y51.8850   
N3690  X104.8584  Y51.1273   
N3695  X106.5248  Y50.1857   
N3700  X106.7447  Y49.8644   
N3705  X106.7106  Y49.5077   
N3710  X105.8334  Y46.7666   
N3715 G0  Z3.0000 
N3720  X118.6613  Y38.8687 
N3725  Z0.1000 
N3730 G1  Z-0.7000  F100.00 
N3735  X118.0781  Y38.7388   F300.00 
N3740  X117.6718  Y38.7268   
N3745  X117.2376  Y38.8968   
N3750  X116.8918  Y39.1810   
N3755  X116.7507  Y39.5117   
N3760  X117.1535  Y40.3904   
N3765  X118.1219  Y42.0241   
N3770  X119.0537  Y43.6345   
N3775  X119.5757  Y44.9005   
N3780  X119.7162  Y45.9192   
N3785  X119.5033  Y46.7876   
N3790  X119.3006  Y47.1765   
N3795  X119.1399  Y47.2008   
N3800  X118.6347  Y45.8052   
N3805  X118.2530  Y44.7471   
N3810  X117.8676  Y44.2101   
N3815  X117.3731  Y44.1187   
N3820  X116.6640  Y44.3973   
N3825  X114.5754  Y45.8269   
N3830  X111.3940  Y48.3266   
N3835  X108.8461  Y50.2661   
N3840  X106.2933  Y51.9253   
N3845  X103.9352  Y53.1854   
N3850  X101.9716  Y53.9275   
N3855  X98.5196  Y54.6371   
N3860  X97.6359  Y54.6965   
N3865  X97.5628  Y54.6309   
N3870  X97.7959  Y54.4937   
N3875  X99.8195  Y53.6118   
N3880  X100.8312  Y53.0833   
N3885  X100.8737  Y52.9148   
N3890  X100.6684  Y52.7483   
N3895  X98.7121  Y51.2949   
N3900  X97.2436  Y50.1231   
N3905  X81.1060  Y61.8495   
N3910  X55.5285  Y80.4406   
N3915  X46.0885  Y87.3053   
N3920  X46.7378  Y87.8161   
N3925  X48.1800  Y88.7057   
N3930  X50.3156  Y89.7558   
N3935  X52.6695  Y90.7498   
N3940  X54.7662  Y91.4715   
N3945  X56.7598  Y91.8961   
N3950  X58.9164  Y92.1211   
N3955  X60.9989  Y92.1334   
N3960  X62.7707  Y91.9194   
N3965  X63.2322  Y91.7921   
N3970  X63.4672  Y91.5845   
N3975  X63.5364  Y91.1727   
N3980  X63.5007  Y90.4328   
N3985  X63.4943  Y89.2749   
N3990  X63.6368  Y88.1020   
N3995  X63.9232  Y86.9257   
N4000  X64.3485  Y85.7577   
N4005  X64.9077  Y84.6098   
N4010  X65.5958  Y83.4935   
N4015  X66.4079  Y82.4208   
N4020  X67.3391  Y81.4031   
N4025  X68.8008  Y80.0310   
N4030  X69.8132  Y79.2229   
N4035  X70.0729  Y79.0825   
N4040  X70.1266  Y79.1457   
N4045  X69.4916  Y79.9658   
N4050  X68.5673  Y81.1319   
N4055  X67.5728  Y82.6253   
N4060  X66.5975  Y84.3021   
N4065  X65.7307  Y86.0185   
N4070  X65.3540  Y86.9193   
N4075  X65.1262  Y87.7412   
N4080  X64.9838  Y89.8270   
N4085  X65.1315  Y91.7352   
N4090  X65.6478  Y93.4394   
N4095  X66.6432  Y95.1917   
N4100  X68.2280  Y97.2441   
N4105  X70.1859  Y99.7867   
N4110  X70.8773  Y100.9212   
N4115  X71.4130  Y102.0539   
N4120  X71.8201  Y103.2514   
N4125  X72.1258  Y104.5809   
N4130  X72.5410  Y107.9032   
N4135  X73.0183  Y111.5764   
N4140  X73.7641  Y114.7777   
N4145  X74.7637  Y117.4571   
N4150  X75.3539  Y118.5853   
N4155  X76.0020  Y119.5642   
N4160  X76.4296  Y120.1957   
N4165  X76.4506  Y120.4140   
N4170  X75.2442  Y119.6125   
N4175  X74.1780  Y118.7680   
N4180  X72.2652  Y119.3718   
N4185  X70.5782  Y120.0196   
N4190  X69.0983  Y120.8286   
N4195  X67.8437  Y121.7874   
N4200  X66.8323  Y122.8842   
N4205  X66.3038  Y123.6839   
N4210  X66.1026  Y124.2302   
N4215  X66.2337  Y124.4679   
N4220  X66.7020  Y124.3416   
N4225  X68.4897  Y123.9315   
N4230  X69.7126  Y123.9029   
N4235  X70.6720  Y124.2282   
N4240  X71.4854  Y124.9787   
N4245  X72.2702  Y126.2258   
N4250  X73.0043  Y127.4628   
N4255  X73.7448  Y128.4349   
N4260  X74.4853  Y129.1346   
N4265  X75.2191  Y129.5546   
N4270  X76.1652  Y129.7610   
N4275  X77.2880  Y129.7710   
N4280  X78.4397  Y129.5953   
N4285  X79.4726  Y129.2447   
N4290  X80.4688  Y128.6821   
N4295  X81.5900  Y127.9047   
N4300  X83.7662  Y126.1105   
N4305  X85.1184  Y124.6712   
N4310  X85.2094  Y124.3375   
N4315  X84.7633  Y124.3961   
N4320  X84.4091  Y124.4163   
N4325  X84.0356  Y124.2816   
N4330  X83.9528  Y124.1742   
N4335  X84.0899  Y124.0966   
N4340  X85.0220  Y124.0308   
N4345  X86.8097  Y123.9320   
N4350  X88.4988  Y123.6497   
N4355  X90.0933  Y123.1819   
N4360  X91.5973  Y122.5263   
N4365  X93.0149  Y121.6811   
N4370  X94.3501  Y120.6440   
N4375  X95.6070  Y119.4129   
N4380  X96.7897  Y117.9859   
N4385  X97.8604  Y116.2574   
N4390  X98.6103  Y114.3501   
N4395  X100.2403  Y109.3485   
N4400  X101.9801  Y105.0798   
N4405  X103.8911  Y101.4102   
N4410  X106.0350  Y98.2056   
N4415  X108.1262  Y95.1912   
N4420  X108.8433  Y93.9058   
N4425  X109.3581  Y92.7229   
N4430  X109.6828  Y91.6090   
N4435  X109.8297  Y90.5302   
N4440  X109.8113  Y89.4527   
N4445  X109.6397  Y88.3428   
N4450  X109.1256  Y86.6013   
N4455  X108.2828  Y84.9153   
N4460  X106.9737  Y83.0583   
N4465  X105.0610  Y80.8042   
N4470  X103.0586  Y78.4539   
N4475  X102.3295  Y77.3727   
N4480  X102.5336  Y77.3878   
N4485  X102.7749  Y77.6735   
N4490  X103.1865  Y78.1265   
N4495  X103.8002  Y78.5437   
N4500  X104.2365  Y78.7362   
N4505  X104.6120  Y78.7868   
N4510  X105.6409  Y78.4353   
N4515  X106.8783  Y77.6624   
N4520  X108.2241  Y76.4190   
N4525  X109.7224  Y74.6584   
N4530  X111.4175  Y72.3341   
N4535  X114.1299  Y68.4716   
N4540  X116.1609  Y65.8009   
N4545  X117.9325  Y63.8037   
N4550  X119.8667  Y61.9620   
N4555  X122.1333  Y59.8121   
N4560  X122.7811  Y59.0487   
N4565  X123.1238  Y58.4417   
N4570  X123.1750  Y57.9533   
N4575  X122.9485  Y57.5449   
N4580  X122.4581  Y57.1785   
N4585  X121.7174  Y56.8156   
N4590  X121.1224  Y56.4765   
N4595  X121.0189  Y56.3441   
N4600  X121.0729  Y56.2606   
N4605  X121.6839  Y56.3134   
N4610  X122.9497  Y56.7197   
N4615  X127.7177  Y58.6922   
N4620  X135.9527  Y61.9556   
N4625  X143.6721  Y64.7100   
N4630  X145.3914  Y65.1507   
N4635  X146.7206  Y65.3053   
N4640  X147.7069  Y65.1742   
N4645  X148.3976  Y64.7579   
N4650  X149.0000  Y64.1555   
N4655  X148.3533  Y63.4670   
N4660  X147.1628  Y62.5714   
N4665  X145.2086  Y61.3851   
N4670  X143.3483  Y60.1891   
N4675  X141.4216  Y58.7383   
N4680  X140.0268  Y57.5145   
N4685  X139.7158  Y57.1383   
N4690  X139.6897  Y57.0354   
N4695  X139.7622  Y56.9994   
N4700  X141.3545  Y57.6539   
N4705  X142.7106  Y58.3084   
N4710  X143.9036  Y57.4517   
N4715  X145.4040  Y56.0708   
N4720  X146.7551  Y54.3557   
N4725  X147.6280  Y52.7917   
N4730  X147.7823  Y52.2180   
N4735  X147.6935  Y51.8640   
N4740  X146.8509  Y51.8515   
N4745  X145.0569  Y52.0531   
N4750  X142.9115  Y52.2559   
N4755  X141.2245  Y52.2463   
N4760  X140.0826  Y52.0095   
N4765  X138.9620  Y51.6021   
N4770  X138.0004  Y51.0853   
N4775  X137.3354  Y50.5201   
N4780  X137.1539  Y50.2630   
N4785  X137.2102  Y50.1432   
N4790  X138.3359  Y50.2284   
N4795  X139.7301  Y50.4126   
N4800  X141.5476  Y48.5301   
N4805  X143.0178  Y46.7780   
N4810  X143.4282  Y46.0801   
N4815  X143.6198  Y45.5156   
N4820  X143.5907  Y45.0955   
N4825  X143.3391  Y44.8309   
N4830  X142.8633  Y44.7328   
N4835  X142.1612  Y44.8122   
N4840  X141.1764  Y45.1372   
N4845  X139.9466  Y45.6737   
N4850  X138.8970  Y46.2198   
N4855  X138.4526  Y46.5737   
N4860  X139.2081  Y47.1225   
N4865  X139.9635  Y47.4979   
N4870  X139.2383  Y47.5940   
N4875  X137.7365  Y47.2910   
N4880  X135.1177  Y46.4140   
N4885  X130.0914  Y44.6383   
N4890  X128.6730  Y44.2398   
N4895  X128.0856  Y44.1995   
N4900  X128.1729  Y44.4660   
N4905  X128.5930  Y44.8963   
N4910  X128.9856  Y45.2855   
N4915  X129.0068  Y45.4526   
N4920  X127.7152  Y44.8541   
N4925  X125.2649  Y43.4149   
N4930  X122.5995  Y41.7142   
N4935  X120.6625  Y40.3311   
N4940  X118.6613  Y38.8687   
N4945 G0  Z0.1000 
N4950 G1  Z-1.4000  F100.00 
N4955  X118.0781  Y38.7388   F300.00 
N4960  X117.6718  Y38.7268   
N4965  X117.2376  Y38.8968   
N4970  X116.8918  Y39.1810   
N4975  X116.7507  Y39.5117   
N4980  X117.1535  Y40.3904   
N4985  X118.1219  Y42.0241   
N4990  X119.0537  Y43.6345   
N4995  X119.5757  Y44.9005   
N5000  X119.7162  Y45.9192   
N5005  X119.5033  Y46.7876   
N5010  X119.3006  Y47.1765   
N5015  X119.1399  Y47.2008   
N5020  X118.6347  Y45.8052   
N5025  X118.2530  Y44.7471   
N5030  X117.8676  Y44.2101   
N5035  X117.3731  Y44.1187   
N5040  X116.6640  Y44.3973   
N5045  X114.5754  Y45.8269   
N5050  X111.3940  Y48.3266   
N5055  X108.8461  Y50.2661   
N5060  X106.2933  Y51.9253   
N5065  X103.9352  Y53.1854   
N5070  X101.9716  Y53.9275   
N5075  X98.5196  Y54.6371   
N5080  X97.6359  Y54.6965   
N5085  X97.5628  Y54.6309   
N5090  X97.7959  Y54.4937   
N5095  X99.8195  Y53.6118   
N5100  X100.8312  Y53.0833   
N5105  X100.8737  Y52.9148   
N5110  X100.6684  Y52.7483   
N5115  X98.7121  Y51.2949   
N5120  X97.2436  Y50.1231   
N5125  X81.1060  Y61.8495   
N5130  X55.5285  Y80.4406   
N5135  X46.0885  Y87.3053   
N5140  X46.7378  Y87.8161   
N5145  X48.1800  Y88.7057   
N5150  X50.3156  Y89.7558   
N5155  X52.6695  Y90.7498   
N5160  X54.7662  Y91.4715   
N5165  X56.7598  Y91.8961   
N5170  X58.9164  Y92.1211   
N5175  X60.9989  Y92.1334   
N5180  X62.7707  Y91.9194   
N5185  X63.2322  Y91.7921   
N5190  X63.4672  Y91.5845   
N5195  X63.5364  Y91.1727   
N5200  X63.5007  Y90.4328   
N5205  X63.4943  Y89.2749   
N5210  X63.6368  Y88.1020   
N5215  X63.9232  Y86.9257   
N5220  X64.3485  Y85.7577   
N5225  X64.9077  Y84.6098   
N5230  X65.5958  Y83.4935   
N5235  X66.4079  Y82.4208   
N5240  X67.3391  Y81.4031   
N5245  X68.8008  Y80.0310   
N5250  X69.8132  Y79.2229   
N5255  X70.0729  Y79.0825   
N5260  X70.1266  Y79.1457   
N5265  X69.4916  Y79.9658   
N5270  X68.5673  Y81.1319   
N5275  X67.5728  Y82.6253   
N5280  X66.5975  Y84.3021   
N5285  X65.7307  Y86.0185   
N5290  X65.3540  Y86.9193   
N5295  X65.1262  Y87.7412   
N5300  X64.9838  Y89.8270   
N5305  X65.1315  Y91.7352   
N5310  X65.6478  Y93.4394   
N5315  X66.6432  Y95.1917   
N5320  X68.2280  Y97.2441   
N5325  X70.1859  Y99.7867   
N5330  X70.8773  Y100.9212   
N5335  X71.4130  Y102.0539   
N5340  X71.8201  Y103.2514   
N5345  X72.1258  Y104.5809   
N5350  X72.5410  Y107.9032   
N5355  X73.0183  Y111.5764   
N5360  X73.7641  Y114.7777   
N5365  X74.7637  Y117.4571   
N5370  X75.3539  Y118.5853   
N5375  X76.0020  Y119.5642   
N5380  X76.4296  Y120.1957   
N5385  X76.4506  Y120.4140   
N5390  X75.2442  Y119.6125   
N5395  X74.1780  Y118.7680   
N5400  X72.2652  Y119.3718   
N5405  X70.5782  Y120.0196   
N5410  X69.0983  Y120.8286   
N5415  X67.8437  Y121.7874   
N5420  X66.8323  Y122.8842   
N5425  X66.3038  Y123.6839   
N5430  X66.1026  Y124.2302   
N5435  X66.2337  Y124.4679   
N5440  X66.7020  Y124.3416   
N5445  X68.4897  Y123.9315   
N5450  X69.7126  Y123.9029   
N5455  X70.6720  Y124.2282   
N5460  X71.4854  Y124.9787   
N5465  X72.2702  Y126.2258   
N5470  X73.0043  Y127.4628   
N5475  X73.7448  Y128.4349   
N5480  X74.4853  Y129.1346   
N5485  X75.2191  Y129.5546   
N5490  X76.1652  Y129.7610   
N5495  X77.2880  Y129.7710   
N5500  X78.4397  Y129.5953   
N5505  X79.4726  Y129.2447   
N5510  X80.4688  Y128.6821   
N5515  X81.5900  Y127.9047   
N5520  X83.7662  Y126.1105   
N5525  X85.1184  Y124.6712   
N5530  X85.2094  Y124.3375   
N5535  X84.7633  Y124.3961   
N5540  X84.4091  Y124.4163   
N5545  X84.0356  Y124.2816   
N5550  X83.9528  Y124.1742   
N5555  X84.0899  Y124.0966   
N5560  X85.0220  Y124.0308   
N5565  X86.8097  Y123.9320   
N5570  X88.4988  Y123.6497   
N5575  X90.0933  Y123.1819   
N5580  X91.5973  Y122.5263   
N5585  X93.0149  Y121.6811   
N5590  X94.3501  Y120.6440   
N5595  X95.6070  Y119.4129   
N5600  X96.7897  Y117.9859   
N5605  X97.8604  Y116.2574   
N5610  X98.6103  Y114.3501   
N5615  X100.2403  Y109.3485   
N5620  X101.9801  Y105.0798   
N5625  X103.8911  Y101.4102   
N5630  X106.0350  Y98.2056   
N5635  X108.1262  Y95.1912   
N5640  X108.8433  Y93.9058   
N5645  X109.3581  Y92.7229   
N5650  X109.6828  Y91.6090   
N5655  X109.8297  Y90.5302   
N5660  X109.8113  Y89.4527   
N5665  X109.6397  Y88.3428   
N5670  X109.1256  Y86.6013   
N5675  X108.2828  Y84.9153   
N5680  X106.9737  Y83.0583   
N5685  X105.0610  Y80.8042   
N5690  X103.0586  Y78.4539   
N5695  X102.3295  Y77.3727   
N5700  X102.5336  Y77.3878   
N5705  X102.7749  Y77.6735   
N5710  X103.1865  Y78.1265   
N5715  X103.8002  Y78.5437   
N5720  X104.2365  Y78.7362   
N5725  X104.6120  Y78.7868   
N5730  X105.6409  Y78.4353   
N5735  X106.8783  Y77.6624   
N5740  X108.2241  Y76.4190   
N5745  X109.7224  Y74.6584   
N5750  X111.4175  Y72.3341   
N5755  X114.1299  Y68.4716   
N5760  X116.1609  Y65.8009   
N5765  X117.9325  Y63.8037   
N5770  X119.8667  Y61.9620   
N5775  X122.1333  Y59.8121   
N5780  X122.7811  Y59.0487   
N5785  X123.1238  Y58.4417   
N5790  X123.1750  Y57.9533   
N5795  X122.9485  Y57.5449   
N5800  X122.4581  Y57.1785   
N5805  X121.7174  Y56.8156   
N5810  X121.1224  Y56.4765   
N5815  X121.0189  Y56.3441   
N5820  X121.0729  Y56.2606   
N5825  X121.6839  Y56.3134   
N5830  X122.9497  Y56.7197   
N5835  X127.7177  Y58.6922   
N5840  X135.9527  Y61.9556   
N5845  X143.6721  Y64.7100   
N5850  X145.3914  Y65.1507   
N5855  X146.7206  Y65.3053   
N5860  X147.7069  Y65.1742   
N5865  X148.3976  Y64.7579   
N5870  X149.0000  Y64.1555   
N5875  X148.3533  Y63.4670   
N5880  X147.1628  Y62.5714   
N5885  X145.2086  Y61.3851   
N5890  X143.3483  Y60.1891   
N5895  X141.4216  Y58.7383   
N5900  X140.0268  Y57.5145   
N5905  X139.7158  Y57.1383   
N5910  X139.6897  Y57.0354   
N5915  X139.7622  Y56.9994   
N5920  X141.3545  Y57.6539   
N5925  X142.7106  Y58.3084   
N5930  X143.9036  Y57.4517   
N5935  X145.4040  Y56.0708   
N5940  X146.7551  Y54.3557   
N5945  X147.6280  Y52.7917   
N5950  X147.7823  Y52.2180   
N5955  X147.6935  Y51.8640   
N5960  X146.8509  Y51.8515   
N5965  X145.0569  Y52.0531   
N5970  X142.9115  Y52.2559   
N5975  X141.2245  Y52.2463   
N5980  X140.0826  Y52.0095   
N5985  X138.9620  Y51.6021   
N5990  X138.0004  Y51.0853   
N5995  X137.3354  Y50.5201   
N6000  X137.1539  Y50.2630   
N6005  X137.2102  Y50.1432   
N6010  X138.3359  Y50.2284   
N6015  X139.7301  Y50.4126   
N6020  X141.5476  Y48.5301   
N6025  X143.0178  Y46.7780   
N6030  X143.4282  Y46.0801   
N6035  X143.6198  Y45.5156   
N6040  X143.5907  Y45.0955   
N6045  X143.3391  Y44.8309   
N6050  X142.8633  Y44.7328   
N6055  X142.1612  Y44.8122   
N6060  X141.1764  Y45.1372   
N6065  X139.9466  Y45.6737   
N6070  X138.8970  Y46.2198   
N6075  X138.4526  Y46.5737   
N6080  X139.2081  Y47.1225   
N6085  X139.9635  Y47.4979   
N6090  X139.2383  Y47.5940   
N6095  X137.7365  Y47.2910   
N6100  X135.1177  Y46.4140   
N6105  X130.0914  Y44.6383   
N6110  X128.6730  Y44.2398   
N6115  X128.0856  Y44.1995   
N6120  X128.1729  Y44.4660   
N6125  X128.5930  Y44.8963   
N6130  X128.9856  Y45.2855   
N6135  X129.0068  Y45.4526   
N6140  X127.7152  Y44.8541   
N6145  X125.2649  Y43.4149   
N6150  X122.5995  Y41.7142   
N6155  X120.6625  Y40.3311   
N6160  X118.6613  Y38.8687   
N6165 G0  Z3.0000 
N6170  X84.4451  Y78.2618 
N6175  Z0.1000 
N6180 G1  Z-0.7000  F100.00 
N6185  X83.7242  Y79.1855   F300.00 
N6190  X83.5111  Y80.0845   
N6195  Y80.9731   
N6200  X84.0650  Y80.2689   
N6205  X84.7180  Y79.6070   
N6210  X85.5287  Y79.0153   
N6215  X86.3436  Y78.5898   
N6220  X87.0090  Y78.4267   
N6225  X87.6016  Y78.5880   
N6230  X88.2561  Y78.9761   
N6235  X89.1066  Y79.4958   
N6240  X89.1619  Y79.3406   
N6245  X88.9827  Y78.9074   
N6250  X88.5253  Y78.2366   
N6255  X87.9385  Y77.7446   
N6260  X87.2373  Y77.4406   
N6265  X86.4367  Y77.3339   
N6270  X85.8752  Y77.3724   
N6275  X85.4041  Y77.5176   
N6280  X84.4451  Y78.2618   
N6285 G0  Z0.1000 
N6290 G1  Z-1.4000  F100.00 
N6295  X83.7242  Y79.1855   F300.00 
N6300  X83.5111  Y80.0845   
N6305  Y80.9731   
N6310  X84.0650  Y80.2689   
N6315  X84.7180  Y79.6070   
N6320  X85.5287  Y79.0153   
N6325  X86.3436  Y78.5898   
N6330  X87.0090  Y78.4267   
N6335  X87.6016  Y78.5880   
N6340  X88.2561  Y78.9761   
N6345  X89.1066  Y79.4958   
N6350  X89.1619  Y79.3406   
N6355  X88.9827  Y78.9074   
N6360  X88.5253  Y78.2366   
N6365  X87.9385  Y77.7446   
N6370  X87.2373  Y77.4406   
N6375  X86.4367  Y77.3339   
N6380  X85.8752  Y77.3724   
N6385  X85.4041  Y77.5176   
N6390  X84.4451  Y78.2618   
N6395 G0  Z3.0000 
N6400  X86.2511  Y84.9844 
N6405  Z0.1000 
N6410 G1  Z-0.7000  F100.00 
N6415  X85.8139  Y85.5085   F300.00 
N6420  X85.4916  Y86.0825   
N6425  X85.2850  Y86.6924   
N6430  X85.1947  Y87.3247   
N6435  X85.2214  Y87.9654   
N6440  X85.3658  Y88.6006   
N6445  X85.6287  Y89.2164   
N6450  X86.0106  Y89.7991   
N6455  X86.5345  Y90.2631   
N6460  X87.1360  Y90.4758   
N6465  X87.7696  Y90.4610   
N6470  X88.3899  Y90.2425   
N6475  X88.9515  Y89.8441   
N6480  X89.4089  Y89.2892   
N6485  X89.7167  Y88.6020   
N6490  X89.8294  Y87.8057   
N6495  X89.7640  Y86.8679   
N6500  X89.5644  Y86.0567   
N6505  X89.2253  Y85.3576   
N6510  X88.7415  Y84.7559   
N6515  X88.1569  Y84.3345   
N6520  X87.5549  Y84.2314   
N6525  X86.9238  Y84.4477   
N6530  X86.2511  Y84.9844   
N6535 G0  Z0.1000 
N6540 G1  Z-1.4000  F100.00 
N6545  X85.8139  Y85.5085   F300.00 
N6550  X85.4916  Y86.0825   
N6555  X85.2850  Y86.6924   
N6560  X85.1947  Y87.3247   
N6565  X85.2214  Y87.9654   
N6570  X85.3658  Y88.6006   
N6575  X85.6287  Y89.2164   
N6580  X86.0106  Y89.7991   
N6585  X86.5345  Y90.2631   
N6590  X87.1360  Y90.4758   
N6595  X87.7696  Y90.4610   
N6600  X88.3899  Y90.2425   
N6605  X88.9515  Y89.8441   
N6610  X89.4089  Y89.2892   
N6615  X89.7167  Y88.6020   
N6620  X89.8294  Y87.8057   
N6625  X89.7640  Y86.8679   
N6630  X89.5644  Y86.0567   
N6635  X89.2253  Y85.3576   
N6640  X88.7415  Y84.7559   
N6645  X88.1569  Y84.3345   
N6650  X87.5549  Y84.2314   
N6655  X86.9238  Y84.4477   
N6660  X86.2511  Y84.9844   
N6665 G0  Z3.0000 
N6670  X89.0053  Y98.7550 
N6675  Z0.1000 
N6680 G1  Z-0.7000  F100.00 
N6685  X89.2410  Y98.5886   F300.00 
N6690  X89.2577  Y98.1653   
N6695  X89.0745  Y97.5998   
N6700  X88.7106  Y97.0065   
N6705  X88.1245  Y96.4878   
N6710  X87.4713  Y96.3062   
N6715  X86.7871  Y96.4623   
N6720  X86.1083  Y96.9569   
N6725  X85.6839  Y97.4471   
N6730  X85.4679  Y97.8436   
N6735  X85.4721  Y98.1089   
N6740  X85.7088  Y98.2056   
N6745  X85.9028  Y98.1378   
N6750  X85.9835  Y97.9750   
N6755  X86.1687  Y97.7278   
N6760  X86.6140  Y97.4571   
N6765  X87.2593  Y97.3614   
N6770  X87.9519  Y97.5314   
N6775  X88.5047  Y97.8878   
N6780  X88.7305  Y98.3518   
N6785  X88.8113  Y98.6366   
N6790  X89.0053  Y98.7550   
N6795 G0  Z0.1000 
N6800 G1  Z-1.4000  F100.00 
N6805  X89.2410  Y98.5886   F300.00 
N6810  X89.2577  Y98.1653   
N6815  X89.0745  Y97.5998   
N6820  X88.7106  Y97.0065   
N6825  X88.1245  Y96.4878   
N6830  X87.4713  Y96.3062   
N6835  X86.7871  Y96.4623   
N6840  X86.1083  Y96.9569   
N6845  X85.6839  Y97.4471   
N6850  X85.4679  Y97.8436   
N6855  X85.4721  Y98.1089   
N6860  X85.7088  Y98.2056   
N6865  X85.9028  Y98.1378   
N6870  X85.9835  Y97.9750   
N6875  X86.1687  Y97.7278   
N6880  X86.6140  Y97.4571   
N6885  X87.2593  Y97.3614   
N6890  X87.9519  Y97.5314   
N6895  X88.5047  Y97.8878   
N6900  X88.7305  Y98.3518   
N6905  X88.8113  Y98.6366   
N6910  X89.0053  Y98.7550   
N6915 G0  Z3.0000 
N6920  X81.4110  Y107.1558 
N6925  Z0.1000 
N6930 G1  Z-0.7000  F100.00 
N6935  X81.1666  Y107.5654   F300.00 
N6940  X81.0844  Y107.8747   
N6945  X81.4047  Y108.6404   
N6950  X81.8354  Y109.5495   
N6955  X81.7437  Y109.7051   
N6960  X81.4508  Y109.7434   
N6965  X81.1648  Y109.8420   
N6970  X81.0522  Y110.0934   
N6975  X81.1183  Y110.4307   
N6980  X81.3684  Y110.7872   
N6985  X81.7992  Y111.0610   
N6990  X82.2696  Y111.0780   
N6995  X82.7581  Y110.8432   
N7000  X83.2433  Y110.3614   
N7005  X83.6894  Y109.5210   
N7010  X83.7090  Y108.4386   
N7015  X83.3823  Y107.1983   
N7020  X83.1214  Y106.7882   
N7025  X82.8144  Y106.5287   
N7030  X82.4755  Y106.4277   
N7035  X82.1192  Y106.4932   
N7040  X81.7596  Y106.7333   
N7045  X81.4110  Y107.1558   
N7050 G0  Z0.1000 
N7055 G1  Z-1.4000  F100.00 
N7060  X81.1666  Y107.5654   F300.00 
N7065  X81.0844  Y107.8747   
N7070  X81.4047  Y108.6404   
N7075  X81.8354  Y109.5495   
N7080  X81.7437  Y109.7051   
N7085  X81.4508  Y109.7434   
N7090  X81.1648  Y109.8420   
N7095  X81.0522  Y110.0934   
N7100  X81.1183  Y110.4307   
N7105  X81.3684  Y110.7872   
N7110  X81.7992  Y111.0610   
N7115  X82.2696  Y111.0780   
N7120  X82.7581  Y110.8432   
N7125  X83.2433  Y110.3614   
N7130  X83.6894  Y109.5210   
N7135  X83.7090  Y108.4386   
N7140  X83.3823  Y107.1983   
N7145  X83.1214  Y106.7882   
N7150  X82.8144  Y106.5287   
N7155  X82.4755  Y106.4277   
N7160  X82.1192  Y106.4932   
N7165  X81.7596  Y106.7333   
N7170  X81.4110  Y107.1558   
N7175 G0  Z3.0000 
N7180  X79.6652  Y114.1102 
N7185  Z0.1000 
N7190 G1  Z-0.7000  F100.00 
N7195  X79.7443  Y114.4497   F300.00 
N7200  X79.9621  Y114.8164   
N7205  X80.6982  Y115.5418   
N7210  X81.6412  Y116.1079   
N7215  X82.5592  Y116.3363   
N7220  X83.5111  Y116.2105   
N7225  X82.3153  Y115.3840   
N7230  X81.3253  Y114.7284   
N7235  X80.6245  Y114.1362   
N7240  X80.2120  Y113.7477   
N7245  X79.9114  Y113.6138   
N7250  X79.7276  Y113.7346   
N7255  X79.6652  Y114.1102   
N7260 G0  Z0.1000 
N7265 G1  Z-1.4000  F100.00 
N7270  X79.7443  Y114.4497   F300.00 
N7275  X79.9621  Y114.8164   
N7280  X80.6982  Y115.5418   
N7285  X81.6412  Y116.1079   
N7290  X82.5592  Y116.3363   
N7295  X83.5111  Y116.2105   
N7300  X82.3153  Y115.3840   
N7305  X81.3253  Y114.7284   
N7310  X80.6245  Y114.1362   
N7315  X80.2120  Y113.7477   
N7320  X79.9114  Y113.6138   
N7325  X79.7276  Y113.7346   
N7330  X79.6652  Y114.1102   
N7335 G0  Z3.0000 
N7340  X91.3719  Y107.3987 
N7345  Z0.1000 
N7350 G1  Z-0.7000  F100.00 
N7355  X91.0576  Y108.0169   F300.00 
N7360  X90.9473  Y108.5847   
N7365  X91.0414  Y109.0769   
N7370  X91.3403  Y109.4686   
N7375  X91.6580  Y109.8108   
N7380  X91.7349  Y110.0722   
N7385  X91.5808  Y110.2036   
N7390  X91.2052  Y110.1561   
N7395  X90.7934  Y110.1228   
N7400  X90.8914  Y110.6184   
N7405  X91.2777  Y111.1424   
N7410  X91.8449  Y111.3536   
N7415  X92.4496  Y111.2402   
N7420  X92.9490  Y110.7901   
N7425  X93.3298  Y109.8719   
N7430  X93.4608  Y108.8268   
N7435  X93.3409  Y107.8540   
N7440  X92.9689  Y107.1532   
N7445  X92.5342  Y106.8242   
N7450  X92.1339  Y106.7537   
N7455  X91.7520  Y106.9444   
N7460  X91.3719  Y107.3987   
N7465 G0  Z0.1000 
N7470 G1  Z-1.4000  F100.00 
N7475  X91.0576  Y108.0169   F300.00 
N7480  X90.9473  Y108.5847   
N7485  X91.0414  Y109.0769   
N7490  X91.3403  Y109.4686   
N7495  X91.6580  Y109.8108   
N7500  X91.7349  Y110.0722   
N7505  X91.5808  Y110.2036   
N7510  X91.2052  Y110.1561   
N7515  X90.7934  Y110.1228   
N7520  X90.8914  Y110.6184   
N7525  X91.2777  Y111.1424   
N7530  X91.8449  Y111.3536   
N7535  X92.4496  Y111.2402   
N7540  X92.9490  Y110.7901   
N7545  X93.3298  Y109.8719   
N7550  X93.4608  Y108.8268   
N7555  X93.3409  Y107.8540   
N7560  X92.9689  Y107.1532   
N7565  X92.5342  Y106.8242   
N7570  X92.1339  Y106.7537   
N7575  X91.7520  Y106.9444   
N7580  X91.3719  Y107.3987   
N7585 G0  Z3.0000 
N7590  X93.2698  Y113.3019 
N7595  Z0.1000 
N7600 G1  Z-0.7000  F100.00 
N7605  X91.9600  Y115.1346   F300.00 
N7610  X91.2905  Y115.9758   
N7615  X91.3912  Y116.0347   
N7620  X91.7590  Y115.9452   
N7625  X92.5750  Y115.6679   
N7630  X93.1873  Y115.3491   
N7635  X93.6257  Y114.9688   
N7640  X93.9196  Y114.5076   
N7645  X94.2095  Y113.4872   
N7650  X94.1253  Y112.8117   
N7655  X93.9770  Y112.6664   
N7660  X93.7759  Y112.6828   
N7665  X93.5357  Y112.8863   
N7670  X93.2698  Y113.3019   
N7675 G0  Z0.1000 
N7680 G1  Z-1.4000  F100.00 
N7685  X91.9600  Y115.1346   F300.00 
N7690  X91.2905  Y115.9758   
N7695  X91.3912  Y116.0347   
N7700  X91.7590  Y115.9452   
N7705  X92.5750  Y115.6679   
N7710  X93.1873  Y115.3491   
N7715  X93.6257  Y114.9688   
N7720  X93.9196  Y114.5076   
N7725  X94.2095  Y113.4872   
N7730  X94.1253  Y112.8117   
N7735  X93.9770  Y112.6664   
N7740  X93.7759  Y112.6828   
N7745  X93.5357  Y112.8863   
N7750  X93.2698  Y113.3019   
N7755 G0  Z3.0000 
N7760  X46.7473  Y89.3802 
N7765  Z0.1000 
N7770 G1  Z-0.7000  F100.00 
N7775  X44.8179  Y88.3192   F300.00 
N7780  X43.7485  Y89.0248   
N7785  X42.8571  Y89.7274   
N7790  X43.6112  Y90.3587   
N7795  X45.2794  Y91.6273   
N7800  X47.1962  Y92.8616   
N7805  X49.3084  Y94.0377   
N7810  X51.5626  Y95.1313   
N7815  X53.9056  Y96.1184   
N7820  X56.2840  Y96.9747   
N7825  X58.6445  Y97.6763   
N7830  X60.9339  Y98.1989   
N7835  X65.3973  Y98.8683   
N7840  X66.9679  Y98.9911   
N7845  X67.5781  Y98.9164   
N7850  X66.4106  Y97.3054   
N7855  X65.3893  Y95.8616   
N7860  X64.5735  Y94.4152   
N7865  X63.9573  Y93.3263   
N7870  X63.7107  Y93.1322   
N7875  X63.4746  Y93.1362   
N7880  X62.3986  Y93.4202   
N7885  X60.9535  Y93.6253   
N7890  X59.4255  Y93.7222   
N7895  X58.1007  Y93.6820   
N7900  X55.4219  Y93.2169   
N7905  X52.6886  Y92.3645   
N7910  X49.8231  Y91.0955   
N7915  X46.7473  Y89.3802   
N7920 G0  Z0.1000 
N7925 G1  Z-1.4000  F100.00 
N7930  X44.8179  Y88.3192   F300.00 
N7935  X43.7485  Y89.0248   
N7940  X42.8571  Y89.7274   
N7945  X43.6112  Y90.3587   
N7950  X45.2794  Y91.6273   
N7955  X47.1962  Y92.8616   
N7960  X49.3084  Y94.0377   
N7965  X51.5626  Y95.1313   
N7970  X53.9056  Y96.1184   
N7975  X56.2840  Y96.9747   
N7980  X58.6445  Y97.6763   
N7985  X60.9339  Y98.1989   
N7990  X65.3973  Y98.8683   
N7995  X66.9679  Y98.9911   
N8000  X67.5781  Y98.9164   
N8005  X66.4106  Y97.3054   
N8010  X65.3893  Y95.8616   
N8015  X64.5735  Y94.4152   
N8020  X63.9573  Y93.3263   
N8025  X63.7107  Y93.1322   
N8030  X63.4746  Y93.1362   
N8035  X62.3986  Y93.4202   
N8040  X60.9535  Y93.6253   
N8045  X59.4255  Y93.7222   
N8050  X58.1007  Y93.6820   
N8055  X55.4219  Y93.2169   
N8060  X52.6886  Y92.3645   
N8065  X49.8231  Y91.0955   
N8070  X46.7473  Y89.3802   
N8075 G0  Z3.0000 
N8080  X11.5207  Y54.5401 
N8085  Z0.1000 
N8090 G1  Z-0.7000  F100.00 
N8095  X10.1187  Y53.9931   F300.00 
N8100  X8.8941  Y53.7296   
N8105  X7.9821  Y53.7639   
N8110  X7.6856  Y53.8974   
N8115  X7.5180  Y54.1108   
N8120  X7.4787  Y54.4142   
N8125  X7.5683  Y54.7821   
N8130  X8.1330  Y55.7096   
N8135  X9.2090  Y56.8893   
N8140  X10.7932  Y58.3175   
N8145  X12.6457  Y60.0539   
N8150  X13.1670  Y60.7364   
N8155  X13.4252  Y61.3248   
N8160  X13.4255  Y61.8412   
N8165  X13.1730  Y62.3077   
N8170  X12.6731  Y62.7465   
N8175  X11.9309  Y63.1797   
N8180  X11.2147  Y63.4690   
N8185  X10.2676  Y63.6351   
N8190  X6.3494  Y63.7292   
N8195  X2.5285  Y63.8106   
N8200  X1.8393  Y63.9613   
N8205  X1.5421  Y64.2290   
N8210  X1.4193  Y64.5086   
N8215  X1.4487  Y64.7609   
N8220  X2.0603  Y65.4009   
N8225  X3.0841  Y66.0314   
N8230  X4.4760  Y66.5212   
N8235  X6.3199  Y66.8925   
N8240  X8.6992  Y67.1677   
N8245  X11.0822  Y67.4385   
N8250  X12.4943  Y67.7112   
N8255  X12.8989  Y67.8347   
N8260  X13.1683  Y67.7903   
N8265  X13.3850  Y67.5258   
N8270  X13.6314  Y66.9889   
N8275  X14.0391  Y66.2941   
N8280  X14.2085  Y66.2115   
N8285  X14.3482  Y66.2964   
N8290  X14.5182  Y66.9411   
N8295  X14.5085  Y68.1734   
N8300  X14.1806  Y69.8694   
N8305  X13.4453  Y71.6941   
N8310  X12.3095  Y73.6334   
N8315  X10.7800  Y75.6737   
N8320  X7.7466  Y79.5471   
N8325  X7.1678  Y80.5912   
N8330  X6.9426  Y81.4492   
N8335  X6.8747  Y82.0732   
N8340  X6.9267  Y82.4004   
N8345  X7.1585  Y82.5265   
N8350  X7.6301  Y82.5473   
N8355  X8.2880  Y82.4210   
N8360  X9.2881  Y82.0403   
N8365  X12.3342  Y80.5052   
N8370  X16.8078  Y77.9201   
N8375  X22.7482  Y74.2637   
N8380  X25.4582  Y72.6578   
N8385  X25.4293  Y72.8665   
N8390  X25.1454  Y73.3684   
N8395  X24.8591  Y73.9128   
N8400  X24.8246  Y74.2239   
N8405  X25.9601  Y74.2095   
N8410  X28.4865  Y73.9714   
N8415  X32.0034  Y73.5741   
N8420  X36.9481  Y69.9243   
N8425  X42.9592  Y65.4312   
N8430  X44.0256  Y64.5878   
N8435  X43.2873  Y63.9528   
N8440  X42.6998  Y63.4976   
N8445  X42.2801  Y63.3687   
N8450  X41.9016  Y63.5792   
N8455  X41.4374  Y64.1418   
N8460  X40.9019  Y64.7910   
N8465  X40.6605  Y64.9152   
N8470  X40.7255  Y64.5327   
N8475  X41.1090  Y63.6611   
N8480  X41.7329  Y62.0653   
N8485  X42.3301  Y60.0611   
N8490  X42.6820  Y58.2661   
N8495  X42.7421  Y56.8118   
N8500  X42.5080  Y55.6691   
N8505  X41.9781  Y54.8091   
N8510  X41.6059  Y54.4761   
N8515  X41.1596  Y54.3051   
N8520  X39.3105  Y54.3134   
N8525  X37.4347  Y54.5879   
N8530  X35.4228  Y55.2060   
N8535  X33.2087  Y56.1929   
N8540  X30.7260  Y57.5737   
N8545  X29.0989  Y58.4867   
N8550  X28.3414  Y58.7858   
N8555  X28.5599  Y58.4092   
N8560  X29.2793  Y57.6977   
N8565  X30.3552  Y56.7476   
N8570  X28.4028  Y56.7362   
N8575  X26.2102  Y56.9266   
N8580  X23.4668  Y57.5800   
N8585  X21.0192  Y58.1806   
N8590  X20.0608  Y58.2943   
N8595  X19.2006  Y58.2753   
N8600  X18.3795  Y58.1176   
N8605  X17.5387  Y57.8147   
N8610  X15.5613  Y56.7492   
N8615  X11.5207  Y54.5401   
N8620 G0  Z0.1000 
N8625 G1  Z-1.4000  F100.00 
N8630  X10.1187  Y53.9931   F300.00 
N8635  X8.8941  Y53.7296   
N8640  X7.9821  Y53.7639   
N8645  X7.6856  Y53.8974   
N8650  X7.5180  Y54.1108   
N8655  X7.4787  Y54.4142   
N8660  X7.5683  Y54.7821   
N8665  X8.1330  Y55.7096   
N8670  X9.2090  Y56.8893   
N8675  X10.7932  Y58.3175   
N8680  X12.6457  Y60.0539   
N8685  X13.1670  Y60.7364   
N8690  X13.4252  Y61.3248   
N8695  X13.4255  Y61.8412   
N8700  X13.1730  Y62.3077   
N8705  X12.6731  Y62.7465   
N8710  X11.9309  Y63.1797   
N8715  X11.2147  Y63.4690   
N8720  X10.2676  Y63.6351   
N8725  X6.3494  Y63.7292   
N8730  X2.5285  Y63.8106   
N8735  X1.8393  Y63.9613   
N8740  X1.5421  Y64.2290   
N8745  X1.4193  Y64.5086   
N8750  X1.4487  Y64.7609   
N8755  X2.0603  Y65.4009   
N8760  X3.0841  Y66.0314   
N8765  X4.4760  Y66.5212   
N8770  X6.3199  Y66.8925   
N8775  X8.6992  Y67.1677   
N8780  X11.0822  Y67.4385   
N8785  X12.4943  Y67.7112   
N8790  X12.8989  Y67.8347   
N8795  X13.1683  Y67.7903   
N8800  X13.3850  Y67.5258   
N8805  X13.6314  Y66.9889   
N8810  X14.0391  Y66.2941   
N8815  X14.2085  Y66.2115   
N8820  X14.3482  Y66.2964   
N8825  X14.5182  Y66.9411   
N8830  X14.5085  Y68.1734   
N8835  X14.1806  Y69.8694   
N8840  X13.4453  Y71.6941   
N8845  X12.3095  Y73.6334   
N8850  X10.7800  Y75.6737   
N8855  X7.7466  Y79.5471   
N8860  X7.1678  Y80.5912   
N8865  X6.9426  Y81.4492   
N8870  X6.8747  Y82.0732   
N8875  X6.9267  Y82.4004   
N8880  X7.1585  Y82.5265   
N8885  X7.6301  Y82.5473   
N8890  X8.2880  Y82.4210   
N8895  X9.2881  Y82.0403   
N8900  X12.3342  Y80.5052   
N8905  X16.8078  Y77.9201   
N8910  X22.7482  Y74.2637   
N8915  X25.4582  Y72.6578   
N8920  X25.4293  Y72.8665   
N8925  X25.1454  Y73.3684   
N8930  X24.8591  Y73.9128   
N8935  X24.8246  Y74.2239   
N8940  X25.9601  Y74.2095   
N8945  X28.4865  Y73.9714   
N8950  X32.0034  Y73.5741   
N8955  X36.9481  Y69.9243   
N8960  X42.9592  Y65.4312   
N8965  X44.0256  Y64.5878   
N8970  X43.2873  Y63.9528   
N8975  X42.6998  Y63.4976   
N8980  X42.2801  Y63.3687   
N8985  X41.9016  Y63.5792   
N8990  X41.4374  Y64.1418   
N8995  X40.9019  Y64.7910   
N9000  X40.6605  Y64.9152   
N9005  X40.7255  Y64.5327   
N9010  X41.1090  Y63.6611   
N9015  X41.7329  Y62.0653   
N9020  X42.3301  Y60.0611   
N9025  X42.6820  Y58.2661   
N9030  X42.7421  Y56.8118   
N9035  X42.5080  Y55.6691   
N9040  X41.9781  Y54.8091   
N9045  X41.6059  Y54.4761   
N9050  X41.1596  Y54.3051   
N9055  X39.3105  Y54.3134   
N9060  X37.4347  Y54.5879   
N9065  X35.4228  Y55.2060   
N9070  X33.2087  Y56.1929   
N9075  X30.7260  Y57.5737   
N9080  X29.0989  Y58.4867   
N9085  X28.3414  Y58.7858   
N9090  X28.5599  Y58.4092   
N9095  X29.2793  Y57.6977   
N9100  X30.3552  Y56.7476   
N9105  X28.4028  Y56.7362   
N9110  X26.2102  Y56.9266   
N9115  X23.4668  Y57.5800   
N9120  X21.0192  Y58.1806   
N9125  X20.0608  Y58.2943   
N9130  X19.2006  Y58.2753   
N9135  X18.3795  Y58.1176   
N9140  X17.5387  Y57.8147   
N9145  X15.5613  Y56.7492   
N9150  X11.5207  Y54.5401   
N9155 G0  Z3.0000 
N9160 M5
N9165 M30

