N5 (File Name = helipuerto on Thursday, November 09, 2023)
N10 (Default Mill Post)
N15  G91.1
N20 G0  Z5.0000 
N25 M3 S4000 
N30  X-56.0903  Y-71.4988 
N35  Z0.1000 
N40 G1  Z-0.7000  F100.00 
N45  X-58.2371  Y-69.4811   F300.00 
N50  X-59.0691  Y-68.3582   
N55  Y-0.0084   
N60  Y68.3412   
N65  X-58.2371  Y69.4641   
N70  X-56.0903  Y71.4820   
N75  X-55.0843  Y71.9968   
N80  X-53.0195  Y72.2629   
N85  X-39.6755  Y72.3768   
N90  X-26.4300  Y72.2620   
N95  X-24.2244  Y72.0106   
N100  X-23.0770  Y71.5344   
N105  X-21.7710  Y70.4993   
N110  X-20.7359  Y69.1933   
N115  X-20.2532  Y67.9198   
N120  X-20.0028  Y64.7903   
N125  X-19.8935  Y43.7861   
N130  Y19.8776   
N135  X-0.0075   
N140  X19.8786   
N145  Y43.7861   
N150  X19.9877  Y64.7903   
N155  X20.2383  Y67.9198   
N160  X20.7209  Y69.1933   
N165  X21.7560  Y70.4993   
N170  X23.0619  Y71.5344   
N175  X24.2095  Y72.0106   
N180  X26.4151  Y72.2620   
N185  X39.6606  Y72.3768   
N190  X53.0046  Y72.2629   
N195  X55.0693  Y71.9968   
N200  X56.0752  Y71.4820   
N205  X58.2221  Y69.4641   
N210  X59.0541  Y68.3412   
N215  Y-0.0084   
N220  Y-68.3582   
N225  X58.2221  Y-69.4811   
N230  X56.0752  Y-71.4988   
N235  X55.0681  Y-72.0140   
N240  X52.9940  Y-72.2799   
N245  X39.5657  Y-72.3937   
N250  X26.1193  Y-72.2796   
N255  X24.0474  Y-72.0109   
N260  X23.0292  Y-71.4893   
N265  X21.8158  Y-70.4565   
N270  X20.7829  Y-69.2431   
N275  X19.8786  Y-67.9012   
N280  Y-43.8978   
N285  Y-19.8946   
N290  X-0.0075   
N295  X-19.8935   
N300  Y-43.8978   
N305  Y-67.9012   
N310  X-20.7980  Y-69.2431   
N315  X-21.8308  Y-70.4565   
N320  X-23.0442  Y-71.4893   
N325  X-24.0625  Y-72.0109   
N330  X-26.1343  Y-72.2796   
N335  X-39.5808  Y-72.3937   
N340  X-53.0090  Y-72.2799   
N345  X-55.0831  Y-72.0140   
N350  X-56.0903  Y-71.4988   
N355 G0  Z0.1000 
N360 G1  Z-1.4000  F100.00 
N365  X-58.2371  Y-69.4811   F300.00 
N370  X-59.0691  Y-68.3582   
N375  Y-0.0084   
N380  Y68.3412   
N385  X-58.2371  Y69.4641   
N390  X-56.0903  Y71.4820   
N395  X-55.0843  Y71.9968   
N400  X-53.0195  Y72.2629   
N405  X-39.6755  Y72.3768   
N410  X-26.4300  Y72.2620   
N415  X-24.2244  Y72.0106   
N420  X-23.0770  Y71.5344   
N425  X-21.7710  Y70.4993   
N430  X-20.7359  Y69.1933   
N435  X-20.2532  Y67.9198   
N440  X-20.0028  Y64.7903   
N445  X-19.8935  Y43.7861   
N450  Y19.8776   
N455  X-0.0075   
N460  X19.8786   
N465  Y43.7861   
N470  X19.9877  Y64.7903   
N475  X20.2383  Y67.9198   
N480  X20.7209  Y69.1933   
N485  X21.7560  Y70.4993   
N490  X23.0619  Y71.5344   
N495  X24.2095  Y72.0106   
N500  X26.4151  Y72.2620   
N505  X39.6606  Y72.3768   
N510  X53.0046  Y72.2629   
N515  X55.0693  Y71.9968   
N520  X56.0752  Y71.4820   
N525  X58.2221  Y69.4641   
N530  X59.0541  Y68.3412   
N535  Y-0.0084   
N540  Y-68.3582   
N545  X58.2221  Y-69.4811   
N550  X56.0752  Y-71.4988   
N555  X55.0681  Y-72.0140   
N560  X52.9940  Y-72.2799   
N565  X39.5657  Y-72.3937   
N570  X26.1193  Y-72.2796   
N575  X24.0474  Y-72.0109   
N580  X23.0292  Y-71.4893   
N585  X21.8158  Y-70.4565   
N590  X20.7829  Y-69.2431   
N595  X19.8786  Y-67.9012   
N600  Y-43.8978   
N605  Y-19.8946   
N610  X-0.0075   
N615  X-19.8935   
N620  Y-43.8978   
N625  Y-67.9012   
N630  X-20.7980  Y-69.2431   
N635  X-21.8308  Y-70.4565   
N640  X-23.0442  Y-71.4893   
N645  X-24.0625  Y-72.0109   
N650  X-26.1343  Y-72.2796   
N655  X-39.5808  Y-72.3937   
N660  X-53.0090  Y-72.2799   
N665  X-55.0831  Y-72.0140   
N670  X-56.0903  Y-71.4988   
N675 G0  Z0.1000 
N680 G1  Z-2.0000  F100.00 
N685  X-58.2371  Y-69.4811   F300.00 
N690  X-59.0691  Y-68.3582   
N695  Y-0.0084   
N700  Y68.3412   
N705  X-58.2371  Y69.4641   
N710  X-56.0903  Y71.4820   
N715  X-55.0843  Y71.9968   
N720  X-53.0195  Y72.2629   
N725  X-39.6755  Y72.3768   
N730  X-26.4300  Y72.2620   
N735  X-24.2244  Y72.0106   
N740  X-23.0770  Y71.5344   
N745  X-21.7710  Y70.4993   
N750  X-20.7359  Y69.1933   
N755  X-20.2532  Y67.9198   
N760  X-20.0028  Y64.7903   
N765  X-19.8935  Y43.7861   
N770  Y19.8776   
N775  X-0.0075   
N780  X19.8786   
N785  Y43.7861   
N790  X19.9877  Y64.7903   
N795  X20.2383  Y67.9198   
N800  X20.7209  Y69.1933   
N805  X21.7560  Y70.4993   
N810  X23.0619  Y71.5344   
N815  X24.2095  Y72.0106   
N820  X26.4151  Y72.2620   
N825  X39.6606  Y72.3768   
N830  X53.0046  Y72.2629   
N835  X55.0693  Y71.9968   
N840  X56.0752  Y71.4820   
N845  X58.2221  Y69.4641   
N850  X59.0541  Y68.3412   
N855  Y-0.0084   
N860  Y-68.3582   
N865  X58.2221  Y-69.4811   
N870  X56.0752  Y-71.4988   
N875  X55.0681  Y-72.0140   
N880  X52.9940  Y-72.2799   
N885  X39.5657  Y-72.3937   
N890  X26.1193  Y-72.2796   
N895  X24.0474  Y-72.0109   
N900  X23.0292  Y-71.4893   
N905  X21.8158  Y-70.4565   
N910  X20.7829  Y-69.2431   
N915  X19.8786  Y-67.9012   
N920  Y-43.8978   
N925  Y-19.8946   
N930  X-0.0075   
N935  X-19.8935   
N940  Y-43.8978   
N945  Y-67.9012   
N950  X-20.7980  Y-69.2431   
N955  X-21.8308  Y-70.4565   
N960  X-23.0442  Y-71.4893   
N965  X-24.0625  Y-72.0109   
N970  X-26.1343  Y-72.2796   
N975  X-39.5808  Y-72.3937   
N980  X-53.0090  Y-72.2799   
N985  X-55.0831  Y-72.0140   
N990  X-56.0903  Y-71.4988   
N995 G0  Z5.0000 
N1000  X-10.1495  Y-124.8462 
N1005  Z0.1000 
N1010 G1  Z-0.7000  F100.00 
N1015  X-19.0256  Y-123.7812   F300.00 
N1020  X-27.7223  Y-122.1082   
N1025  X-36.2149  Y-119.8459   
N1030  X-44.4782  Y-117.0130   
N1035  X-52.4874  Y-113.6279   
N1040  X-60.2176  Y-109.7092   
N1045  X-67.6438  Y-105.2756   
N1050  X-74.7414  Y-100.3457   
N1055  X-81.4852  Y-94.9381   
N1060  X-87.8503  Y-89.0712   
N1065  X-93.8119  Y-82.7639   
N1070  X-99.3451  Y-76.0346   
N1075  X-104.4250  Y-68.9020   
N1080  X-109.0266  Y-61.3845   
N1085  X-113.1253  Y-53.5010   
N1090  X-116.6958  Y-45.2699   
N1095  X-118.6704  Y-39.8766   
N1100  X-120.3704  Y-34.4461   
N1105  X-121.7992  Y-28.9593   
N1110  X-122.9604  Y-23.3970   
N1115  X-123.8574  Y-17.7399   
N1120  X-124.4937  Y-11.9689   
N1125  X-124.8729  Y-6.0648   
N1130  X-124.9984  Y-0.0084   
N1135  X-124.8908  Y6.7745   
N1140  X-124.5173  Y12.6261   
N1145  X-123.8027  Y18.3482   
N1150  X-122.6716  Y24.7422   
N1155  X-121.4411  Y30.3189   
N1160  X-119.9394  Y35.8327   
N1165  X-118.1730  Y41.2738   
N1170  X-116.1481  Y46.6323   
N1175  X-113.8707  Y51.8981   
N1180  X-111.3477  Y57.0616   
N1185  X-108.5850  Y62.1128   
N1190  X-105.5891  Y67.0418   
N1195  X-102.3664  Y71.8388   
N1200  X-98.9230  Y76.4939   
N1205  X-95.2653  Y80.9972   
N1210  X-91.3997  Y85.3389   
N1215  X-87.3323  Y89.5089   
N1220  X-83.0697  Y93.4975   
N1225  X-78.6180  Y97.2948   
N1230  X-73.9836  Y100.8909   
N1235  X-69.4357  Y104.0933   
N1240  X-64.7466  Y107.0835   
N1245  X-59.9278  Y109.8582   
N1250  X-54.9902  Y112.4143   
N1255  X-49.9455  Y114.7484   
N1260  X-44.8045  Y116.8576   
N1265  X-39.5788  Y118.7382   
N1270  X-34.2794  Y120.3872   
N1275  X-28.9177  Y121.8016   
N1280  X-23.5048  Y122.9778   
N1285  X-18.0519  Y123.9127   
N1290  X-12.5705  Y124.6031   
N1295  X-7.0718  Y125.0458   
N1300  X-1.5668  Y125.2376   
N1305  X3.9331  Y125.1751   
N1310  X9.4166  Y124.8552   
N1315  X19.4227  Y123.6597   
N1320  X29.1430  Y121.7427   
N1325  X38.5717  Y119.1068   
N1330  X47.7024  Y115.7544   
N1335  X56.5293  Y111.6881   
N1340  X65.0466  Y106.9101   
N1345  X73.2479  Y101.4233   
N1350  X81.1276  Y95.2298   
N1355  X85.3936  Y91.3203   
N1360  X90.2571  Y86.4293   
N1365  X94.8918  Y81.4186   
N1370  X98.4710  Y77.1495   
N1375  X103.6521  Y69.9761   
N1380  X108.2463  Y62.6876   
N1385  X112.2683  Y55.2479   
N1390  X115.7332  Y47.6205   
N1395  X118.6558  Y39.7691   
N1400  X121.0515  Y31.6575   
N1405  X122.9349  Y23.2494   
N1410  X124.3211  Y14.5084   
N1415  X124.8289  Y7.9903   
N1420  X124.9984  Y-0.0044   
N1425  X124.8292  Y-7.9894   
N1430  X124.3211  Y-14.4782   
N1435  X123.4151  Y-20.4822   
N1440  X122.2602  Y-26.3759   
N1445  X120.8583  Y-32.1560   
N1450  X119.2111  Y-37.8190   
N1455  X117.3206  Y-43.3619   
N1460  X115.1883  Y-48.7811   
N1465  X112.8162  Y-54.0733   
N1470  X110.2059  Y-59.2351   
N1475  X107.3594  Y-64.2635   
N1480  X104.2783  Y-69.1547   
N1485  X100.9645  Y-73.9056   
N1490  X97.4198  Y-78.5129   
N1495  X93.6459  Y-82.9732   
N1500  X89.6447  Y-87.2833   
N1505  X85.4178  Y-91.4395   
N1510  X80.9672  Y-95.4389   
N1515  X76.2384  Y-99.2901   
N1520  X71.3071  Y-102.8966   
N1525  X66.1891  Y-106.2534   
N1530  X60.9002  Y-109.3554   
N1535  X55.4561  Y-112.1975   
N1540  X49.8726  Y-114.7744   
N1545  X44.1655  Y-117.0814   
N1550  X38.3508  Y-119.1130   
N1555  X32.4442  Y-120.8643   
N1560  X26.4613  Y-122.3303   
N1565  X20.4183  Y-123.5056   
N1570  X14.3306  Y-124.3854   
N1575  X8.2141  Y-124.9645   
N1580  X2.0848  Y-125.2376   
N1585  X-4.0417  Y-125.1999   
N1590  X-10.1495  Y-124.8462   
N1595 G0  Z0.1000 
N1600 G1  Z-1.4000  F100.00 
N1605  X-19.0256  Y-123.7812   F300.00 
N1610  X-27.7223  Y-122.1082   
N1615  X-36.2149  Y-119.8459   
N1620  X-44.4782  Y-117.0130   
N1625  X-52.4874  Y-113.6279   
N1630  X-60.2176  Y-109.7092   
N1635  X-67.6438  Y-105.2756   
N1640  X-74.7414  Y-100.3457   
N1645  X-81.4852  Y-94.9381   
N1650  X-87.8503  Y-89.0712   
N1655  X-93.8119  Y-82.7639   
N1660  X-99.3451  Y-76.0346   
N1665  X-104.4250  Y-68.9020   
N1670  X-109.0266  Y-61.3845   
N1675  X-113.1253  Y-53.5010   
N1680  X-116.6958  Y-45.2699   
N1685  X-118.6704  Y-39.8766   
N1690  X-120.3704  Y-34.4461   
N1695  X-121.7992  Y-28.9593   
N1700  X-122.9604  Y-23.3970   
N1705  X-123.8574  Y-17.7399   
N1710  X-124.4937  Y-11.9689   
N1715  X-124.8729  Y-6.0648   
N1720  X-124.9984  Y-0.0084   
N1725  X-124.8908  Y6.7745   
N1730  X-124.5173  Y12.6261   
N1735  X-123.8027  Y18.3482   
N1740  X-122.6716  Y24.7422   
N1745  X-121.4411  Y30.3189   
N1750  X-119.9394  Y35.8327   
N1755  X-118.1730  Y41.2738   
N1760  X-116.1481  Y46.6323   
N1765  X-113.8707  Y51.8981   
N1770  X-111.3477  Y57.0616   
N1775  X-108.5850  Y62.1128   
N1780  X-105.5891  Y67.0418   
N1785  X-102.3664  Y71.8388   
N1790  X-98.9230  Y76.4939   
N1795  X-95.2653  Y80.9972   
N1800  X-91.3997  Y85.3389   
N1805  X-87.3323  Y89.5089   
N1810  X-83.0697  Y93.4975   
N1815  X-78.6180  Y97.2948   
N1820  X-73.9836  Y100.8909   
N1825  X-69.4357  Y104.0933   
N1830  X-64.7466  Y107.0835   
N1835  X-59.9278  Y109.8582   
N1840  X-54.9902  Y112.4143   
N1845  X-49.9455  Y114.7484   
N1850  X-44.8045  Y116.8576   
N1855  X-39.5788  Y118.7382   
N1860  X-34.2794  Y120.3872   
N1865  X-28.9177  Y121.8016   
N1870  X-23.5048  Y122.9778   
N1875  X-18.0519  Y123.9127   
N1880  X-12.5705  Y124.6031   
N1885  X-7.0718  Y125.0458   
N1890  X-1.5668  Y125.2376   
N1895  X3.9331  Y125.1751   
N1900  X9.4166  Y124.8552   
N1905  X19.4227  Y123.6597   
N1910  X29.1430  Y121.7427   
N1915  X38.5717  Y119.1068   
N1920  X47.7024  Y115.7544   
N1925  X56.5293  Y111.6881   
N1930  X65.0466  Y106.9101   
N1935  X73.2479  Y101.4233   
N1940  X81.1276  Y95.2298   
N1945  X85.3936  Y91.3203   
N1950  X90.2571  Y86.4293   
N1955  X94.8918  Y81.4186   
N1960  X98.4710  Y77.1495   
N1965  X103.6521  Y69.9761   
N1970  X108.2463  Y62.6876   
N1975  X112.2683  Y55.2479   
N1980  X115.7332  Y47.6205   
N1985  X118.6558  Y39.7691   
N1990  X121.0515  Y31.6575   
N1995  X122.9349  Y23.2494   
N2000  X124.3211  Y14.5084   
N2005  X124.8289  Y7.9903   
N2010  X124.9984  Y-0.0044   
N2015  X124.8292  Y-7.9894   
N2020  X124.3211  Y-14.4782   
N2025  X123.4151  Y-20.4822   
N2030  X122.2602  Y-26.3759   
N2035  X120.8583  Y-32.1560   
N2040  X119.2111  Y-37.8190   
N2045  X117.3206  Y-43.3619   
N2050  X115.1883  Y-48.7811   
N2055  X112.8162  Y-54.0733   
N2060  X110.2059  Y-59.2351   
N2065  X107.3594  Y-64.2635   
N2070  X104.2783  Y-69.1547   
N2075  X100.9645  Y-73.9056   
N2080  X97.4198  Y-78.5129   
N2085  X93.6459  Y-82.9732   
N2090  X89.6447  Y-87.2833   
N2095  X85.4178  Y-91.4395   
N2100  X80.9672  Y-95.4389   
N2105  X76.2384  Y-99.2901   
N2110  X71.3071  Y-102.8966   
N2115  X66.1891  Y-106.2534   
N2120  X60.9002  Y-109.3554   
N2125  X55.4561  Y-112.1975   
N2130  X49.8726  Y-114.7744   
N2135  X44.1655  Y-117.0814   
N2140  X38.3508  Y-119.1130   
N2145  X32.4442  Y-120.8643   
N2150  X26.4613  Y-122.3303   
N2155  X20.4183  Y-123.5056   
N2160  X14.3306  Y-124.3854   
N2165  X8.2141  Y-124.9645   
N2170  X2.0848  Y-125.2376   
N2175  X-4.0417  Y-125.1999   
N2180  X-10.1495  Y-124.8462   
N2185 G0  Z0.1000 
N2190 G1  Z-2.0000  F100.00 
N2195  X-19.0256  Y-123.7812   F300.00 
N2200  X-27.7223  Y-122.1082   
N2205  X-36.2149  Y-119.8459   
N2210  X-44.4782  Y-117.0130   
N2215  X-52.4874  Y-113.6279   
N2220  X-60.2176  Y-109.7092   
N2225  X-67.6438  Y-105.2756   
N2230  X-74.7414  Y-100.3457   
N2235  X-81.4852  Y-94.9381   
N2240  X-87.8503  Y-89.0712   
N2245  X-93.8119  Y-82.7639   
N2250  X-99.3451  Y-76.0346   
N2255  X-104.4250  Y-68.9020   
N2260  X-109.0266  Y-61.3845   
N2265  X-113.1253  Y-53.5010   
N2270  X-116.6958  Y-45.2699   
N2275  X-118.6704  Y-39.8766   
N2280  X-120.3704  Y-34.4461   
N2285  X-121.7992  Y-28.9593   
N2290  X-122.9604  Y-23.3970   
N2295  X-123.8574  Y-17.7399   
N2300  X-124.4937  Y-11.9689   
N2305  X-124.8729  Y-6.0648   
N2310  X-124.9984  Y-0.0084   
N2315  X-124.8908  Y6.7745   
N2320  X-124.5173  Y12.6261   
N2325  X-123.8027  Y18.3482   
N2330  X-122.6716  Y24.7422   
N2335  X-121.4411  Y30.3189   
N2340  X-119.9394  Y35.8327   
N2345  X-118.1730  Y41.2738   
N2350  X-116.1481  Y46.6323   
N2355  X-113.8707  Y51.8981   
N2360  X-111.3477  Y57.0616   
N2365  X-108.5850  Y62.1128   
N2370  X-105.5891  Y67.0418   
N2375  X-102.3664  Y71.8388   
N2380  X-98.9230  Y76.4939   
N2385  X-95.2653  Y80.9972   
N2390  X-91.3997  Y85.3389   
N2395  X-87.3323  Y89.5089   
N2400  X-83.0697  Y93.4975   
N2405  X-78.6180  Y97.2948   
N2410  X-73.9836  Y100.8909   
N2415  X-69.4357  Y104.0933   
N2420  X-64.7466  Y107.0835   
N2425  X-59.9278  Y109.8582   
N2430  X-54.9902  Y112.4143   
N2435  X-49.9455  Y114.7484   
N2440  X-44.8045  Y116.8576   
N2445  X-39.5788  Y118.7382   
N2450  X-34.2794  Y120.3872   
N2455  X-28.9177  Y121.8016   
N2460  X-23.5048  Y122.9778   
N2465  X-18.0519  Y123.9127   
N2470  X-12.5705  Y124.6031   
N2475  X-7.0718  Y125.0458   
N2480  X-1.5668  Y125.2376   
N2485  X3.9331  Y125.1751   
N2490  X9.4166  Y124.8552   
N2495  X19.4227  Y123.6597   
N2500  X29.1430  Y121.7427   
N2505  X38.5717  Y119.1068   
N2510  X47.7024  Y115.7544   
N2515  X56.5293  Y111.6881   
N2520  X65.0466  Y106.9101   
N2525  X73.2479  Y101.4233   
N2530  X81.1276  Y95.2298   
N2535  X85.3936  Y91.3203   
N2540  X90.2571  Y86.4293   
N2545  X94.8918  Y81.4186   
N2550  X98.4710  Y77.1495   
N2555  X103.6521  Y69.9761   
N2560  X108.2463  Y62.6876   
N2565  X112.2683  Y55.2479   
N2570  X115.7332  Y47.6205   
N2575  X118.6558  Y39.7691   
N2580  X121.0515  Y31.6575   
N2585  X122.9349  Y23.2494   
N2590  X124.3211  Y14.5084   
N2595  X124.8289  Y7.9903   
N2600  X124.9984  Y-0.0044   
N2605  X124.8292  Y-7.9894   
N2610  X124.3211  Y-14.4782   
N2615  X123.4151  Y-20.4822   
N2620  X122.2602  Y-26.3759   
N2625  X120.8583  Y-32.1560   
N2630  X119.2111  Y-37.8190   
N2635  X117.3206  Y-43.3619   
N2640  X115.1883  Y-48.7811   
N2645  X112.8162  Y-54.0733   
N2650  X110.2059  Y-59.2351   
N2655  X107.3594  Y-64.2635   
N2660  X104.2783  Y-69.1547   
N2665  X100.9645  Y-73.9056   
N2670  X97.4198  Y-78.5129   
N2675  X93.6459  Y-82.9732   
N2680  X89.6447  Y-87.2833   
N2685  X85.4178  Y-91.4395   
N2690  X80.9672  Y-95.4389   
N2695  X76.2384  Y-99.2901   
N2700  X71.3071  Y-102.8966   
N2705  X66.1891  Y-106.2534   
N2710  X60.9002  Y-109.3554   
N2715  X55.4561  Y-112.1975   
N2720  X49.8726  Y-114.7744   
N2725  X44.1655  Y-117.0814   
N2730  X38.3508  Y-119.1130   
N2735  X32.4442  Y-120.8643   
N2740  X26.4613  Y-122.3303   
N2745  X20.4183  Y-123.5056   
N2750  X14.3306  Y-124.3854   
N2755  X8.2141  Y-124.9645   
N2760  X2.0848  Y-125.2376   
N2765  X-4.0417  Y-125.1999   
N2770  X-10.1495  Y-124.8462   
N2775 G0  Z5.0000 
N2780  X6.9526  Y-111.7574 
N2785  Z0.1000 
N2790 G1  Z-0.7000  F100.00 
N2795  X0.5148  Y-112.0685   F300.00 
N2800  X-5.1779  Y-111.8999   
N2805  X-15.4218  Y-110.8957   
N2810  X-25.4084  Y-109.0217   
N2815  X-35.0949  Y-106.2964   
N2820  X-44.4379  Y-102.7386   
N2825  X-48.9672  Y-100.6534   
N2830  X-53.3944  Y-98.3669   
N2835  X-57.7142  Y-95.8818   
N2840  X-61.9212  Y-93.2001   
N2845  X-66.0100  Y-90.3243   
N2850  X-69.9753  Y-87.2567   
N2855  X-73.8116  Y-83.9997   
N2860  X-77.5136  Y-80.5556   
N2865  X-84.4307  Y-73.3238   
N2870  X-90.3652  Y-65.9998   
N2875  X-95.5297  Y-58.2953   
N2880  X-100.1372  Y-49.9225   
N2885  X-102.9182  Y-43.9599   
N2890  X-105.3065  Y-37.9764   
N2895  X-107.3088  Y-31.9428   
N2900  X-108.9318  Y-25.8302   
N2905  X-110.1825  Y-19.6095   
N2910  X-111.0674  Y-13.2518   
N2915  X-111.5934  Y-6.7277   
N2920  X-111.7671  Y-0.0084   
N2925  X-111.5120  Y7.9267   
N2930  X-110.7447  Y15.6710   
N2935  X-109.4614  Y23.2369   
N2940  X-107.6592  Y30.6361   
N2945  X-105.3343  Y37.8808   
N2950  X-102.4835  Y44.9827   
N2955  X-99.1036  Y51.9537   
N2960  X-95.1910  Y58.8061   
N2965  X-92.0690  Y63.5882   
N2970  X-88.6950  Y68.1994   
N2975  X-85.0816  Y72.6309   
N2980  X-81.2421  Y76.8732   
N2985  X-77.1892  Y80.9177   
N2990  X-72.9360  Y84.7552   
N2995  X-68.4954  Y88.3766   
N3000  X-63.8806  Y91.7729   
N3005  X-59.1042  Y94.9349   
N3010  X-54.1794  Y97.8538   
N3015  X-49.1190  Y100.5203   
N3020  X-43.9361  Y102.9255   
N3025  X-38.6438  Y105.0603   
N3030  X-33.2547  Y106.9156   
N3035  X-27.7820  Y108.4825   
N3040  X-22.2386  Y109.7518   
N3045  X-13.5450  Y111.0878   
N3050  X-4.2943  Y111.7945   
N3055  X4.8340  Y111.8435   
N3060  X13.1602  Y111.2072   
N3065  X20.9221  Y109.9619   
N3070  X28.4539  Y108.2475   
N3075  X35.7626  Y106.0610   
N3080  X42.8549  Y103.3996   
N3085  X49.7374  Y100.2606   
N3090  X56.4171  Y96.6410   
N3095  X62.9005  Y92.5382   
N3100  X69.1946  Y87.9492   
N3105  X72.9766  Y84.7400   
N3110  X77.4297  Y80.5804   
N3115  X81.7873  Y76.2122   
N3120  X85.2838  Y72.3768   
N3125  X90.1326  Y66.2317   
N3130  X94.5203  Y59.8095   
N3135  X98.4399  Y53.1252   
N3140  X101.8848  Y46.1939   
N3145  X104.8477  Y39.0304   
N3150  X107.3223  Y31.6500   
N3155  X109.3016  Y24.0676   
N3160  X110.7786  Y16.2981   
N3165  X111.3250  Y10.5442   
N3170  X111.6371  Y2.8671   
N3175  X111.6727  Y-4.8759   
N3180  X111.3901  Y-10.8275   
N3185  X110.2142  Y-19.2659   
N3190  X108.4445  Y-27.5125   
N3195  X106.0904  Y-35.5448   
N3200  X103.1612  Y-43.3410   
N3205  X99.6661  Y-50.8785   
N3210  X95.6145  Y-58.1352   
N3215  X91.0159  Y-65.0889   
N3220  X85.8793  Y-71.7171   
N3225  X81.8745  Y-76.1461   
N3230  X77.0318  Y-80.9708   
N3235  X72.0443  Y-85.5297   
N3240  X67.6051  Y-89.1611   
N3245  X60.7323  Y-93.9494   
N3250  X53.6409  Y-98.1826   
N3255  X46.3390  Y-101.8577   
N3260  X38.8344  Y-104.9719   
N3265  X31.1356  Y-107.5218   
N3270  X23.2503  Y-109.5048   
N3275  X15.1865  Y-110.9177   
N3280  X6.9526  Y-111.7574   
N3285 G0  Z0.1000 
N3290 G1  Z-1.4000  F100.00 
N3295  X0.5148  Y-112.0685   F300.00 
N3300  X-5.1779  Y-111.8999   
N3305  X-15.4218  Y-110.8957   
N3310  X-25.4084  Y-109.0217   
N3315  X-35.0949  Y-106.2964   
N3320  X-44.4379  Y-102.7386   
N3325  X-48.9672  Y-100.6534   
N3330  X-53.3944  Y-98.3669   
N3335  X-57.7142  Y-95.8818   
N3340  X-61.9212  Y-93.2001   
N3345  X-66.0100  Y-90.3243   
N3350  X-69.9753  Y-87.2567   
N3355  X-73.8116  Y-83.9997   
N3360  X-77.5136  Y-80.5556   
N3365  X-84.4307  Y-73.3238   
N3370  X-90.3652  Y-65.9998   
N3375  X-95.5297  Y-58.2953   
N3380  X-100.1372  Y-49.9225   
N3385  X-102.9182  Y-43.9599   
N3390  X-105.3065  Y-37.9764   
N3395  X-107.3088  Y-31.9428   
N3400  X-108.9318  Y-25.8302   
N3405  X-110.1825  Y-19.6095   
N3410  X-111.0674  Y-13.2518   
N3415  X-111.5934  Y-6.7277   
N3420  X-111.7671  Y-0.0084   
N3425  X-111.5120  Y7.9267   
N3430  X-110.7447  Y15.6710   
N3435  X-109.4614  Y23.2369   
N3440  X-107.6592  Y30.6361   
N3445  X-105.3343  Y37.8808   
N3450  X-102.4835  Y44.9827   
N3455  X-99.1036  Y51.9537   
N3460  X-95.1910  Y58.8061   
N3465  X-92.0690  Y63.5882   
N3470  X-88.6950  Y68.1994   
N3475  X-85.0816  Y72.6309   
N3480  X-81.2421  Y76.8732   
N3485  X-77.1892  Y80.9177   
N3490  X-72.9360  Y84.7552   
N3495  X-68.4954  Y88.3766   
N3500  X-63.8806  Y91.7729   
N3505  X-59.1042  Y94.9349   
N3510  X-54.1794  Y97.8538   
N3515  X-49.1190  Y100.5203   
N3520  X-43.9361  Y102.9255   
N3525  X-38.6438  Y105.0603   
N3530  X-33.2547  Y106.9156   
N3535  X-27.7820  Y108.4825   
N3540  X-22.2386  Y109.7518   
N3545  X-13.5450  Y111.0878   
N3550  X-4.2943  Y111.7945   
N3555  X4.8340  Y111.8435   
N3560  X13.1602  Y111.2072   
N3565  X20.9221  Y109.9619   
N3570  X28.4539  Y108.2475   
N3575  X35.7626  Y106.0610   
N3580  X42.8549  Y103.3996   
N3585  X49.7374  Y100.2606   
N3590  X56.4171  Y96.6410   
N3595  X62.9005  Y92.5382   
N3600  X69.1946  Y87.9492   
N3605  X72.9766  Y84.7400   
N3610  X77.4297  Y80.5804   
N3615  X81.7873  Y76.2122   
N3620  X85.2838  Y72.3768   
N3625  X90.1326  Y66.2317   
N3630  X94.5203  Y59.8095   
N3635  X98.4399  Y53.1252   
N3640  X101.8848  Y46.1939   
N3645  X104.8477  Y39.0304   
N3650  X107.3223  Y31.6500   
N3655  X109.3016  Y24.0676   
N3660  X110.7786  Y16.2981   
N3665  X111.3250  Y10.5442   
N3670  X111.6371  Y2.8671   
N3675  X111.6727  Y-4.8759   
N3680  X111.3901  Y-10.8275   
N3685  X110.2142  Y-19.2659   
N3690  X108.4445  Y-27.5125   
N3695  X106.0904  Y-35.5448   
N3700  X103.1612  Y-43.3410   
N3705  X99.6661  Y-50.8785   
N3710  X95.6145  Y-58.1352   
N3715  X91.0159  Y-65.0889   
N3720  X85.8793  Y-71.7171   
N3725  X81.8745  Y-76.1461   
N3730  X77.0318  Y-80.9708   
N3735  X72.0443  Y-85.5297   
N3740  X67.6051  Y-89.1611   
N3745  X60.7323  Y-93.9494   
N3750  X53.6409  Y-98.1826   
N3755  X46.3390  Y-101.8577   
N3760  X38.8344  Y-104.9719   
N3765  X31.1356  Y-107.5218   
N3770  X23.2503  Y-109.5048   
N3775  X15.1865  Y-110.9177   
N3780  X6.9526  Y-111.7574   
N3785 G0  Z0.1000 
N3790 G1  Z-2.0000  F100.00 
N3795  X0.5148  Y-112.0685   F300.00 
N3800  X-5.1779  Y-111.8999   
N3805  X-15.4218  Y-110.8957   
N3810  X-25.4084  Y-109.0217   
N3815  X-35.0949  Y-106.2964   
N3820  X-44.4379  Y-102.7386   
N3825  X-48.9672  Y-100.6534   
N3830  X-53.3944  Y-98.3669   
N3835  X-57.7142  Y-95.8818   
N3840  X-61.9212  Y-93.2001   
N3845  X-66.0100  Y-90.3243   
N3850  X-69.9753  Y-87.2567   
N3855  X-73.8116  Y-83.9997   
N3860  X-77.5136  Y-80.5556   
N3865  X-84.4307  Y-73.3238   
N3870  X-90.3652  Y-65.9998   
N3875  X-95.5297  Y-58.2953   
N3880  X-100.1372  Y-49.9225   
N3885  X-102.9182  Y-43.9599   
N3890  X-105.3065  Y-37.9764   
N3895  X-107.3088  Y-31.9428   
N3900  X-108.9318  Y-25.8302   
N3905  X-110.1825  Y-19.6095   
N3910  X-111.0674  Y-13.2518   
N3915  X-111.5934  Y-6.7277   
N3920  X-111.7671  Y-0.0084   
N3925  X-111.5120  Y7.9267   
N3930  X-110.7447  Y15.6710   
N3935  X-109.4614  Y23.2369   
N3940  X-107.6592  Y30.6361   
N3945  X-105.3343  Y37.8808   
N3950  X-102.4835  Y44.9827   
N3955  X-99.1036  Y51.9537   
N3960  X-95.1910  Y58.8061   
N3965  X-92.0690  Y63.5882   
N3970  X-88.6950  Y68.1994   
N3975  X-85.0816  Y72.6309   
N3980  X-81.2421  Y76.8732   
N3985  X-77.1892  Y80.9177   
N3990  X-72.9360  Y84.7552   
N3995  X-68.4954  Y88.3766   
N4000  X-63.8806  Y91.7729   
N4005  X-59.1042  Y94.9349   
N4010  X-54.1794  Y97.8538   
N4015  X-49.1190  Y100.5203   
N4020  X-43.9361  Y102.9255   
N4025  X-38.6438  Y105.0603   
N4030  X-33.2547  Y106.9156   
N4035  X-27.7820  Y108.4825   
N4040  X-22.2386  Y109.7518   
N4045  X-13.5450  Y111.0878   
N4050  X-4.2943  Y111.7945   
N4055  X4.8340  Y111.8435   
N4060  X13.1602  Y111.2072   
N4065  X20.9221  Y109.9619   
N4070  X28.4539  Y108.2475   
N4075  X35.7626  Y106.0610   
N4080  X42.8549  Y103.3996   
N4085  X49.7374  Y100.2606   
N4090  X56.4171  Y96.6410   
N4095  X62.9005  Y92.5382   
N4100  X69.1946  Y87.9492   
N4105  X72.9766  Y84.7400   
N4110  X77.4297  Y80.5804   
N4115  X81.7873  Y76.2122   
N4120  X85.2838  Y72.3768   
N4125  X90.1326  Y66.2317   
N4130  X94.5203  Y59.8095   
N4135  X98.4399  Y53.1252   
N4140  X101.8848  Y46.1939   
N4145  X104.8477  Y39.0304   
N4150  X107.3223  Y31.6500   
N4155  X109.3016  Y24.0676   
N4160  X110.7786  Y16.2981   
N4165  X111.3250  Y10.5442   
N4170  X111.6371  Y2.8671   
N4175  X111.6727  Y-4.8759   
N4180  X111.3901  Y-10.8275   
N4185  X110.2142  Y-19.2659   
N4190  X108.4445  Y-27.5125   
N4195  X106.0904  Y-35.5448   
N4200  X103.1612  Y-43.3410   
N4205  X99.6661  Y-50.8785   
N4210  X95.6145  Y-58.1352   
N4215  X91.0159  Y-65.0889   
N4220  X85.8793  Y-71.7171   
N4225  X81.8745  Y-76.1461   
N4230  X77.0318  Y-80.9708   
N4235  X72.0443  Y-85.5297   
N4240  X67.6051  Y-89.1611   
N4245  X60.7323  Y-93.9494   
N4250  X53.6409  Y-98.1826   
N4255  X46.3390  Y-101.8577   
N4260  X38.8344  Y-104.9719   
N4265  X31.1356  Y-107.5218   
N4270  X23.2503  Y-109.5048   
N4275  X15.1865  Y-110.9177   
N4280  X6.9526  Y-111.7574   
N4285 G0  Z5.0000 
N4290 M5
N4295 M30

