N5 (File Name = helipuerto on Thursday, November 09, 2023)
N10 (Default Mill Post)
N15  G91.1
N20 G0  Z5.0000 
N25 M3 
N30  X68.9082  Y53.7388 
N35  Z0.1000 
N40 G1  Z-1.0000  F100.00 
N45  X66.7613  Y55.7565   F300.00 
N50  X65.9293  Y56.8794   
N55  Y125.2292   
N60  Y193.5788   
N65  X66.7613  Y194.7017   
N70  X68.9082  Y196.7196   
N75  X69.9141  Y197.2344   
N80  X71.9789  Y197.5005   
N85  X85.3230  Y197.6144   
N90  X98.5684  Y197.4996   
N95  X100.7741  Y197.2483   
N100  X101.9215  Y196.7720   
N105  X103.2274  Y195.7369   
N110  X104.2626  Y194.4310   
N115  X104.7452  Y193.1574   
N120  X104.9957  Y190.0279   
N125  X105.1049  Y169.0237   
N130  Y145.1152   
N135  X124.9909   
N140  X144.8771   
N145  Y169.0237   
N150  X144.9862  Y190.0279   
N155  X145.2368  Y193.1574   
N160  X145.7193  Y194.4310   
N165  X146.7544  Y195.7369   
N170  X148.0604  Y196.7720   
N175  X149.2079  Y197.2483   
N180  X151.4136  Y197.4996   
N185  X164.6590  Y197.6144   
N190  X178.0031  Y197.5005   
N195  X180.0677  Y197.2344   
N200  X181.0737  Y196.7196   
N205  X183.2205  Y194.7017   
N210  X184.0526  Y193.5788   
N215  Y125.2292   
N220  Y56.8794   
N225  X183.2205  Y55.7565   
N230  X181.0737  Y53.7388   
N235  X180.0665  Y53.2237   
N240  X177.9924  Y52.9577   
N245  X164.5642  Y52.8439   
N250  X151.1177  Y52.9580   
N255  X149.0459  Y53.2267   
N260  X148.0276  Y53.7483   
N265  X146.8142  Y54.7811   
N270  X145.7814  Y55.9945   
N275  X144.8771  Y57.3364   
N280  Y81.3398   
N285  Y105.3431   
N290  X124.9909   
N295  X105.1049   
N300  Y81.3398   
N305  Y57.3364   
N310  X104.2005  Y55.9945   
N315  X103.1676  Y54.7811   
N320  X101.9542  Y53.7483   
N325  X100.9360  Y53.2267   
N330  X98.8641  Y52.9580   
N335  X85.4177  Y52.8439   
N340  X71.9895  Y52.9577   
N345  X69.9153  Y53.2237   
N350  X68.9082  Y53.7388   
N355 G0  Z0.1000 
N360 G1  Z-2.0000  F100.00 
N365  X66.7613  Y55.7565   F300.00 
N370  X65.9293  Y56.8794   
N375  Y125.2292   
N380  Y193.5788   
N385  X66.7613  Y194.7017   
N390  X68.9082  Y196.7196   
N395  X69.9141  Y197.2344   
N400  X71.9789  Y197.5005   
N405  X85.3230  Y197.6144   
N410  X98.5684  Y197.4996   
N415  X100.7741  Y197.2483   
N420  X101.9215  Y196.7720   
N425  X103.2274  Y195.7369   
N430  X104.2626  Y194.4310   
N435  X104.7452  Y193.1574   
N440  X104.9957  Y190.0279   
N445  X105.1049  Y169.0237   
N450  Y145.1152   
N455  X124.9909   
N460  X144.8771   
N465  Y169.0237   
N470  X144.9862  Y190.0279   
N475  X145.2368  Y193.1574   
N480  X145.7193  Y194.4310   
N485  X146.7544  Y195.7369   
N490  X148.0604  Y196.7720   
N495  X149.2079  Y197.2483   
N500  X151.4136  Y197.4996   
N505  X164.6590  Y197.6144   
N510  X178.0031  Y197.5005   
N515  X180.0677  Y197.2344   
N520  X181.0737  Y196.7196   
N525  X183.2205  Y194.7017   
N530  X184.0526  Y193.5788   
N535  Y125.2292   
N540  Y56.8794   
N545  X183.2205  Y55.7565   
N550  X181.0737  Y53.7388   
N555  X180.0665  Y53.2237   
N560  X177.9924  Y52.9577   
N565  X164.5642  Y52.8439   
N570  X151.1177  Y52.9580   
N575  X149.0459  Y53.2267   
N580  X148.0276  Y53.7483   
N585  X146.8142  Y54.7811   
N590  X145.7814  Y55.9945   
N595  X144.8771  Y57.3364   
N600  Y81.3398   
N605  Y105.3431   
N610  X124.9909   
N615  X105.1049   
N620  Y81.3398   
N625  Y57.3364   
N630  X104.2005  Y55.9945   
N635  X103.1676  Y54.7811   
N640  X101.9542  Y53.7483   
N645  X100.9360  Y53.2267   
N650  X98.8641  Y52.9580   
N655  X85.4177  Y52.8439   
N660  X71.9895  Y52.9577   
N665  X69.9153  Y53.2237   
N670  X68.9082  Y53.7388   
N675 G0  Z5.0000 
N680  X114.8490  Y0.3914 
N685  Z0.1000 
N690 G1  Z-1.0000  F100.00 
N695  X105.9729  Y1.4565   F300.00 
N700  X97.2761  Y3.1294   
N705  X88.7835  Y5.3917   
N710  X80.5203  Y8.2246   
N715  X72.5111  Y11.6097   
N720  X64.7809  Y15.5284   
N725  X57.3546  Y19.9620   
N730  X50.2571  Y24.8919   
N735  X43.5133  Y30.2996   
N740  X37.1481  Y36.1664   
N745  X31.1866  Y42.4737   
N750  X25.6533  Y49.2030   
N755  X20.5734  Y56.3356   
N760  X15.9718  Y63.8531   
N765  X11.8732  Y71.7366   
N770  X8.3026  Y79.9677   
N775  X6.3280  Y85.3610   
N780  X4.6281  Y90.7915   
N785  X3.1993  Y96.2783   
N790  X2.0380  Y101.8406   
N795  X1.1411  Y107.4977   
N800  X0.5048  Y113.2687   
N805  X0.1255  Y119.1728   
N810  X0.0000  Y125.2292   
N815  X0.1076  Y132.0121   
N820  X0.4812  Y137.8637   
N825  X1.1958  Y143.5858   
N830  X2.3268  Y149.9798   
N835  X3.5573  Y155.5565   
N840  X5.0590  Y161.0703   
N845  X6.8254  Y166.5114   
N850  X8.8504  Y171.8699   
N855  X11.1277  Y177.1357   
N860  X13.6507  Y182.2992   
N865  X16.4134  Y187.3504   
N870  X19.4093  Y192.2794   
N875  X22.6320  Y197.0764   
N880  X26.0754  Y201.7315   
N885  X29.7331  Y206.2348   
N890  X33.5988  Y210.5765   
N895  X37.6661  Y214.7466   
N900  X41.9288  Y218.7351   
N905  X46.3805  Y222.5324   
N910  X51.0148  Y226.1285   
N915  X55.5628  Y229.3309   
N920  X60.2519  Y232.3211   
N925  X65.0707  Y235.0958   
N930  X70.0082  Y237.6519   
N935  X75.0530  Y239.9860   
N940  X80.1939  Y242.0952   
N945  X85.4196  Y243.9758   
N950  X90.7190  Y245.6248   
N955  X96.0808  Y247.0392   
N960  X101.4937  Y248.2154   
N965  X106.9465  Y249.1503   
N970  X112.4279  Y249.8407   
N975  X117.9266  Y250.2834   
N980  X123.4317  Y250.4752   
N985  X128.9316  Y250.4127   
N990  X134.4151  Y250.0928   
N995  X144.4211  Y248.8973   
N1000  X154.1414  Y246.9803   
N1005  X163.5701  Y244.3444   
N1010  X172.7008  Y240.9920   
N1015  X181.5278  Y236.9257   
N1020  X190.0451  Y232.1477   
N1025  X198.2464  Y226.6609   
N1030  X206.1260  Y220.4674   
N1035  X210.3921  Y216.5579   
N1040  X215.2555  Y211.6669   
N1045  X219.8902  Y206.6562   
N1050  X223.4695  Y202.3871   
N1055  X228.6505  Y195.2137   
N1060  X233.2448  Y187.9253   
N1065  X237.2667  Y180.4855   
N1070  X240.7316  Y172.8581   
N1075  X243.6543  Y165.0067   
N1080  X246.0499  Y156.8951   
N1085  X247.9333  Y148.4870   
N1090  X249.3195  Y139.7460   
N1095  X249.8273  Y133.2279   
N1100  X249.9969  Y125.2332   
N1105  X249.8276  Y117.2482   
N1110  X249.3195  Y110.7594   
N1115  X248.4136  Y104.7555   
N1120  X247.2587  Y98.8617   
N1125  X245.8568  Y93.0816   
N1130  X244.2096  Y87.4186   
N1135  X242.3190  Y81.8757   
N1140  X240.1867  Y76.4565   
N1145  X237.8147  Y71.1643   
N1150  X235.2044  Y66.0025   
N1155  X232.3579  Y60.9742   
N1160  X229.2768  Y56.0829   
N1165  X225.9630  Y51.3320   
N1170  X222.4183  Y46.7247   
N1175  X218.6443  Y42.2644   
N1180  X214.6431  Y37.9543   
N1185  X210.4163  Y33.7981   
N1190  X205.9656  Y29.7987   
N1195  X201.2368  Y25.9475   
N1200  X196.3056  Y22.3410   
N1205  X191.1875  Y18.9842   
N1210  X185.8986  Y15.8822   
N1215  X180.4545  Y13.0401   
N1220  X174.8710  Y10.4632   
N1225  X169.1640  Y8.1562   
N1230  X163.3493  Y6.1246   
N1235  X157.4426  Y4.3733   
N1240  X151.4597  Y2.9073   
N1245  X145.4167  Y1.7320   
N1250  X139.3291  Y0.8522   
N1255  X133.2125  Y0.2731   
N1260  X127.0832  Y0.0000   
N1265  X120.9568  Y0.0377   
N1270  X114.8490  Y0.3914   
N1275 G0  Z0.1000 
N1280 G1  Z-2.0000  F100.00 
N1285  X105.9729  Y1.4565   F300.00 
N1290  X97.2761  Y3.1294   
N1295  X88.7835  Y5.3917   
N1300  X80.5203  Y8.2246   
N1305  X72.5111  Y11.6097   
N1310  X64.7809  Y15.5284   
N1315  X57.3546  Y19.9620   
N1320  X50.2571  Y24.8919   
N1325  X43.5133  Y30.2996   
N1330  X37.1481  Y36.1664   
N1335  X31.1866  Y42.4737   
N1340  X25.6533  Y49.2030   
N1345  X20.5734  Y56.3356   
N1350  X15.9718  Y63.8531   
N1355  X11.8732  Y71.7366   
N1360  X8.3026  Y79.9677   
N1365  X6.3280  Y85.3610   
N1370  X4.6281  Y90.7915   
N1375  X3.1993  Y96.2783   
N1380  X2.0380  Y101.8406   
N1385  X1.1411  Y107.4977   
N1390  X0.5048  Y113.2687   
N1395  X0.1255  Y119.1728   
N1400  X0.0000  Y125.2292   
N1405  X0.1076  Y132.0121   
N1410  X0.4812  Y137.8637   
N1415  X1.1958  Y143.5858   
N1420  X2.3268  Y149.9798   
N1425  X3.5573  Y155.5565   
N1430  X5.0590  Y161.0703   
N1435  X6.8254  Y166.5114   
N1440  X8.8504  Y171.8699   
N1445  X11.1277  Y177.1357   
N1450  X13.6507  Y182.2992   
N1455  X16.4134  Y187.3504   
N1460  X19.4093  Y192.2794   
N1465  X22.6320  Y197.0764   
N1470  X26.0754  Y201.7315   
N1475  X29.7331  Y206.2348   
N1480  X33.5988  Y210.5765   
N1485  X37.6661  Y214.7466   
N1490  X41.9288  Y218.7351   
N1495  X46.3805  Y222.5324   
N1500  X51.0148  Y226.1285   
N1505  X55.5628  Y229.3309   
N1510  X60.2519  Y232.3211   
N1515  X65.0707  Y235.0958   
N1520  X70.0082  Y237.6519   
N1525  X75.0530  Y239.9860   
N1530  X80.1939  Y242.0952   
N1535  X85.4196  Y243.9758   
N1540  X90.7190  Y245.6248   
N1545  X96.0808  Y247.0392   
N1550  X101.4937  Y248.2154   
N1555  X106.9465  Y249.1503   
N1560  X112.4279  Y249.8407   
N1565  X117.9266  Y250.2834   
N1570  X123.4317  Y250.4752   
N1575  X128.9316  Y250.4127   
N1580  X134.4151  Y250.0928   
N1585  X144.4211  Y248.8973   
N1590  X154.1414  Y246.9803   
N1595  X163.5701  Y244.3444   
N1600  X172.7008  Y240.9920   
N1605  X181.5278  Y236.9257   
N1610  X190.0451  Y232.1477   
N1615  X198.2464  Y226.6609   
N1620  X206.1260  Y220.4674   
N1625  X210.3921  Y216.5579   
N1630  X215.2555  Y211.6669   
N1635  X219.8902  Y206.6562   
N1640  X223.4695  Y202.3871   
N1645  X228.6505  Y195.2137   
N1650  X233.2448  Y187.9253   
N1655  X237.2667  Y180.4855   
N1660  X240.7316  Y172.8581   
N1665  X243.6543  Y165.0067   
N1670  X246.0499  Y156.8951   
N1675  X247.9333  Y148.4870   
N1680  X249.3195  Y139.7460   
N1685  X249.8273  Y133.2279   
N1690  X249.9969  Y125.2332   
N1695  X249.8276  Y117.2482   
N1700  X249.3195  Y110.7594   
N1705  X248.4136  Y104.7555   
N1710  X247.2587  Y98.8617   
N1715  X245.8568  Y93.0816   
N1720  X244.2096  Y87.4186   
N1725  X242.3190  Y81.8757   
N1730  X240.1867  Y76.4565   
N1735  X237.8147  Y71.1643   
N1740  X235.2044  Y66.0025   
N1745  X232.3579  Y60.9742   
N1750  X229.2768  Y56.0829   
N1755  X225.9630  Y51.3320   
N1760  X222.4183  Y46.7247   
N1765  X218.6443  Y42.2644   
N1770  X214.6431  Y37.9543   
N1775  X210.4163  Y33.7981   
N1780  X205.9656  Y29.7987   
N1785  X201.2368  Y25.9475   
N1790  X196.3056  Y22.3410   
N1795  X191.1875  Y18.9842   
N1800  X185.8986  Y15.8822   
N1805  X180.4545  Y13.0401   
N1810  X174.8710  Y10.4632   
N1815  X169.1640  Y8.1562   
N1820  X163.3493  Y6.1246   
N1825  X157.4426  Y4.3733   
N1830  X151.4597  Y2.9073   
N1835  X145.4167  Y1.7320   
N1840  X139.3291  Y0.8522   
N1845  X133.2125  Y0.2731   
N1850  X127.0832  Y0.0000   
N1855  X120.9568  Y0.0377   
N1860  X114.8490  Y0.3914   
N1865 G0  Z5.0000 
N1870  X131.9510  Y13.4802 
N1875  Z0.1000 
N1880 G1  Z-1.0000  F100.00 
N1885  X125.5133  Y13.1691   F300.00 
N1890  X119.8205  Y13.3377   
N1895  X109.5767  Y14.3419   
N1900  X99.5900  Y16.2159   
N1905  X89.9035  Y18.9412   
N1910  X80.5605  Y22.4990   
N1915  X76.0313  Y24.5842   
N1920  X71.6040  Y26.8708   
N1925  X67.2843  Y29.3558   
N1930  X63.0773  Y32.0376   
N1935  X58.9884  Y34.9133   
N1940  X55.0231  Y37.9809   
N1945  X51.1868  Y41.2379   
N1950  X47.4849  Y44.6820   
N1955  X40.5678  Y51.9138   
N1960  X34.6333  Y59.2378   
N1965  X29.4687  Y66.9423   
N1970  X24.8613  Y75.3151   
N1975  X22.0802  Y81.2777   
N1980  X19.6919  Y87.2612   
N1985  X17.6897  Y93.2948   
N1990  X16.0667  Y99.4074   
N1995  X14.8160  Y105.6281   
N2000  X13.9311  Y111.9858   
N2005  X13.4051  Y118.5099   
N2010  X13.2313  Y125.2292   
N2015  X13.4864  Y133.1643   
N2020  X14.2538  Y140.9086   
N2025  X15.5371  Y148.4745   
N2030  X17.3393  Y155.8737   
N2035  X19.6641  Y163.1184   
N2040  X22.5149  Y170.2203   
N2045  X25.8949  Y177.1914   
N2050  X29.8074  Y184.0437   
N2055  X32.9294  Y188.8258   
N2060  X36.3035  Y193.4370   
N2065  X39.9169  Y197.8685   
N2070  X43.7563  Y202.1108   
N2075  X47.8093  Y206.1553   
N2080  X52.0624  Y209.9928   
N2085  X56.5030  Y213.6142   
N2090  X61.1179  Y217.0105   
N2095  X65.8943  Y220.1725   
N2100  X70.8191  Y223.0914   
N2105  X75.8794  Y225.7579   
N2110  X81.0623  Y228.1631   
N2115  X86.3546  Y230.2979   
N2120  X91.7438  Y232.1532   
N2125  X97.2165  Y233.7201   
N2130  X102.7598  Y234.9894   
N2135  X111.4534  Y236.3254   
N2140  X120.7041  Y237.0321   
N2145  X129.8324  Y237.0811   
N2150  X138.1587  Y236.4448   
N2155  X145.9206  Y235.1995   
N2160  X153.4524  Y233.4851   
N2165  X160.7611  Y231.2986   
N2170  X167.8533  Y228.6372   
N2175  X174.7359  Y225.4982   
N2180  X181.4155  Y221.8786   
N2185  X187.8989  Y217.7758   
N2190  X194.1930  Y213.1868   
N2195  X197.9750  Y209.9776   
N2200  X202.4281  Y205.8180   
N2205  X206.7858  Y201.4498   
N2210  X210.2822  Y197.6144   
N2215  X215.1311  Y191.4693   
N2220  X219.5188  Y185.0471   
N2225  X223.4384  Y178.3628   
N2230  X226.8832  Y171.4315   
N2235  X229.8462  Y164.2680   
N2240  X232.3208  Y156.8876   
N2245  X234.3000  Y149.3052   
N2250  X235.7771  Y141.5358   
N2255  X236.3235  Y135.7818   
N2260  X236.6355  Y128.1047   
N2265  X236.6712  Y120.3617   
N2270  X236.3886  Y114.4101   
N2275  X235.2126  Y105.9717   
N2280  X233.4429  Y97.7251   
N2285  X231.0889  Y89.6928   
N2290  X228.1596  Y81.8966   
N2295  X224.6645  Y74.3591   
N2300  X220.6129  Y67.1024   
N2305  X216.0143  Y60.1487   
N2310  X210.8778  Y53.5205   
N2315  X206.8729  Y49.0915   
N2320  X202.0302  Y44.2668   
N2325  X197.0428  Y39.7079   
N2330  X192.6035  Y36.0765   
N2335  X185.7307  Y31.2882   
N2340  X178.6394  Y27.0550   
N2345  X171.3374  Y23.3799   
N2350  X163.8329  Y20.2657   
N2355  X156.1341  Y17.7158   
N2360  X148.2487  Y15.7328   
N2365  X140.1850  Y14.3199   
N2370  X131.9510  Y13.4802   
N2375 G0  Z0.1000 
N2380 G1  Z-2.0000  F100.00 
N2385  X125.5133  Y13.1691   F300.00 
N2390  X119.8205  Y13.3377   
N2395  X109.5767  Y14.3419   
N2400  X99.5900  Y16.2159   
N2405  X89.9035  Y18.9412   
N2410  X80.5605  Y22.4990   
N2415  X76.0313  Y24.5842   
N2420  X71.6040  Y26.8708   
N2425  X67.2843  Y29.3558   
N2430  X63.0773  Y32.0376   
N2435  X58.9884  Y34.9133   
N2440  X55.0231  Y37.9809   
N2445  X51.1868  Y41.2379   
N2450  X47.4849  Y44.6820   
N2455  X40.5678  Y51.9138   
N2460  X34.6333  Y59.2378   
N2465  X29.4687  Y66.9423   
N2470  X24.8613  Y75.3151   
N2475  X22.0802  Y81.2777   
N2480  X19.6919  Y87.2612   
N2485  X17.6897  Y93.2948   
N2490  X16.0667  Y99.4074   
N2495  X14.8160  Y105.6281   
N2500  X13.9311  Y111.9858   
N2505  X13.4051  Y118.5099   
N2510  X13.2313  Y125.2292   
N2515  X13.4864  Y133.1643   
N2520  X14.2538  Y140.9086   
N2525  X15.5371  Y148.4745   
N2530  X17.3393  Y155.8737   
N2535  X19.6641  Y163.1184   
N2540  X22.5149  Y170.2203   
N2545  X25.8949  Y177.1914   
N2550  X29.8074  Y184.0437   
N2555  X32.9294  Y188.8258   
N2560  X36.3035  Y193.4370   
N2565  X39.9169  Y197.8685   
N2570  X43.7563  Y202.1108   
N2575  X47.8093  Y206.1553   
N2580  X52.0624  Y209.9928   
N2585  X56.5030  Y213.6142   
N2590  X61.1179  Y217.0105   
N2595  X65.8943  Y220.1725   
N2600  X70.8191  Y223.0914   
N2605  X75.8794  Y225.7579   
N2610  X81.0623  Y228.1631   
N2615  X86.3546  Y230.2979   
N2620  X91.7438  Y232.1532   
N2625  X97.2165  Y233.7201   
N2630  X102.7598  Y234.9894   
N2635  X111.4534  Y236.3254   
N2640  X120.7041  Y237.0321   
N2645  X129.8324  Y237.0811   
N2650  X138.1587  Y236.4448   
N2655  X145.9206  Y235.1995   
N2660  X153.4524  Y233.4851   
N2665  X160.7611  Y231.2986   
N2670  X167.8533  Y228.6372   
N2675  X174.7359  Y225.4982   
N2680  X181.4155  Y221.8786   
N2685  X187.8989  Y217.7758   
N2690  X194.1930  Y213.1868   
N2695  X197.9750  Y209.9776   
N2700  X202.4281  Y205.8180   
N2705  X206.7858  Y201.4498   
N2710  X210.2822  Y197.6144   
N2715  X215.1311  Y191.4693   
N2720  X219.5188  Y185.0471   
N2725  X223.4384  Y178.3628   
N2730  X226.8832  Y171.4315   
N2735  X229.8462  Y164.2680   
N2740  X232.3208  Y156.8876   
N2745  X234.3000  Y149.3052   
N2750  X235.7771  Y141.5358   
N2755  X236.3235  Y135.7818   
N2760  X236.6355  Y128.1047   
N2765  X236.6712  Y120.3617   
N2770  X236.3886  Y114.4101   
N2775  X235.2126  Y105.9717   
N2780  X233.4429  Y97.7251   
N2785  X231.0889  Y89.6928   
N2790  X228.1596  Y81.8966   
N2795  X224.6645  Y74.3591   
N2800  X220.6129  Y67.1024   
N2805  X216.0143  Y60.1487   
N2810  X210.8778  Y53.5205   
N2815  X206.8729  Y49.0915   
N2820  X202.0302  Y44.2668   
N2825  X197.0428  Y39.7079   
N2830  X192.6035  Y36.0765   
N2835  X185.7307  Y31.2882   
N2840  X178.6394  Y27.0550   
N2845  X171.3374  Y23.3799   
N2850  X163.8329  Y20.2657   
N2855  X156.1341  Y17.7158   
N2860  X148.2487  Y15.7328   
N2865  X140.1850  Y14.3199   
N2870  X131.9510  Y13.4802   
N2875 G0  Z5.0000 
N2880 M5
N2885 M30

