N5 (File Name = helipuerto on Thursday, November 09, 2023)
N10 (Default Mill Post)
N15  G91.1
N20 G0  Z5.0000 
N25 M3 
N30  X-56.0903  Y-71.4988 
N35  Z0.1000 
N40 G1  Z-1.0000  F100.00 
N45  X-58.2371  Y-69.4811   F300.00 
N50  X-59.0691  Y-68.3582   
N55  Y-0.0084   
N60  Y68.3412   
N65  X-58.2371  Y69.4641   
N70  X-56.0903  Y71.4820   
N75  X-55.0843  Y71.9968   
N80  X-53.0195  Y72.2629   
N85  X-39.6755  Y72.3768   
N90  X-26.4300  Y72.2620   
N95  X-24.2244  Y72.0106   
N100  X-23.0770  Y71.5344   
N105  X-21.7710  Y70.4993   
N110  X-20.7359  Y69.1933   
N115  X-20.2532  Y67.9198   
N120  X-20.0028  Y64.7903   
N125  X-19.8935  Y43.7861   
N130  Y19.8776   
N135  X-0.0075   
N140  X19.8786   
N145  Y43.7861   
N150  X19.9877  Y64.7903   
N155  X20.2383  Y67.9198   
N160  X20.7209  Y69.1933   
N165  X21.7560  Y70.4993   
N170  X23.0619  Y71.5344   
N175  X24.2095  Y72.0106   
N180  X26.4151  Y72.2620   
N185  X39.6606  Y72.3768   
N190  X53.0046  Y72.2629   
N195  X55.0693  Y71.9968   
N200  X56.0752  Y71.4820   
N205  X58.2221  Y69.4641   
N210  X59.0541  Y68.3412   
N215  Y-0.0084   
N220  Y-68.3582   
N225  X58.2221  Y-69.4811   
N230  X56.0752  Y-71.4988   
N235  X55.0681  Y-72.0140   
N240  X52.9940  Y-72.2799   
N245  X39.5657  Y-72.3937   
N250  X26.1193  Y-72.2796   
N255  X24.0474  Y-72.0109   
N260  X23.0292  Y-71.4893   
N265  X21.8158  Y-70.4565   
N270  X20.7829  Y-69.2431   
N275  X19.8786  Y-67.9012   
N280  Y-43.8978   
N285  Y-19.8946   
N290  X-0.0075   
N295  X-19.8935   
N300  Y-43.8978   
N305  Y-67.9012   
N310  X-20.7980  Y-69.2431   
N315  X-21.8308  Y-70.4565   
N320  X-23.0442  Y-71.4893   
N325  X-24.0625  Y-72.0109   
N330  X-26.1343  Y-72.2796   
N335  X-39.5808  Y-72.3937   
N340  X-53.0090  Y-72.2799   
N345  X-55.0831  Y-72.0140   
N350  X-56.0903  Y-71.4988   
N355 G0  Z0.1000 
N360 G1  Z-2.0000  F100.00 
N365  X-58.2371  Y-69.4811   F300.00 
N370  X-59.0691  Y-68.3582   
N375  Y-0.0084   
N380  Y68.3412   
N385  X-58.2371  Y69.4641   
N390  X-56.0903  Y71.4820   
N395  X-55.0843  Y71.9968   
N400  X-53.0195  Y72.2629   
N405  X-39.6755  Y72.3768   
N410  X-26.4300  Y72.2620   
N415  X-24.2244  Y72.0106   
N420  X-23.0770  Y71.5344   
N425  X-21.7710  Y70.4993   
N430  X-20.7359  Y69.1933   
N435  X-20.2532  Y67.9198   
N440  X-20.0028  Y64.7903   
N445  X-19.8935  Y43.7861   
N450  Y19.8776   
N455  X-0.0075   
N460  X19.8786   
N465  Y43.7861   
N470  X19.9877  Y64.7903   
N475  X20.2383  Y67.9198   
N480  X20.7209  Y69.1933   
N485  X21.7560  Y70.4993   
N490  X23.0619  Y71.5344   
N495  X24.2095  Y72.0106   
N500  X26.4151  Y72.2620   
N505  X39.6606  Y72.3768   
N510  X53.0046  Y72.2629   
N515  X55.0693  Y71.9968   
N520  X56.0752  Y71.4820   
N525  X58.2221  Y69.4641   
N530  X59.0541  Y68.3412   
N535  Y-0.0084   
N540  Y-68.3582   
N545  X58.2221  Y-69.4811   
N550  X56.0752  Y-71.4988   
N555  X55.0681  Y-72.0140   
N560  X52.9940  Y-72.2799   
N565  X39.5657  Y-72.3937   
N570  X26.1193  Y-72.2796   
N575  X24.0474  Y-72.0109   
N580  X23.0292  Y-71.4893   
N585  X21.8158  Y-70.4565   
N590  X20.7829  Y-69.2431   
N595  X19.8786  Y-67.9012   
N600  Y-43.8978   
N605  Y-19.8946   
N610  X-0.0075   
N615  X-19.8935   
N620  Y-43.8978   
N625  Y-67.9012   
N630  X-20.7980  Y-69.2431   
N635  X-21.8308  Y-70.4565   
N640  X-23.0442  Y-71.4893   
N645  X-24.0625  Y-72.0109   
N650  X-26.1343  Y-72.2796   
N655  X-39.5808  Y-72.3937   
N660  X-53.0090  Y-72.2799   
N665  X-55.0831  Y-72.0140   
N670  X-56.0903  Y-71.4988   
N675 G0  Z5.0000 
N680  X-10.1495  Y-124.8462 
N685  Z0.1000 
N690 G1  Z-1.0000  F100.00 
N695  X-19.0256  Y-123.7812   F300.00 
N700  X-27.7223  Y-122.1082   
N705  X-36.2149  Y-119.8459   
N710  X-44.4782  Y-117.0130   
N715  X-52.4874  Y-113.6279   
N720  X-60.2176  Y-109.7092   
N725  X-67.6438  Y-105.2756   
N730  X-74.7414  Y-100.3457   
N735  X-81.4852  Y-94.9381   
N740  X-87.8503  Y-89.0712   
N745  X-93.8119  Y-82.7639   
N750  X-99.3451  Y-76.0346   
N755  X-104.4250  Y-68.9020   
N760  X-109.0266  Y-61.3845   
N765  X-113.1253  Y-53.5010   
N770  X-116.6958  Y-45.2699   
N775  X-118.6704  Y-39.8766   
N780  X-120.3704  Y-34.4461   
N785  X-121.7992  Y-28.9593   
N790  X-122.9604  Y-23.3970   
N795  X-123.8574  Y-17.7399   
N800  X-124.4937  Y-11.9689   
N805  X-124.8729  Y-6.0648   
N810  X-124.9984  Y-0.0084   
N815  X-124.8908  Y6.7745   
N820  X-124.5173  Y12.6261   
N825  X-123.8027  Y18.3482   
N830  X-122.6716  Y24.7422   
N835  X-121.4411  Y30.3189   
N840  X-119.9394  Y35.8327   
N845  X-118.1730  Y41.2738   
N850  X-116.1481  Y46.6323   
N855  X-113.8707  Y51.8981   
N860  X-111.3477  Y57.0616   
N865  X-108.5850  Y62.1128   
N870  X-105.5891  Y67.0418   
N875  X-102.3664  Y71.8388   
N880  X-98.9230  Y76.4939   
N885  X-95.2653  Y80.9972   
N890  X-91.3997  Y85.3389   
N895  X-87.3323  Y89.5089   
N900  X-83.0697  Y93.4975   
N905  X-78.6180  Y97.2948   
N910  X-73.9836  Y100.8909   
N915  X-69.4357  Y104.0933   
N920  X-64.7466  Y107.0835   
N925  X-59.9278  Y109.8582   
N930  X-54.9902  Y112.4143   
N935  X-49.9455  Y114.7484   
N940  X-44.8045  Y116.8576   
N945  X-39.5788  Y118.7382   
N950  X-34.2794  Y120.3872   
N955  X-28.9177  Y121.8016   
N960  X-23.5048  Y122.9778   
N965  X-18.0519  Y123.9127   
N970  X-12.5705  Y124.6031   
N975  X-7.0718  Y125.0458   
N980  X-1.5668  Y125.2376   
N985  X3.9331  Y125.1751   
N990  X9.4166  Y124.8552   
N995  X19.4227  Y123.6597   
N1000  X29.1430  Y121.7427   
N1005  X38.5717  Y119.1068   
N1010  X47.7024  Y115.7544   
N1015  X56.5293  Y111.6881   
N1020  X65.0466  Y106.9101   
N1025  X73.2479  Y101.4233   
N1030  X81.1276  Y95.2298   
N1035  X85.3936  Y91.3203   
N1040  X90.2571  Y86.4293   
N1045  X94.8918  Y81.4186   
N1050  X98.4710  Y77.1495   
N1055  X103.6521  Y69.9761   
N1060  X108.2463  Y62.6876   
N1065  X112.2683  Y55.2479   
N1070  X115.7332  Y47.6205   
N1075  X118.6558  Y39.7691   
N1080  X121.0515  Y31.6575   
N1085  X122.9349  Y23.2494   
N1090  X124.3211  Y14.5084   
N1095  X124.8289  Y7.9903   
N1100  X124.9984  Y-0.0044   
N1105  X124.8292  Y-7.9894   
N1110  X124.3211  Y-14.4782   
N1115  X123.4151  Y-20.4822   
N1120  X122.2602  Y-26.3759   
N1125  X120.8583  Y-32.1560   
N1130  X119.2111  Y-37.8190   
N1135  X117.3206  Y-43.3619   
N1140  X115.1883  Y-48.7811   
N1145  X112.8162  Y-54.0733   
N1150  X110.2059  Y-59.2351   
N1155  X107.3594  Y-64.2635   
N1160  X104.2783  Y-69.1547   
N1165  X100.9645  Y-73.9056   
N1170  X97.4198  Y-78.5129   
N1175  X93.6459  Y-82.9732   
N1180  X89.6447  Y-87.2833   
N1185  X85.4178  Y-91.4395   
N1190  X80.9672  Y-95.4389   
N1195  X76.2384  Y-99.2901   
N1200  X71.3071  Y-102.8966   
N1205  X66.1891  Y-106.2534   
N1210  X60.9002  Y-109.3554   
N1215  X55.4561  Y-112.1975   
N1220  X49.8726  Y-114.7744   
N1225  X44.1655  Y-117.0814   
N1230  X38.3508  Y-119.1130   
N1235  X32.4442  Y-120.8643   
N1240  X26.4613  Y-122.3303   
N1245  X20.4183  Y-123.5056   
N1250  X14.3306  Y-124.3854   
N1255  X8.2141  Y-124.9645   
N1260  X2.0848  Y-125.2376   
N1265  X-4.0417  Y-125.1999   
N1270  X-10.1495  Y-124.8462   
N1275 G0  Z0.1000 
N1280 G1  Z-2.0000  F100.00 
N1285  X-19.0256  Y-123.7812   F300.00 
N1290  X-27.7223  Y-122.1082   
N1295  X-36.2149  Y-119.8459   
N1300  X-44.4782  Y-117.0130   
N1305  X-52.4874  Y-113.6279   
N1310  X-60.2176  Y-109.7092   
N1315  X-67.6438  Y-105.2756   
N1320  X-74.7414  Y-100.3457   
N1325  X-81.4852  Y-94.9381   
N1330  X-87.8503  Y-89.0712   
N1335  X-93.8119  Y-82.7639   
N1340  X-99.3451  Y-76.0346   
N1345  X-104.4250  Y-68.9020   
N1350  X-109.0266  Y-61.3845   
N1355  X-113.1253  Y-53.5010   
N1360  X-116.6958  Y-45.2699   
N1365  X-118.6704  Y-39.8766   
N1370  X-120.3704  Y-34.4461   
N1375  X-121.7992  Y-28.9593   
N1380  X-122.9604  Y-23.3970   
N1385  X-123.8574  Y-17.7399   
N1390  X-124.4937  Y-11.9689   
N1395  X-124.8729  Y-6.0648   
N1400  X-124.9984  Y-0.0084   
N1405  X-124.8908  Y6.7745   
N1410  X-124.5173  Y12.6261   
N1415  X-123.8027  Y18.3482   
N1420  X-122.6716  Y24.7422   
N1425  X-121.4411  Y30.3189   
N1430  X-119.9394  Y35.8327   
N1435  X-118.1730  Y41.2738   
N1440  X-116.1481  Y46.6323   
N1445  X-113.8707  Y51.8981   
N1450  X-111.3477  Y57.0616   
N1455  X-108.5850  Y62.1128   
N1460  X-105.5891  Y67.0418   
N1465  X-102.3664  Y71.8388   
N1470  X-98.9230  Y76.4939   
N1475  X-95.2653  Y80.9972   
N1480  X-91.3997  Y85.3389   
N1485  X-87.3323  Y89.5089   
N1490  X-83.0697  Y93.4975   
N1495  X-78.6180  Y97.2948   
N1500  X-73.9836  Y100.8909   
N1505  X-69.4357  Y104.0933   
N1510  X-64.7466  Y107.0835   
N1515  X-59.9278  Y109.8582   
N1520  X-54.9902  Y112.4143   
N1525  X-49.9455  Y114.7484   
N1530  X-44.8045  Y116.8576   
N1535  X-39.5788  Y118.7382   
N1540  X-34.2794  Y120.3872   
N1545  X-28.9177  Y121.8016   
N1550  X-23.5048  Y122.9778   
N1555  X-18.0519  Y123.9127   
N1560  X-12.5705  Y124.6031   
N1565  X-7.0718  Y125.0458   
N1570  X-1.5668  Y125.2376   
N1575  X3.9331  Y125.1751   
N1580  X9.4166  Y124.8552   
N1585  X19.4227  Y123.6597   
N1590  X29.1430  Y121.7427   
N1595  X38.5717  Y119.1068   
N1600  X47.7024  Y115.7544   
N1605  X56.5293  Y111.6881   
N1610  X65.0466  Y106.9101   
N1615  X73.2479  Y101.4233   
N1620  X81.1276  Y95.2298   
N1625  X85.3936  Y91.3203   
N1630  X90.2571  Y86.4293   
N1635  X94.8918  Y81.4186   
N1640  X98.4710  Y77.1495   
N1645  X103.6521  Y69.9761   
N1650  X108.2463  Y62.6876   
N1655  X112.2683  Y55.2479   
N1660  X115.7332  Y47.6205   
N1665  X118.6558  Y39.7691   
N1670  X121.0515  Y31.6575   
N1675  X122.9349  Y23.2494   
N1680  X124.3211  Y14.5084   
N1685  X124.8289  Y7.9903   
N1690  X124.9984  Y-0.0044   
N1695  X124.8292  Y-7.9894   
N1700  X124.3211  Y-14.4782   
N1705  X123.4151  Y-20.4822   
N1710  X122.2602  Y-26.3759   
N1715  X120.8583  Y-32.1560   
N1720  X119.2111  Y-37.8190   
N1725  X117.3206  Y-43.3619   
N1730  X115.1883  Y-48.7811   
N1735  X112.8162  Y-54.0733   
N1740  X110.2059  Y-59.2351   
N1745  X107.3594  Y-64.2635   
N1750  X104.2783  Y-69.1547   
N1755  X100.9645  Y-73.9056   
N1760  X97.4198  Y-78.5129   
N1765  X93.6459  Y-82.9732   
N1770  X89.6447  Y-87.2833   
N1775  X85.4178  Y-91.4395   
N1780  X80.9672  Y-95.4389   
N1785  X76.2384  Y-99.2901   
N1790  X71.3071  Y-102.8966   
N1795  X66.1891  Y-106.2534   
N1800  X60.9002  Y-109.3554   
N1805  X55.4561  Y-112.1975   
N1810  X49.8726  Y-114.7744   
N1815  X44.1655  Y-117.0814   
N1820  X38.3508  Y-119.1130   
N1825  X32.4442  Y-120.8643   
N1830  X26.4613  Y-122.3303   
N1835  X20.4183  Y-123.5056   
N1840  X14.3306  Y-124.3854   
N1845  X8.2141  Y-124.9645   
N1850  X2.0848  Y-125.2376   
N1855  X-4.0417  Y-125.1999   
N1860  X-10.1495  Y-124.8462   
N1865 G0  Z5.0000 
N1870  X6.9526  Y-111.7574 
N1875  Z0.1000 
N1880 G1  Z-1.0000  F100.00 
N1885  X0.5148  Y-112.0685   F300.00 
N1890  X-5.1779  Y-111.8999   
N1895  X-15.4218  Y-110.8957   
N1900  X-25.4084  Y-109.0217   
N1905  X-35.0949  Y-106.2964   
N1910  X-44.4379  Y-102.7386   
N1915  X-48.9672  Y-100.6534   
N1920  X-53.3944  Y-98.3669   
N1925  X-57.7142  Y-95.8818   
N1930  X-61.9212  Y-93.2001   
N1935  X-66.0100  Y-90.3243   
N1940  X-69.9753  Y-87.2567   
N1945  X-73.8116  Y-83.9997   
N1950  X-77.5136  Y-80.5556   
N1955  X-84.4307  Y-73.3238   
N1960  X-90.3652  Y-65.9998   
N1965  X-95.5297  Y-58.2953   
N1970  X-100.1372  Y-49.9225   
N1975  X-102.9182  Y-43.9599   
N1980  X-105.3065  Y-37.9764   
N1985  X-107.3088  Y-31.9428   
N1990  X-108.9318  Y-25.8302   
N1995  X-110.1825  Y-19.6095   
N2000  X-111.0674  Y-13.2518   
N2005  X-111.5934  Y-6.7277   
N2010  X-111.7671  Y-0.0084   
N2015  X-111.5120  Y7.9267   
N2020  X-110.7447  Y15.6710   
N2025  X-109.4614  Y23.2369   
N2030  X-107.6592  Y30.6361   
N2035  X-105.3343  Y37.8808   
N2040  X-102.4835  Y44.9827   
N2045  X-99.1036  Y51.9537   
N2050  X-95.1910  Y58.8061   
N2055  X-92.0690  Y63.5882   
N2060  X-88.6950  Y68.1994   
N2065  X-85.0816  Y72.6309   
N2070  X-81.2421  Y76.8732   
N2075  X-77.1892  Y80.9177   
N2080  X-72.9360  Y84.7552   
N2085  X-68.4954  Y88.3766   
N2090  X-63.8806  Y91.7729   
N2095  X-59.1042  Y94.9349   
N2100  X-54.1794  Y97.8538   
N2105  X-49.1190  Y100.5203   
N2110  X-43.9361  Y102.9255   
N2115  X-38.6438  Y105.0603   
N2120  X-33.2547  Y106.9156   
N2125  X-27.7820  Y108.4825   
N2130  X-22.2386  Y109.7518   
N2135  X-13.5450  Y111.0878   
N2140  X-4.2943  Y111.7945   
N2145  X4.8340  Y111.8435   
N2150  X13.1602  Y111.2072   
N2155  X20.9221  Y109.9619   
N2160  X28.4539  Y108.2475   
N2165  X35.7626  Y106.0610   
N2170  X42.8549  Y103.3996   
N2175  X49.7374  Y100.2606   
N2180  X56.4171  Y96.6410   
N2185  X62.9005  Y92.5382   
N2190  X69.1946  Y87.9492   
N2195  X72.9766  Y84.7400   
N2200  X77.4297  Y80.5804   
N2205  X81.7873  Y76.2122   
N2210  X85.2838  Y72.3768   
N2215  X90.1326  Y66.2317   
N2220  X94.5203  Y59.8095   
N2225  X98.4399  Y53.1252   
N2230  X101.8848  Y46.1939   
N2235  X104.8477  Y39.0304   
N2240  X107.3223  Y31.6500   
N2245  X109.3016  Y24.0676   
N2250  X110.7786  Y16.2981   
N2255  X111.3250  Y10.5442   
N2260  X111.6371  Y2.8671   
N2265  X111.6727  Y-4.8759   
N2270  X111.3901  Y-10.8275   
N2275  X110.2142  Y-19.2659   
N2280  X108.4445  Y-27.5125   
N2285  X106.0904  Y-35.5448   
N2290  X103.1612  Y-43.3410   
N2295  X99.6661  Y-50.8785   
N2300  X95.6145  Y-58.1352   
N2305  X91.0159  Y-65.0889   
N2310  X85.8793  Y-71.7171   
N2315  X81.8745  Y-76.1461   
N2320  X77.0318  Y-80.9708   
N2325  X72.0443  Y-85.5297   
N2330  X67.6051  Y-89.1611   
N2335  X60.7323  Y-93.9494   
N2340  X53.6409  Y-98.1826   
N2345  X46.3390  Y-101.8577   
N2350  X38.8344  Y-104.9719   
N2355  X31.1356  Y-107.5218   
N2360  X23.2503  Y-109.5048   
N2365  X15.1865  Y-110.9177   
N2370  X6.9526  Y-111.7574   
N2375 G0  Z0.1000 
N2380 G1  Z-2.0000  F100.00 
N2385  X0.5148  Y-112.0685   F300.00 
N2390  X-5.1779  Y-111.8999   
N2395  X-15.4218  Y-110.8957   
N2400  X-25.4084  Y-109.0217   
N2405  X-35.0949  Y-106.2964   
N2410  X-44.4379  Y-102.7386   
N2415  X-48.9672  Y-100.6534   
N2420  X-53.3944  Y-98.3669   
N2425  X-57.7142  Y-95.8818   
N2430  X-61.9212  Y-93.2001   
N2435  X-66.0100  Y-90.3243   
N2440  X-69.9753  Y-87.2567   
N2445  X-73.8116  Y-83.9997   
N2450  X-77.5136  Y-80.5556   
N2455  X-84.4307  Y-73.3238   
N2460  X-90.3652  Y-65.9998   
N2465  X-95.5297  Y-58.2953   
N2470  X-100.1372  Y-49.9225   
N2475  X-102.9182  Y-43.9599   
N2480  X-105.3065  Y-37.9764   
N2485  X-107.3088  Y-31.9428   
N2490  X-108.9318  Y-25.8302   
N2495  X-110.1825  Y-19.6095   
N2500  X-111.0674  Y-13.2518   
N2505  X-111.5934  Y-6.7277   
N2510  X-111.7671  Y-0.0084   
N2515  X-111.5120  Y7.9267   
N2520  X-110.7447  Y15.6710   
N2525  X-109.4614  Y23.2369   
N2530  X-107.6592  Y30.6361   
N2535  X-105.3343  Y37.8808   
N2540  X-102.4835  Y44.9827   
N2545  X-99.1036  Y51.9537   
N2550  X-95.1910  Y58.8061   
N2555  X-92.0690  Y63.5882   
N2560  X-88.6950  Y68.1994   
N2565  X-85.0816  Y72.6309   
N2570  X-81.2421  Y76.8732   
N2575  X-77.1892  Y80.9177   
N2580  X-72.9360  Y84.7552   
N2585  X-68.4954  Y88.3766   
N2590  X-63.8806  Y91.7729   
N2595  X-59.1042  Y94.9349   
N2600  X-54.1794  Y97.8538   
N2605  X-49.1190  Y100.5203   
N2610  X-43.9361  Y102.9255   
N2615  X-38.6438  Y105.0603   
N2620  X-33.2547  Y106.9156   
N2625  X-27.7820  Y108.4825   
N2630  X-22.2386  Y109.7518   
N2635  X-13.5450  Y111.0878   
N2640  X-4.2943  Y111.7945   
N2645  X4.8340  Y111.8435   
N2650  X13.1602  Y111.2072   
N2655  X20.9221  Y109.9619   
N2660  X28.4539  Y108.2475   
N2665  X35.7626  Y106.0610   
N2670  X42.8549  Y103.3996   
N2675  X49.7374  Y100.2606   
N2680  X56.4171  Y96.6410   
N2685  X62.9005  Y92.5382   
N2690  X69.1946  Y87.9492   
N2695  X72.9766  Y84.7400   
N2700  X77.4297  Y80.5804   
N2705  X81.7873  Y76.2122   
N2710  X85.2838  Y72.3768   
N2715  X90.1326  Y66.2317   
N2720  X94.5203  Y59.8095   
N2725  X98.4399  Y53.1252   
N2730  X101.8848  Y46.1939   
N2735  X104.8477  Y39.0304   
N2740  X107.3223  Y31.6500   
N2745  X109.3016  Y24.0676   
N2750  X110.7786  Y16.2981   
N2755  X111.3250  Y10.5442   
N2760  X111.6371  Y2.8671   
N2765  X111.6727  Y-4.8759   
N2770  X111.3901  Y-10.8275   
N2775  X110.2142  Y-19.2659   
N2780  X108.4445  Y-27.5125   
N2785  X106.0904  Y-35.5448   
N2790  X103.1612  Y-43.3410   
N2795  X99.6661  Y-50.8785   
N2800  X95.6145  Y-58.1352   
N2805  X91.0159  Y-65.0889   
N2810  X85.8793  Y-71.7171   
N2815  X81.8745  Y-76.1461   
N2820  X77.0318  Y-80.9708   
N2825  X72.0443  Y-85.5297   
N2830  X67.6051  Y-89.1611   
N2835  X60.7323  Y-93.9494   
N2840  X53.6409  Y-98.1826   
N2845  X46.3390  Y-101.8577   
N2850  X38.8344  Y-104.9719   
N2855  X31.1356  Y-107.5218   
N2860  X23.2503  Y-109.5048   
N2865  X15.1865  Y-110.9177   
N2870  X6.9526  Y-111.7574   
N2875 G0  Z5.0000 
N2880 M5
N2885 M30

