N5 (File Name = Imagen de WhatsApp 2023-11-10 a las 14.32.10_41fe948c on Friday, November 10, 2023)
N10 (Default Mill Post)
N15  G91.1
N20 G0  Z3.0000 
N25 M3 S4000 
N30  X144.3425  Y1.8626 
N35  Z0.1000 
N40 G1  Z-0.7000  F100.00 
N45  X130.9921  Y8.3800   F300.00 
N50  X119.8734  Y14.6862   
N55  X115.7876  Y17.0852   
N60  X111.7345  Y19.7358   
N65  X103.9153  Y25.1024   
N70  X96.1574  Y30.6470   
N75  X87.3616  Y37.7244   
N80  X79.4662  Y44.4937   
N85  X71.9858  Y51.4110   
N90  X64.9033  Y58.4949   
N95  X58.2026  Y65.7642   
N100  X51.8667  Y73.2379   
N105  X45.8794  Y80.9346   
N110  X40.2238  Y88.8728   
N115  X34.8835  Y97.0717   
N120  X32.5625  Y100.7921   
N125  X29.0637  Y106.7151   
N130  X25.6053  Y113.2068   
N135  X19.0024  Y127.4393   
N140  X13.1403  Y142.5784   
N145  X10.6078  Y150.2030   
N150  X8.4057  Y157.7127   
N155  X6.6563  Y163.9130   
N160  X5.5147  Y168.9450   
N165  X3.2087  Y181.5224   
N170  X1.4065  Y193.2683   
N175  X0.8392  Y199.7515   
N180  X0.4494  Y207.9956   
N185  X0.0699  Y233.8277   
N190  X0.0000  Y278.8879   
N195  X0.0122  Y322.7669   
N200  X0.2930  Y343.9589   
N205  X0.6449  Y348.6717   
N210  X1.1969  Y350.8623   
N215  X1.9931  Y351.5801   
N220  X3.0779  Y351.8752   
N225  X49.6006  Y352.2950   
N230  X150.0316  Y352.4382   
N235  X250.4624  Y352.3025   
N240  X296.9850  Y351.8861   
N245  X298.2959  Y351.0610   
N250  X299.3236  Y349.7779   
N255  X299.7796  Y347.0802   
N260  X300.0070  Y337.5845   
N265  X299.9659  Y276.5143   
N270  X299.7783  Y228.6757   
N275  X299.1766  Y202.3367   
N280  X298.5413  Y193.7692   
N285  X297.5868  Y186.4243   
N290  X294.4347  Y169.8655   
N295  X292.3179  Y160.9394   
N300  X289.4163  Y150.6792   
N305  X286.3420  Y141.1158   
N310  X283.7073  Y134.2801   
N315  X282.7221  Y131.5519   
N320  X281.9780  Y129.9636   
N325  X281.2498  Y128.3321   
N330  X277.1890  Y119.4306   
N335  X270.7239  Y106.7359   
N340  X264.0999  Y95.5653   
N345  X259.3859  Y88.5149   
N350  X257.2848  Y85.4809   
N355  X253.3950  Y79.9042   
N360  X248.4348  Y73.6213   
N365  X242.6477  Y66.8886   
N370  X236.2765  Y59.9625   
N375  X229.5648  Y53.0994   
N380  X222.7557  Y46.5556   
N385  X216.0924  Y40.5875   
N390  X209.8182  Y35.4515   
N395  X207.3398  Y33.4521   
N400  X203.8674  Y30.8075   
N405  X199.8991  Y27.8393   
N410  X197.4189  Y26.0203   
N415  X195.1867  Y24.3812   
N420  X179.3134  Y14.2010   
N425  X167.1829  Y7.6190   
N430  X154.4985  Y1.3386   
N435  X151.8322  Y0.2887   
N440  X149.7568  Y0.0000   
N445  X147.5134  Y0.5116   
N450  X144.3425  Y1.8626   
N455 G0  Z0.1000 
N460 G1  Z-1.4000  F100.00 
N465  X130.9921  Y8.3800   F300.00 
N470  X119.8734  Y14.6862   
N475  X115.7876  Y17.0852   
N480  X111.7345  Y19.7358   
N485  X103.9153  Y25.1024   
N490  X96.1574  Y30.6470   
N495  X87.3616  Y37.7244   
N500  X79.4662  Y44.4937   
N505  X71.9858  Y51.4110   
N510  X64.9033  Y58.4949   
N515  X58.2026  Y65.7642   
N520  X51.8667  Y73.2379   
N525  X45.8794  Y80.9346   
N530  X40.2238  Y88.8728   
N535  X34.8835  Y97.0717   
N540  X32.5625  Y100.7921   
N545  X29.0637  Y106.7151   
N550  X25.6053  Y113.2068   
N555  X19.0024  Y127.4393   
N560  X13.1403  Y142.5784   
N565  X10.6078  Y150.2030   
N570  X8.4057  Y157.7127   
N575  X6.6563  Y163.9130   
N580  X5.5147  Y168.9450   
N585  X3.2087  Y181.5224   
N590  X1.4065  Y193.2683   
N595  X0.8392  Y199.7515   
N600  X0.4494  Y207.9956   
N605  X0.0699  Y233.8277   
N610  X0.0000  Y278.8879   
N615  X0.0122  Y322.7669   
N620  X0.2930  Y343.9589   
N625  X0.6449  Y348.6717   
N630  X1.1969  Y350.8623   
N635  X1.9931  Y351.5801   
N640  X3.0779  Y351.8752   
N645  X49.6006  Y352.2950   
N650  X150.0316  Y352.4382   
N655  X250.4624  Y352.3025   
N660  X296.9850  Y351.8861   
N665  X298.2959  Y351.0610   
N670  X299.3236  Y349.7779   
N675  X299.7796  Y347.0802   
N680  X300.0070  Y337.5845   
N685  X299.9659  Y276.5143   
N690  X299.7783  Y228.6757   
N695  X299.1766  Y202.3367   
N700  X298.5413  Y193.7692   
N705  X297.5868  Y186.4243   
N710  X294.4347  Y169.8655   
N715  X292.3179  Y160.9394   
N720  X289.4163  Y150.6792   
N725  X286.3420  Y141.1158   
N730  X283.7073  Y134.2801   
N735  X282.7221  Y131.5519   
N740  X281.9780  Y129.9636   
N745  X281.2498  Y128.3321   
N750  X277.1890  Y119.4306   
N755  X270.7239  Y106.7359   
N760  X264.0999  Y95.5653   
N765  X259.3859  Y88.5149   
N770  X257.2848  Y85.4809   
N775  X253.3950  Y79.9042   
N780  X248.4348  Y73.6213   
N785  X242.6477  Y66.8886   
N790  X236.2765  Y59.9625   
N795  X229.5648  Y53.0994   
N800  X222.7557  Y46.5556   
N805  X216.0924  Y40.5875   
N810  X209.8182  Y35.4515   
N815  X207.3398  Y33.4521   
N820  X203.8674  Y30.8075   
N825  X199.8991  Y27.8393   
N830  X197.4189  Y26.0203   
N835  X195.1867  Y24.3812   
N840  X179.3134  Y14.2010   
N845  X167.1829  Y7.6190   
N850  X154.4985  Y1.3386   
N855  X151.8322  Y0.2887   
N860  X149.7568  Y0.0000   
N865  X147.5134  Y0.5116   
N870  X144.3425  Y1.8626   
N875 G0  Z3.0000 
N880  X166.0565  Y52.1714 
N885  Z0.1000 
N890 G1  Z-0.7000  F100.00 
N895  X165.8210  Y46.3593   F300.00 
N900  X165.4243  Y44.0473   
N905  X162.8528  Y44.9901   
N910  X157.7324  Y47.7506   
N915  X151.5423  Y51.4799   
N920  X145.7625  Y55.3289   
N925  X142.1130  Y57.7605   
N930  X136.4058  Y61.8853   
N935  X134.3673  Y63.3067   
N940  X132.3832  Y64.8021   
N945  X129.4615  Y67.1795   
N950  X126.9811  Y69.1565   
N955  X124.0049  Y71.6310   
N960  X118.1949  Y76.6951   
N965  X109.6370  Y85.0426   
N970  X98.7855  Y96.4264   
N975  X91.1322  Y105.4614   
N980  X89.1602  Y107.9416   
N985  X81.8406  Y117.5333   
N990  X79.6329  Y120.5943   
N995  X75.6411  Y126.7250   
N1000  X70.9788  Y134.0808   
N1005  X67.9746  Y139.3591   
N1010  X65.5874  Y143.8234   
N1015  X62.3011  Y150.6224   
N1020  X59.0746  Y159.1885   
N1025  X56.3359  Y168.2569   
N1030  X54.5128  Y176.5621   
N1035  X53.9693  Y181.5011   
N1040  X53.6963  Y187.3126   
N1045  X53.7200  Y192.8333   
N1050  X54.0655  Y196.8997   
N1055  X55.8709  Y205.3832   
N1060  X58.1111  Y212.6379   
N1065  X60.7836  Y218.6583   
N1070  X63.8862  Y223.4379   
N1075  X66.0936  Y225.9621   
N1080  X68.5581  Y228.3373   
N1085  X74.1279  Y232.5569   
N1090  X80.3354  Y235.9286   
N1095  X83.5968  Y237.2439   
N1100  X86.9197  Y238.2843   
N1105  X89.3629  Y238.8310   
N1110  X92.2801  Y239.1411   
N1115  X103.8069  Y239.3113   
N1120  X114.0295  Y239.4465   
N1125  X116.4766  Y239.6309   
N1130  X117.4572  Y239.9065   
N1135  X117.7414  Y242.1741   
N1140  X117.9247  Y249.0237   
N1145  X118.0524  Y280.8299   
N1150  X118.1617  Y309.3219   
N1155  X118.4246  Y321.1932   
N1160  X169.7069  Y321.4277   
N1165  X219.8647  Y321.3598   
N1170  X220.3271  Y320.9959   
N1175  X220.5892  Y319.9504   
N1180  X220.7328  Y313.9319   
N1185  Y306.7726   
N1190  X177.1105   
N1195  X144.3896  Y306.6464   
N1200  X133.1781  Y306.2709   
N1205  X132.9329  Y295.6867   
N1210  X132.8525  Y273.0384   
N1215  X132.9359  Y250.3900   
N1220  X133.1826  Y239.8059   
N1225  X139.4263  Y239.4605   
N1230  X152.8438  Y239.3986   
N1235  X166.3881  Y239.5871   
N1240  X173.0120  Y239.9928   
N1245  X173.3086  Y241.1611   
N1250  X173.4951  Y244.6419   
N1255  X173.6087  Y261.0485   
N1260  X173.5986  Y282.3664   
N1265  X174.9458  Y282.6807   
N1270  X179.8417  Y282.8531   
N1275  X205.4796  Y282.8516   
N1280  X224.7306  Y282.7305   
N1285  X234.8251  Y282.4523   
N1290  X239.5824  Y281.7697   
N1295  X242.8217  Y280.4354   
N1300  X245.6076  Y278.5379   
N1305  X248.1305  Y275.7238   
N1310  X250.1086  Y272.3788   
N1315  X251.2603  Y268.8879   
N1320  X251.6105  Y267.0210   
N1325  X243.2403  Y267.3208   
N1330  X211.9435  Y267.9845   
N1335  X189.6917  Y268.0769   
N1340  X188.2421  Y267.8244   
N1345  X188.1013  Y253.9795   
N1350  X188.1208  Y242.9040   
N1355  X188.2937  Y240.5642   
N1360  X188.5974  Y239.7303   
N1365  X189.7316  Y239.5331   
N1370  X191.5641  Y239.6270   
N1375  X195.1603  Y239.6101   
N1380  X196.4269  Y239.2923   
N1385  Y232.1293   
N1390  Y224.9661   
N1395  X192.3344  Y224.8221   
N1400  X188.2421  Y224.6781   
N1405  X188.1081  Y214.3853   
N1410  X188.0788  Y207.6725   
N1415  X188.4140  Y204.5894   
N1420  X188.8094  Y204.1852   
N1425  X189.4054  Y204.4199   
N1430  X191.3451  Y206.4485   
N1435  X195.5300  Y211.0940   
N1440  X208.1697  Y225.1140   
N1445  X209.4212  Y226.4067   
N1450  X210.0783  Y226.6798   
N1455  X210.9062  Y226.6824   
N1460  X213.5227  Y225.8105   
N1465  X218.1679  Y223.6606   
N1470  X223.3177  Y220.8921   
N1475  X225.0750  Y219.5293   
N1480  X226.8512  Y217.8002   
N1485  X238.9078  Y205.2606   
N1490  X251.7217  Y191.9394   
N1495  X255.0990  Y188.2170   
N1500  X257.6856  Y184.8843   
N1505  X259.5304  Y181.8708   
N1510  X260.6827  Y179.1062   
N1515  X261.3233  Y176.1721   
N1520  X260.9577  Y173.1537   
N1525  X260.2037  Y170.4514   
N1530  X259.0602  Y167.8516   
N1535  X257.4965  Y165.2964   
N1540  X255.4822  Y162.7274   
N1545  X251.2393  Y157.6919   
N1550  X242.5350  Y148.0434   
N1555  X238.8602  Y143.8234   
N1560  X234.6674  Y139.0730   
N1565  X230.6536  Y134.6453   
N1570  X225.1972  Y128.6518   
N1575  X220.7328  Y123.6612   
N1580  X215.7081  Y118.0361   
N1585  X207.8750  Y109.5283   
N1590  X197.6669  Y98.3994   
N1595  X190.9705  Y90.9981   
N1600  X184.0204  Y83.3339   
N1605  X177.2162  Y75.8910   
N1610  X174.9511  Y73.5473   
N1615  X173.8279  Y72.7535   
N1620  X173.5635  Y90.9044   
N1625  X173.6089  Y109.2952   
N1630  X174.0651  Y109.5406   
N1635  X175.4646  Y109.7118   
N1640  X181.2817  Y109.8447   
N1645  X188.0321  Y109.9979   
N1650  X189.0899  Y110.3457   
N1655  X189.5905  Y111.0133   
N1660  X192.8371  Y115.0280   
N1665  X199.1551  Y121.9953   
N1670  X203.3714  Y126.6934   
N1675  X207.5878  Y131.4302   
N1680  X219.2918  Y144.3195   
N1685  X222.2219  Y147.5438   
N1690  X228.2368  Y154.0585   
N1695  X236.1661  Y163.1653   
N1700  X243.0757  Y171.4293   
N1705  X246.0309  Y175.4153   
N1710  X245.4535  Y176.6069   
N1715  X243.4325  Y179.0612   
N1720  X233.3273  Y189.7073   
N1725  X225.2034  Y198.1399   
N1730  X219.0574  Y204.5667   
N1735  X215.5396  Y207.9354   
N1740  X213.7889  Y208.9643   
N1745  X213.3074  Y208.8259   
N1750  X212.9448  Y208.3722   
N1755  X208.0839  Y202.8665   
N1760  X201.9480  Y196.2304   
N1765  X189.6199  Y183.6014   
N1770  X188.6422  Y182.7990   
N1775  X187.4044  Y182.3742   
N1780  X180.9919  Y182.1132   
N1785  X173.8570  Y182.0185   
N1790  X173.7276  Y203.0744   
N1795  X173.4946  Y219.7185   
N1800  X173.2840  Y223.3061   
N1805  X172.9835  Y224.5204   
N1810  X166.4277  Y224.8373   
N1815  X152.8761  Y224.9194   
N1820  X139.4291  Y224.7818   
N1825  X133.1871  Y224.4389   
N1830  X132.9216  Y175.5197   
N1835  X132.8221  Y137.7567   
N1840  X132.6524  Y129.2678   
N1845  X132.3886  Y126.4030   
N1850  X131.7795  Y126.0756   
N1855  X130.4685  Y125.8645   
N1860  X124.9363  Y125.7179   
N1865  X118.0524   
N1870  Y174.7653   
N1875  X117.9253  Y215.0996   
N1880  X117.7103  Y222.3222   
N1885  X117.3445  Y224.4001   
N1890  X116.3323  Y224.6635   
N1895  X113.9070  Y224.8140   
N1900  X103.8275  Y224.8058   
N1905  X91.0184  Y224.6239   
N1910  X87.4332  Y223.0643   
N1915  X84.5190  Y221.6942   
N1920  X82.1374  Y220.2952   
N1925  X79.9282  Y218.6264   
N1930  X77.5312  Y216.4472   
N1935  X74.9808  Y213.4505   
N1940  X72.8362  Y209.7249   
N1945  X71.0455  Y205.1603   
N1950  X69.5564  Y199.6465   
N1955  X68.9415  Y194.6946   
N1960  X68.6947  Y188.0070   
N1965  X68.8301  Y181.2440   
N1970  X69.3612  Y176.0660   
N1975  X70.3776  Y171.6662   
N1980  X71.7925  Y166.8540   
N1985  X75.4954  Y156.7738   
N1990  X79.8249  Y147.3882   
N1995  X82.0229  Y143.4443   
N2000  X84.1358  Y140.2603   
N2005  X85.3139  Y138.4656   
N2010  X93.4914  Y126.4148   
N2015  X100.9651  Y116.9759   
N2020  X103.1972  Y114.2979   
N2025  X110.4587  Y105.9416   
N2030  X120.2847  Y95.7121   
N2035  X128.7444  Y87.3799   
N2040  X135.3454  Y81.5705   
N2045  X139.0622  Y78.4278   
N2050  X141.3663  Y76.5708   
N2055  X144.5906  Y74.0728   
N2060  X153.5289  Y67.8753   
N2065  X162.8322  Y62.0118   
N2070  X166.1926  Y60.1419   
N2075  X166.0565  Y52.1714   
N2080 G0  Z0.1000 
N2085 G1  Z-1.4000  F100.00 
N2090  X165.8210  Y46.3593   F300.00 
N2095  X165.4243  Y44.0473   
N2100  X162.8528  Y44.9901   
N2105  X157.7324  Y47.7506   
N2110  X151.5423  Y51.4799   
N2115  X145.7625  Y55.3289   
N2120  X142.1130  Y57.7605   
N2125  X136.4058  Y61.8853   
N2130  X134.3673  Y63.3067   
N2135  X132.3832  Y64.8021   
N2140  X129.4615  Y67.1795   
N2145  X126.9811  Y69.1565   
N2150  X124.0049  Y71.6310   
N2155  X118.1949  Y76.6951   
N2160  X109.6370  Y85.0426   
N2165  X98.7855  Y96.4264   
N2170  X91.1322  Y105.4614   
N2175  X89.1602  Y107.9416   
N2180  X81.8406  Y117.5333   
N2185  X79.6329  Y120.5943   
N2190  X75.6411  Y126.7250   
N2195  X70.9788  Y134.0808   
N2200  X67.9746  Y139.3591   
N2205  X65.5874  Y143.8234   
N2210  X62.3011  Y150.6224   
N2215  X59.0746  Y159.1885   
N2220  X56.3359  Y168.2569   
N2225  X54.5128  Y176.5621   
N2230  X53.9693  Y181.5011   
N2235  X53.6963  Y187.3126   
N2240  X53.7200  Y192.8333   
N2245  X54.0655  Y196.8997   
N2250  X55.8709  Y205.3832   
N2255  X58.1111  Y212.6379   
N2260  X60.7836  Y218.6583   
N2265  X63.8862  Y223.4379   
N2270  X66.0936  Y225.9621   
N2275  X68.5581  Y228.3373   
N2280  X74.1279  Y232.5569   
N2285  X80.3354  Y235.9286   
N2290  X83.5968  Y237.2439   
N2295  X86.9197  Y238.2843   
N2300  X89.3629  Y238.8310   
N2305  X92.2801  Y239.1411   
N2310  X103.8069  Y239.3113   
N2315  X114.0295  Y239.4465   
N2320  X116.4766  Y239.6309   
N2325  X117.4572  Y239.9065   
N2330  X117.7414  Y242.1741   
N2335  X117.9247  Y249.0237   
N2340  X118.0524  Y280.8299   
N2345  X118.1617  Y309.3219   
N2350  X118.4246  Y321.1932   
N2355  X169.7069  Y321.4277   
N2360  X219.8647  Y321.3598   
N2365  X220.3271  Y320.9959   
N2370  X220.5892  Y319.9504   
N2375  X220.7328  Y313.9319   
N2380  Y306.7726   
N2385  X177.1105   
N2390  X144.3896  Y306.6464   
N2395  X133.1781  Y306.2709   
N2400  X132.9329  Y295.6867   
N2405  X132.8525  Y273.0384   
N2410  X132.9359  Y250.3900   
N2415  X133.1826  Y239.8059   
N2420  X139.4263  Y239.4605   
N2425  X152.8438  Y239.3986   
N2430  X166.3881  Y239.5871   
N2435  X173.0120  Y239.9928   
N2440  X173.3086  Y241.1611   
N2445  X173.4951  Y244.6419   
N2450  X173.6087  Y261.0485   
N2455  X173.5986  Y282.3664   
N2460  X174.9458  Y282.6807   
N2465  X179.8417  Y282.8531   
N2470  X205.4796  Y282.8516   
N2475  X224.7306  Y282.7305   
N2480  X234.8251  Y282.4523   
N2485  X239.5824  Y281.7697   
N2490  X242.8217  Y280.4354   
N2495  X245.6076  Y278.5379   
N2500  X248.1305  Y275.7238   
N2505  X250.1086  Y272.3788   
N2510  X251.2603  Y268.8879   
N2515  X251.6105  Y267.0210   
N2520  X243.2403  Y267.3208   
N2525  X211.9435  Y267.9845   
N2530  X189.6917  Y268.0769   
N2535  X188.2421  Y267.8244   
N2540  X188.1013  Y253.9795   
N2545  X188.1208  Y242.9040   
N2550  X188.2937  Y240.5642   
N2555  X188.5974  Y239.7303   
N2560  X189.7316  Y239.5331   
N2565  X191.5641  Y239.6270   
N2570  X195.1603  Y239.6101   
N2575  X196.4269  Y239.2923   
N2580  Y232.1293   
N2585  Y224.9661   
N2590  X192.3344  Y224.8221   
N2595  X188.2421  Y224.6781   
N2600  X188.1081  Y214.3853   
N2605  X188.0788  Y207.6725   
N2610  X188.4140  Y204.5894   
N2615  X188.8094  Y204.1852   
N2620  X189.4054  Y204.4199   
N2625  X191.3451  Y206.4485   
N2630  X195.5300  Y211.0940   
N2635  X208.1697  Y225.1140   
N2640  X209.4212  Y226.4067   
N2645  X210.0783  Y226.6798   
N2650  X210.9062  Y226.6824   
N2655  X213.5227  Y225.8105   
N2660  X218.1679  Y223.6606   
N2665  X223.3177  Y220.8921   
N2670  X225.0750  Y219.5293   
N2675  X226.8512  Y217.8002   
N2680  X238.9078  Y205.2606   
N2685  X251.7217  Y191.9394   
N2690  X255.0990  Y188.2170   
N2695  X257.6856  Y184.8843   
N2700  X259.5304  Y181.8708   
N2705  X260.6827  Y179.1062   
N2710  X261.3233  Y176.1721   
N2715  X260.9577  Y173.1537   
N2720  X260.2037  Y170.4514   
N2725  X259.0602  Y167.8516   
N2730  X257.4965  Y165.2964   
N2735  X255.4822  Y162.7274   
N2740  X251.2393  Y157.6919   
N2745  X242.5350  Y148.0434   
N2750  X238.8602  Y143.8234   
N2755  X234.6674  Y139.0730   
N2760  X230.6536  Y134.6453   
N2765  X225.1972  Y128.6518   
N2770  X220.7328  Y123.6612   
N2775  X215.7081  Y118.0361   
N2780  X207.8750  Y109.5283   
N2785  X197.6669  Y98.3994   
N2790  X190.9705  Y90.9981   
N2795  X184.0204  Y83.3339   
N2800  X177.2162  Y75.8910   
N2805  X174.9511  Y73.5473   
N2810  X173.8279  Y72.7535   
N2815  X173.5635  Y90.9044   
N2820  X173.6089  Y109.2952   
N2825  X174.0651  Y109.5406   
N2830  X175.4646  Y109.7118   
N2835  X181.2817  Y109.8447   
N2840  X188.0321  Y109.9979   
N2845  X189.0899  Y110.3457   
N2850  X189.5905  Y111.0133   
N2855  X192.8371  Y115.0280   
N2860  X199.1551  Y121.9953   
N2865  X203.3714  Y126.6934   
N2870  X207.5878  Y131.4302   
N2875  X219.2918  Y144.3195   
N2880  X222.2219  Y147.5438   
N2885  X228.2368  Y154.0585   
N2890  X236.1661  Y163.1653   
N2895  X243.0757  Y171.4293   
N2900  X246.0309  Y175.4153   
N2905  X245.4535  Y176.6069   
N2910  X243.4325  Y179.0612   
N2915  X233.3273  Y189.7073   
N2920  X225.2034  Y198.1399   
N2925  X219.0574  Y204.5667   
N2930  X215.5396  Y207.9354   
N2935  X213.7889  Y208.9643   
N2940  X213.3074  Y208.8259   
N2945  X212.9448  Y208.3722   
N2950  X208.0839  Y202.8665   
N2955  X201.9480  Y196.2304   
N2960  X189.6199  Y183.6014   
N2965  X188.6422  Y182.7990   
N2970  X187.4044  Y182.3742   
N2975  X180.9919  Y182.1132   
N2980  X173.8570  Y182.0185   
N2985  X173.7276  Y203.0744   
N2990  X173.4946  Y219.7185   
N2995  X173.2840  Y223.3061   
N3000  X172.9835  Y224.5204   
N3005  X166.4277  Y224.8373   
N3010  X152.8761  Y224.9194   
N3015  X139.4291  Y224.7818   
N3020  X133.1871  Y224.4389   
N3025  X132.9216  Y175.5197   
N3030  X132.8221  Y137.7567   
N3035  X132.6524  Y129.2678   
N3040  X132.3886  Y126.4030   
N3045  X131.7795  Y126.0756   
N3050  X130.4685  Y125.8645   
N3055  X124.9363  Y125.7179   
N3060  X118.0524   
N3065  Y174.7653   
N3070  X117.9253  Y215.0996   
N3075  X117.7103  Y222.3222   
N3080  X117.3445  Y224.4001   
N3085  X116.3323  Y224.6635   
N3090  X113.9070  Y224.8140   
N3095  X103.8275  Y224.8058   
N3100  X91.0184  Y224.6239   
N3105  X87.4332  Y223.0643   
N3110  X84.5190  Y221.6942   
N3115  X82.1374  Y220.2952   
N3120  X79.9282  Y218.6264   
N3125  X77.5312  Y216.4472   
N3130  X74.9808  Y213.4505   
N3135  X72.8362  Y209.7249   
N3140  X71.0455  Y205.1603   
N3145  X69.5564  Y199.6465   
N3150  X68.9415  Y194.6946   
N3155  X68.6947  Y188.0070   
N3160  X68.8301  Y181.2440   
N3165  X69.3612  Y176.0660   
N3170  X70.3776  Y171.6662   
N3175  X71.7925  Y166.8540   
N3180  X75.4954  Y156.7738   
N3185  X79.8249  Y147.3882   
N3190  X82.0229  Y143.4443   
N3195  X84.1358  Y140.2603   
N3200  X85.3139  Y138.4656   
N3205  X93.4914  Y126.4148   
N3210  X100.9651  Y116.9759   
N3215  X103.1972  Y114.2979   
N3220  X110.4587  Y105.9416   
N3225  X120.2847  Y95.7121   
N3230  X128.7444  Y87.3799   
N3235  X135.3454  Y81.5705   
N3240  X139.0622  Y78.4278   
N3245  X141.3663  Y76.5708   
N3250  X144.5906  Y74.0728   
N3255  X153.5289  Y67.8753   
N3260  X162.8322  Y62.0118   
N3265  X166.1926  Y60.1419   
N3270  X166.0565  Y52.1714   
N3275 G0  Z3.0000 
N3280  X69.6085  Y246.9998 
N3285  Z0.1000 
N3290 G1  Z-0.7000  F100.00 
N3295  X65.3325  Y246.2844   F300.00 
N3300  X63.9884  Y246.3562   
N3305  X63.4880  Y246.7280   
N3310  X64.1647  Y247.5270   
N3315  X65.7914  Y248.7850   
N3320  X70.0058  Y252.3284   
N3325  X74.2455  Y257.1686   
N3330  X76.8486  Y260.4757   
N3335  X79.8811  Y266.1732   
N3340  X82.8127  Y273.2900   
N3345  X83.6530  Y276.9809   
N3350  X84.1727  Y280.9785   
N3355  X84.6138  Y284.4962   
N3360  X85.3788  Y286.5026   
N3365  X86.5638  Y287.6421   
N3370  X88.2723  Y288.5657   
N3375  X90.2876  Y289.1836   
N3380  X92.3924  Y289.4065   
N3385  X94.4612  Y289.0928   
N3390  X96.8460  Y288.2704   
N3395  X99.1580  Y287.1037   
N3400  X101.0078  Y285.7576   
N3405  X101.7400  Y284.9925   
N3410  X102.1016  Y284.1867   
N3415  X102.0517  Y280.8724   
N3420  X101.5197  Y277.2460   
N3425  X100.4906  Y273.5624   
N3430  X99.0041  Y269.8883   
N3435  X97.0998  Y266.2904   
N3440  X94.8174  Y262.8353   
N3445  X92.1965  Y259.5899   
N3450  X89.2765  Y256.6209   
N3455  X86.0972  Y253.9947   
N3460  X82.9303  Y251.9838   
N3465  X79.0734  Y249.9500   
N3470  X75.5183  Y248.3758   
N3475  X73.2556  Y247.7439   
N3480  X69.6085  Y246.9998   
N3485 G0  Z0.1000 
N3490 G1  Z-1.4000  F100.00 
N3495  X65.3325  Y246.2844   F300.00 
N3500  X63.9884  Y246.3562   
N3505  X63.4880  Y246.7280   
N3510  X64.1647  Y247.5270   
N3515  X65.7914  Y248.7850   
N3520  X70.0058  Y252.3284   
N3525  X74.2455  Y257.1686   
N3530  X76.8486  Y260.4757   
N3535  X79.8811  Y266.1732   
N3540  X82.8127  Y273.2900   
N3545  X83.6530  Y276.9809   
N3550  X84.1727  Y280.9785   
N3555  X84.6138  Y284.4962   
N3560  X85.3788  Y286.5026   
N3565  X86.5638  Y287.6421   
N3570  X88.2723  Y288.5657   
N3575  X90.2876  Y289.1836   
N3580  X92.3924  Y289.4065   
N3585  X94.4612  Y289.0928   
N3590  X96.8460  Y288.2704   
N3595  X99.1580  Y287.1037   
N3600  X101.0078  Y285.7576   
N3605  X101.7400  Y284.9925   
N3610  X102.1016  Y284.1867   
N3615  X102.0517  Y280.8724   
N3620  X101.5197  Y277.2460   
N3625  X100.4906  Y273.5624   
N3630  X99.0041  Y269.8883   
N3635  X97.0998  Y266.2904   
N3640  X94.8174  Y262.8353   
N3645  X92.1965  Y259.5899   
N3650  X89.2765  Y256.6209   
N3655  X86.0972  Y253.9947   
N3660  X82.9303  Y251.9838   
N3665  X79.0734  Y249.9500   
N3670  X75.5183  Y248.3758   
N3675  X73.2556  Y247.7439   
N3680  X69.6085  Y246.9998   
N3685 G0  Z3.0000 
N3690  X60.6061  Y248.0396 
N3695  Z0.1000 
N3700 G1  Z-0.7000  F100.00 
N3705  X58.5513  Y247.1423   F300.00 
N3710  X57.1801  Y246.7930   
N3715  X53.3223  Y247.5602   
N3720  X49.9255  Y248.6041   
N3725  X47.1188  Y249.7213   
N3730  X45.5595  Y250.3955   
N3735  X44.9455  Y250.9622   
N3740  X45.6984  Y251.6988   
N3745  X47.4257  Y252.7813   
N3750  X49.7799  Y254.3785   
N3755  X51.7225  Y256.3253   
N3760  X53.1761  Y258.5270   
N3765  X54.0634  Y260.8897   
N3770  X54.4770  Y263.7919   
N3775  X54.0072  Y266.5156   
N3780  X54.0034  Y267.0025   
N3785  X54.4410  Y267.4644   
N3790  X57.4482  Y268.8669   
N3795  X59.1378  Y269.7818   
N3800  X60.7165  Y271.0458   
N3805  X62.1380  Y272.5822   
N3810  X63.3549  Y274.3136   
N3815  X64.3205  Y276.1635   
N3820  X64.9879  Y278.0546   
N3825  X65.3100  Y279.9103   
N3830  X65.2402  Y281.6533   
N3835  X64.7232  Y284.7780   
N3840  X64.6624  Y286.4207   
N3845  X65.2001  Y287.3450   
N3850  X66.4782  Y288.3146   
N3855  X68.1107  Y289.2773   
N3860  X69.9006  Y289.9119   
N3865  X71.7887  Y290.2235   
N3870  X73.7158  Y290.2170   
N3875  X75.6232  Y289.8975   
N3880  X77.4517  Y289.2700   
N3885  X79.1426  Y288.3396   
N3890  X80.6365  Y287.1110   
N3895  X81.5534  Y286.1123   
N3900  X82.0658  Y285.2255   
N3905  X82.3377  Y282.5543   
N3910  X81.8217  Y278.3103   
N3915  X80.4794  Y273.2022   
N3920  X78.6186  Y268.2021   
N3925  X76.5477  Y264.2825   
N3930  X75.3930  Y262.3771   
N3935  X74.0340  Y260.1994   
N3940  X71.2079  Y256.5557   
N3945  X68.9656  Y254.2077   
N3950  X66.2061  Y251.8087   
N3955  X63.2970  Y249.6544   
N3960  X60.6061  Y248.0396   
N3965 G0  Z0.1000 
N3970 G1  Z-1.4000  F100.00 
N3975  X58.5513  Y247.1423   F300.00 
N3980  X57.1801  Y246.7930   
N3985  X53.3223  Y247.5602   
N3990  X49.9255  Y248.6041   
N3995  X47.1188  Y249.7213   
N4000  X45.5595  Y250.3955   
N4005  X44.9455  Y250.9622   
N4010  X45.6984  Y251.6988   
N4015  X47.4257  Y252.7813   
N4020  X49.7799  Y254.3785   
N4025  X51.7225  Y256.3253   
N4030  X53.1761  Y258.5270   
N4035  X54.0634  Y260.8897   
N4040  X54.4770  Y263.7919   
N4045  X54.0072  Y266.5156   
N4050  X54.0034  Y267.0025   
N4055  X54.4410  Y267.4644   
N4060  X57.4482  Y268.8669   
N4065  X59.1378  Y269.7818   
N4070  X60.7165  Y271.0458   
N4075  X62.1380  Y272.5822   
N4080  X63.3549  Y274.3136   
N4085  X64.3205  Y276.1635   
N4090  X64.9879  Y278.0546   
N4095  X65.3100  Y279.9103   
N4100  X65.2402  Y281.6533   
N4105  X64.7232  Y284.7780   
N4110  X64.6624  Y286.4207   
N4115  X65.2001  Y287.3450   
N4120  X66.4782  Y288.3146   
N4125  X68.1107  Y289.2773   
N4130  X69.9006  Y289.9119   
N4135  X71.7887  Y290.2235   
N4140  X73.7158  Y290.2170   
N4145  X75.6232  Y289.8975   
N4150  X77.4517  Y289.2700   
N4155  X79.1426  Y288.3396   
N4160  X80.6365  Y287.1110   
N4165  X81.5534  Y286.1123   
N4170  X82.0658  Y285.2255   
N4175  X82.3377  Y282.5543   
N4180  X81.8217  Y278.3103   
N4185  X80.4794  Y273.2022   
N4190  X78.6186  Y268.2021   
N4195  X76.5477  Y264.2825   
N4200  X75.3930  Y262.3771   
N4205  X74.0340  Y260.1994   
N4210  X71.2079  Y256.5557   
N4215  X68.9656  Y254.2077   
N4220  X66.2061  Y251.8087   
N4225  X63.2970  Y249.6544   
N4230  X60.6061  Y248.0396   
N4235 G0  Z3.0000 
N4240  X45.8094  Y254.2311 
N4245  Z0.1000 
N4250 G1  Z-0.7000  F100.00 
N4255  X43.5942  Y253.2611   F300.00 
N4260  X42.0475  Y252.9388   
N4265  X40.7216  Y253.2652   
N4270  X39.1685  Y254.2411   
N4275  X36.7905  Y256.1470   
N4280  X34.5066  Y258.3731   
N4285  X30.3586  Y263.5843   
N4290  X26.9992  Y269.4689   
N4295  X25.7009  Y272.5371   
N4300  X24.7024  Y275.6215   
N4305  X23.8077  Y280.2018   
N4310  X23.5962  Y286.1869   
N4315  X23.7127  Y290.5098   
N4320  X24.1300  Y293.9868   
N4325  X24.9838  Y297.3463   
N4330  X26.4094  Y301.3162   
N4335  X27.4484  Y303.7628   
N4340  X28.1565  Y304.7763   
N4345  X28.4171  Y304.7624   
N4350  X28.6314  Y304.4103   
N4355  X28.9705  Y302.7178   
N4360  X29.8658  Y297.9492   
N4365  X31.2840  Y293.1653   
N4370  X33.1643  Y288.4740   
N4375  X35.4459  Y283.9829   
N4380  X38.0676  Y279.7997   
N4385  X40.9691  Y276.0319   
N4390  X44.0891  Y272.7873   
N4395  X47.3668  Y270.1739   
N4400  X49.5990  Y268.5428   
N4405  X50.7225  Y267.9340   
N4410  X51.3958  Y267.5034   
N4415  X51.9162  Y266.7981   
N4420  X52.4783  Y264.7696   
N4425  X52.3679  Y262.2607   
N4430  X51.5437  Y259.6842   
N4435  X50.5414  Y257.9730   
N4440  X49.2966  Y256.5366   
N4445  X47.7418  Y255.3106   
N4450  X45.8094  Y254.2311   
N4455 G0  Z0.1000 
N4460 G1  Z-1.4000  F100.00 
N4465  X43.5942  Y253.2611   F300.00 
N4470  X42.0475  Y252.9388   
N4475  X40.7216  Y253.2652   
N4480  X39.1685  Y254.2411   
N4485  X36.7905  Y256.1470   
N4490  X34.5066  Y258.3731   
N4495  X30.3586  Y263.5843   
N4500  X26.9992  Y269.4689   
N4505  X25.7009  Y272.5371   
N4510  X24.7024  Y275.6215   
N4515  X23.8077  Y280.2018   
N4520  X23.5962  Y286.1869   
N4525  X23.7127  Y290.5098   
N4530  X24.1300  Y293.9868   
N4535  X24.9838  Y297.3463   
N4540  X26.4094  Y301.3162   
N4545  X27.4484  Y303.7628   
N4550  X28.1565  Y304.7763   
N4555  X28.4171  Y304.7624   
N4560  X28.6314  Y304.4103   
N4565  X28.9705  Y302.7178   
N4570  X29.8658  Y297.9492   
N4575  X31.2840  Y293.1653   
N4580  X33.1643  Y288.4740   
N4585  X35.4459  Y283.9829   
N4590  X38.0676  Y279.7997   
N4595  X40.9691  Y276.0319   
N4600  X44.0891  Y272.7873   
N4605  X47.3668  Y270.1739   
N4610  X49.5990  Y268.5428   
N4615  X50.7225  Y267.9340   
N4620  X51.3958  Y267.5034   
N4625  X51.9162  Y266.7981   
N4630  X52.4783  Y264.7696   
N4635  X52.3679  Y262.2607   
N4640  X51.5437  Y259.6842   
N4645  X50.5414  Y257.9730   
N4650  X49.2966  Y256.5366   
N4655  X47.7418  Y255.3106   
N4660  X45.8094  Y254.2311   
N4665 G0  Z3.0000 
N4670  X57.1891  Y270.9065 
N4675  Z0.1000 
N4680 G1  Z-0.7000  F100.00 
N4685  X54.3799  Y269.9952   F300.00 
N4690  X51.8335  Y269.9547   
N4695  X50.0954  Y270.7196   
N4700  X48.0104  Y272.2118   
N4705  X43.2942  Y276.8247   
N4710  X38.6721  Y282.6863   
N4715  X36.7048  Y285.7392   
N4720  X35.1315  Y288.6890   
N4725  X33.4279  Y292.8237   
N4730  X32.2205  Y296.9036   
N4735  X31.4996  Y300.9699   
N4740  X31.2559  Y305.0637   
N4745  X31.2454  Y310.0512   
N4750  X34.1607  Y313.0770   
N4755  X38.7062  Y317.2358   
N4760  X40.6005  Y318.6374   
N4765  X41.7291  Y319.1736   
N4770  X41.9365  Y318.3358   
N4775  X41.8536  Y316.3215   
N4780  X41.8442  Y314.3235   
N4785  X42.1839  Y312.2881   
N4790  X42.8302  Y310.2903   
N4795  X43.7398  Y308.4052   
N4800  X44.8702  Y306.7081   
N4805  X46.1786  Y305.2742   
N4810  X47.6218  Y304.1790   
N4815  X49.1573  Y303.4975   
N4820  X50.8391  Y303.0149   
N4825  X50.8671  Y298.8174   
N4830  X51.1389  Y294.8899   
N4835  X52.2226  Y291.8621   
N4840  X53.4903  Y289.6167   
N4845  X54.6746  Y288.0900   
N4850  X57.7637  Y286.0742   
N4855  X61.1097  Y284.7323   
N4860  X62.2752  Y284.1121   
N4865  X62.9623  Y282.5929   
N4870  X63.1834  Y281.0621   
N4875  X63.0683  Y279.4157   
N4880  X61.9627  Y276.0472   
N4885  X59.9135  Y273.0299   
N4890  X58.6190  Y271.8226   
N4895  X57.1891  Y270.9065   
N4900 G0  Z0.1000 
N4905 G1  Z-1.4000  F100.00 
N4910  X54.3799  Y269.9952   F300.00 
N4915  X51.8335  Y269.9547   
N4920  X50.0954  Y270.7196   
N4925  X48.0104  Y272.2118   
N4930  X43.2942  Y276.8247   
N4935  X38.6721  Y282.6863   
N4940  X36.7048  Y285.7392   
N4945  X35.1315  Y288.6890   
N4950  X33.4279  Y292.8237   
N4955  X32.2205  Y296.9036   
N4960  X31.4996  Y300.9699   
N4965  X31.2559  Y305.0637   
N4970  X31.2454  Y310.0512   
N4975  X34.1607  Y313.0770   
N4980  X38.7062  Y317.2358   
N4985  X40.6005  Y318.6374   
N4990  X41.7291  Y319.1736   
N4995  X41.9365  Y318.3358   
N5000  X41.8536  Y316.3215   
N5005  X41.8442  Y314.3235   
N5010  X42.1839  Y312.2881   
N5015  X42.8302  Y310.2903   
N5020  X43.7398  Y308.4052   
N5025  X44.8702  Y306.7081   
N5030  X46.1786  Y305.2742   
N5035  X47.6218  Y304.1790   
N5040  X49.1573  Y303.4975   
N5045  X50.8391  Y303.0149   
N5050  X50.8671  Y298.8174   
N5055  X51.1389  Y294.8899   
N5060  X52.2226  Y291.8621   
N5065  X53.4903  Y289.6167   
N5070  X54.6746  Y288.0900   
N5075  X57.7637  Y286.0742   
N5080  X61.1097  Y284.7323   
N5085  X62.2752  Y284.1121   
N5090  X62.9623  Y282.5929   
N5095  X63.1834  Y281.0621   
N5100  X63.0683  Y279.4157   
N5105  X61.9627  Y276.0472   
N5110  X59.9135  Y273.0299   
N5115  X58.6190  Y271.8226   
N5120  X57.1891  Y270.9065   
N5125 G0  Z3.0000 
N5130  X64.2269  Y289.0808 
N5135  Z0.1000 
N5140 G1  Z-0.7000  F100.00 
N5145  X62.3206  Y287.5355   F300.00 
N5150  X60.8913  Y286.9336   
N5155  X59.3693  Y287.4863   
N5160  X57.2875  Y288.8120   
N5165  X55.0743  Y290.9110   
N5170  X53.6230  Y293.6460   
N5175  X52.7108  Y296.6067   
N5180  X53.0471  Y299.5801   
N5185  X53.5383  Y301.7084   
N5190  X54.1465  Y302.9930   
N5195  X55.2316  Y303.8995   
N5200  X57.1533  Y304.8937   
N5205  X59.9634  Y306.0583   
N5210  X63.1181  Y307.0169   
N5215  X70.0710  Y308.2736   
N5220  X77.2331  Y308.5775   
N5225  X80.6492  Y308.3452   
N5230  X83.8257  Y307.8423   
N5235  X88.7437  Y306.5626   
N5240  X93.3197  Y304.9578   
N5245  X96.9581  Y303.2667   
N5250  X99.0629  Y301.7288   
N5255  X100.6897  Y297.9338   
N5260  X101.9379  Y292.9720   
N5265  X102.4985  Y289.2873   
N5270  X102.5562  Y288.3122   
N5275  X102.1434  Y288.0000   
N5280  X101.1149  Y288.3555   
N5285  X99.3258  Y289.3829   
N5290  X95.7389  Y290.9965   
N5295  X92.1196  Y291.5425   
N5300  X88.7110  Y291.0200   
N5305  X87.1619  Y290.3578   
N5310  X85.7567  Y289.4281   
N5315  X83.5544  Y287.9232   
N5320  X81.6652  Y289.2400   
N5325  X79.6186  Y290.6699   
N5330  X77.4028  Y291.6844   
N5335  X75.0831  Y292.2839   
N5340  X72.7256  Y292.4694   
N5345  X70.3954  Y292.2412   
N5350  X68.1585  Y291.6000   
N5355  X66.0805  Y290.5464   
N5360  X64.2269  Y289.0808   
N5365 G0  Z0.1000 
N5370 G1  Z-1.4000  F100.00 
N5375  X62.3206  Y287.5355   F300.00 
N5380  X60.8913  Y286.9336   
N5385  X59.3693  Y287.4863   
N5390  X57.2875  Y288.8120   
N5395  X55.0743  Y290.9110   
N5400  X53.6230  Y293.6460   
N5405  X52.7108  Y296.6067   
N5410  X53.0471  Y299.5801   
N5415  X53.5383  Y301.7084   
N5420  X54.1465  Y302.9930   
N5425  X55.2316  Y303.8995   
N5430  X57.1533  Y304.8937   
N5435  X59.9634  Y306.0583   
N5440  X63.1181  Y307.0169   
N5445  X70.0710  Y308.2736   
N5450  X77.2331  Y308.5775   
N5455  X80.6492  Y308.3452   
N5460  X83.8257  Y307.8423   
N5465  X88.7437  Y306.5626   
N5470  X93.3197  Y304.9578   
N5475  X96.9581  Y303.2667   
N5480  X99.0629  Y301.7288   
N5485  X100.6897  Y297.9338   
N5490  X101.9379  Y292.9720   
N5495  X102.4985  Y289.2873   
N5500  X102.5562  Y288.3122   
N5505  X102.1434  Y288.0000   
N5510  X101.1149  Y288.3555   
N5515  X99.3258  Y289.3829   
N5520  X95.7389  Y290.9965   
N5525  X92.1196  Y291.5425   
N5530  X88.7110  Y291.0200   
N5535  X87.1619  Y290.3578   
N5540  X85.7567  Y289.4281   
N5545  X83.5544  Y287.9232   
N5550  X81.6652  Y289.2400   
N5555  X79.6186  Y290.6699   
N5560  X77.4028  Y291.6844   
N5565  X75.0831  Y292.2839   
N5570  X72.7256  Y292.4694   
N5575  X70.3954  Y292.2412   
N5580  X68.1585  Y291.6000   
N5585  X66.0805  Y290.5464   
N5590  X64.2269  Y289.0808   
N5595 G0  Z3.0000 
N5600  X55.1870  Y306.2223 
N5605  Z0.1000 
N5610 G1  Z-0.7000  F100.00 
N5615  X53.3281  Y305.2525   F300.00 
N5620  X52.0587  Y304.8849   
N5625  X50.8712  Y305.0847   
N5630  X49.2579  Y305.8174   
N5635  X47.7954  Y306.7244   
N5640  X46.5502  Y307.8757   
N5645  X45.5331  Y309.2451   
N5650  X44.7545  Y310.8064   
N5655  X44.2245  Y312.5337   
N5660  X43.9537  Y314.4004   
N5665  X44.2314  Y318.4487   
N5670  X44.5938  Y320.0222   
N5675  X45.0544  Y320.9764   
N5680  X45.8745  Y321.6416   
N5685  X47.3149  Y322.3482   
N5690  X50.8898  Y323.7583   
N5695  X54.4937  Y324.6929   
N5700  X58.4276  Y325.2097   
N5705  X62.9920  Y325.3670   
N5710  X68.1990  Y325.1711   
N5715  X71.9207  Y324.6891   
N5720  X75.0295  Y323.7337   
N5725  X78.3979  Y322.3741   
N5730  X81.7520  Y320.7329   
N5735  X84.8178  Y318.9322   
N5740  X88.4489  Y316.0624   
N5745  X92.3446  Y312.2830   
N5750  X95.4530  Y308.6995   
N5755  X96.3835  Y307.3264   
N5760  X96.7228  Y306.4169   
N5765  X96.6862  Y305.9580   
N5770  X96.3195  Y305.8884   
N5775  X93.0523  Y307.2822   
N5780  X87.3996  Y309.2400   
N5785  X81.0634  Y310.3625   
N5790  X74.3227  Y310.6199   
N5795  X67.4564  Y309.9828   
N5800  X60.4537  Y308.4659   
N5805  X57.7393  Y307.4766   
N5810  X55.1870  Y306.2223   
N5815 G0  Z0.1000 
N5820 G1  Z-1.4000  F100.00 
N5825  X53.3281  Y305.2525   F300.00 
N5830  X52.0587  Y304.8849   
N5835  X50.8712  Y305.0847   
N5840  X49.2579  Y305.8174   
N5845  X47.7954  Y306.7244   
N5850  X46.5502  Y307.8757   
N5855  X45.5331  Y309.2451   
N5860  X44.7545  Y310.8064   
N5865  X44.2245  Y312.5337   
N5870  X43.9537  Y314.4004   
N5875  X44.2314  Y318.4487   
N5880  X44.5938  Y320.0222   
N5885  X45.0544  Y320.9764   
N5890  X45.8745  Y321.6416   
N5895  X47.3149  Y322.3482   
N5900  X50.8898  Y323.7583   
N5905  X54.4937  Y324.6929   
N5910  X58.4276  Y325.2097   
N5915  X62.9920  Y325.3670   
N5920  X68.1990  Y325.1711   
N5925  X71.9207  Y324.6891   
N5930  X75.0295  Y323.7337   
N5935  X78.3979  Y322.3741   
N5940  X81.7520  Y320.7329   
N5945  X84.8178  Y318.9322   
N5950  X88.4489  Y316.0624   
N5955  X92.3446  Y312.2830   
N5960  X95.4530  Y308.6995   
N5965  X96.3835  Y307.3264   
N5970  X96.7228  Y306.4169   
N5975  X96.6862  Y305.9580   
N5980  X96.3195  Y305.8884   
N5985  X93.0523  Y307.2822   
N5990  X87.3996  Y309.2400   
N5995  X81.0634  Y310.3625   
N6000  X74.3227  Y310.6199   
N6005  X67.4564  Y309.9828   
N6010  X60.4537  Y308.4659   
N6015  X57.7393  Y307.4766   
N6020  X55.1870  Y306.2223   
N6025 G0  Z3.0000 
N6030 M5
N6035 M30

