N5 (File Name = impa on Saturday, November 11, 2023)
N10 (Default Mill Post)
N15  G91.1
N20 G0  Z3.0000 
N25 M3 S4000 
N30  X74.3065  Y68.9544 
N35  Z0.1000 
N40 G1  Z-0.7000  F100.00 
N45  X75.8936  Y65.0853   F300.00 
N50  X73.9155  Y66.2084   
N55  X65.1478  Y67.0030   
N60  X45.8091  Y67.3320   
N65  X23.0867  Y67.6847   
N70  X18.8960  Y68.3435   
N75  X16.7205  Y69.5325   
N80  X15.0981  Y71.3545   
N85  X14.9782  Y72.6695   
N90  X23.0341  Y73.2925   
N95  X40.2767  Y73.6693   
N100  X69.3187  Y73.3011   
N105  X72.1521  Y72.0362   
N110  X74.3065  Y68.9544   
N115 G0  Z0.1000 
N120 G1  Z-1.4000  F100.00 
N125  X75.8936  Y65.0853   F300.00 
N130  X73.9155  Y66.2084   
N135  X65.1478  Y67.0030   
N140  X45.8091  Y67.3320   
N145  X23.0867  Y67.6847   
N150  X18.8960  Y68.3435   
N155  X16.7205  Y69.5325   
N160  X15.0981  Y71.3545   
N165  X14.9782  Y72.6695   
N170  X23.0341  Y73.2925   
N175  X40.2767  Y73.6693   
N180  X69.3187  Y73.3011   
N185  X72.1521  Y72.0362   
N190  X74.3065  Y68.9544   
N195 G0  Z3.0000 
N200  X83.5467  Y60.7899 
N205  Z0.1000 
N210 G1  Z-0.7000  F100.00 
N215  X84.3357  Y58.2233   F300.00 
N220  X62.0147   
N225  X42.5971  Y58.5695   
N230  X39.1570  Y59.2809   
N235  X37.3173  Y60.6002   
N240  X35.4703  Y63.5061   
N245  X59.0300  Y63.9708   
N250  X82.5219  Y63.6397   
N255  X83.5467  Y60.7899   
N260 G0  Z0.1000 
N265 G1  Z-1.4000  F100.00 
N270  X84.3357  Y58.2233   F300.00 
N275  X62.0147   
N280  X42.5971  Y58.5695   
N285  X39.1570  Y59.2809   
N290  X37.3173  Y60.6002   
N295  X35.4703  Y63.5061   
N300  X59.0300  Y63.9708   
N305  X82.5219  Y63.6397   
N310  X83.5467  Y60.7899   
N315 G0  Z3.0000 
N320  X95.0189  Y51.3790 
N325  Z0.1000 
N330 G1  Z-0.7000  F100.00 
N335  X96.7888  Y47.9570   F300.00 
N340  X79.2319   
N345  X63.9674  Y48.3295   
N350  X60.7860  Y49.0409   
N355  X58.6695  Y50.3214   
N360  X55.6641  Y53.7433   
N365  X61.0149  Y54.5000   
N370  X74.4566  Y54.8013   
N375  X93.2495   
N380  X95.0189  Y51.3790   
N385 G0  Z0.1000 
N390 G1  Z-1.4000  F100.00 
N395  X96.7888  Y47.9570   F300.00 
N400  X79.2319   
N405  X63.9674  Y48.3295   
N410  X60.7860  Y49.0409   
N415  X58.6695  Y50.3214   
N420  X55.6641  Y53.7433   
N425  X61.0149  Y54.5000   
N430  X74.4566  Y54.8013   
N435  X93.2495   
N440  X95.0189  Y51.3790   
N445 G0  Z3.0000 
N450  X106.4260  Y42.2534 
N455  Z0.1000 
N460 G1  Z-0.7000  F100.00 
N465  X108.1959  Y38.8311   F300.00 
N470  X93.5910   
N475  X84.1542  Y39.0828   
N480  X78.0976  Y39.9361   
N485  X74.8692  Y41.5360   
N490  X73.9155  Y44.0293   
N495  X74.5407  Y44.8571   
N500  X76.8632  Y45.3598   
N505  X89.2861  Y45.6754   
N510  X104.6566   
N515  X106.4260  Y42.2534   
N520 G0  Z0.1000 
N525 G1  Z-1.4000  F100.00 
N530  X108.1959  Y38.8311   F300.00 
N535  X93.5910   
N540  X84.1542  Y39.0828   
N545  X78.0976  Y39.9361   
N550  X74.8692  Y41.5360   
N555  X73.9155  Y44.0293   
N560  X74.5407  Y44.8571   
N565  X76.8632  Y45.3598   
N570  X89.2861  Y45.6754   
N575  X104.6566   
N580  X106.4260  Y42.2534   
N585 G0  Z3.0000 
N590  X118.7441  Y29.2852 
N595  Z0.1000 
N600 G1  Z-0.7000  F100.00 
N605  X114.6647  Y28.6665   F300.00 
N610  X106.7343  Y28.6290   
N615  X98.5927  Y29.0795   
N620  X93.8781  Y29.9241   
N625  X90.8774  Y32.5222   
N630  X90.1277  Y35.0077   
N635  X94.1455  Y35.5854   
N640  X102.7126  Y35.8971   
N645  X116.0189  Y35.4345   
N650  X118.2449  Y32.2613   
N655  X118.8550  Y30.4221   
N660  X118.7441  Y29.2852   
N665 G0  Z0.1000 
N670 G1  Z-1.4000  F100.00 
N675  X114.6647  Y28.6665   F300.00 
N680  X106.7343  Y28.6290   
N685  X98.5927  Y29.0795   
N690  X93.8781  Y29.9241   
N695  X90.8774  Y32.5222   
N700  X90.1277  Y35.0077   
N705  X94.1455  Y35.5854   
N710  X102.7126  Y35.8971   
N715  X116.0189  Y35.4345   
N720  X118.2449  Y32.2613   
N725  X118.8550  Y30.4221   
N730  X118.7441  Y29.2852   
N735 G0  Z3.0000 
N740  X135.3163  Y42.1901 
N745  Z0.1000 
N750 G1  Z-0.7000  F100.00 
N755  X137.9695  Y38.8311   F300.00 
N760  X126.0593   
N765  X115.7012  Y39.2454   
N770  X113.1152  Y39.9645   
N775  X111.1319  Y41.2040   
N780  X109.1922  Y43.1882   
N785  X108.7641  Y44.6260   
N790  X112.6370  Y45.3486   
N795  X121.0378  Y45.6125   
N800  X131.4981  Y45.1214   
N805  X133.5939  Y44.1151   
N810  X135.3163  Y42.1901   
N815 G0  Z0.1000 
N820 G1  Z-1.4000  F100.00 
N825  X137.9695  Y38.8311   F300.00 
N830  X126.0593   
N835  X115.7012  Y39.2454   
N840  X113.1152  Y39.9645   
N845  X111.1319  Y41.2040   
N850  X109.1922  Y43.1882   
N855  X108.7641  Y44.6260   
N860  X112.6370  Y45.3486   
N865  X121.0378  Y45.6125   
N870  X131.4981  Y45.1214   
N875  X133.5939  Y44.1151   
N880  X135.3163  Y42.1901   
N885 G0  Z3.0000 
N890  X127.2997  Y51.4458 
N895  Z0.1000 
N900 G1  Z-0.7000  F100.00 
N905  X129.7805  Y48.0906   F300.00 
N910  X116.2129  Y47.7384   
N915  X106.6360  Y47.7763   
N920  X103.2882  Y48.4218   
N925  X103.0192  Y48.9637   
N930  X101.4697  Y48.8132   
N935  X99.8956  Y48.6248   
N940  X99.5679  Y49.0749   
N945  X99.4640  Y50.1282   
N950  X98.4288  Y51.3897   
N955  X96.7301  Y53.8002   
N960  X100.8557  Y54.5073   
N965  X110.7745  Y54.8013   
N970  X124.8193   
N975  X127.2997  Y51.4458   
N980 G0  Z0.1000 
N985 G1  Z-1.4000  F100.00 
N990  X129.7805  Y48.0906   F300.00 
N995  X116.2129  Y47.7384   
N1000  X106.6360  Y47.7763   
N1005  X103.2882  Y48.4218   
N1010  X103.0192  Y48.9637   
N1015  X101.4697  Y48.8132   
N1020  X99.8956  Y48.6248   
N1025  X99.5679  Y49.0749   
N1030  X99.4640  Y50.1282   
N1035  X98.4288  Y51.3897   
N1040  X96.7301  Y53.8002   
N1045  X100.8557  Y54.5073   
N1050  X110.7745  Y54.8013   
N1055  X124.8193   
N1060  X127.2997  Y51.4458   
N1065 G0  Z3.0000 
N1070  X120.6851  Y59.1873 
N1075  Z0.1000 
N1080 G1  Z-0.7000  F100.00 
N1085  X116.2362  Y58.5066   F300.00 
N1090  X105.5392  Y58.2233   
N1095  X92.9952  Y58.5898   
N1100  X89.7905  Y59.1352   
N1105  X87.8581  Y59.9992   
N1110  X85.3739  Y62.2614   
N1115  X85.3360  Y63.0495   
N1120  X86.1905  Y63.6423   
N1125  X90.8429  Y64.3468   
N1130  X99.8675  Y64.5779   
N1135  X116.6928  Y65.5410   
N1140  X118.0185  Y65.9299   
N1145  X117.5214  Y65.3768   
N1150  X116.8536  Y64.1118   
N1155  X118.3768  Y62.2402   
N1160  X120.6851  Y59.1873   
N1165 G0  Z0.1000 
N1170 G1  Z-1.4000  F100.00 
N1175  X116.2362  Y58.5066   F300.00 
N1180  X105.5392  Y58.2233   
N1185  X92.9952  Y58.5898   
N1190  X89.7905  Y59.1352   
N1195  X87.8581  Y59.9992   
N1200  X85.3739  Y62.2614   
N1205  X85.3360  Y63.0495   
N1210  X86.1905  Y63.6423   
N1215  X90.8429  Y64.3468   
N1220  X99.8675  Y64.5779   
N1225  X116.6928  Y65.5410   
N1230  X118.0185  Y65.9299   
N1235  X117.5214  Y65.3768   
N1240  X116.8536  Y64.1118   
N1245  X118.3768  Y62.2402   
N1250  X120.6851  Y59.1873   
N1255 G0  Z3.0000 
N1260  X112.7004  Y68.5069 
N1265  Z0.1000 
N1270 G1  Z-0.7000  F100.00 
N1275  X108.3890  Y67.6545   F300.00 
N1280  X96.3585  Y67.3492   
N1285  X81.9489  Y67.7256   
N1290  X79.2547  Y68.5293   
N1295  X77.4897  Y70.0396   
N1300  X74.9623  Y72.7299   
N1305  X80.3015  Y73.4615   
N1310  X95.4634  Y74.1893   
N1315  X104.0440  Y73.7271   
N1320  X108.9931  Y71.9245   
N1325  X111.6114  Y69.9882   
N1330  X112.7004  Y68.5069   
N1335 G0  Z0.1000 
N1340 G1  Z-1.4000  F100.00 
N1345  X108.3890  Y67.6545   F300.00 
N1350  X96.3585  Y67.3492   
N1355  X81.9489  Y67.7256   
N1360  X79.2547  Y68.5293   
N1365  X77.4897  Y70.0396   
N1370  X74.9623  Y72.7299   
N1375  X80.3015  Y73.4615   
N1380  X95.4634  Y74.1893   
N1385  X104.0440  Y73.7271   
N1390  X108.9931  Y71.9245   
N1395  X111.6114  Y69.9882   
N1400  X112.7004  Y68.5069   
N1405 G0  Z3.0000 
N1410  X65.4561  Y77.9010 
N1415  Z0.1000 
N1420 G1  Z-0.7000  F100.00 
N1425  X64.4692  Y77.2055   F300.00 
N1430  X60.0992  Y76.7679   
N1435  X37.4557  Y76.4752   
N1440  X8.7905   
N1445  X5.9907  Y79.2750   
N1450  X3.9906  Y82.1615   
N1455  X3.1909  Y85.1773   
N1460  Y88.2798   
N1465  X5.8312  Y85.7999   
N1470  X7.8700  Y84.3978   
N1475  X11.8563  Y83.6575   
N1480  X35.9269  Y83.3195   
N1485  X59.1856  Y83.0061   
N1490  X62.9477  Y82.4055   
N1495  X64.0872  Y81.3229   
N1500  X65.4561  Y77.9010   
N1505 G0  Z0.1000 
N1510 G1  Z-1.4000  F100.00 
N1515  X64.4692  Y77.2055   F300.00 
N1520  X60.0992  Y76.7679   
N1525  X37.4557  Y76.4752   
N1530  X8.7905   
N1535  X5.9907  Y79.2750   
N1540  X3.9906  Y82.1615   
N1545  X3.1909  Y85.1773   
N1550  Y88.2798   
N1555  X5.8312  Y85.7999   
N1560  X7.8700  Y84.3978   
N1565  X11.8563  Y83.6575   
N1570  X35.9269  Y83.3195   
N1575  X59.1856  Y83.0061   
N1580  X62.9477  Y82.4055   
N1585  X64.0872  Y81.3229   
N1590  X65.4561  Y77.9010   
N1595 G0  Z3.0000 
N1600  X141.3268  Y29.0308 
N1605  Z0.1000 
N1610 G1  Z-0.7000  F100.00 
N1615  X137.4845  Y28.0474   F300.00 
N1620  X134.9162  Y28.4031   
N1625  X129.7783  Y29.1589   
N1630  X126.4335  Y29.8638   
N1635  X123.1099  Y31.4525   
N1640  X120.5618  Y33.4634   
N1645  X119.5448  Y35.4324   
N1650  X130.0961  Y36.2330   
N1655  X139.4540  Y35.8182   
N1660  X141.8351  Y35.0030   
N1665  X143.8813  Y33.5492   
N1670  X146.4160  Y31.7845   
N1675  X147.9690  Y31.3585   
N1680  X148.5721  Y31.2758   
N1685  X148.8231  Y30.3354   
N1690  X148.1108  Y29.3033   
N1695  X145.9849  Y29.2994   
N1700  X141.3268  Y29.0308   
N1705 G0  Z0.1000 
N1710 G1  Z-1.4000  F100.00 
N1715  X137.4845  Y28.0474   F300.00 
N1720  X134.9162  Y28.4031   
N1725  X129.7783  Y29.1589   
N1730  X126.4335  Y29.8638   
N1735  X123.1099  Y31.4525   
N1740  X120.5618  Y33.4634   
N1745  X119.5448  Y35.4324   
N1750  X130.0961  Y36.2330   
N1755  X139.4540  Y35.8182   
N1760  X141.8351  Y35.0030   
N1765  X143.8813  Y33.5492   
N1770  X146.4160  Y31.7845   
N1775  X147.9690  Y31.3585   
N1780  X148.5721  Y31.2758   
N1785  X148.8231  Y30.3354   
N1790  X148.1108  Y29.3033   
N1795  X145.9849  Y29.2994   
N1800  X141.3268  Y29.0308   
N1805 G0  Z3.0000 
N1810  X160.6104  Y20.0976 
N1815  Z0.1000 
N1820 G1  Z-0.7000  F100.00 
N1825  X153.2009  Y19.3151   F300.00 
N1830  X136.6296  Y19.3250   
N1835  X119.3827  Y19.9639   
N1840  X109.9463  Y21.0698   
N1845  X108.3981  Y21.5678   
N1850  X108.7033  Y20.4882   
N1855  X109.0909  Y19.5953   
N1860  X108.7025  Y19.7221   
N1865  X107.4565  Y23.4294   
N1870  X107.1521  Y26.2832   
N1875  X129.6240   
N1880  X149.7289  Y25.9072   
N1885  X153.5229  Y25.0466   
N1890  X156.3534  Y23.3902   
N1895  X160.6104  Y20.0976   
N1900 G0  Z0.1000 
N1905 G1  Z-1.4000  F100.00 
N1910  X153.2009  Y19.3151   F300.00 
N1915  X136.6296  Y19.3250   
N1920  X119.3827  Y19.9639   
N1925  X109.9463  Y21.0698   
N1930  X108.3981  Y21.5678   
N1935  X108.7033  Y20.4882   
N1940  X109.0909  Y19.5953   
N1945  X108.7025  Y19.7221   
N1950  X107.4565  Y23.4294   
N1955  X107.1521  Y26.2832   
N1960  X129.6240   
N1965  X149.7289  Y25.9072   
N1970  X153.5229  Y25.0466   
N1975  X156.3534  Y23.3902   
N1980  X160.6104  Y20.0976   
N1985 G0  Z3.0000 
N1990  X175.5408  Y20.6835 
N1995  Z0.1000 
N2000 G1  Z-0.7000  F100.00 
N2005  X176.8980  Y19.7824   F300.00 
N2010  X173.1588  Y19.6087   
N2015  X167.6721  Y20.5274   
N2020  X161.2649  Y23.7761   
N2025  X153.8144  Y29.2585   
N2030  X144.8428  Y37.1966   
N2035  X135.7638  Y46.2592   
N2040  X127.9899  Y55.1156   
N2045  X116.4832  Y68.5198   
N2050  X112.2701  Y72.5574   
N2055  X109.0495  Y74.8554   
N2060  X102.8002  Y76.1122   
N2065  X88.7497  Y76.4752   
N2070  X73.4766  Y76.8529   
N2075  X70.6513  Y77.6875   
N2080  X68.7306  Y79.2750   
N2085  X65.9291  Y82.9824   
N2090  X72.1569  Y83.4950   
N2095  X86.3168  Y83.5890   
N2100  X111.2837  Y82.6935   
N2105  X113.3514  Y82.0412   
N2110  X115.4567  Y80.6508   
N2115  X120.8675  Y74.7502   
N2120  X126.8228  Y68.5280   
N2125  X128.2215  Y68.3715   
N2130  X128.6703  Y70.1232   
N2135  X129.4222  Y71.7456   
N2140  X131.4973  Y74.1160   
N2145  X138.5382  Y80.2481   
N2150  X147.6323  Y86.8182   
N2155  X156.6181  Y92.1256   
N2160  X167.3125  Y96.5512   
N2165  X178.8649  Y99.5442   
N2170  X191.3279  Y101.1148   
N2175  X204.7544  Y101.2731   
N2180  X216.0611  Y100.4940   
N2185  X225.2426  Y98.9065   
N2190  X233.8788  Y96.1231   
N2195  X243.5497  Y91.7569   
N2200  X251.9164  Y86.7906   
N2205  X260.5814  Y80.4438   
N2210  X267.3732  Y74.4497   
N2215  X269.3879  Y72.1267   
N2220  X270.1200  Y70.5427   
N2225  X265.5710  Y63.6738   
N2230  X262.5466  Y59.3339   
N2235  X261.6632  Y56.9230   
N2240  X261.7779  Y56.2823   
N2245  X261.1531  Y56.1991   
N2250  X257.1914  Y53.0785   
N2255  X249.2839  Y45.1360   
N2260  X238.5661  Y33.7600   
N2265  X233.6154  Y37.9972   
N2270  X229.6954  Y40.8928   
N2275  X225.2318  Y43.3714   
N2280  X215.0375  Y46.9878   
N2285  X203.7624  Y48.6662   
N2290  X192.1354  Y48.2273   
N2295  X183.8381  Y46.6838   
N2300  X176.5122  Y44.4350   
N2305  X170.2447  Y41.5132   
N2310  X165.1219  Y37.9520   
N2315  X160.4337  Y33.9389   
N2320  X153.0206  Y41.2334   
N2325  X137.4828  Y58.5104   
N2330  X131.2951  Y65.4777   
N2335  X129.3235  Y67.1673   
N2340  X128.3155  Y67.4506   
N2345  X128.1857  Y65.7695   
N2350  X129.4118  Y63.4892   
N2355  X131.2627  Y61.6004   
N2360  X133.0071  Y61.0930   
N2365  X133.8422  Y61.1188   
N2370  X133.7646  Y60.4419   
N2375  X133.6620  Y59.1058   
N2380  X134.4161  Y57.6490   
N2385  X135.5961  Y56.6242   
N2390  X136.7714  Y56.5841   
N2395  X137.3039  Y56.5694   
N2400  X137.1814  Y55.6679   
N2405  X138.0972  Y53.3458   
N2410  X141.3876  Y49.2828   
N2415  X152.5602  Y38.2434   
N2420  X165.6332  Y27.1700   
N2425  X171.2993  Y23.0647   
N2430  X175.5408  Y20.6835   
N2435 G0  Z0.1000 
N2440 G1  Z-1.4000  F100.00 
N2445  X176.8980  Y19.7824   F300.00 
N2450  X173.1588  Y19.6087   
N2455  X167.6721  Y20.5274   
N2460  X161.2649  Y23.7761   
N2465  X153.8144  Y29.2585   
N2470  X144.8428  Y37.1966   
N2475  X135.7638  Y46.2592   
N2480  X127.9899  Y55.1156   
N2485  X116.4832  Y68.5198   
N2490  X112.2701  Y72.5574   
N2495  X109.0495  Y74.8554   
N2500  X102.8002  Y76.1122   
N2505  X88.7497  Y76.4752   
N2510  X73.4766  Y76.8529   
N2515  X70.6513  Y77.6875   
N2520  X68.7306  Y79.2750   
N2525  X65.9291  Y82.9824   
N2530  X72.1569  Y83.4950   
N2535  X86.3168  Y83.5890   
N2540  X111.2837  Y82.6935   
N2545  X113.3514  Y82.0412   
N2550  X115.4567  Y80.6508   
N2555  X120.8675  Y74.7502   
N2560  X126.8228  Y68.5280   
N2565  X128.2215  Y68.3715   
N2570  X128.6703  Y70.1232   
N2575  X129.4222  Y71.7456   
N2580  X131.4973  Y74.1160   
N2585  X138.5382  Y80.2481   
N2590  X147.6323  Y86.8182   
N2595  X156.6181  Y92.1256   
N2600  X167.3125  Y96.5512   
N2605  X178.8649  Y99.5442   
N2610  X191.3279  Y101.1148   
N2615  X204.7544  Y101.2731   
N2620  X216.0611  Y100.4940   
N2625  X225.2426  Y98.9065   
N2630  X233.8788  Y96.1231   
N2635  X243.5497  Y91.7569   
N2640  X251.9164  Y86.7906   
N2645  X260.5814  Y80.4438   
N2650  X267.3732  Y74.4497   
N2655  X269.3879  Y72.1267   
N2660  X270.1200  Y70.5427   
N2665  X265.5710  Y63.6738   
N2670  X262.5466  Y59.3339   
N2675  X261.6632  Y56.9230   
N2680  X261.7779  Y56.2823   
N2685  X261.1531  Y56.1991   
N2690  X257.1914  Y53.0785   
N2695  X249.2839  Y45.1360   
N2700  X238.5661  Y33.7600   
N2705  X233.6154  Y37.9972   
N2710  X229.6954  Y40.8928   
N2715  X225.2318  Y43.3714   
N2720  X215.0375  Y46.9878   
N2725  X203.7624  Y48.6662   
N2730  X192.1354  Y48.2273   
N2735  X183.8381  Y46.6838   
N2740  X176.5122  Y44.4350   
N2745  X170.2447  Y41.5132   
N2750  X165.1219  Y37.9520   
N2755  X160.4337  Y33.9389   
N2760  X153.0206  Y41.2334   
N2765  X137.4828  Y58.5104   
N2770  X131.2951  Y65.4777   
N2775  X129.3235  Y67.1673   
N2780  X128.3155  Y67.4506   
N2785  X128.1857  Y65.7695   
N2790  X129.4118  Y63.4892   
N2795  X131.2627  Y61.6004   
N2800  X133.0071  Y61.0930   
N2805  X133.8422  Y61.1188   
N2810  X133.7646  Y60.4419   
N2815  X133.6620  Y59.1058   
N2820  X134.4161  Y57.6490   
N2825  X135.5961  Y56.6242   
N2830  X136.7714  Y56.5841   
N2835  X137.3039  Y56.5694   
N2840  X137.1814  Y55.6679   
N2845  X138.0972  Y53.3458   
N2850  X141.3876  Y49.2828   
N2855  X152.5602  Y38.2434   
N2860  X165.6332  Y27.1700   
N2865  X171.2993  Y23.0647   
N2870  X175.5408  Y20.6835   
N2875 G0  Z3.0000 
N2880  X181.6035  Y31.3460 
N2885  Z0.1000 
N2890 G1  Z-0.7000  F100.00 
N2895  X181.8100  Y34.2523   F300.00 
N2900  X181.4099  Y36.6396   
N2905  X180.5261  Y38.1335   
N2910  X179.2827  Y38.3611   
N2915  X178.1798  Y38.2624   
N2920  X177.7215  Y38.8668   
N2925  X179.2292  Y39.6472   
N2930  X182.8547  Y39.9719   
N2935  X186.9479  Y39.5791   
N2940  X187.7585  Y38.9845   
N2945  X187.9878  Y38.0326   
N2950  X187.7028  Y36.7827   
N2955  X186.6189  Y37.4622   
N2960  X185.1026  Y38.6306   
N2965  X184.1175  Y38.4551   
N2970  X183.4251  Y33.6979   
N2975  X183.0836  Y30.0724   
N2980  X182.2618  Y28.5647   
N2985  X181.5888  Y29.3818   
N2990  X181.6035  Y31.3460   
N2995 G0  Z0.1000 
N3000 G1  Z-1.4000  F100.00 
N3005  X181.8100  Y34.2523   F300.00 
N3010  X181.4099  Y36.6396   
N3015  X180.5261  Y38.1335   
N3020  X179.2827  Y38.3611   
N3025  X178.1798  Y38.2624   
N3030  X177.7215  Y38.8668   
N3035  X179.2292  Y39.6472   
N3040  X182.8547  Y39.9719   
N3045  X186.9479  Y39.5791   
N3050  X187.7585  Y38.9845   
N3055  X187.9878  Y38.0326   
N3060  X187.7028  Y36.7827   
N3065  X186.6189  Y37.4622   
N3070  X185.1026  Y38.6306   
N3075  X184.1175  Y38.4551   
N3080  X183.4251  Y33.6979   
N3085  X183.0836  Y30.0724   
N3090  X182.2618  Y28.5647   
N3095  X181.5888  Y29.3818   
N3100  X181.6035  Y31.3460   
N3105 G0  Z3.0000 
N3110  X195.0400  Y31.7681 
N3115  Z0.1000 
N3120 G1  Z-0.7000  F100.00 
N3125  X195.7358  Y34.2549   F300.00 
N3130  X197.5893  Y34.9051   
N3135  X199.3509  Y35.4281   
N3140  X200.2986  Y36.8349   
N3145  X199.8847  Y38.2244   
N3150  X198.4615  Y38.8634   
N3155  X196.8089  Y38.6452   
N3160  X195.7069  Y37.4630   
N3165  X195.1745  Y36.9724   
N3170  X194.5071  Y38.0334   
N3175  X194.5662  Y39.5817   
N3180  X197.0099  Y39.9719   
N3185  X199.7502  Y39.4329   
N3190  X201.7791  Y38.1374   
N3195  X202.6742  Y36.3848   
N3200  X201.4027  Y34.9141   
N3205  X200.1856  Y33.3560   
N3210  X201.9843  Y31.0451   
N3215  X203.3295  Y29.2934   
N3220  X203.0803  Y28.5647   
N3225  X201.6843  Y29.2347   
N3230  X200.2710  Y30.8459   
N3235  X198.8038  Y32.4575   
N3240  X197.2767  Y33.1275   
N3245  X196.2683  Y32.5364   
N3250  X196.3036  Y30.8459   
N3255  X196.4157  Y29.2347   
N3260  X195.8479  Y28.5647   
N3265  X195.1766  Y29.5055   
N3270  X195.0400  Y31.7681   
N3275 G0  Z0.1000 
N3280 G1  Z-1.4000  F100.00 
N3285  X195.7358  Y34.2549   F300.00 
N3290  X197.5893  Y34.9051   
N3295  X199.3509  Y35.4281   
N3300  X200.2986  Y36.8349   
N3305  X199.8847  Y38.2244   
N3310  X198.4615  Y38.8634   
N3315  X196.8089  Y38.6452   
N3320  X195.7069  Y37.4630   
N3325  X195.1745  Y36.9724   
N3330  X194.5071  Y38.0334   
N3335  X194.5662  Y39.5817   
N3340  X197.0099  Y39.9719   
N3345  X199.7502  Y39.4329   
N3350  X201.7791  Y38.1374   
N3355  X202.6742  Y36.3848   
N3360  X201.4027  Y34.9141   
N3365  X200.1856  Y33.3560   
N3370  X201.9843  Y31.0451   
N3375  X203.3295  Y29.2934   
N3380  X203.0803  Y28.5647   
N3385  X201.6843  Y29.2347   
N3390  X200.2710  Y30.8459   
N3395  X198.8038  Y32.4575   
N3400  X197.2767  Y33.1275   
N3405  X196.2683  Y32.5364   
N3410  X196.3036  Y30.8459   
N3415  X196.4157  Y29.2347   
N3420  X195.8479  Y28.5647   
N3425  X195.1766  Y29.5055   
N3430  X195.0400  Y31.7681   
N3435 G0  Z3.0000 
N3440  X212.0006  Y30.2070 
N3445  Z0.1000 
N3450 G1  Z-0.7000  F100.00 
N3455  X211.1051  Y32.3420   F300.00 
N3460  X211.0547  Y34.9728   
N3465  X211.7475  Y37.3190   
N3470  X213.0840  Y38.6004   
N3475  X214.1757  Y38.7164   
N3480  X213.3690  Y37.6049   
N3485  X212.3468  Y35.8480   
N3490  X211.9946  Y33.7182   
N3495  X212.3153  Y31.6138   
N3500  X213.3121  Y29.9336   
N3505  X214.0222  Y28.5647   
N3510  X212.0006  Y30.2070   
N3515 G0  Z0.1000 
N3520 G1  Z-1.4000  F100.00 
N3525  X211.1051  Y32.3420   F300.00 
N3530  X211.0547  Y34.9728   
N3535  X211.7475  Y37.3190   
N3540  X213.0840  Y38.6004   
N3545  X214.1757  Y38.7164   
N3550  X213.3690  Y37.6049   
N3555  X212.3468  Y35.8480   
N3560  X211.9946  Y33.7182   
N3565  X212.3153  Y31.6138   
N3570  X213.3121  Y29.9336   
N3575  X214.0222  Y28.5647   
N3580  X212.0006  Y30.2070   
N3585 G0  Z3.0000 
N3590  X216.7039  Y26.6156 
N3595  Z0.1000 
N3600 G1  Z-0.7000  F100.00 
N3605  X216.2447  Y28.0698   F300.00 
N3610  X217.7046  Y29.4770   
N3615  X219.4852  Y31.5944   
N3620  X220.0017  Y34.3873   
N3625  X219.2843  Y37.0543   
N3630  X217.3614  Y38.7957   
N3635  X215.9654  Y39.5683   
N3640  X216.5629  Y39.8994   
N3645  X218.0404  Y39.6300   
N3650  X219.2744  Y38.7862   
N3655  X220.8536  Y35.9519   
N3660  X220.9860  Y32.5424   
N3665  X219.3580  Y29.7055   
N3670  X217.7356  Y27.3541   
N3675  X218.2482  Y26.5255   
N3680  X219.6430  Y25.9288   
N3685  X220.9317  Y25.4786   
N3690  X219.7827  Y25.2747   
N3695  X218.1124  Y25.6140   
N3700  X216.7039  Y26.6156   
N3705 G0  Z0.1000 
N3710 G1  Z-1.4000  F100.00 
N3715  X216.2447  Y28.0698   F300.00 
N3720  X217.7046  Y29.4770   
N3725  X219.4852  Y31.5944   
N3730  X220.0017  Y34.3873   
N3735  X219.2843  Y37.0543   
N3740  X217.3614  Y38.7957   
N3745  X215.9654  Y39.5683   
N3750  X216.5629  Y39.8994   
N3755  X218.0404  Y39.6300   
N3760  X219.2744  Y38.7862   
N3765  X220.8536  Y35.9519   
N3770  X220.9860  Y32.5424   
N3775  X219.3580  Y29.7055   
N3780  X217.7356  Y27.3541   
N3785  X218.2482  Y26.5255   
N3790  X219.6430  Y25.9288   
N3795  X220.9317  Y25.4786   
N3800  X219.7827  Y25.2747   
N3805  X218.1124  Y25.6140   
N3810  X216.7039  Y26.6156   
N3815 G0  Z3.0000 
N3820  X224.7968  Y24.6362 
N3825  Z0.1000 
N3830 G1  Z-0.7000  F100.00 
N3835  X214.3594  Y20.2752   F300.00 
N3840  X210.2019  Y19.3280   
N3845  X208.5209  Y19.7359   
N3850  X205.5404  Y20.4572   
N3855  X196.6214  Y20.2494   
N3860  X185.2449  Y20.1536   
N3865  X181.6177  Y21.2315   
N3870  X176.9437  Y23.4536   
N3875  X165.7440  Y30.2367   
N3880  X162.3216  Y33.1422   
N3885  X166.6507  Y37.0073   
N3890  X171.7873  Y40.5267   
N3895  X178.0578  Y43.5594   
N3900  X186.4948  Y45.7715   
N3905  X199.9657  Y46.2260   
N3910  X211.0327  Y45.7849   
N3915  X219.3998  Y44.3074   
N3920  X226.0644  Y41.5097   
N3925  X232.0232  Y37.1082   
N3930  X236.4686  Y33.1422   
N3935  X233.0467  Y30.2552   
N3940  X224.7968  Y24.6362   
N3945 G0  Z0.1000 
N3950 G1  Z-1.4000  F100.00 
N3955  X214.3594  Y20.2752   F300.00 
N3960  X210.2019  Y19.3280   
N3965  X208.5209  Y19.7359   
N3970  X205.5404  Y20.4572   
N3975  X196.6214  Y20.2494   
N3980  X185.2449  Y20.1536   
N3985  X181.6177  Y21.2315   
N3990  X176.9437  Y23.4536   
N3995  X165.7440  Y30.2367   
N4000  X162.3216  Y33.1422   
N4005  X166.6507  Y37.0073   
N4010  X171.7873  Y40.5267   
N4015  X178.0578  Y43.5594   
N4020  X186.4948  Y45.7715   
N4025  X199.9657  Y46.2260   
N4030  X211.0327  Y45.7849   
N4035  X219.3998  Y44.3074   
N4040  X226.0644  Y41.5097   
N4045  X232.0232  Y37.1082   
N4050  X236.4686  Y33.1422   
N4055  X233.0467  Y30.2552   
N4060  X224.7968  Y24.6362   
N4065 G0  Z3.0000 
N4070  X206.0233  Y14.5906 
N4075  Z0.1000 
N4080 G1  Z-0.7000  F100.00 
N4085  X206.3772  Y10.3133   F300.00 
N4090  X199.3954   
N4095  X192.4130   
N4100  X192.7670  Y14.5906   
N4105  X193.1214  Y18.8684   
N4110  X199.3954   
N4115  X205.6693   
N4120  X206.0233  Y14.5906   
N4125 G0  Z0.1000 
N4130 G1  Z-1.4000  F100.00 
N4135  X206.3772  Y10.3133   F300.00 
N4140  X199.3954   
N4145  X192.4130   
N4150  X192.7670  Y14.5906   
N4155  X193.1214  Y18.8684   
N4160  X199.3954   
N4165  X205.6693   
N4170  X206.0233  Y14.5906   
N4175 G0  Z3.0000 
N4180  X228.3486  Y54.1719 
N4185  Z0.1000 
N4190 G1  Z-0.7000  F100.00 
N4195  X228.4193  Y56.2776   F300.00 
N4200  X229.4790  Y59.0200   
N4205  X234.7031  Y69.2958   
N4210  X238.1626  Y76.3760   
N4215  X234.1120  Y78.2980   
N4220  X231.3471  Y80.0308   
N4225  X231.2161  Y81.3751   
N4230  X234.6919  Y80.8521   
N4235  X240.9396  Y78.1420   
N4240  X246.9182  Y74.7597   
N4245  X249.5869  Y72.2216   
N4250  X249.3352  Y71.1622   
N4255  X248.5776  Y70.8466   
N4260  X245.5273  Y72.4462   
N4265  X243.2983  Y73.7862   
N4270  X241.5716  Y73.9746   
N4275  X240.2282  Y72.9804   
N4280  X239.1499  Y70.7729   
N4285  X237.9535  Y68.5543   
N4290  X236.7515  Y68.0973   
N4295  X236.1155  Y68.2715   
N4300  X236.2962  Y67.6286   
N4305  X236.6605  Y66.1386   
N4310  X236.3169  Y64.6055   
N4315  X235.5046  Y63.5617   
N4320  X234.4617  Y63.5397   
N4325  X233.8309  Y63.7044   
N4330  X234.0543  Y63.0016   
N4335  X233.8430  Y60.8567   
N4340  X232.5599  Y57.3101   
N4345  X230.9018  Y53.9886   
N4350  X229.5652  Y52.5198   
N4355  X228.3486  Y54.1719   
N4360 G0  Z0.1000 
N4365 G1  Z-1.4000  F100.00 
N4370  X228.4193  Y56.2776   F300.00 
N4375  X229.4790  Y59.0200   
N4380  X234.7031  Y69.2958   
N4385  X238.1626  Y76.3760   
N4390  X234.1120  Y78.2980   
N4395  X231.3471  Y80.0308   
N4400  X231.2161  Y81.3751   
N4405  X234.6919  Y80.8521   
N4410  X240.9396  Y78.1420   
N4415  X246.9182  Y74.7597   
N4420  X249.5869  Y72.2216   
N4425  X249.3352  Y71.1622   
N4430  X248.5776  Y70.8466   
N4435  X245.5273  Y72.4462   
N4440  X243.2983  Y73.7862   
N4445  X241.5716  Y73.9746   
N4450  X240.2282  Y72.9804   
N4455  X239.1499  Y70.7729   
N4460  X237.9535  Y68.5543   
N4465  X236.7515  Y68.0973   
N4470  X236.1155  Y68.2715   
N4475  X236.2962  Y67.6286   
N4480  X236.6605  Y66.1386   
N4485  X236.3169  Y64.6055   
N4490  X235.5046  Y63.5617   
N4495  X234.4617  Y63.5397   
N4500  X233.8309  Y63.7044   
N4505  X234.0543  Y63.0016   
N4510  X233.8430  Y60.8567   
N4515  X232.5599  Y57.3101   
N4520  X230.9018  Y53.9886   
N4525  X229.5652  Y52.5198   
N4530  X228.3486  Y54.1719   
N4535 G0  Z3.0000 
N4540  X237.6094  Y49.0978 
N4545  Z0.1000 
N4550 G1  Z-0.7000  F100.00 
N4555  X237.2115  Y50.4886   F300.00 
N4560  X237.6672  Y51.5001   
N4565  X238.6864  Y51.8623   
N4570  X239.9799  Y51.3052   
N4575  X240.9240  Y50.0722   
N4580  X240.9516  Y48.9685   
N4585  X239.2956  Y47.9984   
N4590  X237.6094  Y49.0978   
N4595 G0  Z0.1000 
N4600 G1  Z-1.4000  F100.00 
N4605  X237.2115  Y50.4886   F300.00 
N4610  X237.6672  Y51.5001   
N4615  X238.6864  Y51.8623   
N4620  X239.9799  Y51.3052   
N4625  X240.9240  Y50.0722   
N4630  X240.9516  Y48.9685   
N4635  X239.2956  Y47.9984   
N4640  X237.6094  Y49.0978   
N4645 G0  Z3.0000 
N4650  X218.0404  Y58.8428 
N4655  Z0.1000 
N4660 G1  Z-0.7000  F100.00 
N4665  X218.0003  Y61.2387   F300.00 
N4670  X218.9014  Y61.5232   
N4675  X219.9094  Y61.0386   
N4680  X221.0688  Y58.7264   
N4685  X220.7157  Y57.5089   
N4690  X219.8745  Y57.1308   
N4695  X218.8734  Y57.5796   
N4700  X218.0404  Y58.8428   
N4705 G0  Z0.1000 
N4710 G1  Z-1.4000  F100.00 
N4715  X218.0003  Y61.2387   F300.00 
N4720  X218.9014  Y61.5232   
N4725  X219.9094  Y61.0386   
N4730  X221.0688  Y58.7264   
N4735  X220.7157  Y57.5089   
N4740  X219.8745  Y57.1308   
N4745  X218.8734  Y57.5796   
N4750  X218.0404  Y58.8428   
N4755 G0  Z3.0000 
N4760  X191.4102  Y73.0528 
N4765  Z0.1000 
N4770 G1  Z-0.7000  F100.00 
N4775  Y86.7415   F300.00 
N4780  X201.1061   
N4785  X208.0932  Y86.4229   
N4790  X210.8025  Y85.6007   
N4795  X208.5209  Y84.7858   
N4800  X202.8173  Y84.4599   
N4805  X194.8322   
N4810  Y79.8971   
N4815  Y75.3344   
N4820  X202.2469   
N4825  X208.0889  Y74.9860   
N4830  X209.3038  Y74.4803   
N4835  X209.6617  Y73.6917   
N4840  X209.3107  Y72.9040   
N4845  X208.1087  Y72.4169   
N4850  X202.2495  Y72.1599   
N4855  X194.8348  Y71.5210   
N4860  X194.8326  Y66.8289   
N4865  Y62.8865   
N4870  X203.0118  Y62.5511   
N4875  X209.2016  Y61.9346   
N4880  X211.6621  Y60.7899   
N4885  X211.3603  Y60.1156   
N4890  X209.7673  Y59.6758   
N4895  X201.7722  Y59.3641   
N4900  X191.4102   
N4905  Y73.0528   
N4910 G0  Z0.1000 
N4915 G1  Z-1.4000  F100.00 
N4920  Y86.7415   F300.00 
N4925  X201.1061   
N4930  X208.0932  Y86.4229   
N4935  X210.8025  Y85.6007   
N4940  X208.5209  Y84.7858   
N4945  X202.8173  Y84.4599   
N4950  X194.8322   
N4955  Y79.8971   
N4960  Y75.3344   
N4965  X202.2469   
N4970  X208.0889  Y74.9860   
N4975  X209.3038  Y74.4803   
N4980  X209.6617  Y73.6917   
N4985  X209.3107  Y72.9040   
N4990  X208.1087  Y72.4169   
N4995  X202.2495  Y72.1599   
N5000  X194.8348  Y71.5210   
N5005  X194.8326  Y66.8289   
N5010  Y62.8865   
N5015  X203.0118  Y62.5511   
N5020  X209.2016  Y61.9346   
N5025  X211.6621  Y60.7899   
N5030  X211.3603  Y60.1156   
N5035  X209.7673  Y59.6758   
N5040  X201.7722  Y59.3641   
N5045  X191.4102   
N5050  Y73.0528   
N5055 G0  Z3.0000 
N5060  X182.2843  Y59.8125 
N5065  Z0.1000 
N5070 G1  Z-0.7000  F100.00 
N5075  X182.7822  Y61.2357   F300.00 
N5080  X183.9373  Y61.9884   
N5085  X185.2402  Y61.9277   
N5090  X186.1826  Y60.9097   
N5095  X186.6772  Y58.6152   
N5100  X184.5659  Y58.2233   
N5105  X182.9547  Y58.6902   
N5110  X182.2843  Y59.8125   
N5115 G0  Z0.1000 
N5120 G1  Z-1.4000  F100.00 
N5125  X182.7822  Y61.2357   F300.00 
N5130  X183.9373  Y61.9884   
N5135  X185.2402  Y61.9277   
N5140  X186.1826  Y60.9097   
N5145  X186.6772  Y58.6152   
N5150  X184.5659  Y58.2233   
N5155  X182.9547  Y58.6902   
N5160  X182.2843  Y59.8125   
N5165 G0  Z3.0000 
N5170  X159.1799  Y52.6280 
N5175  Z0.1000 
N5180 G1  Z-0.7000  F100.00 
N5185  X157.9874  Y55.4683   F300.00 
N5190  X157.9300  Y57.3602   
N5195  X158.1292  Y58.0138   
N5200  X157.5528  Y57.8784   
N5205  X156.1507  Y58.6131   
N5210  X154.5314  Y61.2133   
N5215  X153.3729  Y64.2920   
N5220  X153.3530  Y66.4632   
N5225  X153.5574  Y67.1302   
N5230  X152.9736  Y66.9940   
N5235  X151.7078  Y67.3488   
N5240  X150.2717  Y69.1954   
N5245  X149.3969  Y71.9814   
N5250  X151.5259  Y74.2268   
N5255  X159.8719  Y78.9141   
N5260  X163.8280  Y80.4878   
N5265  X165.8548  Y80.7370   
N5270  X166.2178  Y79.7997   
N5275  X165.4060  Y78.6813   
N5280  X159.5908  Y75.3249   
N5285  X155.9718  Y73.2503   
N5290  X154.1912  Y71.3088   
N5295  X154.0950  Y69.1648   
N5300  X155.5286  Y66.4814   
N5305  X157.2911  Y63.9652   
N5310  X163.4137  Y67.4208   
N5315  X168.2778  Y69.7434   
N5320  X169.6307  Y69.9533   
N5325  X170.3529  Y69.5558   
N5330  X170.4646  Y68.3456   
N5335  X169.5993  Y67.2846   
N5340  X168.1575  Y66.6646   
N5345  X166.5403  Y66.7780   
N5350  X165.6617  Y66.8871   
N5355  X165.6358  Y66.3835   
N5360  X164.8619  Y65.1552   
N5365  X162.1854  Y63.5216   
N5370  X159.4589  Y61.9195   
N5375  X158.5638  Y60.7670   
N5380  X160.5932  Y56.5125   
N5385  X162.3479  Y52.8198   
N5390  X169.7937  Y56.4556   
N5395  X175.5598  Y59.1183   
N5400  X177.1291  Y59.4107   
N5405  X177.9211  Y59.0412   
N5410  X177.7310  Y58.1931   
N5415  X176.4057  Y56.9467   
N5420  X170.5435  Y53.4092   
N5425  X161.7655  Y49.1047   
N5430  X159.1799  Y52.6280   
N5435 G0  Z0.1000 
N5440 G1  Z-1.4000  F100.00 
N5445  X157.9874  Y55.4683   F300.00 
N5450  X157.9300  Y57.3602   
N5455  X158.1292  Y58.0138   
N5460  X157.5528  Y57.8784   
N5465  X156.1507  Y58.6131   
N5470  X154.5314  Y61.2133   
N5475  X153.3729  Y64.2920   
N5480  X153.3530  Y66.4632   
N5485  X153.5574  Y67.1302   
N5490  X152.9736  Y66.9940   
N5495  X151.7078  Y67.3488   
N5500  X150.2717  Y69.1954   
N5505  X149.3969  Y71.9814   
N5510  X151.5259  Y74.2268   
N5515  X159.8719  Y78.9141   
N5520  X163.8280  Y80.4878   
N5525  X165.8548  Y80.7370   
N5530  X166.2178  Y79.7997   
N5535  X165.4060  Y78.6813   
N5540  X159.5908  Y75.3249   
N5545  X155.9718  Y73.2503   
N5550  X154.1912  Y71.3088   
N5555  X154.0950  Y69.1648   
N5560  X155.5286  Y66.4814   
N5565  X157.2911  Y63.9652   
N5570  X163.4137  Y67.4208   
N5575  X168.2778  Y69.7434   
N5580  X169.6307  Y69.9533   
N5585  X170.3529  Y69.5558   
N5590  X170.4646  Y68.3456   
N5595  X169.5993  Y67.2846   
N5600  X168.1575  Y66.6646   
N5605  X166.5403  Y66.7780   
N5610  X165.6617  Y66.8871   
N5615  X165.6358  Y66.3835   
N5620  X164.8619  Y65.1552   
N5625  X162.1854  Y63.5216   
N5630  X159.4589  Y61.9195   
N5635  X158.5638  Y60.7670   
N5640  X160.5932  Y56.5125   
N5645  X162.3479  Y52.8198   
N5650  X169.7937  Y56.4556   
N5655  X175.5598  Y59.1183   
N5660  X177.1291  Y59.4107   
N5665  X177.9211  Y59.0412   
N5670  X177.7310  Y58.1931   
N5675  X176.4057  Y56.9467   
N5680  X170.5435  Y53.4092   
N5685  X161.7655  Y49.1047   
N5690  X159.1799  Y52.6280   
N5695 G0  Z3.0000 
N5700  X156.0477  Y5.0172 
N5705  Z0.1000 
N5710 G1  Z-0.7000  F100.00 
N5715  Y10.0344   F300.00 
N5720  X164.8882  Y11.2808   
N5725  X182.5697  Y13.2282   
N5730  X188.8130  Y14.0302   
N5735  X191.4102  Y14.9735   
N5740  X181.5065  Y15.7543   
N5745  X156.3331  Y16.1302   
N5750  X116.2155  Y16.6950   
N5755  X112.1490  Y17.4288   
N5760  X108.8090  Y18.8227   
N5765  X106.2385  Y20.8521   
N5770  X104.4803  Y23.4920   
N5775  X102.5350  Y25.7598   
N5780  X98.3456  Y26.2832   
N5785  X94.3731  Y26.9406   
N5790  X90.6498  Y28.7066   
N5795  X87.6568  Y31.2693   
N5800  X85.8775  Y34.3183   
N5805  X84.3918  Y36.0709   
N5810  X80.8370  Y36.5499   
N5815  X77.3012  Y37.1009   
N5820  X74.0444  Y38.5922   
N5825  X71.4533  Y40.7811   
N5830  X69.9137  Y43.4240   
N5835  X68.4430  Y45.1908   
N5840  X64.9982  Y45.6922   
N5845  X61.1594  Y46.0992   
N5850  X57.9331  Y47.2607   
N5855  X55.3911  Y49.1396   
N5860  X53.6054  Y51.6976   
N5865  X52.6461  Y53.3320   
N5870  X51.4566  Y54.2719   
N5875  X46.7610  Y54.8057   
N5880  X42.3293  Y55.3437   
N5885  X38.3107  Y56.7876   
N5890  X35.2013  Y58.8898   
N5895  X33.4966  Y61.4043   
N5900  X32.8248  Y62.5287   
N5905  X31.4318  Y63.3064   
N5910  X25.1243  Y64.2907   
N5915  X17.9928  Y65.5622   
N5920  X15.8332  Y67.0293   
N5925  X13.4261  Y69.5864   
N5930  X10.0594  Y72.8402   
N5935  X7.6144  Y74.1936   
N5940  X5.6475  Y74.8627   
N5945  X3.8238  Y76.4618   
N5950  X2.6632  Y78.3787   
N5955  X2.6851  Y80.0015   
N5960  X2.9796  Y80.8086   
N5965  X2.3273  Y80.6391   
N5970  X1.2016  Y81.4251   
N5975  X0.3574  Y84.4573   
N5980  X0.0000  Y88.5260   
N5985  X0.3337  Y92.4205   
N5990  X1.1201  Y94.8754   
N5995  X2.0311  Y95.7122   
N6000  X3.0426  Y94.9306   
N6005  X4.1312  Y92.5295   
N6010  X6.1373  Y88.7506   
N6015  X7.8325  Y87.5391   
N6020  X10.3866  Y86.6910   
N6025  X19.2642  Y85.8184   
N6030  X35.1530  Y85.6007   
N6035  X61.6530  Y85.5593   
N6040  X63.1094  Y86.2064   
N6045  X63.6492  Y87.8823   
N6050  X63.8040  Y89.4909   
N6055  X64.4214  Y90.0207   
N6060  X67.9653  Y87.8314   
N6065  X70.1103  Y86.5548   
N6070  X73.5732  Y85.8870   
N6075  X91.5302  Y85.7529   
N6080  X105.6517  Y85.7076   
N6085  X113.9831  Y84.6785   
N6090  X116.7402  Y83.5817   
N6095  X118.9662  Y81.9821   
N6100  X123.0430  Y76.9343   
N6105  X126.6495  Y71.6930   
N6110  X131.3671  Y76.2087   
N6115  X138.6563  Y82.5396   
N6120  X146.4182  Y88.0384   
N6125  X154.6305  Y92.6973   
N6130  X163.2714  Y96.5077   
N6135  X172.3185  Y99.4610   
N6140  X181.7497  Y101.5486   
N6145  X191.5434  Y102.7622   
N6150  X201.6765  Y103.0933   
N6155  X211.0176  Y102.6273   
N6160  X219.9146  Y101.4360   
N6165  X228.3818  Y99.5131   
N6170  X236.4350  Y96.8530   
N6175  X244.0886  Y93.4500   
N6180  X251.3585  Y89.2981   
N6185  X258.2589  Y84.3913   
N6190  X264.8053  Y78.7244   
N6195  X274.0464  Y69.9546   
N6200  X266.1513  Y60.1703   
N6205  X260.2991  Y53.4307   
N6210  X257.3156  Y50.9672   
N6215  X256.7434  Y51.0582   
N6220  X256.6883  Y50.4606   
N6225  X255.0620  Y47.2452   
N6230  X250.1698  Y41.6792   
N6235  X243.3544  Y35.1487   
N6240  X235.9577  Y29.0416   
N6245  X226.3929  Y22.3499   
N6250  X224.8085  Y21.8101   
N6255  X225.1702  Y23.0371   
N6260  X225.4129  Y23.7847   
N6265  X224.6489  Y23.5290   
N6270  X223.8807  Y22.6624   
N6275  X223.9091  Y21.7389   
N6280  Y20.9094   
N6285  X223.0723  Y20.2692   
N6290  X223.6241  Y19.7807   
N6295  X226.9633  Y19.3155   
N6300  X231.8412  Y19.3133   
N6305  X236.6532  Y23.0944   
N6310  X240.7779  Y25.2441   
N6315  X242.9689  Y25.3726   
N6320  X242.7206  Y23.9481   
N6325  X240.2472  Y21.8963   
N6330  X236.4686  Y19.4772   
N6335  X260.7841  Y19.4578   
N6340  X283.9311  Y20.1239   
N6345  X288.6120  Y21.2979   
N6350  X290.9208  Y23.3169   
N6355  X291.7762  Y25.4864   
N6360  X284.6679  Y26.0771   
N6365  X267.5534  Y26.2129   
N6370  X243.5807  Y26.7436   
N6375  X247.7572  Y30.8826   
N6380  X252.2389  Y34.2683   
N6385  X252.4389  Y31.9867   
N6390  X252.4553  Y30.7209   
N6395  X253.6867  Y30.0375   
N6400  X263.1424  Y29.7055   
N6405  X272.9194  Y30.1216   
N6410  X275.1122  Y30.9162   
N6415  X276.7656  Y32.3454   
N6420  X279.2459  Y35.7678   
N6425  X268.7675  Y36.5499   
N6430  X259.7351  Y36.1351   
N6435  X257.4841  Y35.4363   
N6440  X255.8393  Y34.2480   
N6445  X253.7656  Y32.6244   
N6450  X253.3353  Y33.9631   
N6455  X255.3871  Y37.5652   
N6460  X260.3956  Y43.3942   
N6465  X274.0171  Y59.1041   
N6470  X279.0334  Y64.8301   
N6475  X281.7720  Y66.6275   
N6480  X282.4467  Y66.4236   
N6485  X282.2833  Y67.0487   
N6490  X283.1012  Y69.1005   
N6495  X286.1028  Y72.3582   
N6500  X290.6595  Y76.4752   
N6505  X309.3244   
N6510  X325.5568  Y76.8421   
N6515  X328.8559  Y77.5530   
N6520  X330.9948  Y78.8391   
N6525  X333.8369  Y81.6144   
N6530  X333.7463  Y82.4965   
N6535  X332.4055  Y83.0988   
N6540  X325.2455  Y83.6351   
N6545  X310.9020  Y83.5657   
N6550  X293.7495  Y82.9975   
N6555  X284.9495  Y82.0865   
N6560  X281.8095  Y79.7812   
N6565  X278.2647  Y75.8612   
N6570  X275.2587  Y72.4660   
N6575  X273.4139  Y71.4214   
N6580  X272.9189  Y72.4587   
N6585  X273.4320  Y74.1177   
N6590  X276.6957  Y78.4670   
N6595  X281.6336  Y82.8047   
N6600  X286.6740  Y85.4657   
N6605  X295.7056  Y86.3617   
N6610  X311.1123  Y86.7350   
N6615  X328.4532  Y87.0976   
N6620  X331.6790  Y87.8254   
N6625  X333.5838  Y89.1675   
N6630  X336.1659  Y91.5931   
N6635  X336.8501  Y88.8821   
N6640  X337.5339  Y86.1711   
N6645  X364.1883   
N6650  X387.8738  Y86.5173   
N6655  X391.6687  Y87.3386   
N6660  X393.7916  Y88.9369   
N6665  X395.8740  Y91.5017   
N6670  X396.7402  Y93.7846   
N6675  X397.2774  Y95.2595   
N6680  X398.5803  Y95.8674   
N6685  X399.5086  Y95.5738   
N6690  X400.0031  Y94.4266   
N6695  X399.9733  Y87.9659   
N6700  X399.2361  Y82.4141   
N6705  X397.8271  Y78.3472   
N6710  X395.9021  Y76.0613   
N6715  X393.6162  Y75.8513   
N6720  X392.7211  Y75.9423   
N6725  X392.7560  Y75.3215   
N6730  X392.7340  Y74.5247   
N6735  X391.7036  Y74.1936   
N6740  X389.9485  Y73.1882   
N6745  X388.1847  Y70.7716   
N6750  X385.8168  Y67.6838   
N6755  X382.7665  Y67.2143   
N6760  X381.9107  Y66.4038   
N6765  X379.9839  Y65.6600   
N6770  X375.3518  Y65.1991   
N6775  X370.5088  Y64.6322   
N6780  X368.3207  Y63.5893   
N6785  X364.7013  Y59.0899   
N6790  X360.9892  Y56.5147   
N6795  X355.3042  Y55.9421   
N6800  X349.6132  Y55.3657   
N6805  X348.1490  Y54.1658   
N6810  X346.6892  Y51.9321   
N6815  X344.5291  Y49.0952   
N6820  X341.8634  Y47.1512   
N6825  X338.5622  Y46.0332   
N6830  X334.4965  Y45.6754   
N6835  X331.5579  Y45.2731   
N6840  X330.5783  Y44.0660   
N6845  X329.5475  Y42.0616   
N6850  X327.0688  Y39.5028   
N6855  X323.2347  Y37.2057   
N6860  X318.5900  Y36.5499   
N6865  X314.4877  Y36.0959   
N6870  X312.9132  Y34.3183   
N6875  X311.1335  Y31.2693   
N6880  X308.1409  Y28.7066   
N6885  X304.4172  Y26.9406   
N6890  X300.4447  Y26.2832   
N6895  X296.2557  Y25.7598   
N6900  X294.3104  Y23.4920   
N6905  X293.2097  Y21.3177   
N6910  X291.8020  Y19.6751   
N6915  X289.5575  Y18.4877   
N6920  X285.9467  Y17.6785   
N6925  X272.5085  Y16.8912   
N6930  X247.2510  Y16.7019   
N6935  X219.0976  Y16.3894   
N6940  X207.3852  Y15.7987   
N6945  X207.9125  Y14.8127   
N6950  X210.0432  Y14.0659   
N6955  X222.3255  Y12.6065   
N6960  X234.4121  Y11.4269   
N6965  X240.4416  Y10.3034   
N6970  X241.8428  Y9.5230   
N6975  X242.5180  Y8.4689   
N6980  X242.7426  Y5.1564   
N6985  Y0.2535   
N6990  X237.8944  Y2.5980   
N6995  X229.8394  Y5.3229   
N7000  X218.9967  Y7.4186   
N7005  X206.9800  Y8.6504   
N7010  X195.4026  Y8.7832   
N7015  X184.7638  Y7.9325   
N7020  X174.8786  Y6.4593   
N7025  X166.4998  Y4.5050   
N7030  X160.3824  Y2.2113   
N7035  X156.0477  Y0.0000   
N7040  Y5.0172   
N7045 G0  Z0.1000 
N7050 G1  Z-1.4000  F100.00 
N7055  Y10.0344   F300.00 
N7060  X164.8882  Y11.2808   
N7065  X182.5697  Y13.2282   
N7070  X188.8130  Y14.0302   
N7075  X191.4102  Y14.9735   
N7080  X181.5065  Y15.7543   
N7085  X156.3331  Y16.1302   
N7090  X116.2155  Y16.6950   
N7095  X112.1490  Y17.4288   
N7100  X108.8090  Y18.8227   
N7105  X106.2385  Y20.8521   
N7110  X104.4803  Y23.4920   
N7115  X102.5350  Y25.7598   
N7120  X98.3456  Y26.2832   
N7125  X94.3731  Y26.9406   
N7130  X90.6498  Y28.7066   
N7135  X87.6568  Y31.2693   
N7140  X85.8775  Y34.3183   
N7145  X84.3918  Y36.0709   
N7150  X80.8370  Y36.5499   
N7155  X77.3012  Y37.1009   
N7160  X74.0444  Y38.5922   
N7165  X71.4533  Y40.7811   
N7170  X69.9137  Y43.4240   
N7175  X68.4430  Y45.1908   
N7180  X64.9982  Y45.6922   
N7185  X61.1594  Y46.0992   
N7190  X57.9331  Y47.2607   
N7195  X55.3911  Y49.1396   
N7200  X53.6054  Y51.6976   
N7205  X52.6461  Y53.3320   
N7210  X51.4566  Y54.2719   
N7215  X46.7610  Y54.8057   
N7220  X42.3293  Y55.3437   
N7225  X38.3107  Y56.7876   
N7230  X35.2013  Y58.8898   
N7235  X33.4966  Y61.4043   
N7240  X32.8248  Y62.5287   
N7245  X31.4318  Y63.3064   
N7250  X25.1243  Y64.2907   
N7255  X17.9928  Y65.5622   
N7260  X15.8332  Y67.0293   
N7265  X13.4261  Y69.5864   
N7270  X10.0594  Y72.8402   
N7275  X7.6144  Y74.1936   
N7280  X5.6475  Y74.8627   
N7285  X3.8238  Y76.4618   
N7290  X2.6632  Y78.3787   
N7295  X2.6851  Y80.0015   
N7300  X2.9796  Y80.8086   
N7305  X2.3273  Y80.6391   
N7310  X1.2016  Y81.4251   
N7315  X0.3574  Y84.4573   
N7320  X0.0000  Y88.5260   
N7325  X0.3337  Y92.4205   
N7330  X1.1201  Y94.8754   
N7335  X2.0311  Y95.7122   
N7340  X3.0426  Y94.9306   
N7345  X4.1312  Y92.5295   
N7350  X6.1373  Y88.7506   
N7355  X7.8325  Y87.5391   
N7360  X10.3866  Y86.6910   
N7365  X19.2642  Y85.8184   
N7370  X35.1530  Y85.6007   
N7375  X61.6530  Y85.5593   
N7380  X63.1094  Y86.2064   
N7385  X63.6492  Y87.8823   
N7390  X63.8040  Y89.4909   
N7395  X64.4214  Y90.0207   
N7400  X67.9653  Y87.8314   
N7405  X70.1103  Y86.5548   
N7410  X73.5732  Y85.8870   
N7415  X91.5302  Y85.7529   
N7420  X105.6517  Y85.7076   
N7425  X113.9831  Y84.6785   
N7430  X116.7402  Y83.5817   
N7435  X118.9662  Y81.9821   
N7440  X123.0430  Y76.9343   
N7445  X126.6495  Y71.6930   
N7450  X131.3671  Y76.2087   
N7455  X138.6563  Y82.5396   
N7460  X146.4182  Y88.0384   
N7465  X154.6305  Y92.6973   
N7470  X163.2714  Y96.5077   
N7475  X172.3185  Y99.4610   
N7480  X181.7497  Y101.5486   
N7485  X191.5434  Y102.7622   
N7490  X201.6765  Y103.0933   
N7495  X211.0176  Y102.6273   
N7500  X219.9146  Y101.4360   
N7505  X228.3818  Y99.5131   
N7510  X236.4350  Y96.8530   
N7515  X244.0886  Y93.4500   
N7520  X251.3585  Y89.2981   
N7525  X258.2589  Y84.3913   
N7530  X264.8053  Y78.7244   
N7535  X274.0464  Y69.9546   
N7540  X266.1513  Y60.1703   
N7545  X260.2991  Y53.4307   
N7550  X257.3156  Y50.9672   
N7555  X256.7434  Y51.0582   
N7560  X256.6883  Y50.4606   
N7565  X255.0620  Y47.2452   
N7570  X250.1698  Y41.6792   
N7575  X243.3544  Y35.1487   
N7580  X235.9577  Y29.0416   
N7585  X226.3929  Y22.3499   
N7590  X224.8085  Y21.8101   
N7595  X225.1702  Y23.0371   
N7600  X225.4129  Y23.7847   
N7605  X224.6489  Y23.5290   
N7610  X223.8807  Y22.6624   
N7615  X223.9091  Y21.7389   
N7620  Y20.9094   
N7625  X223.0723  Y20.2692   
N7630  X223.6241  Y19.7807   
N7635  X226.9633  Y19.3155   
N7640  X231.8412  Y19.3133   
N7645  X236.6532  Y23.0944   
N7650  X240.7779  Y25.2441   
N7655  X242.9689  Y25.3726   
N7660  X242.7206  Y23.9481   
N7665  X240.2472  Y21.8963   
N7670  X236.4686  Y19.4772   
N7675  X260.7841  Y19.4578   
N7680  X283.9311  Y20.1239   
N7685  X288.6120  Y21.2979   
N7690  X290.9208  Y23.3169   
N7695  X291.7762  Y25.4864   
N7700  X284.6679  Y26.0771   
N7705  X267.5534  Y26.2129   
N7710  X243.5807  Y26.7436   
N7715  X247.7572  Y30.8826   
N7720  X252.2389  Y34.2683   
N7725  X252.4389  Y31.9867   
N7730  X252.4553  Y30.7209   
N7735  X253.6867  Y30.0375   
N7740  X263.1424  Y29.7055   
N7745  X272.9194  Y30.1216   
N7750  X275.1122  Y30.9162   
N7755  X276.7656  Y32.3454   
N7760  X279.2459  Y35.7678   
N7765  X268.7675  Y36.5499   
N7770  X259.7351  Y36.1351   
N7775  X257.4841  Y35.4363   
N7780  X255.8393  Y34.2480   
N7785  X253.7656  Y32.6244   
N7790  X253.3353  Y33.9631   
N7795  X255.3871  Y37.5652   
N7800  X260.3956  Y43.3942   
N7805  X274.0171  Y59.1041   
N7810  X279.0334  Y64.8301   
N7815  X281.7720  Y66.6275   
N7820  X282.4467  Y66.4236   
N7825  X282.2833  Y67.0487   
N7830  X283.1012  Y69.1005   
N7835  X286.1028  Y72.3582   
N7840  X290.6595  Y76.4752   
N7845  X309.3244   
N7850  X325.5568  Y76.8421   
N7855  X328.8559  Y77.5530   
N7860  X330.9948  Y78.8391   
N7865  X333.8369  Y81.6144   
N7870  X333.7463  Y82.4965   
N7875  X332.4055  Y83.0988   
N7880  X325.2455  Y83.6351   
N7885  X310.9020  Y83.5657   
N7890  X293.7495  Y82.9975   
N7895  X284.9495  Y82.0865   
N7900  X281.8095  Y79.7812   
N7905  X278.2647  Y75.8612   
N7910  X275.2587  Y72.4660   
N7915  X273.4139  Y71.4214   
N7920  X272.9189  Y72.4587   
N7925  X273.4320  Y74.1177   
N7930  X276.6957  Y78.4670   
N7935  X281.6336  Y82.8047   
N7940  X286.6740  Y85.4657   
N7945  X295.7056  Y86.3617   
N7950  X311.1123  Y86.7350   
N7955  X328.4532  Y87.0976   
N7960  X331.6790  Y87.8254   
N7965  X333.5838  Y89.1675   
N7970  X336.1659  Y91.5931   
N7975  X336.8501  Y88.8821   
N7980  X337.5339  Y86.1711   
N7985  X364.1883   
N7990  X387.8738  Y86.5173   
N7995  X391.6687  Y87.3386   
N8000  X393.7916  Y88.9369   
N8005  X395.8740  Y91.5017   
N8010  X396.7402  Y93.7846   
N8015  X397.2774  Y95.2595   
N8020  X398.5803  Y95.8674   
N8025  X399.5086  Y95.5738   
N8030  X400.0031  Y94.4266   
N8035  X399.9733  Y87.9659   
N8040  X399.2361  Y82.4141   
N8045  X397.8271  Y78.3472   
N8050  X395.9021  Y76.0613   
N8055  X393.6162  Y75.8513   
N8060  X392.7211  Y75.9423   
N8065  X392.7560  Y75.3215   
N8070  X392.7340  Y74.5247   
N8075  X391.7036  Y74.1936   
N8080  X389.9485  Y73.1882   
N8085  X388.1847  Y70.7716   
N8090  X385.8168  Y67.6838   
N8095  X382.7665  Y67.2143   
N8100  X381.9107  Y66.4038   
N8105  X379.9839  Y65.6600   
N8110  X375.3518  Y65.1991   
N8115  X370.5088  Y64.6322   
N8120  X368.3207  Y63.5893   
N8125  X364.7013  Y59.0899   
N8130  X360.9892  Y56.5147   
N8135  X355.3042  Y55.9421   
N8140  X349.6132  Y55.3657   
N8145  X348.1490  Y54.1658   
N8150  X346.6892  Y51.9321   
N8155  X344.5291  Y49.0952   
N8160  X341.8634  Y47.1512   
N8165  X338.5622  Y46.0332   
N8170  X334.4965  Y45.6754   
N8175  X331.5579  Y45.2731   
N8180  X330.5783  Y44.0660   
N8185  X329.5475  Y42.0616   
N8190  X327.0688  Y39.5028   
N8195  X323.2347  Y37.2057   
N8200  X318.5900  Y36.5499   
N8205  X314.4877  Y36.0959   
N8210  X312.9132  Y34.3183   
N8215  X311.1335  Y31.2693   
N8220  X308.1409  Y28.7066   
N8225  X304.4172  Y26.9406   
N8230  X300.4447  Y26.2832   
N8235  X296.2557  Y25.7598   
N8240  X294.3104  Y23.4920   
N8245  X293.2097  Y21.3177   
N8250  X291.8020  Y19.6751   
N8255  X289.5575  Y18.4877   
N8260  X285.9467  Y17.6785   
N8265  X272.5085  Y16.8912   
N8270  X247.2510  Y16.7019   
N8275  X219.0976  Y16.3894   
N8280  X207.3852  Y15.7987   
N8285  X207.9125  Y14.8127   
N8290  X210.0432  Y14.0659   
N8295  X222.3255  Y12.6065   
N8300  X234.4121  Y11.4269   
N8305  X240.4416  Y10.3034   
N8310  X241.8428  Y9.5230   
N8315  X242.5180  Y8.4689   
N8320  X242.7426  Y5.1564   
N8325  Y0.2535   
N8330  X237.8944  Y2.5980   
N8335  X229.8394  Y5.3229   
N8340  X218.9967  Y7.4186   
N8345  X206.9800  Y8.6504   
N8350  X195.4026  Y8.7832   
N8355  X184.7638  Y7.9325   
N8360  X174.8786  Y6.4593   
N8365  X166.4998  Y4.5050   
N8370  X160.3824  Y2.2113   
N8375  X156.0477  Y0.0000   
N8380  Y5.0172   
N8385 G0  Z3.0000 
N8390  X274.5340  Y54.6927 
N8395  Z0.1000 
N8400 G1  Z-0.7000  F100.00 
N8405  X276.7095  Y55.6412   F300.00 
N8410  X287.8006  Y56.0370   
N8415  X296.0664  Y55.8081   
N8420  X300.5421  Y55.0372   
N8425  X301.5065  Y54.3887   
N8430  X301.7001  Y53.5334   
N8435  X300.0122  Y51.1056   
N8440  X298.2558  Y49.7350   
N8445  X295.6965  Y48.9353   
N8450  X283.8014  Y48.2877   
N8455  X274.1511  Y48.3295   
N8460  X270.1609  Y48.8339   
N8465  X272.8185  Y52.8651   
N8470  X274.5340  Y54.6927   
N8475 G0  Z0.1000 
N8480 G1  Z-1.4000  F100.00 
N8485  X276.7095  Y55.6412   F300.00 
N8490  X287.8006  Y56.0370   
N8495  X296.0664  Y55.8081   
N8500  X300.5421  Y55.0372   
N8505  X301.5065  Y54.3887   
N8510  X301.7001  Y53.5334   
N8515  X300.0122  Y51.1056   
N8520  X298.2558  Y49.7350   
N8525  X295.6965  Y48.9353   
N8530  X283.8014  Y48.2877   
N8535  X274.1511  Y48.3295   
N8540  X270.1609  Y48.8339   
N8545  X272.8185  Y52.8651   
N8550  X274.5340  Y54.6927   
N8555 G0  Z3.0000 
N8560  X286.9457  Y40.8678 
N8565  Z0.1000 
N8570 G1  Z-0.7000  F100.00 
N8575  X281.2749  Y39.5588   F300.00 
N8580  X272.2571  Y38.7940   
N8585  X263.9051  Y38.7582   
N8590  X261.2325  Y39.0716   
N8595  X260.2314  Y39.6364   
N8600  X260.4853  Y40.4521   
N8605  X261.0932  Y40.4810   
N8610  X262.3612  Y40.9471   
N8615  X264.2039  Y42.8126   
N8620  X265.7198  Y44.4074   
N8625  X267.7901  Y45.2637   
N8630  X277.9840  Y45.6754   
N8635  X287.2595  Y45.3490   
N8640  X289.0276  Y44.8381   
N8645  X289.5122  Y44.0047   
N8650  X288.7582  Y42.3940   
N8655  X286.9457  Y40.8678   
N8660 G0  Z0.1000 
N8665 G1  Z-1.4000  F100.00 
N8670  X281.2749  Y39.5588   F300.00 
N8675  X272.2571  Y38.7940   
N8680  X263.9051  Y38.7582   
N8685  X261.2325  Y39.0716   
N8690  X260.2314  Y39.6364   
N8695  X260.4853  Y40.4521   
N8700  X261.0932  Y40.4810   
N8705  X262.3612  Y40.9471   
N8710  X264.2039  Y42.8126   
N8715  X265.7198  Y44.4074   
N8720  X267.7901  Y45.2637   
N8725  X277.9840  Y45.6754   
N8730  X287.2595  Y45.3490   
N8735  X289.0276  Y44.8381   
N8740  X289.5122  Y44.0047   
N8745  X288.7582  Y42.3940   
N8750  X286.9457  Y40.8678   
N8755 G0  Z3.0000 
N8760  X308.0237  Y32.3277 
N8765  Z0.1000 
N8770 G1  Z-0.7000  F100.00 
N8775  X306.5832  Y30.9589   F300.00 
N8780  X304.2508  Y30.1591   
N8785  X292.6471  Y29.4762   
N8790  X279.2438  Y29.4770   
N8795  X280.9860  Y33.1844   
N8800  X282.7265  Y36.5499   
N8805  X296.3859   
N8810  X306.0253  Y36.2985   
N8815  X310.0198  Y35.6941   
N8820  X308.0237  Y32.3277   
N8825 G0  Z0.1000 
N8830 G1  Z-1.4000  F100.00 
N8835  X306.5832  Y30.9589   F300.00 
N8840  X304.2508  Y30.1591   
N8845  X292.6471  Y29.4762   
N8850  X279.2438  Y29.4770   
N8855  X280.9860  Y33.1844   
N8860  X282.7265  Y36.5499   
N8865  X296.3859   
N8870  X306.0253  Y36.2985   
N8875  X310.0198  Y35.6941   
N8880  X308.0237  Y32.3277   
N8885 G0  Z3.0000 
N8890  X322.9536  Y40.1426 
N8895  Z0.1000 
N8900 G1  Z-0.7000  F100.00 
N8905  X316.8642  Y39.3092   F300.00 
N8910  X305.8770  Y38.8371   
N8915  X295.3525  Y38.8423   
N8920  X290.6530  Y39.4415   
N8925  X292.4953  Y42.8639   
N8930  X293.8379  Y44.4730   
N8935  X296.2341  Y45.3094   
N8940  X310.7467  Y45.6754   
N8945  X322.3306  Y45.4240   
N8950  X327.1387  Y44.8200   
N8955  X325.9867  Y42.4065   
N8960  X322.9536  Y40.1426   
N8965 G0  Z0.1000 
N8970 G1  Z-1.4000  F100.00 
N8975  X316.8642  Y39.3092   F300.00 
N8980  X305.8770  Y38.8371   
N8985  X295.3525  Y38.8423   
N8990  X290.6530  Y39.4415   
N8995  X292.4953  Y42.8639   
N9000  X293.8379  Y44.4730   
N9005  X296.2341  Y45.3094   
N9010  X310.7467  Y45.6754   
N9015  X322.3306  Y45.4240   
N9020  X327.1387  Y44.8200   
N9025  X325.9867  Y42.4065   
N9030  X322.9536  Y40.1426   
N9035 G0  Z3.0000 
N9040  X341.0865  Y49.6708 
N9045  Z0.1000 
N9050 G1  Z-0.7000  F100.00 
N9055  X334.1210  Y48.8908   F300.00 
N9060  X321.3787  Y48.3054   
N9065  X308.9739  Y48.1049   
N9070  X303.0190  Y48.4804   
N9075  X303.0436  Y50.0316   
N9080  X304.1594  Y52.6500   
N9085  X306.3664  Y55.3023   
N9090  X309.4749  Y55.8693   
N9095  X314.0381  Y55.8878   
N9100  X344.0514  Y55.3967   
N9105  X344.2455  Y54.2029   
N9110  X343.6078  Y52.4490   
N9115  X341.0865  Y49.6708   
N9120 G0  Z0.1000 
N9125 G1  Z-1.4000  F100.00 
N9130  X334.1210  Y48.8908   F300.00 
N9135  X321.3787  Y48.3054   
N9140  X308.9739  Y48.1049   
N9145  X303.0190  Y48.4804   
N9150  X303.0436  Y50.0316   
N9155  X304.1594  Y52.6500   
N9160  X306.3664  Y55.3023   
N9165  X309.4749  Y55.8693   
N9170  X314.0381  Y55.8878   
N9175  X344.0514  Y55.3967   
N9180  X344.2455  Y54.2029   
N9185  X343.6078  Y52.4490   
N9190  X341.0865  Y49.6708   
N9195 G0  Z3.0000 
N9200  X362.5185  Y60.5049 
N9205  Z0.1000 
N9210 G1  Z-0.7000  F100.00 
N9215  X360.6934  Y59.2503   F300.00 
N9220  X357.1572  Y58.5656   
N9225  X337.4227  Y58.2233   
N9230  X314.6080  Y58.8338   
N9235  X316.4503  Y62.2562   
N9240  X318.2930  Y65.0676   
N9245  X341.5465   
N9250  X358.7016  Y64.7684   
N9255  X364.8001  Y63.9273   
N9260  X362.5185  Y60.5049   
N9265 G0  Z0.1000 
N9270 G1  Z-1.4000  F100.00 
N9275  X360.6934  Y59.2503   F300.00 
N9280  X357.1572  Y58.5656   
N9285  X337.4227  Y58.2233   
N9290  X314.6080  Y58.8338   
N9295  X316.4503  Y62.2562   
N9300  X318.2930  Y65.0676   
N9305  X341.5465   
N9310  X358.7016  Y64.7684   
N9315  X364.8001  Y63.9273   
N9320  X362.5185  Y60.5049   
N9325 G0  Z3.0000 
N9330  X383.1606  Y69.7084 
N9335  Z0.1000 
N9340 G1  Z-0.7000  F100.00 
N9345  X380.6798  Y68.3999   F300.00 
N9350  X376.3292  Y67.6933   
N9355  X352.4143  Y67.3492   
N9360  X324.9808   
N9365  X326.9240  Y70.7643   
N9370  X328.8671  Y74.1794   
N9375  X357.6707  Y74.1863   
N9380  X378.4637  Y73.8961   
N9385  X386.4739  Y73.1304   
N9390  X383.1606  Y69.7084   
N9395 G0  Z0.1000 
N9400 G1  Z-1.4000  F100.00 
N9405  X380.6798  Y68.3999   F300.00 
N9410  X376.3292  Y67.6933   
N9415  X352.4143  Y67.3492   
N9420  X324.9808   
N9425  X326.9240  Y70.7643   
N9430  X328.8671  Y74.1794   
N9435  X357.6707  Y74.1863   
N9440  X378.4637  Y73.8961   
N9445  X386.4739  Y73.1304   
N9450  X383.1606  Y69.7084   
N9455 G0  Z3.0000 
N9460  X394.4319  Y79.3681 
N9465  Z0.1000 
N9470 G1  Z-0.7000  F100.00 
N9475  X392.4974  Y78.0721   F300.00 
N9480  X388.3688  Y77.3771   
N9485  X363.6230  Y77.0456   
N9490  X335.1419  Y77.2771   
N9495  X336.4651  Y80.4141   
N9500  X337.7887  Y83.3195   
N9505  X364.8958   
N9510  X392.0024   
N9515  X395.4455  Y86.2164   
N9520  X398.8886  Y89.1136   
N9525  X397.8241  Y85.4024   
N9530  X396.3884  Y82.0990   
N9535  X394.4319  Y79.3681   
N9540 G0  Z0.1000 
N9545 G1  Z-1.4000  F100.00 
N9550  X392.4974  Y78.0721   F300.00 
N9555  X388.3688  Y77.3771   
N9560  X363.6230  Y77.0456   
N9565  X335.1419  Y77.2771   
N9570  X336.4651  Y80.4141   
N9575  X337.7887  Y83.3195   
N9580  X364.8958   
N9585  X392.0024   
N9590  X395.4455  Y86.2164   
N9595  X398.8886  Y89.1136   
N9600  X397.8241  Y85.4024   
N9605  X396.3884  Y82.0990   
N9610  X394.4319  Y79.3681   
N9615 G0  Z3.0000 
N9620  X320.6720  Y68.6608 
N9625  Z0.1000 
N9630 G1  Z-0.7000  F100.00 
N9635  X313.9799  Y67.7222   F300.00 
N9640  X302.2356  Y67.3449   
N9645  X291.0639  Y67.5665   
N9650  X286.0903  Y68.4254   
N9655  X288.3645  Y71.0941   
N9660  X289.7946  Y72.3949   
N9665  X290.0399  Y73.2856   
N9670  X294.8217  Y73.7728   
N9675  X307.1584  Y74.1039   
N9680  X319.6653  Y73.9888   
N9685  X324.8571  Y73.4029   
N9690  X323.7197  Y70.9415   
N9695  X320.6720  Y68.6608   
N9700 G0  Z0.1000 
N9705 G1  Z-1.4000  F100.00 
N9710  X313.9799  Y67.7222   F300.00 
N9715  X302.2356  Y67.3449   
N9720  X291.0639  Y67.5665   
N9725  X286.0903  Y68.4254   
N9730  X288.3645  Y71.0941   
N9735  X289.7946  Y72.3949   
N9740  X290.0399  Y73.2856   
N9745  X294.8217  Y73.7728   
N9750  X307.1584  Y74.1039   
N9755  X319.6653  Y73.9888   
N9760  X324.8571  Y73.4029   
N9765  X323.7197  Y70.9415   
N9770  X320.6720  Y68.6608   
N9775 G0  Z3.0000 
N9780  X310.9007  Y60.4924 
N9785  Z0.1000 
N9790 G1  Z-0.7000  F100.00 
N9795  X308.4621  Y59.3206   F300.00 
N9800  X305.2639  Y58.6337   
N9805  X292.6492  Y58.2276   
N9810  X282.3885  Y58.4759   
N9815  X278.1431  Y59.0791   
N9820  X280.2488  Y62.4105   
N9825  X282.2277  Y63.9945   
N9830  X285.8846  Y64.8611   
N9835  X304.6267  Y65.1651   
N9840  X311.8397  Y64.7736   
N9845  X314.6080  Y63.9105   
N9850  X313.5190  Y62.4286   
N9855  X310.9007  Y60.4924   
N9860 G0  Z0.1000 
N9865 G1  Z-1.4000  F100.00 
N9870  X308.4621  Y59.3206   F300.00 
N9875  X305.2639  Y58.6337   
N9880  X292.6492  Y58.2276   
N9885  X282.3885  Y58.4759   
N9890  X278.1431  Y59.0791   
N9895  X280.2488  Y62.4105   
N9900  X282.2277  Y63.9945   
N9905  X285.8846  Y64.8611   
N9910  X304.6267  Y65.1651   
N9915  X311.8397  Y64.7736   
N9920  X314.6080  Y63.9105   
N9925  X313.5190  Y62.4286   
N9930  X310.9007  Y60.4924   
N9935 G0  Z3.0000 
N9940 M5
N9945 M30

