N5 (File Name = inter on Friday, November 10, 2023)
N10 (Default Mill Post)
N15  G91.1
N20 G0  Z3.0000 
N25 M3 
N30  X29.4045  Y50.5337 
N35  Z0.1000 
N40 G1  Z-0.7000  F60.00 
N45  X27.4858  Y49.2575   
N50  X25.3036  Y48.8021   
N55  X23.1645  Y49.1735   
N60  X21.3756  Y50.3776   
N65  X20.3125  Y51.8042   
N70  X19.6203  Y53.3377   
N75  X19.3469  Y54.8286   
N80  X19.5401  Y56.1272   
N85  X20.1901  Y56.9633   
N90  X21.0316  Y57.1452   
N95  X21.7602  Y56.7202   
N100  X22.0709  Y55.7354   
N105  X22.3037  Y54.1124   
N110  X22.9432  Y52.8025   
N115  X23.9000  Y51.9272   
N120  X25.0858  Y51.6084   
N125  X26.2650  Y51.7955   
N130  X27.2057  Y52.3006   
N135  X27.8856  Y53.0396   
N140  X28.2820  Y53.9285   
N145  X28.3733  Y54.8828   
N150  X28.1366  Y55.8187   
N155  X27.5501  Y56.6520   
N160  X26.5913  Y57.2984   
N165  X25.5118  Y58.1486   
N170  X24.9044  Y59.2642   
N175  X24.8910  Y60.2345   
N180  X25.5938  Y60.6490   
N185  X26.6666  Y60.3963   
N190  X27.9826  Y59.7483   
N195  X30.2200  Y57.9276   
N200  X30.9723  Y56.2341   
N205  X31.0632  Y54.2214   
N210  X30.5287  Y52.2132   
N215  X29.4045  Y50.5337   
N220 G0  Z0.1000 
N225 G1  Z-1.4000  
N230  X27.4858  Y49.2575   
N235  X25.3036  Y48.8021   
N240  X23.1645  Y49.1735   
N245  X21.3756  Y50.3776   
N250  X20.3125  Y51.8042   
N255  X19.6203  Y53.3377   
N260  X19.3469  Y54.8286   
N265  X19.5401  Y56.1272   
N270  X20.1901  Y56.9633   
N275  X21.0316  Y57.1452   
N280  X21.7602  Y56.7202   
N285  X22.0709  Y55.7354   
N290  X22.3037  Y54.1124   
N295  X22.9432  Y52.8025   
N300  X23.9000  Y51.9272   
N305  X25.0858  Y51.6084   
N310  X26.2650  Y51.7955   
N315  X27.2057  Y52.3006   
N320  X27.8856  Y53.0396   
N325  X28.2820  Y53.9285   
N330  X28.3733  Y54.8828   
N335  X28.1366  Y55.8187   
N340  X27.5501  Y56.6520   
N345  X26.5913  Y57.2984   
N350  X25.5118  Y58.1486   
N355  X24.9044  Y59.2642   
N360  X24.8910  Y60.2345   
N365  X25.5938  Y60.6490   
N370  X26.6666  Y60.3963   
N375  X27.9826  Y59.7483   
N380  X30.2200  Y57.9276   
N385  X30.9723  Y56.2341   
N390  X31.0632  Y54.2214   
N395  X30.5287  Y52.2132   
N400  X29.4045  Y50.5337   
N405 G0  Z3.0000 
N410  X20.3251  Y64.5479 
N415  Z0.1000 
N420 G1  Z-0.7000  
N425  X15.4684  Y62.8514   
N430  X14.6140  Y63.0169   
N435  X14.1697  Y63.7783   
N440  X14.2937  Y64.5477   
N445  X15.2685  Y65.3652   
N450  X19.9218  Y67.2357   
N455  X20.7306  Y67.5835   
N460  X21.1379  Y68.1033   
N465  X21.0172  Y70.4480   
N470  X20.8621  Y72.5902   
N475  X21.0870  Y73.0355   
N480  X21.5333  Y73.1668   
N485  X22.4681  Y72.4961   
N490  X23.5629  Y70.8897   
N495  X24.4727  Y68.9567   
N500  X24.8526  Y67.3061   
N505  X23.5227  Y66.1058   
N510  X20.3251  Y64.5479   
N515 G0  Z0.1000 
N520 G1  Z-1.4000  
N525  X15.4684  Y62.8514   
N530  X14.6140  Y63.0169   
N535  X14.1697  Y63.7783   
N540  X14.2937  Y64.5477   
N545  X15.2685  Y65.3652   
N550  X19.9218  Y67.2357   
N555  X20.7306  Y67.5835   
N560  X21.1379  Y68.1033   
N565  X21.0172  Y70.4480   
N570  X20.8621  Y72.5902   
N575  X21.0870  Y73.0355   
N580  X21.5333  Y73.1668   
N585  X22.4681  Y72.4961   
N590  X23.5629  Y70.8897   
N595  X24.4727  Y68.9567   
N600  X24.8526  Y67.3061   
N605  X23.5227  Y66.1058   
N610  X20.3251  Y64.5479   
N615 G0  Z3.0000 
N620  X19.3592  Y77.0550 
N625  Z0.1000 
N630 G1  Z-0.7000  
N635  X17.3819  Y75.9353   
N640  X14.4829  Y74.9216   
N645  X11.3624  Y74.3241   
N650  X10.7046  Y74.5964   
N655  X10.2316  Y75.2847   
N660  X9.9639  Y75.9938   
N665  X10.1640  Y76.4937   
N670  X12.4998  Y77.3516   
N675  X17.2583  Y78.7917   
N680  X17.8024  Y79.4205   
N685  X17.7650  Y80.3547   
N690  X17.3486  Y81.3140   
N695  X16.3127  Y81.7585   
N700  X14.4522  Y81.7171   
N705  X11.5627  Y81.2178   
N710  X9.4727  Y81.0309   
N715  X8.9444  Y81.2937   
N720  X8.6205  Y81.8227   
N725  X8.6670  Y82.7173   
N730  X9.6199  Y83.4597   
N735  X11.5656  Y84.0905   
N740  X14.5900  Y84.6510   
N745  X17.4470  Y84.7716   
N750  X18.3536  Y84.3969   
N755  X19.2206  Y83.6669   
N760  X20.2545  Y82.0893   
N765  X20.6263  Y80.2719   
N770  X20.3298  Y78.4993   
N775  X19.3592  Y77.0550   
N780 G0  Z0.1000 
N785 G1  Z-1.4000  
N790  X17.3819  Y75.9353   
N795  X14.4829  Y74.9216   
N800  X11.3624  Y74.3241   
N805  X10.7046  Y74.5964   
N810  X10.2316  Y75.2847   
N815  X9.9639  Y75.9938   
N820  X10.1640  Y76.4937   
N825  X12.4998  Y77.3516   
N830  X17.2583  Y78.7917   
N835  X17.8024  Y79.4205   
N840  X17.7650  Y80.3547   
N845  X17.3486  Y81.3140   
N850  X16.3127  Y81.7585   
N855  X14.4522  Y81.7171   
N860  X11.5627  Y81.2178   
N865  X9.4727  Y81.0309   
N870  X8.9444  Y81.2937   
N875  X8.6205  Y81.8227   
N880  X8.6670  Y82.7173   
N885  X9.6199  Y83.4597   
N890  X11.5656  Y84.0905   
N895  X14.5900  Y84.6510   
N900  X17.4470  Y84.7716   
N905  X18.3536  Y84.3969   
N910  X19.2206  Y83.6669   
N915  X20.2545  Y82.0893   
N920  X20.6263  Y80.2719   
N925  X20.3298  Y78.4993   
N930  X19.3592  Y77.0550   
N935 G0  Z3.0000 
N940  X18.4677  Y93.9050 
N945  Z0.1000 
N950 G1  Z-0.7000  
N955  X18.2460  Y91.5957   
N960  X12.5087  Y91.3938   
N965  X6.7714  Y91.1917   
N970  Y93.8938   
N975  X7.1079  Y96.0551   
N980  X8.0147  Y97.6962   
N985  X9.3371  Y98.6383   
N990  X10.9204  Y98.7024   
N995  X12.0328  Y98.6265   
N1000  X12.7230  Y98.9630   
N1005  X13.4920  Y99.4081   
N1010  X14.7938  Y99.5932   
N1015  X16.3391  Y99.1227   
N1020  X17.5655  Y97.8648   
N1025  X18.3244  Y96.0490   
N1030  X18.4677  Y93.9050   
N1035 G0  Z0.1000 
N1040 G1  Z-1.4000  
N1045  X18.2460  Y91.5957   
N1050  X12.5087  Y91.3938   
N1055  X6.7714  Y91.1917   
N1060  Y93.8938   
N1065  X7.1079  Y96.0551   
N1070  X8.0147  Y97.6962   
N1075  X9.3371  Y98.6383   
N1080  X10.9204  Y98.7024   
N1085  X12.0328  Y98.6265   
N1090  X12.7230  Y98.9630   
N1095  X13.4920  Y99.4081   
N1100  X14.7938  Y99.5932   
N1105  X16.3391  Y99.1227   
N1110  X17.5655  Y97.8648   
N1115  X18.3244  Y96.0490   
N1120  X18.4677  Y93.9050   
N1125 G0  Z3.0000 
N1130  X13.7258  Y95.4206 
N1135  Z0.1000 
N1140 G1  Z-0.7000  
N1145  X14.0299  Y96.4058   
N1150  X14.7690  Y96.8113   
N1155  X15.5078  Y96.4058   
N1160  X15.8120  Y95.4206   
N1165  X15.5078  Y94.4353   
N1170  X14.7690  Y94.0296   
N1175  X14.0299  Y94.4353   
N1180  X13.7258  Y95.4206   
N1185 G0  Z0.1000 
N1190 G1  Z-1.4000  
N1195  X14.0299  Y96.4058   
N1200  X14.7690  Y96.8113   
N1205  X15.5078  Y96.4058   
N1210  X15.8120  Y95.4206   
N1215  X15.5078  Y94.4353   
N1220  X14.7690  Y94.0296   
N1225  X14.0299  Y94.4353   
N1230  X13.7258  Y95.4206   
N1235 G0  Z3.0000 
N1240  X9.5531  Y95.1308 
N1245  Z0.1000 
N1250 G1  Z-0.7000  
N1255  X9.7938  Y95.7872   
N1260  X10.3554  Y95.9373   
N1265  X10.9977  Y95.6151   
N1270  X11.4801  Y94.8556   
N1275  X11.3511  Y94.2723   
N1280  X10.6543  Y94.0296   
N1285  X9.8766  Y94.3531   
N1290  X9.5531  Y95.1308   
N1295 G0  Z0.1000 
N1300 G1  Z-1.4000  
N1305  X9.7938  Y95.7872   
N1310  X10.3554  Y95.9373   
N1315  X10.9977  Y95.6151   
N1320  X11.4801  Y94.8556   
N1325  X11.3511  Y94.2723   
N1330  X10.6543  Y94.0296   
N1335  X9.8766  Y94.3531   
N1340  X9.5531  Y95.1308   
N1345 G0  Z3.0000 
N1350  X19.2892  Y114.7967 
N1355  Z0.1000 
N1360 G1  Z-0.7000  
N1365  X19.1064  Y113.9605   
N1370  X18.2523  Y113.6397   
N1375  X12.6906  Y114.4468   
N1380  X9.4232  Y115.3370   
N1385  X8.6270  Y115.8519   
N1390  X8.2933  Y116.4573   
N1395  X8.4752  Y117.3056   
N1400  X9.5776  Y117.6513   
N1405  X11.8016  Y117.5062   
N1410  X15.3483  Y116.8829   
N1415  X18.4800  Y115.9881   
N1420  X19.1088  Y115.4644   
N1425  X19.2892  Y114.7967   
N1430 G0  Z0.1000 
N1435 G1  Z-1.4000  
N1440  X19.1064  Y113.9605   
N1445  X18.2523  Y113.6397   
N1450  X12.6906  Y114.4468   
N1455  X9.4232  Y115.3370   
N1460  X8.6270  Y115.8519   
N1465  X8.2933  Y116.4573   
N1470  X8.4752  Y117.3056   
N1475  X9.5776  Y117.6513   
N1480  X11.8016  Y117.5062   
N1485  X15.3483  Y116.8829   
N1490  X18.4800  Y115.9881   
N1495  X19.1088  Y115.4644   
N1500  X19.2892  Y114.7967   
N1505 G0  Z3.0000 
N1510  X21.3718  Y123.7594 
N1515  Z0.1000 
N1520 G1  Z-0.7000  
N1525  X21.0440  Y122.8774   
N1530  X19.6371  Y122.8242   
N1535  X16.5264  Y123.7150   
N1540  X11.0880  Y125.6662   
N1545  X10.6115  Y125.9787   
N1550  X10.4688  Y126.4088   
N1555  X11.0503  Y127.4810   
N1560  X12.5639  Y128.6013   
N1565  X14.7408  Y129.4888   
N1570  X16.9707  Y130.2499   
N1575  X17.8984  Y130.8381   
N1580  X17.1834  Y131.4254   
N1585  X15.4643  Y132.1837   
N1590  X14.0345  Y132.9066   
N1595  X13.1913  Y133.7592   
N1600  X13.0149  Y134.6084   
N1605  X13.5850  Y135.3209   
N1610  X15.4574  Y135.0352   
N1615  X19.1796  Y133.8674   
N1620  X22.6642  Y132.3834   
N1625  X23.5779  Y131.7266   
N1630  X23.9434  Y131.0995   
N1635  X23.7634  Y130.4821   
N1640  X23.0413  Y129.8541   
N1645  X19.9819  Y128.4850   
N1650  X16.1714  Y127.1153   
N1655  X18.7699  Y126.0459   
N1660  X20.6701  Y124.9367   
N1665  X21.3718  Y123.7594   
N1670 G0  Z0.1000 
N1675 G1  Z-1.4000  
N1680  X21.0440  Y122.8774   
N1685  X19.6371  Y122.8242   
N1690  X16.5264  Y123.7150   
N1695  X11.0880  Y125.6662   
N1700  X10.6115  Y125.9787   
N1705  X10.4688  Y126.4088   
N1710  X11.0503  Y127.4810   
N1715  X12.5639  Y128.6013   
N1720  X14.7408  Y129.4888   
N1725  X16.9707  Y130.2499   
N1730  X17.8984  Y130.8381   
N1735  X17.1834  Y131.4254   
N1740  X15.4643  Y132.1837   
N1745  X14.0345  Y132.9066   
N1750  X13.1913  Y133.7592   
N1755  X13.0149  Y134.6084   
N1760  X13.5850  Y135.3209   
N1765  X15.4574  Y135.0352   
N1770  X19.1796  Y133.8674   
N1775  X22.6642  Y132.3834   
N1780  X23.5779  Y131.7266   
N1785  X23.9434  Y131.0995   
N1790  X23.7634  Y130.4821   
N1795  X23.0413  Y129.8541   
N1800  X19.9819  Y128.4850   
N1805  X16.1714  Y127.1153   
N1810  X18.7699  Y126.0459   
N1815  X20.6701  Y124.9367   
N1820  X21.3718  Y123.7594   
N1825 G0  Z3.0000 
N1830  X28.6195  Y140.3753 
N1835  Z0.1000 
N1840 G1  Z-0.7000  
N1845  X28.1977  Y139.5509   
N1850  X27.5259  Y139.3780   
N1855  X23.8186  Y141.2977   
N1860  X20.8995  Y142.7621   
N1865  X20.2090  Y142.7592   
N1870  X19.7853  Y142.3290   
N1875  X19.0901  Y141.6168   
N1880  X18.2347  Y141.3456   
N1885  X17.5085  Y141.5307   
N1890  X17.2010  Y142.1883   
N1895  X17.7131  Y144.0596   
N1900  X18.9383  Y146.3002   
N1905  X20.4004  Y148.1799   
N1910  X21.6236  Y148.9686   
N1915  X22.5667  Y148.6264   
N1920  X22.4969  Y147.2946   
N1925  X22.3953  Y146.3582   
N1930  X22.7372  Y145.5793   
N1935  X25.3771  Y143.7155   
N1940  X28.8677  Y141.6645   
N1945  X28.6195  Y140.3753   
N1950 G0  Z0.1000 
N1955 G1  Z-1.4000  
N1960  X28.1977  Y139.5509   
N1965  X27.5259  Y139.3780   
N1970  X23.8186  Y141.2977   
N1975  X20.8995  Y142.7621   
N1980  X20.2090  Y142.7592   
N1985  X19.7853  Y142.3290   
N1990  X19.0901  Y141.6168   
N1995  X18.2347  Y141.3456   
N2000  X17.5085  Y141.5307   
N2005  X17.2010  Y142.1883   
N2010  X17.7131  Y144.0596   
N2015  X18.9383  Y146.3002   
N2020  X20.4004  Y148.1799   
N2025  X21.6236  Y148.9686   
N2030  X22.5667  Y148.6264   
N2035  X22.4969  Y147.2946   
N2040  X22.3953  Y146.3582   
N2045  X22.7372  Y145.5793   
N2050  X25.3771  Y143.7155   
N2055  X28.8677  Y141.6645   
N2060  X28.6195  Y140.3753   
N2065 G0  Z3.0000 
N2070  X35.9157  Y150.9744 
N2075  Z0.1000 
N2080 G1  Z-0.7000  
N2085  X33.3132  Y148.2784   
N2090  X28.8456  Y151.4769   
N2095  X24.8526  Y155.0443   
N2100  X26.6265  Y157.7698   
N2105  X28.5659  Y159.6449   
N2110  X29.3704  Y160.0092   
N2115  X29.9866  Y160.0169   
N2120  X30.3559  Y159.6873   
N2125  X30.4199  Y159.0392   
N2130  X29.3974  Y156.8644   
N2135  X28.7922  Y155.6850   
N2140  X28.8504  Y155.0092   
N2145  X29.4597  Y154.9598   
N2150  X30.5076  Y155.6580   
N2155  X31.7097  Y156.3322   
N2160  X32.8484  Y156.3677   
N2165  X33.4064  Y156.0931   
N2170  X33.5910  Y155.7459   
N2175  X32.8365  Y154.2613   
N2180  X32.1931  Y152.8321   
N2185  X32.4281  Y152.1723   
N2190  X33.2901  Y152.3844   
N2195  X34.5289  Y153.5710   
N2200  X35.8952  Y154.8915   
N2205  X36.4294  Y154.9032   
N2210  X37.0131  Y154.5401   
N2215  X37.4856  Y153.9960   
N2220  X37.5020  Y153.3561   
N2225  X35.9157  Y150.9744   
N2230 G0  Z0.1000 
N2235 G1  Z-1.4000  
N2240  X33.3132  Y148.2784   
N2245  X28.8456  Y151.4769   
N2250  X24.8526  Y155.0443   
N2255  X26.6265  Y157.7698   
N2260  X28.5659  Y159.6449   
N2265  X29.3704  Y160.0092   
N2270  X29.9866  Y160.0169   
N2275  X30.3559  Y159.6873   
N2280  X30.4199  Y159.0392   
N2285  X29.3974  Y156.8644   
N2290  X28.7922  Y155.6850   
N2295  X28.8504  Y155.0092   
N2300  X29.4597  Y154.9598   
N2305  X30.5076  Y155.6580   
N2310  X31.7097  Y156.3322   
N2315  X32.8484  Y156.3677   
N2320  X33.4064  Y156.0931   
N2325  X33.5910  Y155.7459   
N2330  X32.8365  Y154.2613   
N2335  X32.1931  Y152.8321   
N2340  X32.4281  Y152.1723   
N2345  X33.2901  Y152.3844   
N2350  X34.5289  Y153.5710   
N2355  X35.8952  Y154.8915   
N2360  X36.4294  Y154.9032   
N2365  X37.0131  Y154.5401   
N2370  X37.4856  Y153.9960   
N2375  X37.5020  Y153.3561   
N2380  X35.9157  Y150.9744   
N2385 G0  Z3.0000 
N2390  X43.4853  Y159.5344 
N2395  Z0.1000 
N2400 G1  Z-0.7000  
N2405  X42.6633  Y158.8941   
N2410  X41.7969  Y159.0468   
N2415  X40.4467  Y160.2645   
N2420  X38.1736  Y162.8183   
N2425  X34.5955  Y166.9320   
N2430  X36.7318  Y168.7295   
N2435  X39.2417  Y170.2084   
N2440  X40.4059  Y170.4634   
N2445  X41.4535  Y170.4078   
N2450  X42.3419  Y170.0506   
N2455  X43.0289  Y169.4005   
N2460  X43.4721  Y168.4669   
N2465  X43.6292  Y167.2585   
N2470  X43.7130  Y166.4686   
N2475  X44.0120  Y165.9772   
N2480  X45.5418  Y165.6483   
N2485  X47.3289  Y165.4804   
N2490  X48.4258  Y165.0430   
N2495  X48.7467  Y164.4011   
N2500  X48.2066  Y163.6201   
N2505  X46.6804  Y163.0827   
N2510  X44.1749  Y163.2390   
N2515  X41.1952  Y163.7312   
N2520  X42.7551  Y162.0476   
N2525  X43.8141  Y160.5429   
N2530  X43.8121  Y160.0148   
N2535  X43.4853  Y159.5344   
N2540 G0  Z0.1000 
N2545 G1  Z-1.4000  
N2550  X42.6633  Y158.8941   
N2555  X41.7969  Y159.0468   
N2560  X40.4467  Y160.2645   
N2565  X38.1736  Y162.8183   
N2570  X34.5955  Y166.9320   
N2575  X36.7318  Y168.7295   
N2580  X39.2417  Y170.2084   
N2585  X40.4059  Y170.4634   
N2590  X41.4535  Y170.4078   
N2595  X42.3419  Y170.0506   
N2600  X43.0289  Y169.4005   
N2605  X43.4721  Y168.4669   
N2610  X43.6292  Y167.2585   
N2615  X43.7130  Y166.4686   
N2620  X44.0120  Y165.9772   
N2625  X45.5418  Y165.6483   
N2630  X47.3289  Y165.4804   
N2635  X48.4258  Y165.0430   
N2640  X48.7467  Y164.4011   
N2645  X48.2066  Y163.6201   
N2650  X46.6804  Y163.0827   
N2655  X44.1749  Y163.2390   
N2660  X41.1952  Y163.7312   
N2665  X42.7551  Y162.0476   
N2670  X43.8141  Y160.5429   
N2675  X43.8121  Y160.0148   
N2680  X43.4853  Y159.5344   
N2685 G0  Z3.0000 
N2690  X38.7613  Y166.7022 
N2695  Z0.1000 
N2700 G1  Z-0.7000  
N2705  X39.1812  Y167.4485   
N2710  X40.2372  Y167.7452   
N2715  X41.2761  Y167.5504   
N2720  X40.8475  Y166.7022   
N2725  X39.3716  Y165.6590   
N2730  X38.9405  Y165.9653   
N2735  X38.7613  Y166.7022   
N2740 G0  Z0.1000 
N2745 G1  Z-1.4000  
N2750  X39.1812  Y167.4485   
N2755  X40.2372  Y167.7452   
N2760  X41.2761  Y167.5504   
N2765  X40.8475  Y166.7022   
N2770  X39.3716  Y165.6590   
N2775  X38.9405  Y165.9653   
N2780  X38.7613  Y166.7022   
N2785 G0  Z3.0000 
N2790  X55.4489  Y169.0366 
N2795  Z0.1000 
N2800 G1  Z-0.7000  
N2805  X55.0965  Y168.3476   
N2810  X54.2496  Y168.1886   
N2815  X53.2401  Y168.5276   
N2820  X52.4001  Y169.3323   
N2825  X48.5249  Y175.8254   
N2830  X48.1354  Y177.0472   
N2835  X48.4157  Y177.6780   
N2840  X49.3115  Y177.9611   
N2845  X50.9264  Y177.8124   
N2850  X55.9364  Y176.2892   
N2855  X56.3638  Y176.2366   
N2860  X56.4423  Y176.5851   
N2865  X55.5021  Y178.7729   
N2870  X54.6726  Y180.8382   
N2875  X54.7420  Y181.7582   
N2880  X56.1479  Y181.9321   
N2885  X57.4573  Y180.6533   
N2890  X59.6273  Y177.4813   
N2895  X61.7723  Y173.5846   
N2900  X61.7541  Y172.8262   
N2905  X61.1493  Y172.3922   
N2910  X59.2760  Y172.3291   
N2915  X56.2790  Y173.1945   
N2920  X52.6698  Y174.3020   
N2925  X54.0582  Y171.7607   
N2930  X55.4489  Y169.0366   
N2935 G0  Z0.1000 
N2940 G1  Z-1.4000  
N2945  X55.0965  Y168.3476   
N2950  X54.2496  Y168.1886   
N2955  X53.2401  Y168.5276   
N2960  X52.4001  Y169.3323   
N2965  X48.5249  Y175.8254   
N2970  X48.1354  Y177.0472   
N2975  X48.4157  Y177.6780   
N2980  X49.3115  Y177.9611   
N2985  X50.9264  Y177.8124   
N2990  X55.9364  Y176.2892   
N2995  X56.3638  Y176.2366   
N3000  X56.4423  Y176.5851   
N3005  X55.5021  Y178.7729   
N3010  X54.6726  Y180.8382   
N3015  X54.7420  Y181.7582   
N3020  X56.1479  Y181.9321   
N3025  X57.4573  Y180.6533   
N3030  X59.6273  Y177.4813   
N3035  X61.7723  Y173.5846   
N3040  X61.7541  Y172.8262   
N3045  X61.1493  Y172.3922   
N3050  X59.2760  Y172.3291   
N3055  X56.2790  Y173.1945   
N3060  X52.6698  Y174.3020   
N3065  X54.0582  Y171.7607   
N3070  X55.4489  Y169.0366   
N3075 G0  Z3.0000 
N3080  X66.0821  Y164.2771 
N3085  Z0.1000 
N3090 G1  Z-0.7000  
N3095  X61.9840  Y162.3107   
N3100  X59.3968  Y161.5019   
N3105  X58.3168  Y161.6919   
N3110  X59.6115  Y162.8436   
N3115  X62.5984  Y164.6966   
N3120  X67.0459  Y166.9652   
N3125  X72.0366  Y169.2109   
N3130  X76.6530  Y170.9945   
N3135  X82.0098  Y172.5605   
N3140  X87.5902  Y173.6960   
N3145  X93.3241  Y174.4003   
N3150  X99.1412  Y174.6730   
N3155  X104.9711  Y174.5129   
N3160  X110.7439  Y173.9197   
N3165  X116.3891  Y172.8927   
N3170  X121.8364  Y171.4310   
N3175  X126.8037  Y169.6187   
N3180  X132.1920  Y167.2794   
N3185  X137.0188  Y164.8701   
N3190  X140.3010  Y162.8477   
N3195  X141.4563  Y161.6249   
N3200  X141.2200  Y161.4323   
N3205  X140.5129  Y161.5035   
N3210  X137.9035  Y162.3902   
N3215  X134.0600  Y164.1917   
N3220  X125.7132  Y167.8988   
N3225  X117.1400  Y170.5498   
N3230  X108.4323  Y172.1448   
N3235  X99.6815  Y172.6839   
N3240  X90.9794  Y172.1668   
N3245  X82.4179  Y170.5933   
N3250  X74.0882  Y167.9634   
N3255  X66.0821  Y164.2771   
N3260 G0  Z0.1000 
N3265 G1  Z-1.4000  
N3270  X61.9840  Y162.3107   
N3275  X59.3968  Y161.5019   
N3280  X58.3168  Y161.6919   
N3285  X59.6115  Y162.8436   
N3290  X62.5984  Y164.6966   
N3295  X67.0459  Y166.9652   
N3300  X72.0366  Y169.2109   
N3305  X76.6530  Y170.9945   
N3310  X82.0098  Y172.5605   
N3315  X87.5902  Y173.6960   
N3320  X93.3241  Y174.4003   
N3325  X99.1412  Y174.6730   
N3330  X104.9711  Y174.5129   
N3335  X110.7439  Y173.9197   
N3340  X116.3891  Y172.8927   
N3345  X121.8364  Y171.4310   
N3350  X126.8037  Y169.6187   
N3355  X132.1920  Y167.2794   
N3360  X137.0188  Y164.8701   
N3365  X140.3010  Y162.8477   
N3370  X141.4563  Y161.6249   
N3375  X141.2200  Y161.4323   
N3380  X140.5129  Y161.5035   
N3385  X137.9035  Y162.3902   
N3390  X134.0600  Y164.1917   
N3395  X125.7132  Y167.8988   
N3400  X117.1400  Y170.5498   
N3405  X108.4323  Y172.1448   
N3410  X99.6815  Y172.6839   
N3415  X90.9794  Y172.1668   
N3420  X82.4179  Y170.5933   
N3425  X74.0882  Y167.9634   
N3430  X66.0821  Y164.2771   
N3435 G0  Z3.0000 
N3440  X69.2161  Y177.1733 
N3445  Z0.1000 
N3450 G1  Z-0.7000  
N3455  X68.6838  Y176.0990   
N3460  X67.6901  Y175.5046   
N3465  X66.9858  Y175.4709   
N3470  X66.6457  Y175.8768   
N3475  X66.8148  Y178.9747   
N3480  X67.2679  Y184.9789   
N3485  X67.6148  Y187.0935   
N3490  X68.0631  Y187.5680   
N3495  X68.7124  Y187.6512   
N3500  X70.6681  Y186.6360   
N3505  X73.5892  Y184.0319   
N3510  X77.7053  Y179.4898   
N3515  X77.3169  Y178.8663   
N3520  X76.3930  Y178.5675   
N3525  X75.2960  Y178.6347   
N3530  X74.3880  Y179.1096   
N3535  X73.0516  Y179.6499   
N3540  X71.4029  Y179.3796   
N3545  X69.9536  Y178.4902   
N3550  X69.2161  Y177.1733   
N3555 G0  Z0.1000 
N3560 G1  Z-1.4000  
N3565  X68.6838  Y176.0990   
N3570  X67.6901  Y175.5046   
N3575  X66.9858  Y175.4709   
N3580  X66.6457  Y175.8768   
N3585  X66.8148  Y178.9747   
N3590  X67.2679  Y184.9789   
N3595  X67.6148  Y187.0935   
N3600  X68.0631  Y187.5680   
N3605  X68.7124  Y187.6512   
N3610  X70.6681  Y186.6360   
N3615  X73.5892  Y184.0319   
N3620  X77.7053  Y179.4898   
N3625  X77.3169  Y178.8663   
N3630  X76.3930  Y178.5675   
N3635  X75.2960  Y178.6347   
N3640  X74.3880  Y179.1096   
N3645  X73.0516  Y179.6499   
N3650  X71.4029  Y179.3796   
N3655  X69.9536  Y178.4902   
N3660  X69.2161  Y177.1733   
N3665 G0  Z3.0000 
N3670  X69.5920  Y182.7162 
N3675  Z0.1000 
N3680 G1  Z-0.7000  
N3685  X69.7976  Y183.3638   
N3690  X70.2820  Y183.5217   
N3695  X70.8450  Y183.2177   
N3700  X71.2871  Y182.4797   
N3705  X71.1921  Y181.8964   
N3710  X70.5771  Y181.6539   
N3715  X69.8814  Y181.9660   
N3720  X69.5920  Y182.7162   
N3725 G0  Z0.1000 
N3730 G1  Z-1.4000  
N3735  X69.7976  Y183.3638   
N3740  X70.2820  Y183.5217   
N3745  X70.8450  Y183.2177   
N3750  X71.2871  Y182.4797   
N3755  X71.1921  Y181.8964   
N3760  X70.5771  Y181.6539   
N3765  X69.8814  Y181.9660   
N3770  X69.5920  Y182.7162   
N3775 G0  Z3.0000 
N3780  X90.7638  Y182.0411 
N3785  Z0.1000 
N3790 G1  Z-0.7000  
N3795  X89.2544  Y181.2798   
N3800  X87.6539  Y180.9764   
N3805  X86.0522  Y181.0897   
N3810  X84.5394  Y181.5780   
N3815  X83.2060  Y182.3999   
N3820  X82.1419  Y183.5136   
N3825  X81.4374  Y184.8780   
N3830  X81.1825  Y186.4515   
N3835  X81.4360  Y188.1048   
N3840  X82.1324  Y189.5707   
N3845  X83.1762  Y190.7960   
N3850  X84.4714  Y191.7278   
N3855  X85.9221  Y192.3133   
N3860  X87.4325  Y192.4994   
N3865  X88.9068  Y192.2331   
N3870  X90.2491  Y191.4613   
N3875  X91.4472  Y190.1737   
N3880  X91.3966  Y189.7575   
N3885  X90.9560  Y189.3662   
N3890  X89.8783  Y189.0573   
N3895  X88.6695  Y189.3907   
N3900  X87.5847  Y189.7376   
N3905  X86.5369  Y189.6706   
N3910  X85.5911  Y189.2645   
N3915  X84.8122  Y188.5945   
N3920  X84.2654  Y187.7356   
N3925  X84.0156  Y186.7625   
N3930  X84.1278  Y185.7505   
N3935  X84.6671  Y184.7743   
N3940  X85.7303  Y184.0305   
N3945  X87.0847  Y183.7760   
N3950  X88.4369  Y184.0124   
N3955  X89.4933  Y184.7420   
N3960  X90.3356  Y185.3136   
N3965  X91.2590  Y185.3469   
N3970  X92.0035  Y184.9056   
N3975  X92.3093  Y184.0530   
N3980  X91.8553  Y183.0786   
N3985  X90.7638  Y182.0411   
N3990 G0  Z0.1000 
N3995 G1  Z-1.4000  
N4000  X89.2544  Y181.2798   
N4005  X87.6539  Y180.9764   
N4010  X86.0522  Y181.0897   
N4015  X84.5394  Y181.5780   
N4020  X83.2060  Y182.3999   
N4025  X82.1419  Y183.5136   
N4030  X81.4374  Y184.8780   
N4035  X81.1825  Y186.4515   
N4040  X81.4360  Y188.1048   
N4045  X82.1324  Y189.5707   
N4050  X83.1762  Y190.7960   
N4055  X84.4714  Y191.7278   
N4060  X85.9221  Y192.3133   
N4065  X87.4325  Y192.4994   
N4070  X88.9068  Y192.2331   
N4075  X90.2491  Y191.4613   
N4080  X91.4472  Y190.1737   
N4085  X91.3966  Y189.7575   
N4090  X90.9560  Y189.3662   
N4095  X89.8783  Y189.0573   
N4100  X88.6695  Y189.3907   
N4105  X87.5847  Y189.7376   
N4110  X86.5369  Y189.6706   
N4115  X85.5911  Y189.2645   
N4120  X84.8122  Y188.5945   
N4125  X84.2654  Y187.7356   
N4130  X84.0156  Y186.7625   
N4135  X84.1278  Y185.7505   
N4140  X84.6671  Y184.7743   
N4145  X85.7303  Y184.0305   
N4150  X87.0847  Y183.7760   
N4155  X88.4369  Y184.0124   
N4160  X89.4933  Y184.7420   
N4165  X90.3356  Y185.3136   
N4170  X91.2590  Y185.3469   
N4175  X92.0035  Y184.9056   
N4180  X92.3093  Y184.0530   
N4185  X91.8553  Y183.0786   
N4190  X90.7638  Y182.0411   
N4195 G0  Z3.0000 
N4200  X101.2042  Y187.7949 
N4205  Z0.1000 
N4210 G1  Z-0.7000  
N4215  X100.9714  Y184.5271   
N4220  X100.5422  Y182.5106   
N4225  X99.9045  Y181.7133   
N4230  X99.0464  Y182.1030   
N4235  X98.7087  Y184.0410   
N4240  X98.5682  Y188.0287   
N4245  X98.7874  Y192.6348   
N4250  X99.2138  Y193.3309   
N4255  X99.9871  Y193.4762   
N4260  X100.7646  Y193.3368   
N4265  X101.1649  Y192.6309   
N4270  X101.2042  Y187.7949   
N4275 G0  Z0.1000 
N4280 G1  Z-1.4000  
N4285  X100.9714  Y184.5271   
N4290  X100.5422  Y182.5106   
N4295  X99.9045  Y181.7133   
N4300  X99.0464  Y182.1030   
N4305  X98.7087  Y184.0410   
N4310  X98.5682  Y188.0287   
N4315  X98.7874  Y192.6348   
N4320  X99.2138  Y193.3309   
N4325  X99.9871  Y193.4762   
N4330  X100.7646  Y193.3368   
N4335  X101.1649  Y192.6309   
N4340  X101.2042  Y187.7949   
N4345 G0  Z3.0000 
N4350  X110.3656  Y185.1776 
N4355  Z0.1000 
N4360 G1  Z-0.7000  
N4365  X109.9873  Y186.6681   
N4370  X110.7049  Y188.3071   
N4375  X111.5511  Y189.3980   
N4380  X112.3680  Y189.8947   
N4385  X113.3292  Y189.8407   
N4390  X114.6088  Y189.2791   
N4395  X115.5026  Y188.3843   
N4400  X115.9071  Y187.1042   
N4405  X115.7900  Y185.7355   
N4410  X115.1194  Y184.5746   
N4415  X113.9425  Y183.8925   
N4420  X112.5689  Y183.7896   
N4425  X111.2819  Y184.2300   
N4430  X110.3656  Y185.1776   
N4435 G0  Z0.1000 
N4440 G1  Z-1.4000  
N4445  X109.9873  Y186.6681   
N4450  X110.7049  Y188.3071   
N4455  X111.5511  Y189.3980   
N4460  X112.3680  Y189.8947   
N4465  X113.3292  Y189.8407   
N4470  X114.6088  Y189.2791   
N4475  X115.5026  Y188.3843   
N4480  X115.9071  Y187.1042   
N4485  X115.7900  Y185.7355   
N4490  X115.1194  Y184.5746   
N4495  X113.9425  Y183.8925   
N4500  X112.5689  Y183.7896   
N4505  X111.2819  Y184.2300   
N4510  X110.3656  Y185.1776   
N4515 G0  Z3.0000 
N4520  X117.2943  Y182.7908 
N4525  Z0.1000 
N4530 G1  Z-0.7000  
N4535  X116.1228  Y181.6989   
N4540  X114.7582  Y181.0684   
N4545  X113.2861  Y180.8749   
N4550  X111.7922  Y181.0945   
N4555  X110.3617  Y181.7026   
N4560  X109.0799  Y182.6754   
N4565  X108.0326  Y183.9885   
N4570  X107.3052  Y185.6178   
N4575  X107.2600  Y187.3855   
N4580  X107.9811  Y189.2556   
N4585  X109.2883  Y190.9151   
N4590  X111.0019  Y192.0506   
N4595  X113.0251  Y192.5130   
N4600  X114.8678  Y192.2583   
N4605  X116.4437  Y191.4138   
N4610  X117.6661  Y190.1063   
N4615  X118.4487  Y188.4630   
N4620  X118.7054  Y186.6113   
N4625  X118.3494  Y184.6783   
N4630  X117.2943  Y182.7908   
N4635 G0  Z0.1000 
N4640 G1  Z-1.4000  
N4645  X116.1228  Y181.6989   
N4650  X114.7582  Y181.0684   
N4655  X113.2861  Y180.8749   
N4660  X111.7922  Y181.0945   
N4665  X110.3617  Y181.7026   
N4670  X109.0799  Y182.6754   
N4675  X108.0326  Y183.9885   
N4680  X107.3052  Y185.6178   
N4685  X107.2600  Y187.3855   
N4690  X107.9811  Y189.2556   
N4695  X109.2883  Y190.9151   
N4700  X111.0019  Y192.0506   
N4705  X113.0251  Y192.5130   
N4710  X114.8678  Y192.2583   
N4715  X116.4437  Y191.4138   
N4720  X117.6661  Y190.1063   
N4725  X118.4487  Y188.4630   
N4730  X118.7054  Y186.6113   
N4735  X118.3494  Y184.6783   
N4740  X117.2943  Y182.7908   
N4745 G0  Z3.0000 
N4750  X134.3062  Y181.2843 
N4755  Z0.1000 
N4760 G1  Z-0.7000  
N4765  X131.9977  Y175.8719   
N4770  X131.1945  Y175.7331   
N4775  X130.2497  Y176.6056   
N4780  X129.2922  Y178.3137   
N4785  X128.4515  Y180.6827   
N4790  X127.5236  Y183.9972   
N4795  X126.2876  Y181.0870   
N4800  X125.4184  Y179.3394   
N4805  X124.6309  Y178.3928   
N4810  X123.9139  Y178.2394   
N4815  X123.2565  Y178.8712   
N4820  X123.4140  Y180.7919   
N4825  X124.3955  Y184.4346   
N4830  X125.8157  Y188.0104   
N4835  X126.4721  Y188.9647   
N4840  X127.1059  Y189.3660   
N4845  X127.7264  Y189.2160   
N4850  X128.3435  Y188.5170   
N4855  X129.6063  Y185.4788   
N4860  X130.5925  Y182.7774   
N4865  X131.2702  Y181.6539   
N4870  X131.8388  Y182.4710   
N4875  X132.5620  Y184.4356   
N4880  X133.1343  Y186.1179   
N4885  X133.6681  Y186.9660   
N4890  X134.3135  Y187.1059   
N4895  X135.2209  Y186.6634   
N4900  X135.5277  Y186.1650   
N4905  X135.4916  Y185.1857   
N4910  X134.3062  Y181.2843   
N4915 G0  Z0.1000 
N4920 G1  Z-1.4000  
N4925  X131.9977  Y175.8719   
N4930  X131.1945  Y175.7331   
N4935  X130.2497  Y176.6056   
N4940  X129.2922  Y178.3137   
N4945  X128.4515  Y180.6827   
N4950  X127.5236  Y183.9972   
N4955  X126.2876  Y181.0870   
N4960  X125.4184  Y179.3394   
N4965  X124.6309  Y178.3928   
N4970  X123.9139  Y178.2394   
N4975  X123.2565  Y178.8712   
N4980  X123.4140  Y180.7919   
N4985  X124.3955  Y184.4346   
N4990  X125.8157  Y188.0104   
N4995  X126.4721  Y188.9647   
N5000  X127.1059  Y189.3660   
N5005  X127.7264  Y189.2160   
N5010  X128.3435  Y188.5170   
N5015  X129.6063  Y185.4788   
N5020  X130.5925  Y182.7774   
N5025  X131.2702  Y181.6539   
N5030  X131.8388  Y182.4710   
N5035  X132.5620  Y184.4356   
N5040  X133.1343  Y186.1179   
N5045  X133.6681  Y186.9660   
N5050  X134.3135  Y187.1059   
N5055  X135.2209  Y186.6634   
N5060  X135.5277  Y186.1650   
N5065  X135.4916  Y185.1857   
N5070  X134.3062  Y181.2843   
N5075 G0  Z3.0000 
N5080  X144.0813  Y174.7601 
N5085  Z0.1000 
N5090 G1  Z-0.7000  
N5095  X143.9788  Y175.5214   
N5100  X144.3881  Y176.2902   
N5105  X144.9881  Y176.5465   
N5110  X145.1620  Y175.5340   
N5115  X144.8915  Y174.0810   
N5120  X144.5537  Y174.1539   
N5125  X144.0813  Y174.7601   
N5130 G0  Z0.1000 
N5135 G1  Z-1.4000  
N5140  X143.9788  Y175.5214   
N5145  X144.3881  Y176.2902   
N5150  X144.9881  Y176.5465   
N5155  X145.1620  Y175.5340   
N5160  X144.8915  Y174.0810   
N5165  X144.5537  Y174.1539   
N5170  X144.0813  Y174.7601   
N5175 G0  Z3.0000 
N5180  X147.7718  Y173.4825 
N5185  Z0.1000 
N5190 G1  Z-0.7000  
N5195  X147.1110  Y169.4468   
N5200  X146.6036  Y167.8002   
N5205  X145.6643  Y168.0551   
N5210  X144.9970  Y168.5256   
N5215  X144.5988  Y169.2148   
N5220  X144.4665  Y170.1256   
N5225  X144.0455  Y171.4077   
N5230  X142.9265  Y172.3622   
N5235  X141.3255  Y172.8728   
N5240  X139.4584  Y172.8231   
N5245  X137.6776  Y172.7712   
N5250  X137.3819  Y173.0671   
N5255  X137.4789  Y173.5692   
N5260  X138.8385  Y175.1674   
N5265  X141.7323  Y177.5166   
N5270  X145.9318  Y180.3278   
N5275  X146.9277  Y180.5581   
N5280  X147.5950  Y180.1904   
N5285  X148.0369  Y179.4668   
N5290  X148.2088  Y178.2962   
N5295  X147.7718  Y173.4825   
N5300 G0  Z0.1000 
N5305 G1  Z-1.4000  
N5310  X147.1110  Y169.4468   
N5315  X146.6036  Y167.8002   
N5320  X145.6643  Y168.0551   
N5325  X144.9970  Y168.5256   
N5330  X144.5988  Y169.2148   
N5335  X144.4665  Y170.1256   
N5340  X144.0455  Y171.4077   
N5345  X142.9265  Y172.3622   
N5350  X141.3255  Y172.8728   
N5355  X139.4584  Y172.8231   
N5360  X137.6776  Y172.7712   
N5365  X137.3819  Y173.0671   
N5370  X137.4789  Y173.5692   
N5375  X138.8385  Y175.1674   
N5380  X141.7323  Y177.5166   
N5385  X145.9318  Y180.3278   
N5390  X146.9277  Y180.5581   
N5395  X147.5950  Y180.1904   
N5400  X148.0369  Y179.4668   
N5405  X148.2088  Y178.2962   
N5410  X147.7718  Y173.4825   
N5415 G0  Z3.0000 
N5420  X157.4016  Y160.9036 
N5425  Z0.1000 
N5430 G1  Z-0.7000  
N5435  X156.6809  Y160.2275   
N5440  X155.7341  Y160.2393   
N5445  X154.5044  Y160.9578   
N5450  X152.9350  Y162.4022   
N5455  X150.6994  Y164.7090   
N5460  X154.0157  Y168.6157   
N5465  X156.6011  Y171.3882   
N5470  X158.1604  Y172.5680   
N5475  X159.1474  Y172.3291   
N5480  X159.3402  Y171.4903   
N5485  X158.7470  Y170.0962   
N5490  X157.3754  Y168.1913   
N5495  X154.8981  Y164.6558   
N5500  X156.3996  Y162.9276   
N5505  X157.3228  Y161.8295   
N5510  X157.4016  Y160.9036   
N5515 G0  Z0.1000 
N5520 G1  Z-1.4000  
N5525  X156.6809  Y160.2275   
N5530  X155.7341  Y160.2393   
N5535  X154.5044  Y160.9578   
N5540  X152.9350  Y162.4022   
N5545  X150.6994  Y164.7090   
N5550  X154.0157  Y168.6157   
N5555  X156.6011  Y171.3882   
N5560  X158.1604  Y172.5680   
N5565  X159.1474  Y172.3291   
N5570  X159.3402  Y171.4903   
N5575  X158.7470  Y170.0962   
N5580  X157.3754  Y168.1913   
N5585  X154.8981  Y164.6558   
N5590  X156.3996  Y162.9276   
N5595  X157.3228  Y161.8295   
N5600  X157.4016  Y160.9036   
N5605 G0  Z3.0000 
N5610  X168.8791  Y148.9090 
N5615  Z0.1000 
N5620 G1  Z-0.7000  
N5625  X168.2550  Y149.6445   
N5630  X168.3804  Y150.5434   
N5635  X169.2304  Y151.5577   
N5640  X170.7808  Y152.6385   
N5645  X172.7306  Y153.5134   
N5650  X173.2089  Y153.2179   
N5655  X173.6956  Y152.4069   
N5660  X174.0003  Y151.4359   
N5665  X173.9097  Y150.5182   
N5670  X173.4919  Y149.7039   
N5675  X172.8150  Y149.0419   
N5680  X170.9565  Y148.3734   
N5685  X169.9111  Y148.4661   
N5690  X168.8791  Y148.9090   
N5695 G0  Z0.1000 
N5700 G1  Z-1.4000  
N5705  X168.2550  Y149.6445   
N5710  X168.3804  Y150.5434   
N5715  X169.2304  Y151.5577   
N5720  X170.7808  Y152.6385   
N5725  X172.7306  Y153.5134   
N5730  X173.2089  Y153.2179   
N5735  X173.6956  Y152.4069   
N5740  X174.0003  Y151.4359   
N5745  X173.9097  Y150.5182   
N5750  X173.4919  Y149.7039   
N5755  X172.8150  Y149.0419   
N5760  X170.9565  Y148.3734   
N5765  X169.9111  Y148.4661   
N5770  X168.8791  Y148.9090   
N5775 G0  Z3.0000 
N5780  X174.6241  Y146.9328 
N5785  Z0.1000 
N5790 G1  Z-0.7000  
N5795  X172.5733  Y145.7824   
N5800  X170.5224  Y145.5271   
N5805  X168.5215  Y146.1626   
N5810  X166.6212  Y147.6841   
N5815  X165.2346  Y149.5286   
N5820  X164.7774  Y150.8847   
N5825  X166.1191  Y152.4398   
N5830  X169.0575  Y154.7632   
N5835  X173.1334  Y157.6334   
N5840  X174.7914  Y155.5612   
N5845  X176.0929  Y153.2497   
N5850  X176.4956  Y150.8687   
N5855  X176.0042  Y148.6768   
N5860  X174.6241  Y146.9328   
N5865 G0  Z0.1000 
N5870 G1  Z-1.4000  
N5875  X172.5733  Y145.7824   
N5880  X170.5224  Y145.5271   
N5885  X168.5215  Y146.1626   
N5890  X166.6212  Y147.6841   
N5895  X165.2346  Y149.5286   
N5900  X164.7774  Y150.8847   
N5905  X166.1191  Y152.4398   
N5910  X169.0575  Y154.7632   
N5915  X173.1334  Y157.6334   
N5920  X174.7914  Y155.5612   
N5925  X176.0929  Y153.2497   
N5930  X176.4956  Y150.8687   
N5935  X176.0042  Y148.6768   
N5940  X174.6241  Y146.9328   
N5945 G0  Z3.0000 
N5950  X176.7953  Y133.6549 
N5955  Z0.1000 
N5960 G1  Z-0.7000  
N5965  X176.1723  Y133.0499   
N5970  X175.4705  Y133.1781   
N5975  X174.6546  Y134.0628   
N5980  X173.6887  Y135.7278   
N5985  X172.2837  Y138.8485   
N5990  X177.0866  Y141.6338   
N5995  X180.1453  Y143.0815   
N6000  X181.9179  Y143.4028   
N6005  X182.5136  Y143.1004   
N6010  X183.0175  Y142.4674   
N6015  X184.0565  Y140.1439   
N6020  X184.5460  Y137.9196   
N6025  X184.1784  Y136.6347   
N6030  X183.7725  Y136.4469   
N6035  X183.2722  Y136.6160   
N6040  X182.1463  Y138.1895   
N6045  X181.2981  Y139.5456   
N6050  X180.5768  Y139.9158   
N6055  X180.1741  Y139.3360   
N6060  X180.2813  Y137.8418   
N6065  X180.4181  Y136.1930   
N6070  X180.1624  Y135.8543   
N6075  X179.6655  Y135.7555   
N6080  X178.6767  Y136.1861   
N6085  X177.8073  Y137.2210   
N6090  X177.0452  Y138.1463   
N6095  X176.3275  Y137.9912   
N6100  X176.0040  Y137.0996   
N6105  X176.4241  Y135.8159   
N6110  X176.8597  Y134.5706   
N6115  X176.7953  Y133.6549   
N6120 G0  Z0.1000 
N6125 G1  Z-1.4000  
N6130  X176.1723  Y133.0499   
N6135  X175.4705  Y133.1781   
N6140  X174.6546  Y134.0628   
N6145  X173.6887  Y135.7278   
N6150  X172.2837  Y138.8485   
N6155  X177.0866  Y141.6338   
N6160  X180.1453  Y143.0815   
N6165  X181.9179  Y143.4028   
N6170  X182.5136  Y143.1004   
N6175  X183.0175  Y142.4674   
N6180  X184.0565  Y140.1439   
N6185  X184.5460  Y137.9196   
N6190  X184.1784  Y136.6347   
N6195  X183.7725  Y136.4469   
N6200  X183.2722  Y136.6160   
N6205  X182.1463  Y138.1895   
N6210  X181.2981  Y139.5456   
N6215  X180.5768  Y139.9158   
N6220  X180.1741  Y139.3360   
N6225  X180.2813  Y137.8418   
N6230  X180.4181  Y136.1930   
N6235  X180.1624  Y135.8543   
N6240  X179.6655  Y135.7555   
N6245  X178.6767  Y136.1861   
N6250  X177.8073  Y137.2210   
N6255  X177.0452  Y138.1463   
N6260  X176.3275  Y137.9912   
N6265  X176.0040  Y137.0996   
N6270  X176.4241  Y135.8159   
N6275  X176.8597  Y134.5706   
N6280  X176.7953  Y133.6549   
N6285 G0  Z3.0000 
N6290  X186.8877  Y118.3697 
N6295  Z0.1000 
N6300 G1  Z-0.7000  
N6305  X186.5674  Y116.9109   
N6310  X185.8175  Y116.2627   
N6315  X184.9549  Y116.5048   
N6320  X184.2964  Y117.7170   
N6325  X184.0147  Y118.4063   
N6330  X183.5554  Y118.8118   
N6335  X181.7643  Y118.9340   
N6340  X180.0402  Y119.0306   
N6345  X179.5994  Y119.3581   
N6350  X179.3788  Y119.8958   
N6355  X179.6911  Y120.7622   
N6360  X181.0515  Y121.5324   
N6365  X183.5574  Y122.2441   
N6370  X187.3064  Y122.9342   
N6375  X190.1591  Y123.3827   
N6380  X190.9169  Y120.3966   
N6385  X191.3500  Y118.1221   
N6390  X191.3265  Y116.8470   
N6395  X190.6342  Y116.2750   
N6400  X189.8433  Y116.4001   
N6405  X189.1190  Y117.1293   
N6410  X188.6264  Y118.3697   
N6415  X188.1147  Y119.8432   
N6420  X187.5280  Y120.4561   
N6425  X187.0758  Y119.8432   
N6430  X186.8877  Y118.3697   
N6435 G0  Z0.1000 
N6440 G1  Z-1.4000  
N6445  X186.5674  Y116.9109   
N6450  X185.8175  Y116.2627   
N6455  X184.9549  Y116.5048   
N6460  X184.2964  Y117.7170   
N6465  X184.0147  Y118.4063   
N6470  X183.5554  Y118.8118   
N6475  X181.7643  Y118.9340   
N6480  X180.0402  Y119.0306   
N6485  X179.5994  Y119.3581   
N6490  X179.3788  Y119.8958   
N6495  X179.6911  Y120.7622   
N6500  X181.0515  Y121.5324   
N6505  X183.5574  Y122.2441   
N6510  X187.3064  Y122.9342   
N6515  X190.1591  Y123.3827   
N6520  X190.9169  Y120.3966   
N6525  X191.3500  Y118.1221   
N6530  X191.3265  Y116.8470   
N6535  X190.6342  Y116.2750   
N6540  X189.8433  Y116.4001   
N6545  X189.1190  Y117.1293   
N6550  X188.6264  Y118.3697   
N6555  X188.1147  Y119.8432   
N6560  X187.5280  Y120.4561   
N6565  X187.0758  Y119.8432   
N6570  X186.8877  Y118.3697   
N6575 G0  Z3.0000 
N6580  X196.4929  Y104.9747 
N6585  Z0.1000 
N6590 G1  Z-0.7000  
N6595  X196.4891  Y104.1371   
N6600  X196.1532  Y103.8207   
N6605  X194.4705  Y104.4091   
N6610  X194.0055  Y104.9491   
N6615  X193.8421  Y105.6132   
N6620  X194.2154  Y106.3337   
N6625  X195.0584  Y106.4009   
N6630  X195.9561  Y105.9146   
N6635  X196.4929  Y104.9747   
N6640 G0  Z0.1000 
N6645 G1  Z-1.4000  
N6650  X196.4891  Y104.1371   
N6655  X196.1532  Y103.8207   
N6660  X194.4705  Y104.4091   
N6665  X194.0055  Y104.9491   
N6670  X193.8421  Y105.6132   
N6675  X194.2154  Y106.3337   
N6680  X195.0584  Y106.4009   
N6685  X195.9561  Y105.9146   
N6690  X196.4929  Y104.9747   
N6695 G0  Z3.0000 
N6700  X193.1466  Y102.3749 
N6705  Z0.1000 
N6710 G1  Z-0.7000  
N6715  X193.0108  Y101.6310   
N6720  X192.4078  Y101.2113   
N6725  X188.6264  Y100.9840   
N6730  X185.3600  Y101.2472   
N6735  X183.0861  Y102.0560   
N6740  X181.7568  Y103.4396   
N6745  X181.3243  Y105.4273   
N6750  X181.7152  Y107.4374   
N6755  X182.9319  Y108.9163   
N6760  X185.0398  Y109.9130   
N6765  X188.1048  Y110.4760   
N6770  X191.7931  Y110.6390   
N6775  X192.3403  Y110.2739   
N6780  X192.4513  Y109.5168   
N6785  X192.3167  Y108.7888   
N6790  X191.7990  Y108.3125   
N6795  X188.9331  Y107.7773   
N6800  X186.4982  Y107.3998   
N6805  X184.9493  Y106.8050   
N6810  X184.2440  Y105.9660   
N6815  X184.3396  Y104.8556   
N6820  X184.7483  Y104.3381   
N6825  X185.5768  Y104.0020   
N6830  X188.9523  Y103.7657   
N6835  X192.4486  Y103.5343   
N6840  X193.0159  Y103.1142   
N6845  X193.1466  Y102.3749   
N6850 G0  Z0.1000 
N6855 G1  Z-1.4000  
N6860  X193.0108  Y101.6310   
N6865  X192.4078  Y101.2113   
N6870  X188.6264  Y100.9840   
N6875  X185.3600  Y101.2472   
N6880  X183.0861  Y102.0560   
N6885  X181.7568  Y103.4396   
N6890  X181.3243  Y105.4273   
N6895  X181.7152  Y107.4374   
N6900  X182.9319  Y108.9163   
N6905  X185.0398  Y109.9130   
N6910  X188.1048  Y110.4760   
N6915  X191.7931  Y110.6390   
N6920  X192.3403  Y110.2739   
N6925  X192.4513  Y109.5168   
N6930  X192.3167  Y108.7888   
N6935  X191.7990  Y108.3125   
N6940  X188.9331  Y107.7773   
N6945  X186.4982  Y107.3998   
N6950  X184.9493  Y106.8050   
N6955  X184.2440  Y105.9660   
N6960  X184.3396  Y104.8556   
N6965  X184.7483  Y104.3381   
N6970  X185.5768  Y104.0020   
N6975  X188.9523  Y103.7657   
N6980  X192.4486  Y103.5343   
N6985  X193.0159  Y103.1142   
N6990  X193.1466  Y102.3749   
N6995 G0  Z3.0000 
N7000  X192.4588  Y88.6401 
N7005  Z0.1000 
N7010 G1  Z-0.7000  
N7015  X192.1239  Y87.4459   
N7020  X191.0604  Y87.0755   
N7025  X189.9825  Y87.4666   
N7030  X189.6696  Y88.8140   
N7035  X189.5850  Y89.7572   
N7040  X189.1884  Y90.2804   
N7045  X186.5969  Y90.5527   
N7050  X184.1983  Y90.6554   
N7055  X182.5607  Y90.9777   
N7060  X181.6232  Y91.5407   
N7065  X181.3243  Y92.3655   
N7070  X181.5526  Y92.8244   
N7075  X182.3094  Y93.1232   
N7080  X185.8447  Y93.3344   
N7085  X189.4378  Y93.5482   
N7090  X190.1585  Y93.8684   
N7095  X190.3649  Y94.3774   
N7100  X190.7858  Y95.1243   
N7105  X191.8467  Y95.4206   
N7110  X192.6244  Y95.3411   
N7115  X193.0137  Y94.9912   
N7120  X192.8976  Y92.8127   
N7125  X192.4588  Y88.6401   
N7130 G0  Z0.1000 
N7135 G1  Z-1.4000  
N7140  X192.1239  Y87.4459   
N7145  X191.0604  Y87.0755   
N7150  X189.9825  Y87.4666   
N7155  X189.6696  Y88.8140   
N7160  X189.5850  Y89.7572   
N7165  X189.1884  Y90.2804   
N7170  X186.5969  Y90.5527   
N7175  X184.1983  Y90.6554   
N7180  X182.5607  Y90.9777   
N7185  X181.6232  Y91.5407   
N7190  X181.3243  Y92.3655   
N7195  X181.5526  Y92.8244   
N7200  X182.3094  Y93.1232   
N7205  X185.8447  Y93.3344   
N7210  X189.4378  Y93.5482   
N7215  X190.1585  Y93.8684   
N7220  X190.3649  Y94.3774   
N7225  X190.7858  Y95.1243   
N7230  X191.8467  Y95.4206   
N7235  X192.6244  Y95.3411   
N7240  X193.0137  Y94.9912   
N7245  X192.8976  Y92.8127   
N7250  X192.4588  Y88.6401   
N7255 G0  Z3.0000 
N7260  X185.8516  Y77.3280 
N7265  Z0.1000 
N7270 G1  Z-0.7000  
N7275  X185.6716  Y78.0059   
N7280  X185.8457  Y78.6880   
N7285  X186.2922  Y79.2147   
N7290  X186.9289  Y79.4256   
N7295  X187.4058  Y79.1234   
N7300  X187.5664  Y78.4193   
N7305  X187.4101  Y77.6174   
N7310  X186.9358  Y77.0215   
N7315  X186.3503  Y76.9463   
N7320  X185.8516  Y77.3280   
N7325 G0  Z0.1000 
N7330 G1  Z-1.4000  
N7335  X185.6716  Y78.0059   
N7340  X185.8457  Y78.6880   
N7345  X186.2922  Y79.2147   
N7350  X186.9289  Y79.4256   
N7355  X187.4058  Y79.1234   
N7360  X187.5664  Y78.4193   
N7365  X187.4101  Y77.6174   
N7370  X186.9358  Y77.0215   
N7375  X186.3503  Y76.9463   
N7380  X185.8516  Y77.3280   
N7385 G0  Z3.0000 
N7390  X188.2686  Y74.5524 
N7395  Z0.1000 
N7400 G1  Z-0.7000  
N7405  X186.7917  Y73.9275   
N7410  X185.5297  Y74.5226   
N7415  X184.2911  Y74.8692   
N7420  X182.7320  Y74.8043   
N7425  X181.0797  Y74.8654   
N7430  X179.7124  Y75.8087   
N7435  X179.0914  Y76.6309   
N7440  X178.8304  Y77.4883   
N7445  X179.2893  Y80.3843   
N7450  X180.3946  Y83.5983   
N7455  X185.7323  Y82.3540   
N7460  X190.6139  Y80.7849   
N7465  X190.8309  Y79.5867   
N7470  X190.3316  Y77.6682   
N7475  X189.3871  Y75.7498   
N7480  X188.2686  Y74.5524   
N7485 G0  Z0.1000 
N7490 G1  Z-1.4000  
N7495  X186.7917  Y73.9275   
N7500  X185.5297  Y74.5226   
N7505  X184.2911  Y74.8692   
N7510  X182.7320  Y74.8043   
N7515  X181.0797  Y74.8654   
N7520  X179.7124  Y75.8087   
N7525  X179.0914  Y76.6309   
N7530  X178.8304  Y77.4883   
N7535  X179.2893  Y80.3843   
N7540  X180.3946  Y83.5983   
N7545  X185.7323  Y82.3540   
N7550  X190.6139  Y80.7849   
N7555  X190.8309  Y79.5867   
N7560  X190.3316  Y77.6682   
N7565  X189.3871  Y75.7498   
N7570  X188.2686  Y74.5524   
N7575 G0  Z3.0000 
N7580  X181.3243  Y78.7302 
N7585  Z0.1000 
N7590 G1  Z-0.7000  
N7595  X181.6287  Y79.7154   
N7600  X182.3675  Y80.1211   
N7605  X183.1064  Y79.7154   
N7610  X183.4107  Y78.7302   
N7615  X183.1064  Y77.7451   
N7620  X182.3675  Y77.3394   
N7625  X181.6287  Y77.7451   
N7630  X181.3243  Y78.7302   
N7635 G0  Z0.1000 
N7640 G1  Z-1.4000  
N7645  X181.6287  Y79.7154   
N7650  X182.3675  Y80.1211   
N7655  X183.1064  Y79.7154   
N7660  X183.4107  Y78.7302   
N7665  X183.1064  Y77.7451   
N7670  X182.3675  Y77.3394   
N7675  X181.6287  Y77.7451   
N7680  X181.3243  Y78.7302   
N7685 G0  Z3.0000 
N7690  X177.2908  Y61.4837 
N7695  Z0.1000 
N7700 G1  Z-0.7000  
N7705  X176.7501  Y62.2404   
N7710  X176.4804  Y63.1007   
N7715  X176.6626  Y64.8798   
N7720  X177.6536  Y66.3169   
N7725  X178.3948  Y66.7496   
N7730  X179.2694  Y66.9079   
N7735  X180.4479  Y66.4985   
N7740  X181.6746  Y65.5142   
N7745  X182.3322  Y64.4177   
N7750  X182.4499  Y63.3109   
N7755  X182.1253  Y62.2832   
N7760  X181.4560  Y61.4249   
N7765  X180.5401  Y60.8258   
N7770  X179.4754  Y60.5759   
N7775  X178.3597  Y60.7651   
N7780  X177.2908  Y61.4837   
N7785 G0  Z0.1000 
N7790 G1  Z-1.4000  
N7795  X176.7501  Y62.2404   
N7800  X176.4804  Y63.1007   
N7805  X176.6626  Y64.8798   
N7810  X177.6536  Y66.3169   
N7815  X178.3948  Y66.7496   
N7820  X179.2694  Y66.9079   
N7825  X180.4479  Y66.4985   
N7830  X181.6746  Y65.5142   
N7835  X182.3322  Y64.4177   
N7840  X182.4499  Y63.3109   
N7845  X182.1253  Y62.2832   
N7850  X181.4560  Y61.4249   
N7855  X180.5401  Y60.8258   
N7860  X179.4754  Y60.5759   
N7865  X178.3597  Y60.7651   
N7870  X177.2908  Y61.4837   
N7875 G0  Z3.0000 
N7880  X183.1633  Y59.5157 
N7885  Z0.1000 
N7890 G1  Z-0.7000  
N7895  X181.1956  Y58.3032   
N7900  X179.1539  Y57.9095   
N7905  X177.1714  Y58.3335   
N7910  X175.3816  Y59.5743   
N7915  X174.4835  Y60.7015   
N7920  X173.8951  Y61.9375   
N7925  X173.6102  Y63.2291   
N7930  X173.6221  Y64.5236   
N7935  X173.9241  Y65.7679   
N7940  X174.5097  Y66.9095   
N7945  X175.3726  Y67.8953   
N7950  X176.5061  Y68.6722   
N7955  X178.4023  Y69.4446   
N7960  X180.0426  Y69.6064   
N7965  X181.5790  Y69.1435   
N7970  X183.1633  Y68.0412   
N7975  X184.6688  Y66.1856   
N7980  X185.0796  Y63.7785   
N7985  X184.6688  Y61.3713   
N7990  X183.1633  Y59.5157   
N7995 G0  Z0.1000 
N8000 G1  Z-1.4000  
N8005  X181.1956  Y58.3032   
N8010  X179.1539  Y57.9095   
N8015  X177.1714  Y58.3335   
N8020  X175.3816  Y59.5743   
N8025  X174.4835  Y60.7015   
N8030  X173.8951  Y61.9375   
N8035  X173.6102  Y63.2291   
N8040  X173.6221  Y64.5236   
N8045  X173.9241  Y65.7679   
N8050  X174.5097  Y66.9095   
N8055  X175.3726  Y67.8953   
N8060  X176.5061  Y68.6722   
N8065  X178.4023  Y69.4446   
N8070  X180.0426  Y69.6064   
N8075  X181.5790  Y69.1435   
N8080  X183.1633  Y68.0412   
N8085  X184.6688  Y66.1856   
N8090  X185.0796  Y63.7785   
N8095  X184.6688  Y61.3713   
N8100  X183.1633  Y59.5157   
N8105 G0  Z3.0000 
N8110  X177.8111  Y49.1309 
N8115  Z0.1000 
N8120 G1  Z-0.7000  
N8125  X176.8928  Y48.1697   
N8130  X173.3480  Y50.5981   
N8135  X169.8922  Y52.9881   
N8140  X168.8405  Y51.2552   
N8145  X167.9833  Y50.1566   
N8150  X167.1183  Y49.6093   
N8155  X166.3174  Y49.6358   
N8160  X165.6519  Y50.2585   
N8165  X165.9312  Y51.5367   
N8170  X167.0509  Y53.6401   
N8175  X168.4224  Y55.6072   
N8180  X169.4575  Y56.4766   
N8185  X174.2799  Y53.3034   
N8190  X177.6463  Y50.5469   
N8195  X178.0514  Y49.7627   
N8200  X177.8111  Y49.1309   
N8205 G0  Z0.1000 
N8210 G1  Z-1.4000  
N8215  X176.8928  Y48.1697   
N8220  X173.3480  Y50.5981   
N8225  X169.8922  Y52.9881   
N8230  X168.8405  Y51.2552   
N8235  X167.9833  Y50.1566   
N8240  X167.1183  Y49.6093   
N8245  X166.3174  Y49.6358   
N8250  X165.6519  Y50.2585   
N8255  X165.9312  Y51.5367   
N8260  X167.0509  Y53.6401   
N8265  X168.4224  Y55.6072   
N8270  X169.4575  Y56.4766   
N8275  X174.2799  Y53.3034   
N8280  X177.6463  Y50.5469   
N8285  X178.0514  Y49.7627   
N8290  X177.8111  Y49.1309   
N8295 G0  Z3.0000 
N8300  X156.6673  Y30.3712 
N8305  Z0.1000 
N8310 G1  Z-0.7000  
N8315  X154.9428  Y29.1498   
N8320  X153.8444  Y27.2371   
N8325  X153.0772  Y24.9584   
N8330  X152.4138  Y27.2714   
N8335  X151.9780  Y28.4185   
N8340  X151.3745  Y29.2653   
N8345  X149.3254  Y30.4018   
N8350  X146.9005  Y31.2193   
N8355  X149.4247  Y31.6936   
N8360  X150.7343  Y32.0214   
N8365  X151.5776  Y32.4947   
N8370  X152.1037  Y33.2474   
N8375  X152.4615  Y34.4124   
N8380  X152.9743  Y36.6567   
N8385  X153.6790  Y34.4319   
N8390  X154.7011  Y32.5832   
N8395  X156.5532  Y31.7170   
N8400  X158.7230  Y31.2268   
N8405  X156.6673  Y30.3712   
N8410 G0  Z0.1000 
N8415 G1  Z-1.4000  
N8420  X154.9428  Y29.1498   
N8425  X153.8444  Y27.2371   
N8430  X153.0772  Y24.9584   
N8435  X152.4138  Y27.2714   
N8440  X151.9780  Y28.4185   
N8445  X151.3745  Y29.2653   
N8450  X149.3254  Y30.4018   
N8455  X146.9005  Y31.2193   
N8460  X149.4247  Y31.6936   
N8465  X150.7343  Y32.0214   
N8470  X151.5776  Y32.4947   
N8475  X152.1037  Y33.2474   
N8480  X152.4615  Y34.4124   
N8485  X152.9743  Y36.6567   
N8490  X153.6790  Y34.4319   
N8495  X154.7011  Y32.5832   
N8500  X156.5532  Y31.7170   
N8505  X158.7230  Y31.2268   
N8510  X156.6673  Y30.3712   
N8515 G0  Z3.0000 
N8520  X118.4308  Y28.0076 
N8525  Z0.1000 
N8530 G1  Z-0.7000  
N8535  X112.4704  Y26.7336   
N8540  X111.2848  Y26.7198   
N8545  X111.2361  Y27.0616   
N8550  X114.3709  Y28.6339   
N8555  X121.5174  Y31.0935   
N8560  X128.5284  Y33.6513   
N8565  X135.1525  Y36.8714   
N8570  X141.3580  Y40.7265   
N8575  X147.1124  Y45.1887   
N8580  X152.3839  Y50.2307   
N8585  X157.1404  Y55.8249   
N8590  X161.3501  Y61.9434   
N8595  X164.9807  Y68.5587   
N8600  X168.2284  Y75.8749   
N8605  X170.3176  Y82.4291   
N8610  X171.5132  Y89.3034   
N8615  X172.0799  Y97.5809   
N8620  X172.1304  Y106.8382   
N8625  X171.2742  Y113.5427   
N8630  X169.0989  Y122.0122   
N8635  X166.1017  Y129.8685   
N8640  X162.2068  Y137.2800   
N8645  X157.3381  Y144.4145   
N8650  X154.2662  Y148.7914   
N8655  X152.8609  Y151.4771   
N8660  X152.8345  Y152.0209   
N8665  X153.2863  Y151.9441   
N8670  X155.7063  Y149.6641   
N8675  X160.8169  Y143.1359   
N8680  X165.4650  Y135.4938   
N8685  X169.3317  Y127.3296   
N8690  X172.0984  Y119.2355   
N8695  X173.0679  Y115.2524   
N8700  X173.6234  Y111.5641   
N8705  X173.9643  Y100.2885   
N8710  X173.7100  Y88.9403   
N8715  X173.1430  Y85.3309   
N8720  X172.1045  Y81.2769   
N8725  X170.5792  Y76.4180   
N8730  X168.7589  Y71.7125   
N8735  X166.6549  Y67.1715   
N8740  X164.2781  Y62.8054   
N8745  X161.6391  Y58.6255   
N8750  X158.7490  Y54.6423   
N8755  X155.6188  Y50.8664   
N8760  X152.2591  Y47.3090   
N8765  X148.6810  Y43.9809   
N8770  X144.8951  Y40.8926   
N8775  X140.9127  Y38.0552   
N8780  X136.7443  Y35.4793   
N8785  X132.4012  Y33.1758   
N8790  X127.8940  Y31.1554   
N8795  X123.2335  Y29.4291   
N8800  X118.4308  Y28.0076   
N8805 G0  Z0.1000 
N8810 G1  Z-1.4000  
N8815  X112.4704  Y26.7336   
N8820  X111.2848  Y26.7198   
N8825  X111.2361  Y27.0616   
N8830  X114.3709  Y28.6339   
N8835  X121.5174  Y31.0935   
N8840  X128.5284  Y33.6513   
N8845  X135.1525  Y36.8714   
N8850  X141.3580  Y40.7265   
N8855  X147.1124  Y45.1887   
N8860  X152.3839  Y50.2307   
N8865  X157.1404  Y55.8249   
N8870  X161.3501  Y61.9434   
N8875  X164.9807  Y68.5587   
N8880  X168.2284  Y75.8749   
N8885  X170.3176  Y82.4291   
N8890  X171.5132  Y89.3034   
N8895  X172.0799  Y97.5809   
N8900  X172.1304  Y106.8382   
N8905  X171.2742  Y113.5427   
N8910  X169.0989  Y122.0122   
N8915  X166.1017  Y129.8685   
N8920  X162.2068  Y137.2800   
N8925  X157.3381  Y144.4145   
N8930  X154.2662  Y148.7914   
N8935  X152.8609  Y151.4771   
N8940  X152.8345  Y152.0209   
N8945  X153.2863  Y151.9441   
N8950  X155.7063  Y149.6641   
N8955  X160.8169  Y143.1359   
N8960  X165.4650  Y135.4938   
N8965  X169.3317  Y127.3296   
N8970  X172.0984  Y119.2355   
N8975  X173.0679  Y115.2524   
N8980  X173.6234  Y111.5641   
N8985  X173.9643  Y100.2885   
N8990  X173.7100  Y88.9403   
N8995  X173.1430  Y85.3309   
N9000  X172.1045  Y81.2769   
N9005  X170.5792  Y76.4180   
N9010  X168.7589  Y71.7125   
N9015  X166.6549  Y67.1715   
N9020  X164.2781  Y62.8054   
N9025  X161.6391  Y58.6255   
N9030  X158.7490  Y54.6423   
N9035  X155.6188  Y50.8664   
N9040  X152.2591  Y47.3090   
N9045  X148.6810  Y43.9809   
N9050  X144.8951  Y40.8926   
N9055  X140.9127  Y38.0552   
N9060  X136.7443  Y35.4793   
N9065  X132.4012  Y33.1758   
N9070  X127.8940  Y31.1554   
N9075  X123.2335  Y29.4291   
N9080  X118.4308  Y28.0076   
N9085 G0  Z3.0000 
N9090  X122.9082  Y10.5782 
N9095  Z0.1000 
N9100 G1  Z-0.7000  
N9105  X121.0571  Y9.2793   
N9110  X120.3885  Y9.1441   
N9115  X120.1265  Y9.4475   
N9120  X121.1697  Y12.6644   
N9125  X121.9170  Y14.8656   
N9130  X122.0343  Y16.1201   
N9135  X121.3729  Y17.0147   
N9140  X119.7841  Y18.1367   
N9145  X118.1869  Y19.4802   
N9150  X117.7436  Y20.3968   
N9155  X118.4550  Y20.9015   
N9160  X119.5041  Y20.9727   
N9165  X120.6213  Y20.6425   
N9170  X121.5366  Y19.9432   
N9175  X122.3953  Y19.2300   
N9180  X123.1788  Y19.1930   
N9185  X123.8343  Y19.8104   
N9190  X124.3084  Y21.0612   
N9195  X125.0058  Y22.3549   
N9200  X126.2257  Y22.9684   
N9205  X127.0753  Y23.0413   
N9210  X127.4116  Y22.7760   
N9215  X126.7187  Y20.2732   
N9220  X125.6899  Y17.1574   
N9225  X128.5812  Y14.8311   
N9230  X130.6871  Y13.0250   
N9235  X130.7591  Y12.5631   
N9240  X130.2755  Y12.2455   
N9245  X128.8812  Y12.1966   
N9250  X127.2104  Y12.7245   
N9255  X124.8207  Y13.9170   
N9260  X124.4523  Y13.7731   
N9265  X124.2991  Y13.0701   
N9270  X123.8905  Y11.8838   
N9275  X122.9082  Y10.5782   
N9280 G0  Z0.1000 
N9285 G1  Z-1.4000  
N9290  X121.0571  Y9.2793   
N9295  X120.3885  Y9.1441   
N9300  X120.1265  Y9.4475   
N9305  X121.1697  Y12.6644   
N9310  X121.9170  Y14.8656   
N9315  X122.0343  Y16.1201   
N9320  X121.3729  Y17.0147   
N9325  X119.7841  Y18.1367   
N9330  X118.1869  Y19.4802   
N9335  X117.7436  Y20.3968   
N9340  X118.4550  Y20.9015   
N9345  X119.5041  Y20.9727   
N9350  X120.6213  Y20.6425   
N9355  X121.5366  Y19.9432   
N9360  X122.3953  Y19.2300   
N9365  X123.1788  Y19.1930   
N9370  X123.8343  Y19.8104   
N9375  X124.3084  Y21.0612   
N9380  X125.0058  Y22.3549   
N9385  X126.2257  Y22.9684   
N9390  X127.0753  Y23.0413   
N9395  X127.4116  Y22.7760   
N9400  X126.7187  Y20.2732   
N9405  X125.6899  Y17.1574   
N9410  X128.5812  Y14.8311   
N9415  X130.6871  Y13.0250   
N9420  X130.7591  Y12.5631   
N9425  X130.2755  Y12.2455   
N9430  X128.8812  Y12.1966   
N9435  X127.2104  Y12.7245   
N9440  X124.8207  Y13.9170   
N9445  X124.4523  Y13.7731   
N9450  X124.2991  Y13.0701   
N9455  X123.8905  Y11.8838   
N9460  X122.9082  Y10.5782   
N9465 G0  Z3.0000 
N9470  X108.1777  Y8.8395 
N9475  Z0.1000 
N9480 G1  Z-0.7000  
N9485  X107.2425  Y7.6116   
N9490  X106.1064  Y7.1010   
N9495  X105.1856  Y7.2658   
N9500  X104.9077  Y7.8596   
N9505  X105.2806  Y9.0311   
N9510  X106.3122  Y10.9295   
N9515  X107.7974  Y13.4466   
N9520  X105.6167  Y15.6965   
N9525  X103.4363  Y18.4348   
N9530  X103.9500  Y18.9414   
N9535  X105.1405  Y18.8811   
N9540  X106.4815  Y18.3719   
N9545  X107.4475  Y17.5323   
N9550  X108.2380  Y16.5144   
N9555  X108.9279  Y16.2275   
N9560  X109.5816  Y16.6802   
N9565  X110.2641  Y17.8801   
N9570  X111.2280  Y19.1319   
N9575  X112.4619  Y19.6188   
N9580  X113.4507  Y19.5007   
N9585  X113.7759  Y19.0213   
N9590  X113.4355  Y17.9913   
N9595  X112.4280  Y16.2224   
N9600  X110.9933  Y13.8693   
N9605  X113.2041  Y11.5883   
N9610  X114.4401  Y10.0554   
N9615  X114.9029  Y8.8565   
N9620  X114.5865  Y8.0754   
N9625  X113.4848  Y7.7965   
N9630  X112.5261  Y8.2049   
N9635  X111.6199  Y9.1872   
N9640  X110.7206  Y10.2220   
N9645  X109.8164  Y10.5058   
N9650  X108.9534  Y10.0434   
N9655  X108.1777  Y8.8395   
N9660 G0  Z0.1000 
N9665 G1  Z-1.4000  
N9670  X107.2425  Y7.6116   
N9675  X106.1064  Y7.1010   
N9680  X105.1856  Y7.2658   
N9685  X104.9077  Y7.8596   
N9690  X105.2806  Y9.0311   
N9695  X106.3122  Y10.9295   
N9700  X107.7974  Y13.4466   
N9705  X105.6167  Y15.6965   
N9710  X103.4363  Y18.4348   
N9715  X103.9500  Y18.9414   
N9720  X105.1405  Y18.8811   
N9725  X106.4815  Y18.3719   
N9730  X107.4475  Y17.5323   
N9735  X108.2380  Y16.5144   
N9740  X108.9279  Y16.2275   
N9745  X109.5816  Y16.6802   
N9750  X110.2641  Y17.8801   
N9755  X111.2280  Y19.1319   
N9760  X112.4619  Y19.6188   
N9765  X113.4507  Y19.5007   
N9770  X113.7759  Y19.0213   
N9775  X113.4355  Y17.9913   
N9780  X112.4280  Y16.2224   
N9785  X110.9933  Y13.8693   
N9790  X113.2041  Y11.5883   
N9795  X114.4401  Y10.0554   
N9800  X114.9029  Y8.8565   
N9805  X114.5865  Y8.0754   
N9810  X113.4848  Y7.7965   
N9815  X112.5261  Y8.2049   
N9820  X111.6199  Y9.1872   
N9825  X110.7206  Y10.2220   
N9830  X109.8164  Y10.5058   
N9835  X108.9534  Y10.0434   
N9840  X108.1777  Y8.8395   
N9845 G0  Z3.0000 
N9850  X98.8173  Y9.7088 
N9855  Z0.1000 
N9860 G1  Z-0.7000  
N9865  X98.1838  Y7.6579   
N9870  X97.6882  Y7.2284   
N9875  X97.0075  Y7.1010   
N9880  X96.2791  Y7.1966   
N9885  X95.9264  Y7.6311   
N9890  X96.1060  Y10.4043   
N9895  X96.5834  Y13.7076   
N9900  X94.6559  Y11.8150   
N9905  X92.7284  Y9.9223   
N9910  X91.5499  Y11.7188   
N9915  X90.3715  Y13.5152   
N9920  X89.8885  Y10.6557   
N9925  X89.2147  Y8.3804   
N9930  X88.7034  Y7.9260   
N9935  X87.9888  Y7.7965   
N9940  X87.2698  Y7.8738   
N9945  X86.9018  Y8.1837   
N9950  X87.0067  Y9.9697   
N9955  X87.4413  Y15.5331   
N9960  X87.6882  Y18.3353   
N9965  X88.1193  Y18.8088   
N9970  X88.8644  Y18.9233   
N9975  X90.2221  Y18.3504   
N9980  X91.4725  Y16.8414   
N9985  X92.4189  Y15.4020   
N9990  X93.2257  Y14.8758   
N9995  X94.0917  Y15.2445   
N10000  X95.2154  Y16.4893   
N10005  X96.5750  Y17.7171   
N10010  X97.9233  Y18.2278   
N10015  X98.6027  Y18.1117   
N10020  X99.0099  Y17.6715   
N10025  X99.2559  Y15.2723   
N10030  X98.8173  Y9.7088   
N10035 G0  Z0.1000 
N10040 G1  Z-1.4000  
N10045  X98.1838  Y7.6579   
N10050  X97.6882  Y7.2284   
N10055  X97.0075  Y7.1010   
N10060  X96.2791  Y7.1966   
N10065  X95.9264  Y7.6311   
N10070  X96.1060  Y10.4043   
N10075  X96.5834  Y13.7076   
N10080  X94.6559  Y11.8150   
N10085  X92.7284  Y9.9223   
N10090  X91.5499  Y11.7188   
N10095  X90.3715  Y13.5152   
N10100  X89.8885  Y10.6557   
N10105  X89.2147  Y8.3804   
N10110  X88.7034  Y7.9260   
N10115  X87.9888  Y7.7965   
N10120  X87.2698  Y7.8738   
N10125  X86.9018  Y8.1837   
N10130  X87.0067  Y9.9697   
N10135  X87.4413  Y15.5331   
N10140  X87.6882  Y18.3353   
N10145  X88.1193  Y18.8088   
N10150  X88.8644  Y18.9233   
N10155  X90.2221  Y18.3504   
N10160  X91.4725  Y16.8414   
N10165  X92.4189  Y15.4020   
N10170  X93.2257  Y14.8758   
N10175  X94.0917  Y15.2445   
N10180  X95.2154  Y16.4893   
N10185  X96.5750  Y17.7171   
N10190  X97.9233  Y18.2278   
N10195  X98.6027  Y18.1117   
N10200  X99.0099  Y17.6715   
N10205  X99.2559  Y15.2723   
N10210  X98.8173  Y9.7088   
N10215 G0  Z3.0000 
N10220  X92.3093  Y0.2448 
N10225  Z0.1000 
N10230 G1  Z-0.7000  
N10235  X86.6497  Y0.7942   
N10240  X81.0459  Y1.6805   
N10245  X75.5116  Y2.8952   
N10250  X70.0602  Y4.4309   
N10255  X64.7052  Y6.2796   
N10260  X59.4599  Y8.4332   
N10265  X54.3381  Y10.8839   
N10270  X49.3533  Y13.6237   
N10275  X44.5187  Y16.6447   
N10280  X39.8479  Y19.9391   
N10285  X35.3545  Y23.4989   
N10290  X31.0519  Y27.3161   
N10295  X26.9538  Y31.3831   
N10300  X23.0735  Y35.6916   
N10305  X19.4244  Y40.2338   
N10310  X16.0202  Y45.0018   
N10315  X11.5278  Y52.5907   
N10320  X7.4754  Y61.2026   
N10325  X4.0745  Y70.3332   
N10330  X1.5374  Y79.4779   
N10335  X0.5831  Y86.5079   
N10340  X0.0168  Y96.9026   
N10345  X0.0000  Y106.9399   
N10350  X0.6860  Y115.4125   
N10355  X2.2177  Y123.3833   
N10360  X4.7386  Y131.9155   
N10365  X7.7466  Y139.8490   
N10370  X11.3348  Y147.3900   
N10375  X15.4966  Y154.5294   
N10380  X20.2251  Y161.2586   
N10385  X25.5136  Y167.5692   
N10390  X31.3555  Y173.4521   
N10395  X37.7439  Y178.8986   
N10400  X44.6724  Y183.9002   
N10405  X50.6699  Y187.6268   
N10410  X56.6739  Y190.8376   
N10415  X62.7370  Y193.5497   
N10420  X68.9121  Y195.7799   
N10425  X75.2520  Y197.5448   
N10430  X81.8091  Y198.8614   
N10435  X88.6364  Y199.7465   
N10440  X95.7865  Y200.2169   
N10445  X107.3911  Y200.1260   
N10450  X112.8366  Y199.6629   
N10455  X118.1179  Y198.9087   
N10460  X123.2902  Y197.8537   
N10465  X128.4087  Y196.4883   
N10470  X138.7050  Y192.7886   
N10475  X147.4627  Y188.6520   
N10480  X155.5127  Y183.7993   
N10485  X163.1836  Y178.0082   
N10490  X170.8047  Y171.0558   
N10495  X175.5823  Y166.0107   
N10500  X179.9444  Y160.7159   
N10505  X183.8975  Y155.1600   
N10510  X187.4476  Y149.3315   
N10515  X190.6016  Y143.2185   
N10520  X193.3660  Y136.8100   
N10525  X195.7469  Y130.0942   
N10530  X197.7512  Y123.0598   
N10535  X199.2462  Y114.3764   
N10540  X200.0036  Y103.9723   
N10545  X199.9702  Y93.3894   
N10550  X199.0930  Y84.1696   
N10555  X197.7297  Y77.3566   
N10560  X195.9104  Y70.7052   
N10565  X193.6516  Y64.2342   
N10570  X190.9695  Y57.9625   
N10575  X187.8801  Y51.9089   
N10580  X184.3991  Y46.0921   
N10585  X180.5429  Y40.5311   
N10590  X176.3275  Y35.2449   
N10595  X171.7690  Y30.2518   
N10600  X166.8834  Y25.5711   
N10605  X161.6868  Y21.2212   
N10610  X156.1952  Y17.2215   
N10615  X150.4248  Y13.5903   
N10620  X144.3916  Y10.3466   
N10625  X138.1116  Y7.5093   
N10630  X131.6010  Y5.0972   
N10635  X121.9823  Y2.3928   
N10640  X112.4075  Y0.7049   
N10645  X102.6066  Y0.0000   
N10650  X92.3093  Y0.2448   
N10655 G0  Z0.1000 
N10660 G1  Z-1.4000  
N10665  X86.6497  Y0.7942   
N10670  X81.0459  Y1.6805   
N10675  X75.5116  Y2.8952   
N10680  X70.0602  Y4.4309   
N10685  X64.7052  Y6.2796   
N10690  X59.4599  Y8.4332   
N10695  X54.3381  Y10.8839   
N10700  X49.3533  Y13.6237   
N10705  X44.5187  Y16.6447   
N10710  X39.8479  Y19.9391   
N10715  X35.3545  Y23.4989   
N10720  X31.0519  Y27.3161   
N10725  X26.9538  Y31.3831   
N10730  X23.0735  Y35.6916   
N10735  X19.4244  Y40.2338   
N10740  X16.0202  Y45.0018   
N10745  X11.5278  Y52.5907   
N10750  X7.4754  Y61.2026   
N10755  X4.0745  Y70.3332   
N10760  X1.5374  Y79.4779   
N10765  X0.5831  Y86.5079   
N10770  X0.0168  Y96.9026   
N10775  X0.0000  Y106.9399   
N10780  X0.6860  Y115.4125   
N10785  X2.2177  Y123.3833   
N10790  X4.7386  Y131.9155   
N10795  X7.7466  Y139.8490   
N10800  X11.3348  Y147.3900   
N10805  X15.4966  Y154.5294   
N10810  X20.2251  Y161.2586   
N10815  X25.5136  Y167.5692   
N10820  X31.3555  Y173.4521   
N10825  X37.7439  Y178.8986   
N10830  X44.6724  Y183.9002   
N10835  X50.6699  Y187.6268   
N10840  X56.6739  Y190.8376   
N10845  X62.7370  Y193.5497   
N10850  X68.9121  Y195.7799   
N10855  X75.2520  Y197.5448   
N10860  X81.8091  Y198.8614   
N10865  X88.6364  Y199.7465   
N10870  X95.7865  Y200.2169   
N10875  X107.3911  Y200.1260   
N10880  X112.8366  Y199.6629   
N10885  X118.1179  Y198.9087   
N10890  X123.2902  Y197.8537   
N10895  X128.4087  Y196.4883   
N10900  X138.7050  Y192.7886   
N10905  X147.4627  Y188.6520   
N10910  X155.5127  Y183.7993   
N10915  X163.1836  Y178.0082   
N10920  X170.8047  Y171.0558   
N10925  X175.5823  Y166.0107   
N10930  X179.9444  Y160.7159   
N10935  X183.8975  Y155.1600   
N10940  X187.4476  Y149.3315   
N10945  X190.6016  Y143.2185   
N10950  X193.3660  Y136.8100   
N10955  X195.7469  Y130.0942   
N10960  X197.7512  Y123.0598   
N10965  X199.2462  Y114.3764   
N10970  X200.0036  Y103.9723   
N10975  X199.9702  Y93.3894   
N10980  X199.0930  Y84.1696   
N10985  X197.7297  Y77.3566   
N10990  X195.9104  Y70.7052   
N10995  X193.6516  Y64.2342   
N11000  X190.9695  Y57.9625   
N11005  X187.8801  Y51.9089   
N11010  X184.3991  Y46.0921   
N11015  X180.5429  Y40.5311   
N11020  X176.3275  Y35.2449   
N11025  X171.7690  Y30.2518   
N11030  X166.8834  Y25.5711   
N11035  X161.6868  Y21.2212   
N11040  X156.1952  Y17.2215   
N11045  X150.4248  Y13.5903   
N11050  X144.3916  Y10.3466   
N11055  X138.1116  Y7.5093   
N11060  X131.6010  Y5.0972   
N11065  X121.9823  Y2.3928   
N11070  X112.4075  Y0.7049   
N11075  X102.6066  Y0.0000   
N11080  X92.3093  Y0.2448   
N11085 G0  Z3.0000 
N11090  X81.2994  Y13.7169 
N11095  Z0.1000 
N11100 G1  Z-0.7000  
N11105  X80.1038  Y10.4641   
N11110  X79.4933  Y9.6503   
N11115  X78.8319  Y9.3022   
N11120  X78.1425  Y9.2629   
N11125  X77.8157  Y9.6282   
N11130  X78.0317  Y12.4178   
N11135  X78.2908  Y15.1743   
N11140  X77.9495  Y15.1989   
N11145  X77.1969  Y14.5722   
N11150  X75.9999  Y13.6627   
N11155  X75.1067  Y13.4602   
N11160  X74.4014  Y13.9889   
N11165  X73.7686  Y15.2723   
N11170  X73.0747  Y16.6756   
N11175  X72.5346  Y15.7939   
N11180  X70.9587  Y12.0811   
N11185  X70.3740  Y11.6171   
N11190  X69.6774  Y11.7292   
N11195  X68.9178  Y12.4754   
N11200  X69.0048  Y13.9757   
N11205  X70.6145  Y19.7514   
N11210  X71.9960  Y22.6453   
N11215  X72.6489  Y23.0664   
N11220  X73.3018  Y22.8326   
N11225  X74.6845  Y20.4879   
N11230  X75.5108  Y18.5570   
N11235  X76.1298  Y17.7571   
N11240  X76.9286  Y17.9126   
N11245  X78.2941  Y18.8474   
N11250  X80.0224  Y19.8705   
N11255  X81.3743  Y20.2575   
N11260  X82.2420  Y20.0018   
N11265  X82.5176  Y19.0972   
N11270  X81.2994  Y13.7169   
N11275 G0  Z0.1000 
N11280 G1  Z-1.4000  
N11285  X80.1038  Y10.4641   
N11290  X79.4933  Y9.6503   
N11295  X78.8319  Y9.3022   
N11300  X78.1425  Y9.2629   
N11305  X77.8157  Y9.6282   
N11310  X78.0317  Y12.4178   
N11315  X78.2908  Y15.1743   
N11320  X77.9495  Y15.1989   
N11325  X77.1969  Y14.5722   
N11330  X75.9999  Y13.6627   
N11335  X75.1067  Y13.4602   
N11340  X74.4014  Y13.9889   
N11345  X73.7686  Y15.2723   
N11350  X73.0747  Y16.6756   
N11355  X72.5346  Y15.7939   
N11360  X70.9587  Y12.0811   
N11365  X70.3740  Y11.6171   
N11370  X69.6774  Y11.7292   
N11375  X68.9178  Y12.4754   
N11380  X69.0048  Y13.9757   
N11385  X70.6145  Y19.7514   
N11390  X71.9960  Y22.6453   
N11395  X72.6489  Y23.0664   
N11400  X73.3018  Y22.8326   
N11405  X74.6845  Y20.4879   
N11410  X75.5108  Y18.5570   
N11415  X76.1298  Y17.7571   
N11420  X76.9286  Y17.9126   
N11425  X78.2941  Y18.8474   
N11430  X80.0224  Y19.8705   
N11435  X81.3743  Y20.2575   
N11440  X82.2420  Y20.0018   
N11445  X82.5176  Y19.0972   
N11450  X81.2994  Y13.7169   
N11455 G0  Z3.0000 
N11460  X88.8321  Y26.9029 
N11465  Z0.1000 
N11470 G1  Z-0.7000  
N11475  X88.2234  Y26.6155   
N11480  X86.5551  Y26.7732   
N11485  X80.9871  Y28.1448   
N11490  X74.0243  Y30.4605   
N11495  X67.5620  Y33.1620   
N11500  X60.4036  Y37.1265   
N11505  X53.7968  Y41.7878   
N11510  X47.7731  Y47.1074   
N11515  X42.3640  Y53.0463   
N11520  X37.6014  Y59.5660   
N11525  X33.5164  Y66.6278   
N11530  X30.1410  Y74.1928   
N11535  X27.5063  Y82.2227   
N11540  X26.6638  Y85.7208   
N11545  X26.1779  Y89.2082   
N11550  X25.9098  Y100.2885   
N11555  X26.2238  Y111.6387   
N11560  X26.8038  Y115.3073   
N11565  X27.8454  Y119.4129   
N11570  X30.1033  Y126.1804   
N11575  X32.8332  Y132.6856   
N11580  X35.6439  Y137.7895   
N11585  X39.1727  Y143.2751   
N11590  X42.7254  Y148.1286   
N11595  X45.6078  Y151.3367   
N11600  X46.9737  Y152.1625   
N11605  X47.2044  Y151.9549   
N11610  X47.1541  Y151.4090   
N11615  X46.2706  Y149.5298   
N11620  X44.4441  Y146.9789   
N11625  X39.7298  Y140.5409   
N11630  X35.5485  Y133.4016   
N11635  X32.1217  Y125.9856   
N11640  X29.6718  Y118.7174   
N11645  X28.4839  Y112.0982   
N11650  X27.8168  Y103.8846   
N11655  X27.7372  Y95.5600   
N11660  X28.3122  Y88.6078   
N11665  X29.3219  Y83.5386   
N11670  X30.7010  Y78.5760   
N11675  X32.4330  Y73.7383   
N11680  X34.5013  Y69.0442   
N11685  X36.8897  Y64.5122   
N11690  X39.5815  Y60.1609   
N11695  X42.5606  Y56.0090   
N11700  X45.8103  Y52.0746   
N11705  X49.3142  Y48.3769   
N11710  X53.0562  Y44.9342   
N11715  X57.0195  Y41.7649   
N11720  X61.1876  Y38.8876   
N11725  X65.5443  Y36.3212   
N11730  X70.0732  Y34.0842   
N11735  X74.7578  Y32.1947   
N11740  X79.5814  Y30.6717   
N11745  X86.1565  Y28.5178   
N11750  X88.1179  Y27.5874   
N11755  X88.8321  Y26.9029   
N11760 G0  Z0.1000 
N11765 G1  Z-1.4000  
N11770  X88.2234  Y26.6155   
N11775  X86.5551  Y26.7732   
N11780  X80.9871  Y28.1448   
N11785  X74.0243  Y30.4605   
N11790  X67.5620  Y33.1620   
N11795  X60.4036  Y37.1265   
N11800  X53.7968  Y41.7878   
N11805  X47.7731  Y47.1074   
N11810  X42.3640  Y53.0463   
N11815  X37.6014  Y59.5660   
N11820  X33.5164  Y66.6278   
N11825  X30.1410  Y74.1928   
N11830  X27.5063  Y82.2227   
N11835  X26.6638  Y85.7208   
N11840  X26.1779  Y89.2082   
N11845  X25.9098  Y100.2885   
N11850  X26.2238  Y111.6387   
N11855  X26.8038  Y115.3073   
N11860  X27.8454  Y119.4129   
N11865  X30.1033  Y126.1804   
N11870  X32.8332  Y132.6856   
N11875  X35.6439  Y137.7895   
N11880  X39.1727  Y143.2751   
N11885  X42.7254  Y148.1286   
N11890  X45.6078  Y151.3367   
N11895  X46.9737  Y152.1625   
N11900  X47.2044  Y151.9549   
N11905  X47.1541  Y151.4090   
N11910  X46.2706  Y149.5298   
N11915  X44.4441  Y146.9789   
N11920  X39.7298  Y140.5409   
N11925  X35.5485  Y133.4016   
N11930  X32.1217  Y125.9856   
N11935  X29.6718  Y118.7174   
N11940  X28.4839  Y112.0982   
N11945  X27.8168  Y103.8846   
N11950  X27.7372  Y95.5600   
N11955  X28.3122  Y88.6078   
N11960  X29.3219  Y83.5386   
N11965  X30.7010  Y78.5760   
N11970  X32.4330  Y73.7383   
N11975  X34.5013  Y69.0442   
N11980  X36.8897  Y64.5122   
N11985  X39.5815  Y60.1609   
N11990  X42.5606  Y56.0090   
N11995  X45.8103  Y52.0746   
N12000  X49.3142  Y48.3769   
N12005  X53.0562  Y44.9342   
N12010  X57.0195  Y41.7649   
N12015  X61.1876  Y38.8876   
N12020  X65.5443  Y36.3212   
N12025  X70.0732  Y34.0842   
N12030  X74.7578  Y32.1947   
N12035  X79.5814  Y30.6717   
N12040  X86.1565  Y28.5178   
N12045  X88.1179  Y27.5874   
N12050  X88.8321  Y26.9029   
N12055 G0  Z3.0000 
N12060  X93.2705  Y30.5859 
N12065  Z0.1000 
N12070 G1  Z-0.7000  
N12075  X86.8216  Y34.8153   
N12080  X80.9102  Y39.4282   
N12085  X75.5371  Y44.4242   
N12090  X70.7026  Y49.8027   
N12095  X66.4072  Y55.5629   
N12100  X62.6515  Y61.7043   
N12105  X59.4359  Y68.2261   
N12110  X56.7608  Y75.1280   
N12115  X54.5167  Y82.6986   
N12120  X53.7946  Y86.5367   
N12125  X53.2888  Y91.0195   
N12130  X52.7743  Y103.7491   
N12135  X52.6700  Y124.5459   
N12140  X52.6702  Y156.2707   
N12145  X99.7854  Y156.1613   
N12150  X146.9005  Y156.0517   
N12155  X147.0828  Y124.5191   
N12160  X147.1057  Y104.1432   
N12165  X146.6807  Y91.7628   
N12170  X146.2078  Y87.3755   
N12175  X145.5117  Y83.5530   
N12180  X143.3027  Y75.6885   
N12185  X140.7372  Y68.7925   
N12190  X137.4822  Y62.1210   
N12195  X133.5873  Y55.7357   
N12200  X129.1030  Y49.6979   
N12205  X124.0793  Y44.0692   
N12210  X118.5664  Y38.9113   
N12215  X112.6145  Y34.2854   
N12220  X106.2734  Y30.2531   
N12225  X102.2446  Y28.1452   
N12230  X99.9130  Y27.2684   
N12235  X97.4985  Y28.2430   
N12240  X93.2705  Y30.5859   
N12245 G0  Z0.1000 
N12250 G1  Z-1.4000  
N12255  X86.8216  Y34.8153   
N12260  X80.9102  Y39.4282   
N12265  X75.5371  Y44.4242   
N12270  X70.7026  Y49.8027   
N12275  X66.4072  Y55.5629   
N12280  X62.6515  Y61.7043   
N12285  X59.4359  Y68.2261   
N12290  X56.7608  Y75.1280   
N12295  X54.5167  Y82.6986   
N12300  X53.7946  Y86.5367   
N12305  X53.2888  Y91.0195   
N12310  X52.7743  Y103.7491   
N12315  X52.6700  Y124.5459   
N12320  X52.6702  Y156.2707   
N12325  X99.7854  Y156.1613   
N12330  X146.9005  Y156.0517   
N12335  X147.0828  Y124.5191   
N12340  X147.1057  Y104.1432   
N12345  X146.6807  Y91.7628   
N12350  X146.2078  Y87.3755   
N12355  X145.5117  Y83.5530   
N12360  X143.3027  Y75.6885   
N12365  X140.7372  Y68.7925   
N12370  X137.4822  Y62.1210   
N12375  X133.5873  Y55.7357   
N12380  X129.1030  Y49.6979   
N12385  X124.0793  Y44.0692   
N12390  X118.5664  Y38.9113   
N12395  X112.6145  Y34.2854   
N12400  X106.2734  Y30.2531   
N12405  X102.2446  Y28.1452   
N12410  X99.9130  Y27.2684   
N12415  X97.4985  Y28.2430   
N12420  X93.2705  Y30.5859   
N12425 G0  Z3.0000 
N12430  X97.8796  Y60.9895 
N12435  Z0.1000 
N12440 G1  Z-0.7000  
N12445  X96.9842  Y61.9966   
N12450  X96.6461  Y62.6755   
N12455  X96.8346  Y63.2937   
N12460  X97.5184  Y64.1189   
N12465  X98.7574  Y65.1063   
N12470  X99.9591  Y65.5171   
N12475  X101.1608  Y65.1063   
N12480  X102.3996  Y64.1189   
N12485  X103.0836  Y63.2937   
N12490  X103.2719  Y62.6755   
N12495  X102.9338  Y61.9966   
N12500  X102.0384  Y60.9895   
N12505  X99.9591  Y59.2583   
N12510  X97.8796  Y60.9895   
N12515 G0  Z0.1000 
N12520 G1  Z-1.4000  
N12525  X96.9842  Y61.9966   
N12530  X96.6461  Y62.6755   
N12535  X96.8346  Y63.2937   
N12540  X97.5184  Y64.1189   
N12545  X98.7574  Y65.1063   
N12550  X99.9591  Y65.5171   
N12555  X101.1608  Y65.1063   
N12560  X102.3996  Y64.1189   
N12565  X103.0836  Y63.2937   
N12570  X103.2719  Y62.6755   
N12575  X102.9338  Y61.9966   
N12580  X102.0384  Y60.9895   
N12585  X99.9591  Y59.2583   
N12590  X97.8796  Y60.9895   
N12595 G0  Z3.0000 
N12600  X88.8321  Y62.0400 
N12605  Z0.1000 
N12610 G1  Z-0.7000  
N12615  Y47.4360   
N12620  X85.4710   
N12625  X82.9608  Y47.5720   
N12630  X81.6461  Y47.8994   
N12635  X81.1878  Y48.6065   
N12640  X81.4232  Y49.1140   
N12645  X82.3497  Y49.4197   
N12650  X83.9642  Y49.5222   
N12655  X86.7459   
N12660  Y64.5017   
N12665  Y79.4814   
N12670  X83.9642  Y82.1275   
N12675  X82.4264  Y83.6864   
N12680  X81.5927  Y84.9721   
N12685  X81.2495  Y86.4947   
N12690  X81.1825  Y88.7643   
N12695  X81.4427  Y91.6170   
N12700  X81.7161  Y92.3302   
N12705  X82.0394  Y92.5679   
N12710  X82.3779  Y92.3304   
N12715  X82.6970  Y91.6172   
N12720  X83.1400  Y88.7647   
N12725  X83.8351  Y85.4862   
N12730  X85.0600  Y83.3694   
N12735  X85.6873  Y82.9361   
N12740  X86.2264  Y83.0209   
N12745  X86.6037  Y83.6992   
N12750  X86.7459  Y85.0470   
N12755  X87.0173  Y86.8084   
N12760  X87.3006  Y87.0467   
N12765  X87.6328  Y86.9036   
N12770  X88.2939  Y85.6122   
N12775  X88.7028  Y83.2135   
N12780  X88.9523  Y81.1933   
N12785  X89.6916  Y79.4962   
N12790  X91.3717  Y77.4183   
N12795  X94.4440  Y74.2555   
N12800  X99.9668  Y68.7030   
N12805  X105.4821  Y74.2630   
N12810  X108.5473  Y77.4273   
N12815  X110.2256  Y79.5080   
N12820  X110.9657  Y81.2057   
N12825  X111.2156  Y83.2210   
N12830  X111.5981  Y85.6037   
N12835  X112.2228  Y86.8141   
N12840  X112.5555  Y86.9209   
N12845  X112.8646  Y86.6641   
N12850  X113.2989  Y84.9654   
N12855  X113.5199  Y82.7709   
N12860  X115.0847  Y84.1355   
N12865  X115.8310  Y84.9411   
N12870  X116.3132  Y85.8807   
N12875  X116.6493  Y88.6365   
N12880  X116.9290  Y91.1643   
N12885  X117.6925  Y92.6389   
N12890  X118.2388  Y92.9454   
N12895  X118.5548  Y92.6016   
N12900  X118.7357  Y89.1654   
N12905  X118.6750  Y86.6785   
N12910  X118.3423  Y85.0582   
N12915  X117.5106  Y83.7322   
N12920  X115.9540  Y82.1267   
N12925  X113.1721  Y79.4272   
N12930  Y64.4747   
N12935  Y49.5222   
N12940  X116.0120   
N12945  X118.2287  Y49.2543   
N12950  X118.6391  Y48.9742   
N12955  X118.6169  Y48.6454   
N12960  X117.3736  Y47.9879   
N12965  X114.6961  Y47.5740   
N12970  X111.1139  Y47.3642   
N12975  X110.9260  Y62.0191   
N12980  X110.7382  Y76.6741   
N12985  X105.9960  Y72.0690   
N12990  X101.2541  Y67.4640   
N12995  X103.9058  Y65.1047   
N13000  X106.5576  Y62.7455   
N13005  X103.2583  Y59.4463   
N13010  X99.9591  Y56.1472   
N13015  X96.8011  Y59.3052   
N13020  X93.6431  Y62.4632   
N13025  X96.1019  Y64.9949   
N13030  X98.5609  Y67.5269   
N13035  X93.9571  Y72.0853   
N13040  X89.0929  Y76.6439   
N13045  X88.8321  Y62.0400   
N13050 G0  Z0.1000 
N13055 G1  Z-1.4000  
N13060  Y47.4360   
N13065  X85.4710   
N13070  X82.9608  Y47.5720   
N13075  X81.6461  Y47.8994   
N13080  X81.1878  Y48.6065   
N13085  X81.4232  Y49.1140   
N13090  X82.3497  Y49.4197   
N13095  X83.9642  Y49.5222   
N13100  X86.7459   
N13105  Y64.5017   
N13110  Y79.4814   
N13115  X83.9642  Y82.1275   
N13120  X82.4264  Y83.6864   
N13125  X81.5927  Y84.9721   
N13130  X81.2495  Y86.4947   
N13135  X81.1825  Y88.7643   
N13140  X81.4427  Y91.6170   
N13145  X81.7161  Y92.3302   
N13150  X82.0394  Y92.5679   
N13155  X82.3779  Y92.3304   
N13160  X82.6970  Y91.6172   
N13165  X83.1400  Y88.7647   
N13170  X83.8351  Y85.4862   
N13175  X85.0600  Y83.3694   
N13180  X85.6873  Y82.9361   
N13185  X86.2264  Y83.0209   
N13190  X86.6037  Y83.6992   
N13195  X86.7459  Y85.0470   
N13200  X87.0173  Y86.8084   
N13205  X87.3006  Y87.0467   
N13210  X87.6328  Y86.9036   
N13215  X88.2939  Y85.6122   
N13220  X88.7028  Y83.2135   
N13225  X88.9523  Y81.1933   
N13230  X89.6916  Y79.4962   
N13235  X91.3717  Y77.4183   
N13240  X94.4440  Y74.2555   
N13245  X99.9668  Y68.7030   
N13250  X105.4821  Y74.2630   
N13255  X108.5473  Y77.4273   
N13260  X110.2256  Y79.5080   
N13265  X110.9657  Y81.2057   
N13270  X111.2156  Y83.2210   
N13275  X111.5981  Y85.6037   
N13280  X112.2228  Y86.8141   
N13285  X112.5555  Y86.9209   
N13290  X112.8646  Y86.6641   
N13295  X113.2989  Y84.9654   
N13300  X113.5199  Y82.7709   
N13305  X115.0847  Y84.1355   
N13310  X115.8310  Y84.9411   
N13315  X116.3132  Y85.8807   
N13320  X116.6493  Y88.6365   
N13325  X116.9290  Y91.1643   
N13330  X117.6925  Y92.6389   
N13335  X118.2388  Y92.9454   
N13340  X118.5548  Y92.6016   
N13345  X118.7357  Y89.1654   
N13350  X118.6750  Y86.6785   
N13355  X118.3423  Y85.0582   
N13360  X117.5106  Y83.7322   
N13365  X115.9540  Y82.1267   
N13370  X113.1721  Y79.4272   
N13375  Y64.4747   
N13380  Y49.5222   
N13385  X116.0120   
N13390  X118.2287  Y49.2543   
N13395  X118.6391  Y48.9742   
N13400  X118.6169  Y48.6454   
N13405  X117.3736  Y47.9879   
N13410  X114.6961  Y47.5740   
N13415  X111.1139  Y47.3642   
N13420  X110.9260  Y62.0191   
N13425  X110.7382  Y76.6741   
N13430  X105.9960  Y72.0690   
N13435  X101.2541  Y67.4640   
N13440  X103.9058  Y65.1047   
N13445  X106.5576  Y62.7455   
N13450  X103.2583  Y59.4463   
N13455  X99.9591  Y56.1472   
N13460  X96.8011  Y59.3052   
N13465  X93.6431  Y62.4632   
N13470  X96.1019  Y64.9949   
N13475  X98.5609  Y67.5269   
N13480  X93.9571  Y72.0853   
N13485  X89.0929  Y76.6439   
N13490  X88.8321  Y62.0400   
N13495 G0  Z3.0000 
N13500  X99.2636  Y80.9818 
N13505  Z0.1000 
N13510 G1  Z-0.7000  
N13515  X99.0961  Y79.3915   
N13520  X98.6933  Y78.7302   
N13525  X94.1333  Y82.8961   
N13530  X84.8302  Y92.1969   
N13535  X75.5006  Y101.8376   
N13540  X70.8615  Y107.0233   
N13545  X70.1708  Y108.8731   
N13550  X70.0391  Y110.6684   
N13555  X70.4217  Y112.3499   
N13560  X71.2731  Y113.8585   
N13565  X72.5482  Y115.1350   
N13570  X74.2017  Y116.1198   
N13575  X76.1886  Y116.7542   
N13580  X78.4635  Y116.9789   
N13585  X79.9944  Y117.2040   
N13590  X80.8371  Y117.7909   
N13595  X80.9053  Y118.6066   
N13600  X80.1126  Y119.5183   
N13605  X79.0972  Y119.9367   
N13610  X77.3363  Y120.2424   
N13615  X71.4874  Y120.5269   
N13620  X64.1443  Y120.5976   
N13625  X70.0557  Y122.0061   
N13630  X75.6985  Y123.0166   
N13635  X81.6260  Y123.6527   
N13640  X85.7734  Y123.7618   
N13645  X86.5344  Y123.5709   
N13650  X86.0760  Y123.1911   
N13655  X84.7651  Y122.6125   
N13660  X84.1919  Y122.1193   
N13665  X84.2242  Y121.4216   
N13670  X84.7310  Y120.2296   
N13675  X85.1343  Y118.8603   
N13680  X85.1201  Y117.5263   
N13685  X84.7269  Y116.2732   
N13690  X83.9932  Y115.1462   
N13695  X82.9576  Y114.1905   
N13700  X81.6587  Y113.4519   
N13705  X80.1349  Y112.9752   
N13710  X78.4248  Y112.8063   
N13715  X76.5046  Y112.6740   
N13720  X75.2025  Y112.2563   
N13725  X74.4623  Y111.5212   
N13730  X74.2281  Y110.4370   
N13735  X74.5360  Y108.8124   
N13740  X75.7125  Y107.8380   
N13745  X78.1376  Y107.3607   
N13750  X82.1908  Y107.2277   
N13755  X87.0753  Y106.9549   
N13760  X90.8273  Y106.1009   
N13765  X93.7063  Y104.5727   
N13770  X95.9727  Y102.2768   
N13775  X97.2212  Y100.2073   
N13780  X98.2697  Y97.7928   
N13785  X98.8816  Y95.6794   
N13790  X98.8197  Y94.5130   
N13795  X97.3732  Y95.5781   
N13800  X94.3251  Y98.5687   
N13805  X91.6905  Y101.1046   
N13810  X89.4974  Y102.8275   
N13815  X87.9973  Y103.5699   
N13820  X87.5855  Y103.5208   
N13825  X87.4413  Y103.1636   
N13830  X93.3525  Y96.8113   
N13835  X98.0264  Y91.7583   
N13840  X98.9843  Y90.2126   
N13845  X99.2636  Y89.0032   
N13850  X99.1073  Y87.6416   
N13855  X98.7312  Y87.0755   
N13860  X95.9280  Y89.5088   
N13865  X89.9362  Y95.3595   
N13870  X83.5520  Y101.3991   
N13875  X81.6414  Y102.8772   
N13880  X80.6672  Y103.2575   
N13885  X80.7993  Y102.5019   
N13890  X82.2726  Y100.5915   
N13895  X89.4621  Y93.0523   
N13900  X97.5746  Y84.5372   
N13905  X98.9366  Y82.4910   
N13910  X99.2636  Y80.9818   
N13915 G0  Z0.1000 
N13920 G1  Z-1.4000  
N13925  X99.0961  Y79.3915   
N13930  X98.6933  Y78.7302   
N13935  X94.1333  Y82.8961   
N13940  X84.8302  Y92.1969   
N13945  X75.5006  Y101.8376   
N13950  X70.8615  Y107.0233   
N13955  X70.1708  Y108.8731   
N13960  X70.0391  Y110.6684   
N13965  X70.4217  Y112.3499   
N13970  X71.2731  Y113.8585   
N13975  X72.5482  Y115.1350   
N13980  X74.2017  Y116.1198   
N13985  X76.1886  Y116.7542   
N13990  X78.4635  Y116.9789   
N13995  X79.9944  Y117.2040   
N14000  X80.8371  Y117.7909   
N14005  X80.9053  Y118.6066   
N14010  X80.1126  Y119.5183   
N14015  X79.0972  Y119.9367   
N14020  X77.3363  Y120.2424   
N14025  X71.4874  Y120.5269   
N14030  X64.1443  Y120.5976   
N14035  X70.0557  Y122.0061   
N14040  X75.6985  Y123.0166   
N14045  X81.6260  Y123.6527   
N14050  X85.7734  Y123.7618   
N14055  X86.5344  Y123.5709   
N14060  X86.0760  Y123.1911   
N14065  X84.7651  Y122.6125   
N14070  X84.1919  Y122.1193   
N14075  X84.2242  Y121.4216   
N14080  X84.7310  Y120.2296   
N14085  X85.1343  Y118.8603   
N14090  X85.1201  Y117.5263   
N14095  X84.7269  Y116.2732   
N14100  X83.9932  Y115.1462   
N14105  X82.9576  Y114.1905   
N14110  X81.6587  Y113.4519   
N14115  X80.1349  Y112.9752   
N14120  X78.4248  Y112.8063   
N14125  X76.5046  Y112.6740   
N14130  X75.2025  Y112.2563   
N14135  X74.4623  Y111.5212   
N14140  X74.2281  Y110.4370   
N14145  X74.5360  Y108.8124   
N14150  X75.7125  Y107.8380   
N14155  X78.1376  Y107.3607   
N14160  X82.1908  Y107.2277   
N14165  X87.0753  Y106.9549   
N14170  X90.8273  Y106.1009   
N14175  X93.7063  Y104.5727   
N14180  X95.9727  Y102.2768   
N14185  X97.2212  Y100.2073   
N14190  X98.2697  Y97.7928   
N14195  X98.8816  Y95.6794   
N14200  X98.8197  Y94.5130   
N14205  X97.3732  Y95.5781   
N14210  X94.3251  Y98.5687   
N14215  X91.6905  Y101.1046   
N14220  X89.4974  Y102.8275   
N14225  X87.9973  Y103.5699   
N14230  X87.5855  Y103.5208   
N14235  X87.4413  Y103.1636   
N14240  X93.3525  Y96.8113   
N14245  X98.0264  Y91.7583   
N14250  X98.9843  Y90.2126   
N14255  X99.2636  Y89.0032   
N14260  X99.1073  Y87.6416   
N14265  X98.7312  Y87.0755   
N14270  X95.9280  Y89.5088   
N14275  X89.9362  Y95.3595   
N14280  X83.5520  Y101.3991   
N14285  X81.6414  Y102.8772   
N14290  X80.6672  Y103.2575   
N14295  X80.7993  Y102.5019   
N14300  X82.2726  Y100.5915   
N14305  X89.4621  Y93.0523   
N14310  X97.5746  Y84.5372   
N14315  X98.9366  Y82.4910   
N14320  X99.2636  Y80.9818   
N14325 G0  Z3.0000 
N14330  X110.7985  Y88.2924 
N14335  Z0.1000 
N14340 G1  Z-0.7000  
N14345  X101.0132  Y78.7302   
N14350  X100.6546  Y80.9997   
N14355  X100.9743  Y82.5137   
N14360  X102.3186  Y84.5422   
N14365  X110.3904  Y92.9866   
N14370  X120.1265  Y103.1698   
N14375  X119.9607  Y103.5542   
N14380  X119.4641  Y103.5350   
N14385  X117.4865  Y102.2912   
N14390  X109.6429  Y95.0206   
N14395  X103.8911  Y89.4093   
N14400  X101.1874  Y87.0755   
N14405  X100.8111  Y87.6416   
N14410  X100.6546  Y89.0032   
N14415  X100.9337  Y90.2126   
N14420  X101.8918  Y91.7583   
N14425  X106.5657  Y96.8113   
N14430  X112.4769  Y103.2070   
N14435  X112.3485  Y103.5262   
N14440  X111.9730  Y103.5597   
N14445  X110.5339  Y102.8070   
N14450  X105.2808  Y98.2803   
N14455  X100.5188  Y93.6821   
N14460  X101.0181  Y96.1161   
N14465  X101.7749  Y98.8061   
N14470  X102.8699  Y101.1048   
N14475  X104.3178  Y103.0223   
N14480  X106.1334  Y104.5686   
N14485  X108.3314  Y105.7535   
N14490  X110.9266  Y106.5878   
N14495  X113.9340  Y107.0808   
N14500  X117.3682  Y107.2429   
N14505  X121.2251  Y107.3866   
N14510  X123.8016  Y107.8480   
N14515  X125.2418  Y108.6738   
N14520  X125.6899  Y109.9100   
N14525  X125.4141  Y111.1908   
N14530  X124.5769  Y112.0944   
N14535  X123.1643  Y112.6298   
N14540  X121.1618  Y112.8063   
N14545  X119.5065  Y112.9752   
N14550  X118.0491  Y113.4552   
N14555  X116.8204  Y114.2059   
N14560  X115.8511  Y115.1870   
N14565  X115.1722  Y116.3582   
N14570  X114.8142  Y117.6795   
N14575  X114.8083  Y119.1105   
N14580  X115.1850  Y120.6106   
N14585  X115.5022  Y121.6144   
N14590  X115.4624  Y122.2610   
N14595  X114.9893  Y122.7138   
N14600  X114.0068  Y123.1365   
N14605  X112.1291  Y123.8235   
N14610  X114.2153  Y123.9587   
N14615  X120.1139  Y123.9701   
N14620  X123.8312  Y123.4448   
N14625  X130.1766  Y121.7901   
N14630  X135.7737  Y120.5976   
N14635  X128.1241  Y120.5162   
N14640  X122.4363  Y120.2781   
N14645  X119.5036  Y119.8201   
N14650  X118.8241  Y118.9575   
N14655  X119.0245  Y118.0273   
N14660  X119.9367  Y117.2833   
N14665  X121.3919  Y116.9789   
N14670  X124.8552  Y116.4500   
N14675  X126.3010  Y115.8151   
N14680  X127.5293  Y114.9566   
N14685  X128.5197  Y113.8921   
N14690  X129.2522  Y112.6391   
N14695  X129.7066  Y111.2148   
N14700  X129.8625  Y109.6372   
N14705  X129.4977  Y108.1282   
N14710  X127.3008  Y105.3017   
N14715  X110.7985  Y88.2924   
N14720 G0  Z0.1000 
N14725 G1  Z-1.4000  
N14730  X101.0132  Y78.7302   
N14735  X100.6546  Y80.9997   
N14740  X100.9743  Y82.5137   
N14745  X102.3186  Y84.5422   
N14750  X110.3904  Y92.9866   
N14755  X120.1265  Y103.1698   
N14760  X119.9607  Y103.5542   
N14765  X119.4641  Y103.5350   
N14770  X117.4865  Y102.2912   
N14775  X109.6429  Y95.0206   
N14780  X103.8911  Y89.4093   
N14785  X101.1874  Y87.0755   
N14790  X100.8111  Y87.6416   
N14795  X100.6546  Y89.0032   
N14800  X100.9337  Y90.2126   
N14805  X101.8918  Y91.7583   
N14810  X106.5657  Y96.8113   
N14815  X112.4769  Y103.2070   
N14820  X112.3485  Y103.5262   
N14825  X111.9730  Y103.5597   
N14830  X110.5339  Y102.8070   
N14835  X105.2808  Y98.2803   
N14840  X100.5188  Y93.6821   
N14845  X101.0181  Y96.1161   
N14850  X101.7749  Y98.8061   
N14855  X102.8699  Y101.1048   
N14860  X104.3178  Y103.0223   
N14865  X106.1334  Y104.5686   
N14870  X108.3314  Y105.7535   
N14875  X110.9266  Y106.5878   
N14880  X113.9340  Y107.0808   
N14885  X117.3682  Y107.2429   
N14890  X121.2251  Y107.3866   
N14895  X123.8016  Y107.8480   
N14900  X125.2418  Y108.6738   
N14905  X125.6899  Y109.9100   
N14910  X125.4141  Y111.1908   
N14915  X124.5769  Y112.0944   
N14920  X123.1643  Y112.6298   
N14925  X121.1618  Y112.8063   
N14930  X119.5065  Y112.9752   
N14935  X118.0491  Y113.4552   
N14940  X116.8204  Y114.2059   
N14945  X115.8511  Y115.1870   
N14950  X115.1722  Y116.3582   
N14955  X114.8142  Y117.6795   
N14960  X114.8083  Y119.1105   
N14965  X115.1850  Y120.6106   
N14970  X115.5022  Y121.6144   
N14975  X115.4624  Y122.2610   
N14980  X114.9893  Y122.7138   
N14985  X114.0068  Y123.1365   
N14990  X112.1291  Y123.8235   
N14995  X114.2153  Y123.9587   
N15000  X120.1139  Y123.9701   
N15005  X123.8312  Y123.4448   
N15010  X130.1766  Y121.7901   
N15015  X135.7737  Y120.5976   
N15020  X128.1241  Y120.5162   
N15025  X122.4363  Y120.2781   
N15030  X119.5036  Y119.8201   
N15035  X118.8241  Y118.9575   
N15040  X119.0245  Y118.0273   
N15045  X119.9367  Y117.2833   
N15050  X121.3919  Y116.9789   
N15055  X124.8552  Y116.4500   
N15060  X126.3010  Y115.8151   
N15065  X127.5293  Y114.9566   
N15070  X128.5197  Y113.8921   
N15075  X129.2522  Y112.6391   
N15080  X129.7066  Y111.2148   
N15085  X129.8625  Y109.6372   
N15090  X129.4977  Y108.1282   
N15095  X127.3008  Y105.3017   
N15100  X110.7985  Y88.2924   
N15105 G0  Z3.0000 
N15110  X104.3778  Y108.2528 
N15115  Z0.1000 
N15120 G1  Z-0.7000  
N15125  X102.2011  Y106.9054   
N15130  X99.7795  Y106.4815   
N15135  X97.4140  Y106.9771   
N15140  X95.4056  Y108.3876   
N15145  X94.0377  Y110.1338   
N15150  X93.6513  Y111.2570   
N15155  X93.8207  Y111.5423   
N15160  X94.2285  Y111.6201   
N15165  X95.7520  Y111.0857   
N15170  X97.8340  Y110.3362   
N15175  X99.9591  Y110.0246   
N15180  X102.0840  Y110.3362   
N15185  X104.1663  Y111.0857   
N15190  X105.8866  Y111.7985   
N15195  X106.1579  Y111.6091   
N15200  X106.2180  Y111.0524   
N15205  X105.6775  Y109.7787   
N15210  X104.3778  Y108.2528   
N15215 G0  Z0.1000 
N15220 G1  Z-1.4000  
N15225  X102.2011  Y106.9054   
N15230  X99.7795  Y106.4815   
N15235  X97.4140  Y106.9771   
N15240  X95.4056  Y108.3876   
N15245  X94.0377  Y110.1338   
N15250  X93.6513  Y111.2570   
N15255  X93.8207  Y111.5423   
N15260  X94.2285  Y111.6201   
N15265  X95.7520  Y111.0857   
N15270  X97.8340  Y110.3362   
N15275  X99.9591  Y110.0246   
N15280  X102.0840  Y110.3362   
N15285  X104.1663  Y111.0857   
N15290  X105.8866  Y111.7985   
N15295  X106.1579  Y111.6091   
N15300  X106.2180  Y111.0524   
N15305  X105.6775  Y109.7787   
N15310  X104.3778  Y108.2528   
N15315 G0  Z3.0000 
N15320  X93.7002  Y113.7961 
N15325  Z0.1000 
N15330 G1  Z-0.7000  
N15335  X93.5346  Y113.3454   
N15340  X93.0126  Y113.0438   
N15345  X90.7447  Y112.8370   
N15350  X87.7891  Y112.8678   
N15355  X90.5402  Y114.3181   
N15360  X93.2916  Y115.7683   
N15365  X91.2357  Y117.4806   
N15370  X89.1798  Y119.1929   
N15375  X91.8868  Y118.7312   
N15380  X94.5938  Y118.2695   
N15385  X94.1907  Y120.7536   
N15390  X94.0440  Y122.3939   
N15395  X94.3029  Y123.1138   
N15400  X94.9916  Y122.9269   
N15405  X96.1342  Y121.8468   
N15410  X97.2141  Y120.8145   
N15415  X97.9641  Y120.5677   
N15420  X98.4946  Y121.1346   
N15425  X98.9159  Y122.5423   
N15430  X99.4113  Y124.0157   
N15435  X99.9591  Y124.6285   
N15440  X100.5067  Y124.0157   
N15445  X101.0021  Y122.5423   
N15450  X101.3930  Y121.1257   
N15455  X101.8766  Y120.5836   
N15460  X102.6501  Y120.8766   
N15465  X103.9102  Y121.9655   
N15470  X105.1292  Y122.9458   
N15475  X105.7924  Y123.0466   
N15480  X105.9229  Y122.2474   
N15485  X105.5432  Y120.5282   
N15490  X104.8923  Y118.2585   
N15495  X107.8153  Y118.7139   
N15500  X110.7382  Y119.1692   
N15505  X108.6823  Y117.4688   
N15510  X106.6264  Y115.7683   
N15515  X109.3778  Y114.3181   
N15520  X112.1291  Y112.8678   
N15525  X109.1736  Y112.8370   
N15530  X106.8555  Y113.0495   
N15535  X106.3646  Y113.3825   
N15540  X106.2180  Y113.9029   
N15545  X105.6209  Y115.2745   
N15550  X104.1852  Y117.0323   
N15555  X101.9704  Y118.6289   
N15560  X99.6940  Y119.1420   
N15565  X97.4920  Y118.5737   
N15570  X95.5006  Y116.9255   
N15575  X94.2291  Y115.1237   
N15580  X93.7002  Y113.7961   
N15585 G0  Z0.1000 
N15590 G1  Z-1.4000  
N15595  X93.5346  Y113.3454   
N15600  X93.0126  Y113.0438   
N15605  X90.7447  Y112.8370   
N15610  X87.7891  Y112.8678   
N15615  X90.5402  Y114.3181   
N15620  X93.2916  Y115.7683   
N15625  X91.2357  Y117.4806   
N15630  X89.1798  Y119.1929   
N15635  X91.8868  Y118.7312   
N15640  X94.5938  Y118.2695   
N15645  X94.1907  Y120.7536   
N15650  X94.0440  Y122.3939   
N15655  X94.3029  Y123.1138   
N15660  X94.9916  Y122.9269   
N15665  X96.1342  Y121.8468   
N15670  X97.2141  Y120.8145   
N15675  X97.9641  Y120.5677   
N15680  X98.4946  Y121.1346   
N15685  X98.9159  Y122.5423   
N15690  X99.4113  Y124.0157   
N15695  X99.9591  Y124.6285   
N15700  X100.5067  Y124.0157   
N15705  X101.0021  Y122.5423   
N15710  X101.3930  Y121.1257   
N15715  X101.8766  Y120.5836   
N15720  X102.6501  Y120.8766   
N15725  X103.9102  Y121.9655   
N15730  X105.1292  Y122.9458   
N15735  X105.7924  Y123.0466   
N15740  X105.9229  Y122.2474   
N15745  X105.5432  Y120.5282   
N15750  X104.8923  Y118.2585   
N15755  X107.8153  Y118.7139   
N15760  X110.7382  Y119.1692   
N15765  X108.6823  Y117.4688   
N15770  X106.6264  Y115.7683   
N15775  X109.3778  Y114.3181   
N15780  X112.1291  Y112.8678   
N15785  X109.1736  Y112.8370   
N15790  X106.8555  Y113.0495   
N15795  X106.3646  Y113.3825   
N15800  X106.2180  Y113.9029   
N15805  X105.6209  Y115.2745   
N15810  X104.1852  Y117.0323   
N15815  X101.9704  Y118.6289   
N15820  X99.6940  Y119.1420   
N15825  X97.4920  Y118.5737   
N15830  X95.5006  Y116.9255   
N15835  X94.2291  Y115.1237   
N15840  X93.7002  Y113.7961   
N15845 G0  Z3.0000 
N15850  X78.2703  Y122.3219 
N15855  Z0.1000 
N15860 G1  Z-0.7000  
N15865  X79.0385  Y122.4566   
N15870  X79.6033  Y122.2671   
N15875  X79.5084  Y121.9864   
N15880  X78.6906  Y121.9018   
N15885  X77.9687  Y122.0412   
N15890  X78.2703  Y122.3219   
N15895 G0  Z0.1000 
N15900 G1  Z-1.4000  
N15905  X79.0385  Y122.4566   
N15910  X79.6033  Y122.2671   
N15915  X79.5084  Y121.9864   
N15920  X78.6906  Y121.9018   
N15925  X77.9687  Y122.0412   
N15930  X78.2703  Y122.3219   
N15935 G0  Z3.0000 
N15940  X66.5785  Y135.9874 
N15945  Z0.1000 
N15950 G1  Z-0.7000  
N15955  X66.3043  Y133.4489   
N15960  X65.7811  Y133.0578   
N15965  X64.8398  Y132.9738   
N15970  X63.8370  Y133.0805   
N15975  X63.3205  Y133.8124   
N15980  X63.1013  Y139.6221   
N15985  Y146.2705   
N15990  X65.2473  Y145.9322   
N15995  X67.0007  Y145.4181   
N16000  X68.2028  Y144.6570   
N16005  X70.5623  Y142.4250   
N16010  X71.5004  Y141.7252   
N16015  X72.2787  Y141.6273   
N16020  X73.2977  Y142.2468   
N16025  X74.9573  Y143.7007   
N16030  X77.4585  Y145.5499   
N16035  X79.3186  Y146.0552   
N16040  X80.1578  Y145.7761   
N16045  X80.6376  Y144.9081   
N16050  X81.0346  Y139.4066   
N16055  X81.2347  Y132.9738   
N16060  X79.1223   
N16065  X77.9139  Y133.0375   
N16070  X77.2854  Y133.4450   
N16075  X77.0471  Y134.5203   
N16080  X77.0098  Y136.5874   
N16085  Y140.2008   
N16090  X74.5759  Y137.8418   
N16095  X72.1419  Y135.4827   
N16100  X69.8361  Y137.7176   
N16105  X68.0676  Y139.1562   
N16110  X67.0544  Y139.4768   
N16115  X66.7183  Y138.2554   
N16120  X66.5785  Y135.9874   
N16125 G0  Z0.1000 
N16130 G1  Z-1.4000  
N16135  X66.3043  Y133.4489   
N16140  X65.7811  Y133.0578   
N16145  X64.8398  Y132.9738   
N16150  X63.8370  Y133.0805   
N16155  X63.3205  Y133.8124   
N16160  X63.1013  Y139.6221   
N16165  Y146.2705   
N16170  X65.2473  Y145.9322   
N16175  X67.0007  Y145.4181   
N16180  X68.2028  Y144.6570   
N16185  X70.5623  Y142.4250   
N16190  X71.5004  Y141.7252   
N16195  X72.2787  Y141.6273   
N16200  X73.2977  Y142.2468   
N16205  X74.9573  Y143.7007   
N16210  X77.4585  Y145.5499   
N16215  X79.3186  Y146.0552   
N16220  X80.1578  Y145.7761   
N16225  X80.6376  Y144.9081   
N16230  X81.0346  Y139.4066   
N16235  X81.2347  Y132.9738   
N16240  X79.1223   
N16245  X77.9139  Y133.0375   
N16250  X77.2854  Y133.4450   
N16255  X77.0471  Y134.5203   
N16260  X77.0098  Y136.5874   
N16265  Y140.2008   
N16270  X74.5759  Y137.8418   
N16275  X72.1419  Y135.4827   
N16280  X69.8361  Y137.7176   
N16285  X68.0676  Y139.1562   
N16290  X67.0544  Y139.4768   
N16295  X66.7183  Y138.2554   
N16300  X66.5785  Y135.9874   
N16305 G0  Z3.0000 
N16310  X87.9890  Y139.4066 
N16315  Z0.1000 
N16320 G1  Z-0.7000  
N16325  X88.1889  Y132.9738   
N16330  X86.4244   
N16335  X84.6596   
N16340  Y139.6288   
N16345  X84.8686  Y145.3654   
N16350  X85.3348  Y146.0625   
N16355  X86.2243  Y146.0615   
N16360  X87.0966  Y145.7869   
N16365  X87.5896  Y144.9319   
N16370  X87.9890  Y139.4066   
N16375 G0  Z0.1000 
N16380 G1  Z-1.4000  
N16385  X88.1889  Y132.9738   
N16390  X86.4244   
N16395  X84.6596   
N16400  Y139.6288   
N16405  X84.8686  Y145.3654   
N16410  X85.3348  Y146.0625   
N16415  X86.2243  Y146.0615   
N16420  X87.0966  Y145.7869   
N16425  X87.5896  Y144.9319   
N16430  X87.9890  Y139.4066   
N16435 G0  Z3.0000 
N16440  X95.8215  Y134.4300 
N16445  Z0.1000 
N16450 G1  Z-0.7000  
N16455  X94.7206  Y133.3348   
N16460  X92.9661  Y132.9738   
N16465  X90.8901   
N16470  X92.2093  Y135.5817   
N16475  X95.0943  Y141.6667   
N16480  X96.2915  Y144.0991   
N16485  X97.3487  Y145.4539   
N16490  X98.6028  Y146.0101   
N16495  X100.3912  Y146.0459   
N16500  X101.6619  Y145.8052   
N16505  X102.7217  Y144.9452   
N16510  X103.9626  Y142.9849   
N16515  X105.7764  Y139.4442   
N16520  X108.9906  Y132.9738   
N16525  X106.9332   
N16530  X105.1943  Y133.3366   
N16535  X104.0967  Y134.4300   
N16540  X103.3172  Y135.8862   
N16545  X101.6383  Y134.3088   
N16550  X99.9591  Y132.7314   
N16555  X98.2800  Y134.3088   
N16560  X96.6008  Y135.8862   
N16565  X95.8215  Y134.4300   
N16570 G0  Z0.1000 
N16575 G1  Z-1.4000  
N16580  X94.7206  Y133.3348   
N16585  X92.9661  Y132.9738   
N16590  X90.8901   
N16595  X92.2093  Y135.5817   
N16600  X95.0943  Y141.6667   
N16605  X96.2915  Y144.0991   
N16610  X97.3487  Y145.4539   
N16615  X98.6028  Y146.0101   
N16620  X100.3912  Y146.0459   
N16625  X101.6619  Y145.8052   
N16630  X102.7217  Y144.9452   
N16635  X103.9626  Y142.9849   
N16640  X105.7764  Y139.4442   
N16645  X108.9906  Y132.9738   
N16650  X106.9332   
N16655  X105.1943  Y133.3366   
N16660  X104.0967  Y134.4300   
N16665  X103.3172  Y135.8862   
N16670  X101.6383  Y134.3088   
N16675  X99.9591  Y132.7314   
N16680  X98.2800  Y134.3088   
N16685  X96.6008  Y135.8862   
N16690  X95.8215  Y134.4300   
N16695 G0  Z3.0000 
N16700  X98.9141  Y138.5400 
N16705  Z0.1000 
N16710 G1  Z-0.7000  
N16715  X98.7071  Y139.6021   
N16720  X98.8790  Y141.0721   
N16725  X99.4334  Y142.3442   
N16730  X99.8176  Y142.3387   
N16735  X100.3689  Y141.9628   
N16740  X101.0118  Y140.9945   
N16745  X101.1872  Y139.7847   
N16750  X100.9105  Y138.6817   
N16755  X100.1966  Y138.0334   
N16760  X99.4876  Y138.0728   
N16765  X98.9141  Y138.5400   
N16770 G0  Z0.1000 
N16775 G1  Z-1.4000  
N16780  X98.7071  Y139.6021   
N16785  X98.8790  Y141.0721   
N16790  X99.4334  Y142.3442   
N16795  X99.8176  Y142.3387   
N16800  X100.3689  Y141.9628   
N16805  X101.0118  Y140.9945   
N16810  X101.1872  Y139.7847   
N16815  X100.9105  Y138.6817   
N16820  X100.1966  Y138.0334   
N16825  X99.4876  Y138.0728   
N16830  X98.9141  Y138.5400   
N16835 G0  Z3.0000 
N16840  X115.2586  Y136.4510 
N16845  Z0.1000 
N16850 G1  Z-0.7000  
N16855  X114.9978  Y133.4955   
N16860  X114.4762  Y133.0608   
N16865  X113.5199  Y132.9738   
N16870  X112.5175  Y133.0803   
N16875  X112.0010  Y133.8083   
N16880  X111.7814  Y139.5805   
N16885  X111.9923  Y145.1963   
N16890  X112.4142  Y146.0219   
N16895  X113.1877  Y146.1869   
N16900  X115.0606  Y145.3763   
N16905  X117.5882  Y143.4271   
N16910  X120.5824  Y140.6672   
N16915  X123.2295  Y143.3782   
N16920  X125.6856  Y145.4311   
N16925  X126.7146  Y145.8644   
N16930  X127.6959  Y145.9509   
N16935  X128.7446  Y145.7640   
N16940  X129.3076  Y145.0086   
N16945  X129.7147  Y139.3932   
N16950  X129.9148  Y132.9738   
N16955  X127.8023   
N16960  X126.5939  Y133.0375   
N16965  X125.9655  Y133.4450   
N16970  X125.7273  Y134.5203   
N16975  X125.6899  Y136.5874   
N16980  Y140.2008   
N16985  X123.2559  Y137.8418   
N16990  X120.8220  Y135.4827   
N16995  X118.5287  Y137.7054   
N17000  X115.7470  Y139.9280   
N17005  X115.4021  Y138.9067   
N17010  X115.2586  Y136.4510   
N17015 G0  Z0.1000 
N17020 G1  Z-1.4000  
N17025  X114.9978  Y133.4955   
N17030  X114.4762  Y133.0608   
N17035  X113.5199  Y132.9738   
N17040  X112.5175  Y133.0803   
N17045  X112.0010  Y133.8083   
N17050  X111.7814  Y139.5805   
N17055  X111.9923  Y145.1963   
N17060  X112.4142  Y146.0219   
N17065  X113.1877  Y146.1869   
