N5 (File Name = inter on Friday, November 10, 2023)
N10 (Default Mill Post)
N15  G91.1
N20 G0  Z3.0000 
N25 M3 S4000 
N30  X29.4045  Y50.5337 
N35  Z0.1000 
N40 G1  Z-1.0000  F100.00 
N45  X27.4858  Y49.2575   F300.00 
N50  X25.3036  Y48.8021   
N55  X23.1645  Y49.1735   
N60  X21.3756  Y50.3776   
N65  X20.3125  Y51.8042   
N70  X19.6203  Y53.3377   
N75  X19.3469  Y54.8286   
N80  X19.5401  Y56.1272   
N85  X20.1901  Y56.9633   
N90  X21.0316  Y57.1452   
N95  X21.7602  Y56.7202   
N100  X22.0709  Y55.7354   
N105  X22.3037  Y54.1124   
N110  X22.9432  Y52.8025   
N115  X23.9000  Y51.9272   
N120  X25.0858  Y51.6084   
N125  X26.2650  Y51.7955   
N130  X27.2057  Y52.3006   
N135  X27.8856  Y53.0396   
N140  X28.2820  Y53.9285   
N145  X28.3733  Y54.8828   
N150  X28.1366  Y55.8187   
N155  X27.5501  Y56.6520   
N160  X26.5913  Y57.2984   
N165  X25.5118  Y58.1486   
N170  X24.9044  Y59.2642   
N175  X24.8910  Y60.2345   
N180  X25.5938  Y60.6490   
N185  X26.6666  Y60.3963   
N190  X27.9826  Y59.7483   
N195  X30.2200  Y57.9276   
N200  X30.9723  Y56.2341   
N205  X31.0632  Y54.2214   
N210  X30.5287  Y52.2132   
N215  X29.4045  Y50.5337   
N220 G0  Z3.0000 
N225  X20.3251  Y64.5479 
N230  Z0.1000 
N235 G1  Z-1.0000  F100.00 
N240  X15.4684  Y62.8514   F300.00 
N245  X14.6140  Y63.0169   
N250  X14.1697  Y63.7783   
N255  X14.2937  Y64.5477   
N260  X15.2685  Y65.3652   
N265  X19.9218  Y67.2357   
N270  X20.7306  Y67.5835   
N275  X21.1379  Y68.1033   
N280  X21.0172  Y70.4480   
N285  X20.8621  Y72.5902   
N290  X21.0870  Y73.0355   
N295  X21.5333  Y73.1668   
N300  X22.4681  Y72.4961   
N305  X23.5629  Y70.8897   
N310  X24.4727  Y68.9567   
N315  X24.8526  Y67.3061   
N320  X23.5227  Y66.1058   
N325  X20.3251  Y64.5479   
N330 G0  Z3.0000 
N335  X19.3592  Y77.0550 
N340  Z0.1000 
N345 G1  Z-1.0000  F100.00 
N350  X17.3819  Y75.9353   F300.00 
N355  X14.4829  Y74.9216   
N360  X11.3624  Y74.3241   
N365  X10.7046  Y74.5964   
N370  X10.2316  Y75.2847   
N375  X9.9639  Y75.9938   
N380  X10.1640  Y76.4937   
N385  X12.4998  Y77.3516   
N390  X17.2583  Y78.7917   
N395  X17.8024  Y79.4205   
N400  X17.7650  Y80.3547   
N405  X17.3486  Y81.3140   
N410  X16.3127  Y81.7585   
N415  X14.4522  Y81.7171   
N420  X11.5627  Y81.2178   
N425  X9.4727  Y81.0309   
N430  X8.9444  Y81.2937   
N435  X8.6205  Y81.8227   
N440  X8.6670  Y82.7173   
N445  X9.6199  Y83.4597   
N450  X11.5656  Y84.0905   
N455  X14.5900  Y84.6510   
N460  X17.4470  Y84.7716   
N465  X18.3536  Y84.3969   
N470  X19.2206  Y83.6669   
N475  X20.2545  Y82.0893   
N480  X20.6263  Y80.2719   
N485  X20.3298  Y78.4993   
N490  X19.3592  Y77.0550   
N495 G0  Z3.0000 
N500  X18.4677  Y93.9050 
N505  Z0.1000 
N510 G1  Z-1.0000  F100.00 
N515  X18.2460  Y91.5957   F300.00 
N520  X12.5087  Y91.3938   
N525  X6.7714  Y91.1917   
N530  Y93.8938   
N535  X7.1079  Y96.0551   
N540  X8.0147  Y97.6962   
N545  X9.3371  Y98.6383   
N550  X10.9204  Y98.7024   
N555  X12.0328  Y98.6265   
N560  X12.7230  Y98.9630   
N565  X13.4920  Y99.4081   
N570  X14.7938  Y99.5932   
N575  X16.3391  Y99.1227   
N580  X17.5655  Y97.8648   
N585  X18.3244  Y96.0490   
N590  X18.4677  Y93.9050   
N595 G0  Z3.0000 
N600  X13.7258  Y95.4206 
N605  Z0.1000 
N610 G1  Z-1.0000  F100.00 
N615  X14.0299  Y96.4058   F300.00 
N620  X14.7690  Y96.8113   
N625  X15.5078  Y96.4058   
N630  X15.8120  Y95.4206   
N635  X15.5078  Y94.4353   
N640  X14.7690  Y94.0296   
N645  X14.0299  Y94.4353   
N650  X13.7258  Y95.4206   
N655 G0  Z3.0000 
N660  X9.5531  Y95.1308 
N665  Z0.1000 
N670 G1  Z-1.0000  F100.00 
N675  X9.7938  Y95.7872   F300.00 
N680  X10.3554  Y95.9373   
N685  X10.9977  Y95.6151   
N690  X11.4801  Y94.8556   
N695  X11.3511  Y94.2723   
N700  X10.6543  Y94.0296   
N705  X9.8766  Y94.3531   
N710  X9.5531  Y95.1308   
N715 G0  Z3.0000 
N720  X19.2892  Y114.7967 
N725  Z0.1000 
N730 G1  Z-1.0000  F100.00 
N735  X19.1064  Y113.9605   F300.00 
N740  X18.2523  Y113.6397   
N745  X12.6906  Y114.4468   
N750  X9.4232  Y115.3370   
N755  X8.6270  Y115.8519   
N760  X8.2933  Y116.4573   
N765  X8.4752  Y117.3056   
N770  X9.5776  Y117.6513   
N775  X11.8016  Y117.5062   
N780  X15.3483  Y116.8829   
N785  X18.4800  Y115.9881   
N790  X19.1088  Y115.4644   
N795  X19.2892  Y114.7967   
N800 G0  Z3.0000 
N805  X21.3718  Y123.7594 
N810  Z0.1000 
N815 G1  Z-1.0000  F100.00 
N820  X21.0440  Y122.8774   F300.00 
N825  X19.6371  Y122.8242   
N830  X16.5264  Y123.7150   
N835  X11.0880  Y125.6662   
N840  X10.6115  Y125.9787   
N845  X10.4688  Y126.4088   
N850  X11.0503  Y127.4810   
N855  X12.5639  Y128.6013   
N860  X14.7408  Y129.4888   
N865  X16.9707  Y130.2499   
N870  X17.8984  Y130.8381   
N875  X17.1834  Y131.4254   
N880  X15.4643  Y132.1837   
N885  X14.0345  Y132.9066   
N890  X13.1913  Y133.7592   
N895  X13.0149  Y134.6084   
N900  X13.5850  Y135.3209   
N905  X15.4574  Y135.0352   
N910  X19.1796  Y133.8674   
N915  X22.6642  Y132.3834   
N920  X23.5779  Y131.7266   
N925  X23.9434  Y131.0995   
N930  X23.7634  Y130.4821   
N935  X23.0413  Y129.8541   
N940  X19.9819  Y128.4850   
N945  X16.1714  Y127.1153   
N950  X18.7699  Y126.0459   
N955  X20.6701  Y124.9367   
N960  X21.3718  Y123.7594   
N965 G0  Z3.0000 
N970  X28.6195  Y140.3753 
N975  Z0.1000 
N980 G1  Z-1.0000  F100.00 
N985  X28.1977  Y139.5509   F300.00 
N990  X27.5259  Y139.3780   
N995  X23.8186  Y141.2977   
N1000  X20.8995  Y142.7621   
N1005  X20.2090  Y142.7592   
N1010  X19.7853  Y142.3290   
N1015  X19.0901  Y141.6168   
N1020  X18.2347  Y141.3456   
N1025  X17.5085  Y141.5307   
N1030  X17.2010  Y142.1883   
N1035  X17.7131  Y144.0596   
N1040  X18.9383  Y146.3002   
N1045  X20.4004  Y148.1799   
N1050  X21.6236  Y148.9686   
N1055  X22.5667  Y148.6264   
N1060  X22.4969  Y147.2946   
N1065  X22.3953  Y146.3582   
N1070  X22.7372  Y145.5793   
N1075  X25.3771  Y143.7155   
N1080  X28.8677  Y141.6645   
N1085  X28.6195  Y140.3753   
N1090 G0  Z3.0000 
N1095  X35.9157  Y150.9744 
N1100  Z0.1000 
N1105 G1  Z-1.0000  F100.00 
N1110  X33.3132  Y148.2784   F300.00 
N1115  X28.8456  Y151.4769   
N1120  X24.8526  Y155.0443   
N1125  X26.6265  Y157.7698   
N1130  X28.5659  Y159.6449   
N1135  X29.3704  Y160.0092   
N1140  X29.9866  Y160.0169   
N1145  X30.3559  Y159.6873   
N1150  X30.4199  Y159.0392   
N1155  X29.3974  Y156.8644   
N1160  X28.7922  Y155.6850   
N1165  X28.8504  Y155.0092   
N1170  X29.4597  Y154.9598   
N1175  X30.5076  Y155.6580   
N1180  X31.7097  Y156.3322   
N1185  X32.8484  Y156.3677   
N1190  X33.4064  Y156.0931   
N1195  X33.5910  Y155.7459   
N1200  X32.8365  Y154.2613   
N1205  X32.1931  Y152.8321   
N1210  X32.4281  Y152.1723   
N1215  X33.2901  Y152.3844   
N1220  X34.5289  Y153.5710   
N1225  X35.8952  Y154.8915   
N1230  X36.4294  Y154.9032   
N1235  X37.0131  Y154.5401   
N1240  X37.4856  Y153.9960   
N1245  X37.5020  Y153.3561   
N1250  X35.9157  Y150.9744   
N1255 G0  Z3.0000 
N1260  X43.4853  Y159.5344 
N1265  Z0.1000 
N1270 G1  Z-1.0000  F100.00 
N1275  X42.6633  Y158.8941   F300.00 
N1280  X41.7969  Y159.0468   
N1285  X40.4467  Y160.2645   
N1290  X38.1736  Y162.8183   
N1295  X34.5955  Y166.9320   
N1300  X36.7318  Y168.7295   
N1305  X39.2417  Y170.2084   
N1310  X40.4059  Y170.4634   
N1315  X41.4535  Y170.4078   
N1320  X42.3419  Y170.0506   
N1325  X43.0289  Y169.4005   
N1330  X43.4721  Y168.4669   
N1335  X43.6292  Y167.2585   
N1340  X43.7130  Y166.4686   
N1345  X44.0120  Y165.9772   
N1350  X45.5418  Y165.6483   
N1355  X47.3289  Y165.4804   
N1360  X48.4258  Y165.0430   
N1365  X48.7467  Y164.4011   
N1370  X48.2066  Y163.6201   
N1375  X46.6804  Y163.0827   
N1380  X44.1749  Y163.2390   
N1385  X41.1952  Y163.7312   
N1390  X42.7551  Y162.0476   
N1395  X43.8141  Y160.5429   
N1400  X43.8121  Y160.0148   
N1405  X43.4853  Y159.5344   
N1410 G0  Z3.0000 
N1415  X38.7613  Y166.7022 
N1420  Z0.1000 
N1425 G1  Z-1.0000  F100.00 
N1430  X39.1812  Y167.4485   F300.00 
N1435  X40.2372  Y167.7452   
N1440  X41.2761  Y167.5504   
N1445  X40.8475  Y166.7022   
N1450  X39.3716  Y165.6590   
N1455  X38.9405  Y165.9653   
N1460  X38.7613  Y166.7022   
N1465 G0  Z3.0000 
N1470  X55.4489  Y169.0366 
N1475  Z0.1000 
N1480 G1  Z-1.0000  F100.00 
N1485  X55.0965  Y168.3476   F300.00 
N1490  X54.2496  Y168.1886   
N1495  X53.2401  Y168.5276   
N1500  X52.4001  Y169.3323   
N1505  X48.5249  Y175.8254   
N1510  X48.1354  Y177.0472   
N1515  X48.4157  Y177.6780   
N1520  X49.3115  Y177.9611   
N1525  X50.9264  Y177.8124   
N1530  X55.9364  Y176.2892   
N1535  X56.3638  Y176.2366   
N1540  X56.4423  Y176.5851   
N1545  X55.5021  Y178.7729   
N1550  X54.6726  Y180.8382   
N1555  X54.7420  Y181.7582   
N1560  X56.1479  Y181.9321   
N1565  X57.4573  Y180.6533   
N1570  X59.6273  Y177.4813   
N1575  X61.7723  Y173.5846   
N1580  X61.7541  Y172.8262   
N1585  X61.1493  Y172.3922   
N1590  X59.2760  Y172.3291   
N1595  X56.2790  Y173.1945   
N1600  X52.6698  Y174.3020   
N1605  X54.0582  Y171.7607   
N1610  X55.4489  Y169.0366   
N1615 G0  Z3.0000 
N1620  X66.0821  Y164.2771 
N1625  Z0.1000 
N1630 G1  Z-1.0000  F100.00 
N1635  X61.9840  Y162.3107   F300.00 
N1640  X59.3968  Y161.5019   
N1645  X58.3168  Y161.6919   
N1650  X59.6115  Y162.8436   
N1655  X62.5984  Y164.6966   
N1660  X67.0459  Y166.9652   
N1665  X72.0366  Y169.2109   
N1670  X76.6530  Y170.9945   
N1675  X82.0098  Y172.5605   
N1680  X87.5902  Y173.6960   
N1685  X93.3241  Y174.4003   
N1690  X99.1412  Y174.6730   
N1695  X104.9711  Y174.5129   
N1700  X110.7439  Y173.9197   
N1705  X116.3891  Y172.8927   
N1710  X121.8364  Y171.4310   
N1715  X126.8037  Y169.6187   
N1720  X132.1920  Y167.2794   
N1725  X137.0188  Y164.8701   
N1730  X140.3010  Y162.8477   
N1735  X141.4563  Y161.6249   
N1740  X141.2200  Y161.4323   
N1745  X140.5129  Y161.5035   
N1750  X137.9035  Y162.3902   
N1755  X134.0600  Y164.1917   
N1760  X125.7132  Y167.8988   
N1765  X117.1400  Y170.5498   
N1770  X108.4323  Y172.1448   
N1775  X99.6815  Y172.6839   
N1780  X90.9794  Y172.1668   
N1785  X82.4179  Y170.5933   
N1790  X74.0882  Y167.9634   
N1795  X66.0821  Y164.2771   
N1800 G0  Z3.0000 
N1805  X69.2161  Y177.1733 
N1810  Z0.1000 
N1815 G1  Z-1.0000  F100.00 
N1820  X68.6838  Y176.0990   F300.00 
N1825  X67.6901  Y175.5046   
N1830  X66.9858  Y175.4709   
N1835  X66.6457  Y175.8768   
N1840  X66.8148  Y178.9747   
N1845  X67.2679  Y184.9789   
N1850  X67.6148  Y187.0935   
N1855  X68.0631  Y187.5680   
N1860  X68.7124  Y187.6512   
N1865  X70.6681  Y186.6360   
N1870  X73.5892  Y184.0319   
N1875  X77.7053  Y179.4898   
N1880  X77.3169  Y178.8663   
N1885  X76.3930  Y178.5675   
N1890  X75.2960  Y178.6347   
N1895  X74.3880  Y179.1096   
N1900  X73.0516  Y179.6499   
N1905  X71.4029  Y179.3796   
N1910  X69.9536  Y178.4902   
N1915  X69.2161  Y177.1733   
N1920 G0  Z3.0000 
N1925  X69.5920  Y182.7162 
N1930  Z0.1000 
N1935 G1  Z-1.0000  F100.00 
N1940  X69.7976  Y183.3638   F300.00 
N1945  X70.2820  Y183.5217   
N1950  X70.8450  Y183.2177   
N1955  X71.2871  Y182.4797   
N1960  X71.1921  Y181.8964   
N1965  X70.5771  Y181.6539   
N1970  X69.8814  Y181.9660   
N1975  X69.5920  Y182.7162   
N1980 G0  Z3.0000 
N1985  X90.7638  Y182.0411 
N1990  Z0.1000 
N1995 G1  Z-1.0000  F100.00 
N2000  X89.2544  Y181.2798   F300.00 
N2005  X87.6539  Y180.9764   
N2010  X86.0522  Y181.0897   
N2015  X84.5394  Y181.5780   
N2020  X83.2060  Y182.3999   
N2025  X82.1419  Y183.5136   
N2030  X81.4374  Y184.8780   
N2035  X81.1825  Y186.4515   
N2040  X81.4360  Y188.1048   
N2045  X82.1324  Y189.5707   
N2050  X83.1762  Y190.7960   
N2055  X84.4714  Y191.7278   
N2060  X85.9221  Y192.3133   
N2065  X87.4325  Y192.4994   
N2070  X88.9068  Y192.2331   
N2075  X90.2491  Y191.4613   
N2080  X91.4472  Y190.1737   
N2085  X91.3966  Y189.7575   
N2090  X90.9560  Y189.3662   
N2095  X89.8783  Y189.0573   
N2100  X88.6695  Y189.3907   
N2105  X87.5847  Y189.7376   
N2110  X86.5369  Y189.6706   
N2115  X85.5911  Y189.2645   
N2120  X84.8122  Y188.5945   
N2125  X84.2654  Y187.7356   
N2130  X84.0156  Y186.7625   
N2135  X84.1278  Y185.7505   
N2140  X84.6671  Y184.7743   
N2145  X85.7303  Y184.0305   
N2150  X87.0847  Y183.7760   
N2155  X88.4369  Y184.0124   
N2160  X89.4933  Y184.7420   
N2165  X90.3356  Y185.3136   
N2170  X91.2590  Y185.3469   
N2175  X92.0035  Y184.9056   
N2180  X92.3093  Y184.0530   
N2185  X91.8553  Y183.0786   
N2190  X90.7638  Y182.0411   
N2195 G0  Z3.0000 
N2200  X101.2042  Y187.7949 
N2205  Z0.1000 
N2210 G1  Z-1.0000  F100.00 
N2215  X100.9714  Y184.5271   F300.00 
N2220  X100.5422  Y182.5106   
N2225  X99.9045  Y181.7133   
N2230  X99.0464  Y182.1030   
N2235  X98.7087  Y184.0410   
N2240  X98.5682  Y188.0287   
N2245  X98.7874  Y192.6348   
N2250  X99.2138  Y193.3309   
N2255  X99.9871  Y193.4762   
N2260  X100.7646  Y193.3368   
N2265  X101.1649  Y192.6309   
N2270  X101.2042  Y187.7949   
N2275 G0  Z3.0000 
N2280  X110.3656  Y185.1776 
N2285  Z0.1000 
N2290 G1  Z-1.0000  F100.00 
N2295  X109.9873  Y186.6681   F300.00 
N2300  X110.7049  Y188.3071   
N2305  X111.5511  Y189.3980   
N2310  X112.3680  Y189.8947   
N2315  X113.3292  Y189.8407   
N2320  X114.6088  Y189.2791   
N2325  X115.5026  Y188.3843   
N2330  X115.9071  Y187.1042   
N2335  X115.7900  Y185.7355   
N2340  X115.1194  Y184.5746   
N2345  X113.9425  Y183.8925   
N2350  X112.5689  Y183.7896   
N2355  X111.2819  Y184.2300   
N2360  X110.3656  Y185.1776   
N2365 G0  Z3.0000 
N2370  X117.2943  Y182.7908 
N2375  Z0.1000 
N2380 G1  Z-1.0000  F100.00 
N2385  X116.1228  Y181.6989   F300.00 
N2390  X114.7582  Y181.0684   
N2395  X113.2861  Y180.8749   
N2400  X111.7922  Y181.0945   
N2405  X110.3617  Y181.7026   
N2410  X109.0799  Y182.6754   
N2415  X108.0326  Y183.9885   
N2420  X107.3052  Y185.6178   
N2425  X107.2600  Y187.3855   
N2430  X107.9811  Y189.2556   
N2435  X109.2883  Y190.9151   
N2440  X111.0019  Y192.0506   
N2445  X113.0251  Y192.5130   
N2450  X114.8678  Y192.2583   
N2455  X116.4437  Y191.4138   
N2460  X117.6661  Y190.1063   
N2465  X118.4487  Y188.4630   
N2470  X118.7054  Y186.6113   
N2475  X118.3494  Y184.6783   
N2480  X117.2943  Y182.7908   
N2485 G0  Z3.0000 
N2490  X134.3062  Y181.2843 
N2495  Z0.1000 
N2500 G1  Z-1.0000  F100.00 
N2505  X131.9977  Y175.8719   F300.00 
N2510  X131.1945  Y175.7331   
N2515  X130.2497  Y176.6056   
N2520  X129.2922  Y178.3137   
N2525  X128.4515  Y180.6827   
N2530  X127.5236  Y183.9972   
N2535  X126.2876  Y181.0870   
N2540  X125.4184  Y179.3394   
N2545  X124.6309  Y178.3928   
N2550  X123.9139  Y178.2394   
N2555  X123.2565  Y178.8712   
N2560  X123.4140  Y180.7919   
N2565  X124.3955  Y184.4346   
N2570  X125.8157  Y188.0104   
N2575  X126.4721  Y188.9647   
N2580  X127.1059  Y189.3660   
N2585  X127.7264  Y189.2160   
N2590  X128.3435  Y188.5170   
N2595  X129.6063  Y185.4788   
N2600  X130.5925  Y182.7774   
N2605  X131.2702  Y181.6539   
N2610  X131.8388  Y182.4710   
N2615  X132.5620  Y184.4356   
N2620  X133.1343  Y186.1179   
N2625  X133.6681  Y186.9660   
N2630  X134.3135  Y187.1059   
N2635  X135.2209  Y186.6634   
N2640  X135.5277  Y186.1650   
N2645  X135.4916  Y185.1857   
N2650  X134.3062  Y181.2843   
N2655 G0  Z3.0000 
N2660  X144.0813  Y174.7601 
N2665  Z0.1000 
N2670 G1  Z-1.0000  F100.00 
N2675  X143.9788  Y175.5214   F300.00 
N2680  X144.3881  Y176.2902   
N2685  X144.9881  Y176.5465   
N2690  X145.1620  Y175.5340   
N2695  X144.8915  Y174.0810   
N2700  X144.5537  Y174.1539   
N2705  X144.0813  Y174.7601   
N2710 G0  Z3.0000 
N2715  X147.7718  Y173.4825 
N2720  Z0.1000 
N2725 G1  Z-1.0000  F100.00 
N2730  X147.1110  Y169.4468   F300.00 
N2735  X146.6036  Y167.8002   
N2740  X145.6643  Y168.0551   
N2745  X144.9970  Y168.5256   
N2750  X144.5988  Y169.2148   
N2755  X144.4665  Y170.1256   
N2760  X144.0455  Y171.4077   
N2765  X142.9265  Y172.3622   
N2770  X141.3255  Y172.8728   
N2775  X139.4584  Y172.8231   
N2780  X137.6776  Y172.7712   
N2785  X137.3819  Y173.0671   
N2790  X137.4789  Y173.5692   
N2795  X138.8385  Y175.1674   
N2800  X141.7323  Y177.5166   
N2805  X145.9318  Y180.3278   
N2810  X146.9277  Y180.5581   
N2815  X147.5950  Y180.1904   
N2820  X148.0369  Y179.4668   
N2825  X148.2088  Y178.2962   
N2830  X147.7718  Y173.4825   
N2835 G0  Z3.0000 
N2840  X157.4016  Y160.9036 
N2845  Z0.1000 
N2850 G1  Z-1.0000  F100.00 
N2855  X156.6809  Y160.2275   F300.00 
N2860  X155.7341  Y160.2393   
N2865  X154.5044  Y160.9578   
N2870  X152.9350  Y162.4022   
N2875  X150.6994  Y164.7090   
N2880  X154.0157  Y168.6157   
N2885  X156.6011  Y171.3882   
N2890  X158.1604  Y172.5680   
N2895  X159.1474  Y172.3291   
N2900  X159.3402  Y171.4903   
N2905  X158.7470  Y170.0962   
N2910  X157.3754  Y168.1913   
N2915  X154.8981  Y164.6558   
N2920  X156.3996  Y162.9276   
N2925  X157.3228  Y161.8295   
N2930  X157.4016  Y160.9036   
N2935 G0  Z3.0000 
N2940  X168.8791  Y148.9090 
N2945  Z0.1000 
N2950 G1  Z-1.0000  F100.00 
N2955  X168.2550  Y149.6445   F300.00 
N2960  X168.3804  Y150.5434   
N2965  X169.2304  Y151.5577   
N2970  X170.7808  Y152.6385   
N2975  X172.7306  Y153.5134   
N2980  X173.2089  Y153.2179   
N2985  X173.6956  Y152.4069   
N2990  X174.0003  Y151.4359   
N2995  X173.9097  Y150.5182   
N3000  X173.4919  Y149.7039   
N3005  X172.8150  Y149.0419   
N3010  X170.9565  Y148.3734   
N3015  X169.9111  Y148.4661   
N3020  X168.8791  Y148.9090   
N3025 G0  Z3.0000 
N3030  X174.6241  Y146.9328 
N3035  Z0.1000 
N3040 G1  Z-1.0000  F100.00 
N3045  X172.5733  Y145.7824   F300.00 
N3050  X170.5224  Y145.5271   
N3055  X168.5215  Y146.1626   
N3060  X166.6212  Y147.6841   
N3065  X165.2346  Y149.5286   
N3070  X164.7774  Y150.8847   
N3075  X166.1191  Y152.4398   
N3080  X169.0575  Y154.7632   
N3085  X173.1334  Y157.6334   
N3090  X174.7914  Y155.5612   
N3095  X176.0929  Y153.2497   
N3100  X176.4956  Y150.8687   
N3105  X176.0042  Y148.6768   
N3110  X174.6241  Y146.9328   
N3115 G0  Z3.0000 
N3120  X176.7953  Y133.6549 
N3125  Z0.1000 
N3130 G1  Z-1.0000  F100.00 
N3135  X176.1723  Y133.0499   F300.00 
N3140  X175.4705  Y133.1781   
N3145  X174.6546  Y134.0628   
N3150  X173.6887  Y135.7278   
N3155  X172.2837  Y138.8485   
N3160  X177.0866  Y141.6338   
N3165  X180.1453  Y143.0815   
N3170  X181.9179  Y143.4028   
N3175  X182.5136  Y143.1004   
N3180  X183.0175  Y142.4674   
N3185  X184.0565  Y140.1439   
N3190  X184.5460  Y137.9196   
N3195  X184.1784  Y136.6347   
N3200  X183.7725  Y136.4469   
N3205  X183.2722  Y136.6160   
N3210  X182.1463  Y138.1895   
N3215  X181.2981  Y139.5456   
N3220  X180.5768  Y139.9158   
N3225  X180.1741  Y139.3360   
N3230  X180.2813  Y137.8418   
N3235  X180.4181  Y136.1930   
N3240  X180.1624  Y135.8543   
N3245  X179.6655  Y135.7555   
N3250  X178.6767  Y136.1861   
N3255  X177.8073  Y137.2210   
N3260  X177.0452  Y138.1463   
N3265  X176.3275  Y137.9912   
N3270  X176.0040  Y137.0996   
N3275  X176.4241  Y135.8159   
N3280  X176.8597  Y134.5706   
N3285  X176.7953  Y133.6549   
N3290 G0  Z3.0000 
N3295  X186.8877  Y118.3697 
N3300  Z0.1000 
N3305 G1  Z-1.0000  F100.00 
N3310  X186.5674  Y116.9109   F300.00 
N3315  X185.8175  Y116.2627   
N3320  X184.9549  Y116.5048   
N3325  X184.2964  Y117.7170   
N3330  X184.0147  Y118.4063   
N3335  X183.5554  Y118.8118   
N3340  X181.7643  Y118.9340   
N3345  X180.0402  Y119.0306   
N3350  X179.5994  Y119.3581   
N3355  X179.3788  Y119.8958   
N3360  X179.6911  Y120.7622   
N3365  X181.0515  Y121.5324   
N3370  X183.5574  Y122.2441   
N3375  X187.3064  Y122.9342   
N3380  X190.1591  Y123.3827   
N3385  X190.9169  Y120.3966   
N3390  X191.3500  Y118.1221   
N3395  X191.3265  Y116.8470   
N3400  X190.6342  Y116.2750   
N3405  X189.8433  Y116.4001   
N3410  X189.1190  Y117.1293   
N3415  X188.6264  Y118.3697   
N3420  X188.1147  Y119.8432   
N3425  X187.5280  Y120.4561   
N3430  X187.0758  Y119.8432   
N3435  X186.8877  Y118.3697   
N3440 G0  Z3.0000 
N3445  X196.4929  Y104.9747 
N3450  Z0.1000 
N3455 G1  Z-1.0000  F100.00 
N3460  X196.4891  Y104.1371   F300.00 
N3465  X196.1532  Y103.8207   
N3470  X194.4705  Y104.4091   
N3475  X194.0055  Y104.9491   
N3480  X193.8421  Y105.6132   
N3485  X194.2154  Y106.3337   
N3490  X195.0584  Y106.4009   
N3495  X195.9561  Y105.9146   
N3500  X196.4929  Y104.9747   
N3505 G0  Z3.0000 
N3510  X193.1466  Y102.3749 
N3515  Z0.1000 
N3520 G1  Z-1.0000  F100.00 
N3525  X193.0108  Y101.6310   F300.00 
N3530  X192.4078  Y101.2113   
N3535  X188.6264  Y100.9840   
N3540  X185.3600  Y101.2472   
N3545  X183.0861  Y102.0560   
N3550  X181.7568  Y103.4396   
N3555  X181.3243  Y105.4273   
N3560  X181.7152  Y107.4374   
N3565  X182.9319  Y108.9163   
N3570  X185.0398  Y109.9130   
N3575  X188.1048  Y110.4760   
N3580  X191.7931  Y110.6390   
N3585  X192.3403  Y110.2739   
N3590  X192.4513  Y109.5168   
N3595  X192.3167  Y108.7888   
N3600  X191.7990  Y108.3125   
N3605  X188.9331  Y107.7773   
N3610  X186.4982  Y107.3998   
N3615  X184.9493  Y106.8050   
N3620  X184.2440  Y105.9660   
N3625  X184.3396  Y104.8556   
N3630  X184.7483  Y104.3381   
N3635  X185.5768  Y104.0020   
N3640  X188.9523  Y103.7657   
N3645  X192.4486  Y103.5343   
N3650  X193.0159  Y103.1142   
N3655  X193.1466  Y102.3749   
N3660 G0  Z3.0000 
N3665  X192.4588  Y88.6401 
N3670  Z0.1000 
N3675 G1  Z-1.0000  F100.00 
N3680  X192.1239  Y87.4459   F300.00 
N3685  X191.0604  Y87.0755   
N3690  X189.9825  Y87.4666   
N3695  X189.6696  Y88.8140   
N3700  X189.5850  Y89.7572   
N3705  X189.1884  Y90.2804   
N3710  X186.5969  Y90.5527   
N3715  X184.1983  Y90.6554   
N3720  X182.5607  Y90.9777   
N3725  X181.6232  Y91.5407   
N3730  X181.3243  Y92.3655   
N3735  X181.5526  Y92.8244   
N3740  X182.3094  Y93.1232   
N3745  X185.8447  Y93.3344   
N3750  X189.4378  Y93.5482   
N3755  X190.1585  Y93.8684   
N3760  X190.3649  Y94.3774   
N3765  X190.7858  Y95.1243   
N3770  X191.8467  Y95.4206   
N3775  X192.6244  Y95.3411   
N3780  X193.0137  Y94.9912   
N3785  X192.8976  Y92.8127   
N3790  X192.4588  Y88.6401   
N3795 G0  Z3.0000 
N3800  X185.8516  Y77.3280 
N3805  Z0.1000 
N3810 G1  Z-1.0000  F100.00 
N3815  X185.6716  Y78.0059   F300.00 
N3820  X185.8457  Y78.6880   
N3825  X186.2922  Y79.2147   
N3830  X186.9289  Y79.4256   
N3835  X187.4058  Y79.1234   
N3840  X187.5664  Y78.4193   
N3845  X187.4101  Y77.6174   
N3850  X186.9358  Y77.0215   
N3855  X186.3503  Y76.9463   
N3860  X185.8516  Y77.3280   
N3865 G0  Z3.0000 
N3870  X188.2686  Y74.5524 
N3875  Z0.1000 
N3880 G1  Z-1.0000  F100.00 
N3885  X186.7917  Y73.9275   F300.00 
N3890  X185.5297  Y74.5226   
N3895  X184.2911  Y74.8692   
N3900  X182.7320  Y74.8043   
N3905  X181.0797  Y74.8654   
N3910  X179.7124  Y75.8087   
N3915  X179.0914  Y76.6309   
N3920  X178.8304  Y77.4883   
N3925  X179.2893  Y80.3843   
N3930  X180.3946  Y83.5983   
N3935  X185.7323  Y82.3540   
N3940  X190.6139  Y80.7849   
N3945  X190.8309  Y79.5867   
N3950  X190.3316  Y77.6682   
N3955  X189.3871  Y75.7498   
N3960  X188.2686  Y74.5524   
N3965 G0  Z3.0000 
N3970  X181.3243  Y78.7302 
N3975  Z0.1000 
N3980 G1  Z-1.0000  F100.00 
N3985  X181.6287  Y79.7154   F300.00 
N3990  X182.3675  Y80.1211   
N3995  X183.1064  Y79.7154   
N4000  X183.4107  Y78.7302   
N4005  X183.1064  Y77.7451   
N4010  X182.3675  Y77.3394   
N4015  X181.6287  Y77.7451   
N4020  X181.3243  Y78.7302   
N4025 G0  Z3.0000 
N4030  X177.2908  Y61.4837 
N4035  Z0.1000 
N4040 G1  Z-1.0000  F100.00 
N4045  X176.7501  Y62.2404   F300.00 
N4050  X176.4804  Y63.1007   
N4055  X176.6626  Y64.8798   
N4060  X177.6536  Y66.3169   
N4065  X178.3948  Y66.7496   
N4070  X179.2694  Y66.9079   
N4075  X180.4479  Y66.4985   
N4080  X181.6746  Y65.5142   
N4085  X182.3322  Y64.4177   
N4090  X182.4499  Y63.3109   
N4095  X182.1253  Y62.2832   
N4100  X181.4560  Y61.4249   
N4105  X180.5401  Y60.8258   
N4110  X179.4754  Y60.5759   
N4115  X178.3597  Y60.7651   
N4120  X177.2908  Y61.4837   
N4125 G0  Z3.0000 
N4130  X183.1633  Y59.5157 
N4135  Z0.1000 
N4140 G1  Z-1.0000  F100.00 
N4145  X181.1956  Y58.3032   F300.00 
N4150  X179.1539  Y57.9095   
N4155  X177.1714  Y58.3335   
N4160  X175.3816  Y59.5743   
N4165  X174.4835  Y60.7015   
N4170  X173.8951  Y61.9375   
N4175  X173.6102  Y63.2291   
N4180  X173.6221  Y64.5236   
N4185  X173.9241  Y65.7679   
N4190  X174.5097  Y66.9095   
N4195  X175.3726  Y67.8953   
N4200  X176.5061  Y68.6722   
N4205  X178.4023  Y69.4446   
N4210  X180.0426  Y69.6064   
N4215  X181.5790  Y69.1435   
N4220  X183.1633  Y68.0412   
N4225  X184.6688  Y66.1856   
N4230  X185.0796  Y63.7785   
N4235  X184.6688  Y61.3713   
N4240  X183.1633  Y59.5157   
N4245 G0  Z3.0000 
N4250  X177.8111  Y49.1309 
N4255  Z0.1000 
N4260 G1  Z-1.0000  F100.00 
N4265  X176.8928  Y48.1697   F300.00 
N4270  X173.3480  Y50.5981   
N4275  X169.8922  Y52.9881   
N4280  X168.8405  Y51.2552   
N4285  X167.9833  Y50.1566   
N4290  X167.1183  Y49.6093   
N4295  X166.3174  Y49.6358   
N4300  X165.6519  Y50.2585   
N4305  X165.9312  Y51.5367   
N4310  X167.0509  Y53.6401   
N4315  X168.4224  Y55.6072   
N4320  X169.4575  Y56.4766   
N4325  X174.2799  Y53.3034   
N4330  X177.6463  Y50.5469   
N4335  X178.0514  Y49.7627   
N4340  X177.8111  Y49.1309   
N4345 G0  Z3.0000 
N4350  X156.6673  Y30.3712 
N4355  Z0.1000 
N4360 G1  Z-1.0000  F100.00 
N4365  X154.9428  Y29.1498   F300.00 
N4370  X153.8444  Y27.2371   
N4375  X153.0772  Y24.9584   
N4380  X152.4138  Y27.2714   
N4385  X151.9780  Y28.4185   
N4390  X151.3745  Y29.2653   
N4395  X149.3254  Y30.4018   
N4400  X146.9005  Y31.2193   
N4405  X149.4247  Y31.6936   
N4410  X150.7343  Y32.0214   
N4415  X151.5776  Y32.4947   
N4420  X152.1037  Y33.2474   
N4425  X152.4615  Y34.4124   
N4430  X152.9743  Y36.6567   
N4435  X153.6790  Y34.4319   
N4440  X154.7011  Y32.5832   
N4445  X156.5532  Y31.7170   
N4450  X158.7230  Y31.2268   
N4455  X156.6673  Y30.3712   
N4460 G0  Z3.0000 
N4465  X118.4308  Y28.0076 
N4470  Z0.1000 
N4475 G1  Z-1.0000  F100.00 
N4480  X112.4704  Y26.7336   F300.00 
N4485  X111.2848  Y26.7198   
N4490  X111.2361  Y27.0616   
N4495  X114.3709  Y28.6339   
N4500  X121.5174  Y31.0935   
N4505  X128.5284  Y33.6513   
N4510  X135.1525  Y36.8714   
N4515  X141.3580  Y40.7265   
N4520  X147.1124  Y45.1887   
N4525  X152.3839  Y50.2307   
N4530  X157.1404  Y55.8249   
N4535  X161.3501  Y61.9434   
N4540  X164.9807  Y68.5587   
N4545  X168.2284  Y75.8749   
N4550  X170.3176  Y82.4291   
N4555  X171.5132  Y89.3034   
N4560  X172.0799  Y97.5809   
N4565  X172.1304  Y106.8382   
N4570  X171.2742  Y113.5427   
N4575  X169.0989  Y122.0122   
N4580  X166.1017  Y129.8685   
N4585  X162.2068  Y137.2800   
N4590  X157.3381  Y144.4145   
N4595  X154.2662  Y148.7914   
N4600  X152.8609  Y151.4771   
N4605  X152.8345  Y152.0209   
N4610  X153.2863  Y151.9441   
N4615  X155.7063  Y149.6641   
N4620  X160.8169  Y143.1359   
N4625  X165.4650  Y135.4938   
N4630  X169.3317  Y127.3296   
N4635  X172.0984  Y119.2355   
N4640  X173.0679  Y115.2524   
N4645  X173.6234  Y111.5641   
N4650  X173.9643  Y100.2885   
N4655  X173.7100  Y88.9403   
N4660  X173.1430  Y85.3309   
N4665  X172.1045  Y81.2769   
N4670  X170.5792  Y76.4180   
N4675  X168.7589  Y71.7125   
N4680  X166.6549  Y67.1715   
N4685  X164.2781  Y62.8054   
N4690  X161.6391  Y58.6255   
N4695  X158.7490  Y54.6423   
N4700  X155.6188  Y50.8664   
N4705  X152.2591  Y47.3090   
N4710  X148.6810  Y43.9809   
N4715  X144.8951  Y40.8926   
N4720  X140.9127  Y38.0552   
N4725  X136.7443  Y35.4793   
N4730  X132.4012  Y33.1758   
N4735  X127.8940  Y31.1554   
N4740  X123.2335  Y29.4291   
N4745  X118.4308  Y28.0076   
N4750 G0  Z3.0000 
N4755  X122.9082  Y10.5782 
N4760  Z0.1000 
N4765 G1  Z-1.0000  F100.00 
N4770  X121.0571  Y9.2793   F300.00 
N4775  X120.3885  Y9.1441   
N4780  X120.1265  Y9.4475   
N4785  X121.1697  Y12.6644   
N4790  X121.9170  Y14.8656   
N4795  X122.0343  Y16.1201   
N4800  X121.3729  Y17.0147   
N4805  X119.7841  Y18.1367   
N4810  X118.1869  Y19.4802   
N4815  X117.7436  Y20.3968   
N4820  X118.4550  Y20.9015   
N4825  X119.5041  Y20.9727   
N4830  X120.6213  Y20.6425   
N4835  X121.5366  Y19.9432   
N4840  X122.3953  Y19.2300   
N4845  X123.1788  Y19.1930   
N4850  X123.8343  Y19.8104   
N4855  X124.3084  Y21.0612   
N4860  X125.0058  Y22.3549   
N4865  X126.2257  Y22.9684   
N4870  X127.0753  Y23.0413   
N4875  X127.4116  Y22.7760   
N4880  X126.7187  Y20.2732   
N4885  X125.6899  Y17.1574   
N4890  X128.5812  Y14.8311   
N4895  X130.6871  Y13.0250   
N4900  X130.7591  Y12.5631   
N4905  X130.2755  Y12.2455   
N4910  X128.8812  Y12.1966   
N4915  X127.2104  Y12.7245   
N4920  X124.8207  Y13.9170   
N4925  X124.4523  Y13.7731   
N4930  X124.2991  Y13.0701   
N4935  X123.8905  Y11.8838   
N4940  X122.9082  Y10.5782   
N4945 G0  Z3.0000 
N4950  X108.1777  Y8.8395 
N4955  Z0.1000 
N4960 G1  Z-1.0000  F100.00 
N4965  X107.2425  Y7.6116   F300.00 
N4970  X106.1064  Y7.1010   
N4975  X105.1856  Y7.2658   
N4980  X104.9077  Y7.8596   
N4985  X105.2806  Y9.0311   
N4990  X106.3122  Y10.9295   
N4995  X107.7974  Y13.4466   
N5000  X105.6167  Y15.6965   
N5005  X103.4363  Y18.4348   
N5010  X103.9500  Y18.9414   
N5015  X105.1405  Y18.8811   
N5020  X106.4815  Y18.3719   
N5025  X107.4475  Y17.5323   
N5030  X108.2380  Y16.5144   
N5035  X108.9279  Y16.2275   
N5040  X109.5816  Y16.6802   
N5045  X110.2641  Y17.8801   
N5050  X111.2280  Y19.1319   
N5055  X112.4619  Y19.6188   
N5060  X113.4507  Y19.5007   
N5065  X113.7759  Y19.0213   
N5070  X113.4355  Y17.9913   
N5075  X112.4280  Y16.2224   
N5080  X110.9933  Y13.8693   
N5085  X113.2041  Y11.5883   
N5090  X114.4401  Y10.0554   
N5095  X114.9029  Y8.8565   
N5100  X114.5865  Y8.0754   
N5105  X113.4848  Y7.7965   
N5110  X112.5261  Y8.2049   
N5115  X111.6199  Y9.1872   
N5120  X110.7206  Y10.2220   
N5125  X109.8164  Y10.5058   
N5130  X108.9534  Y10.0434   
N5135  X108.1777  Y8.8395   
N5140 G0  Z3.0000 
N5145  X98.8173  Y9.7088 
N5150  Z0.1000 
N5155 G1  Z-1.0000  F100.00 
N5160  X98.1838  Y7.6579   F300.00 
N5165  X97.6882  Y7.2284   
N5170  X97.0075  Y7.1010   
N5175  X96.2791  Y7.1966   
N5180  X95.9264  Y7.6311   
N5185  X96.1060  Y10.4043   
N5190  X96.5834  Y13.7076   
N5195  X94.6559  Y11.8150   
N5200  X92.7284  Y9.9223   
N5205  X91.5499  Y11.7188   
N5210  X90.3715  Y13.5152   
N5215  X89.8885  Y10.6557   
N5220  X89.2147  Y8.3804   
N5225  X88.7034  Y7.9260   
N5230  X87.9888  Y7.7965   
N5235  X87.2698  Y7.8738   
N5240  X86.9018  Y8.1837   
N5245  X87.0067  Y9.9697   
N5250  X87.4413  Y15.5331   
N5255  X87.6882  Y18.3353   
N5260  X88.1193  Y18.8088   
N5265  X88.8644  Y18.9233   
N5270  X90.2221  Y18.3504   
N5275  X91.4725  Y16.8414   
N5280  X92.4189  Y15.4020   
N5285  X93.2257  Y14.8758   
N5290  X94.0917  Y15.2445   
N5295  X95.2154  Y16.4893   
N5300  X96.5750  Y17.7171   
N5305  X97.9233  Y18.2278   
N5310  X98.6027  Y18.1117   
N5315  X99.0099  Y17.6715   
N5320  X99.2559  Y15.2723   
N5325  X98.8173  Y9.7088   
N5330 G0  Z3.0000 
N5335  X92.3093  Y0.2448 
N5340  Z0.1000 
N5345 G1  Z-1.0000  F100.00 
N5350  X86.6497  Y0.7942   F300.00 
N5355  X81.0459  Y1.6805   
N5360  X75.5116  Y2.8952   
N5365  X70.0602  Y4.4309   
N5370  X64.7052  Y6.2796   
N5375  X59.4599  Y8.4332   
N5380  X54.3381  Y10.8839   
N5385  X49.3533  Y13.6237   
N5390  X44.5187  Y16.6447   
N5395  X39.8479  Y19.9391   
N5400  X35.3545  Y23.4989   
N5405  X31.0519  Y27.3161   
N5410  X26.9538  Y31.3831   
N5415  X23.0735  Y35.6916   
N5420  X19.4244  Y40.2338   
N5425  X16.0202  Y45.0018   
N5430  X11.5278  Y52.5907   
N5435  X7.4754  Y61.2026   
N5440  X4.0745  Y70.3332   
N5445  X1.5374  Y79.4779   
N5450  X0.5831  Y86.5079   
N5455  X0.0168  Y96.9026   
N5460  X0.0000  Y106.9399   
N5465  X0.6860  Y115.4125   
N5470  X2.2177  Y123.3833   
N5475  X4.7386  Y131.9155   
N5480  X7.7466  Y139.8490   
N5485  X11.3348  Y147.3900   
N5490  X15.4966  Y154.5294   
N5495  X20.2251  Y161.2586   
N5500  X25.5136  Y167.5692   
N5505  X31.3555  Y173.4521   
N5510  X37.7439  Y178.8986   
N5515  X44.6724  Y183.9002   
N5520  X50.6699  Y187.6268   
N5525  X56.6739  Y190.8376   
N5530  X62.7370  Y193.5497   
N5535  X68.9121  Y195.7799   
N5540  X75.2520  Y197.5448   
N5545  X81.8091  Y198.8614   
N5550  X88.6364  Y199.7465   
N5555  X95.7865  Y200.2169   
N5560  X107.3911  Y200.1260   
N5565  X112.8366  Y199.6629   
N5570  X118.1179  Y198.9087   
N5575  X123.2902  Y197.8537   
N5580  X128.4087  Y196.4883   
N5585  X138.7050  Y192.7886   
N5590  X147.4627  Y188.6520   
N5595  X155.5127  Y183.7993   
N5600  X163.1836  Y178.0082   
N5605  X170.8047  Y171.0558   
N5610  X175.5823  Y166.0107   
N5615  X179.9444  Y160.7159   
N5620  X183.8975  Y155.1600   
N5625  X187.4476  Y149.3315   
N5630  X190.6016  Y143.2185   
N5635  X193.3660  Y136.8100   
N5640  X195.7469  Y130.0942   
N5645  X197.7512  Y123.0598   
N5650  X199.2462  Y114.3764   
N5655  X200.0036  Y103.9723   
N5660  X199.9702  Y93.3894   
N5665  X199.0930  Y84.1696   
N5670  X197.7297  Y77.3566   
N5675  X195.9104  Y70.7052   
N5680  X193.6516  Y64.2342   
N5685  X190.9695  Y57.9625   
N5690  X187.8801  Y51.9089   
N5695  X184.3991  Y46.0921   
N5700  X180.5429  Y40.5311   
N5705  X176.3275  Y35.2449   
N5710  X171.7690  Y30.2518   
N5715  X166.8834  Y25.5711   
N5720  X161.6868  Y21.2212   
N5725  X156.1952  Y17.2215   
N5730  X150.4248  Y13.5903   
N5735  X144.3916  Y10.3466   
N5740  X138.1116  Y7.5093   
N5745  X131.6010  Y5.0972   
N5750  X121.9823  Y2.3928   
N5755  X112.4075  Y0.7049   
N5760  X102.6066  Y0.0000   
N5765  X92.3093  Y0.2448   
N5770 G0  Z3.0000 
N5775  X81.2994  Y13.7169 
N5780  Z0.1000 
N5785 G1  Z-1.0000  F100.00 
N5790  X80.1038  Y10.4641   F300.00 
N5795  X79.4933  Y9.6503   
N5800  X78.8319  Y9.3022   
N5805  X78.1425  Y9.2629   
N5810  X77.8157  Y9.6282   
N5815  X78.0317  Y12.4178   
N5820  X78.2908  Y15.1743   
N5825  X77.9495  Y15.1989   
N5830  X77.1969  Y14.5722   
N5835  X75.9999  Y13.6627   
N5840  X75.1067  Y13.4602   
N5845  X74.4014  Y13.9889   
N5850  X73.7686  Y15.2723   
N5855  X73.0747  Y16.6756   
N5860  X72.5346  Y15.7939   
N5865  X70.9587  Y12.0811   
N5870  X70.3740  Y11.6171   
N5875  X69.6774  Y11.7292   
N5880  X68.9178  Y12.4754   
N5885  X69.0048  Y13.9757   
N5890  X70.6145  Y19.7514   
N5895  X71.9960  Y22.6453   
N5900  X72.6489  Y23.0664   
N5905  X73.3018  Y22.8326   
N5910  X74.6845  Y20.4879   
N5915  X75.5108  Y18.5570   
N5920  X76.1298  Y17.7571   
N5925  X76.9286  Y17.9126   
N5930  X78.2941  Y18.8474   
N5935  X80.0224  Y19.8705   
N5940  X81.3743  Y20.2575   
N5945  X82.2420  Y20.0018   
N5950  X82.5176  Y19.0972   
N5955  X81.2994  Y13.7169   
N5960 G0  Z3.0000 
N5965  X88.8321  Y26.9029 
N5970  Z0.1000 
N5975 G1  Z-1.0000  F100.00 
N5980  X88.2234  Y26.6155   F300.00 
N5985  X86.5551  Y26.7732   
N5990  X80.9871  Y28.1448   
N5995  X74.0243  Y30.4605   
N6000  X67.5620  Y33.1620   
N6005  X60.4036  Y37.1265   
N6010  X53.7968  Y41.7878   
N6015  X47.7731  Y47.1074   
N6020  X42.3640  Y53.0463   
N6025  X37.6014  Y59.5660   
N6030  X33.5164  Y66.6278   
N6035  X30.1410  Y74.1928   
N6040  X27.5063  Y82.2227   
N6045  X26.6638  Y85.7208   
N6050  X26.1779  Y89.2082   
N6055  X25.9098  Y100.2885   
N6060  X26.2238  Y111.6387   
N6065  X26.8038  Y115.3073   
N6070  X27.8454  Y119.4129   
N6075  X30.1033  Y126.1804   
N6080  X32.8332  Y132.6856   
N6085  X35.6439  Y137.7895   
N6090  X39.1727  Y143.2751   
N6095  X42.7254  Y148.1286   
N6100  X45.6078  Y151.3367   
N6105  X46.9737  Y152.1625   
N6110  X47.2044  Y151.9549   
N6115  X47.1541  Y151.4090   
N6120  X46.2706  Y149.5298   
N6125  X44.4441  Y146.9789   
N6130  X39.7298  Y140.5409   
N6135  X35.5485  Y133.4016   
N6140  X32.1217  Y125.9856   
N6145  X29.6718  Y118.7174   
N6150  X28.4839  Y112.0982   
N6155  X27.8168  Y103.8846   
N6160  X27.7372  Y95.5600   
N6165  X28.3122  Y88.6078   
N6170  X29.3219  Y83.5386   
N6175  X30.7010  Y78.5760   
N6180  X32.4330  Y73.7383   
N6185  X34.5013  Y69.0442   
N6190  X36.8897  Y64.5122   
N6195  X39.5815  Y60.1609   
N6200  X42.5606  Y56.0090   
N6205  X45.8103  Y52.0746   
N6210  X49.3142  Y48.3769   
N6215  X53.0562  Y44.9342   
N6220  X57.0195  Y41.7649   
N6225  X61.1876  Y38.8876   
N6230  X65.5443  Y36.3212   
N6235  X70.0732  Y34.0842   
N6240  X74.7578  Y32.1947   
N6245  X79.5814  Y30.6717   
N6250  X86.1565  Y28.5178   
N6255  X88.1179  Y27.5874   
N6260  X88.8321  Y26.9029   
N6265 G0  Z3.0000 
N6270  X93.2705  Y30.5859 
N6275  Z0.1000 
N6280 G1  Z-1.0000  F100.00 
N6285  X86.8216  Y34.8153   F300.00 
N6290  X80.9102  Y39.4282   
N6295  X75.5371  Y44.4242   
N6300  X70.7026  Y49.8027   
N6305  X66.4072  Y55.5629   
N6310  X62.6515  Y61.7043   
N6315  X59.4359  Y68.2261   
N6320  X56.7608  Y75.1280   
N6325  X54.5167  Y82.6986   
N6330  X53.7946  Y86.5367   
N6335  X53.2888  Y91.0195   
N6340  X52.7743  Y103.7491   
N6345  X52.6700  Y124.5459   
N6350  X52.6702  Y156.2707   
N6355  X99.7854  Y156.1613   
N6360  X146.9005  Y156.0517   
N6365  X147.0828  Y124.5191   
N6370  X147.1057  Y104.1432   
N6375  X146.6807  Y91.7628   
N6380  X146.2078  Y87.3755   
N6385  X145.5117  Y83.5530   
N6390  X143.3027  Y75.6885   
N6395  X140.7372  Y68.7925   
N6400  X137.4822  Y62.1210   
N6405  X133.5873  Y55.7357   
N6410  X129.1030  Y49.6979   
N6415  X124.0793  Y44.0692   
N6420  X118.5664  Y38.9113   
N6425  X112.6145  Y34.2854   
N6430  X106.2734  Y30.2531   
N6435  X102.2446  Y28.1452   
N6440  X99.9130  Y27.2684   
N6445  X97.4985  Y28.2430   
N6450  X93.2705  Y30.5859   
N6455 G0  Z3.0000 
N6460  X97.8796  Y60.9895 
N6465  Z0.1000 
N6470 G1  Z-1.0000  F100.00 
N6475  X96.9842  Y61.9966   F300.00 
N6480  X96.6461  Y62.6755   
N6485  X96.8346  Y63.2937   
N6490  X97.5184  Y64.1189   
N6495  X98.7574  Y65.1063   
N6500  X99.9591  Y65.5171   
N6505  X101.1608  Y65.1063   
N6510  X102.3996  Y64.1189   
N6515  X103.0836  Y63.2937   
N6520  X103.2719  Y62.6755   
N6525  X102.9338  Y61.9966   
N6530  X102.0384  Y60.9895   
N6535  X99.9591  Y59.2583   
N6540  X97.8796  Y60.9895   
N6545 G0  Z3.0000 
N6550  X88.8321  Y62.0400 
N6555  Z0.1000 
N6560 G1  Z-1.0000  F100.00 
N6565  Y47.4360   F300.00 
N6570  X85.4710   
N6575  X82.9608  Y47.5720   
N6580  X81.6461  Y47.8994   
N6585  X81.1878  Y48.6065   
N6590  X81.4232  Y49.1140   
N6595  X82.3497  Y49.4197   
N6600  X83.9642  Y49.5222   
N6605  X86.7459   
N6610  Y64.5017   
N6615  Y79.4814   
N6620  X83.9642  Y82.1275   
N6625  X82.4264  Y83.6864   
N6630  X81.5927  Y84.9721   
N6635  X81.2495  Y86.4947   
N6640  X81.1825  Y88.7643   
N6645  X81.4427  Y91.6170   
N6650  X81.7161  Y92.3302   
N6655  X82.0394  Y92.5679   
N6660  X82.3779  Y92.3304   
N6665  X82.6970  Y91.6172   
N6670  X83.1400  Y88.7647   
N6675  X83.8351  Y85.4862   
N6680  X85.0600  Y83.3694   
N6685  X85.6873  Y82.9361   
N6690  X86.2264  Y83.0209   
N6695  X86.6037  Y83.6992   
N6700  X86.7459  Y85.0470   
N6705  X87.0173  Y86.8084   
N6710  X87.3006  Y87.0467   
N6715  X87.6328  Y86.9036   
N6720  X88.2939  Y85.6122   
N6725  X88.7028  Y83.2135   
N6730  X88.9523  Y81.1933   
N6735  X89.6916  Y79.4962   
N6740  X91.3717  Y77.4183   
N6745  X94.4440  Y74.2555   
N6750  X99.9668  Y68.7030   
N6755  X105.4821  Y74.2630   
N6760  X108.5473  Y77.4273   
N6765  X110.2256  Y79.5080   
N6770  X110.9657  Y81.2057   
N6775  X111.2156  Y83.2210   
N6780  X111.5981  Y85.6037   
N6785  X112.2228  Y86.8141   
N6790  X112.5555  Y86.9209   
N6795  X112.8646  Y86.6641   
N6800  X113.2989  Y84.9654   
N6805  X113.5199  Y82.7709   
N6810  X115.0847  Y84.1355   
N6815  X115.8310  Y84.9411   
N6820  X116.3132  Y85.8807   
N6825  X116.6493  Y88.6365   
N6830  X116.9290  Y91.1643   
N6835  X117.6925  Y92.6389   
N6840  X118.2388  Y92.9454   
N6845  X118.5548  Y92.6016   
N6850  X118.7357  Y89.1654   
N6855  X118.6750  Y86.6785   
N6860  X118.3423  Y85.0582   
N6865  X117.5106  Y83.7322   
N6870  X115.9540  Y82.1267   
N6875  X113.1721  Y79.4272   
N6880  Y64.4747   
N6885  Y49.5222   
N6890  X116.0120   
N6895  X118.2287  Y49.2543   
N6900  X118.6391  Y48.9742   
N6905  X118.6169  Y48.6454   
N6910  X117.3736  Y47.9879   
N6915  X114.6961  Y47.5740   
N6920  X111.1139  Y47.3642   
N6925  X110.9260  Y62.0191   
N6930  X110.7382  Y76.6741   
N6935  X105.9960  Y72.0690   
N6940  X101.2541  Y67.4640   
N6945  X103.9058  Y65.1047   
N6950  X106.5576  Y62.7455   
N6955  X103.2583  Y59.4463   
N6960  X99.9591  Y56.1472   
N6965  X96.8011  Y59.3052   
N6970  X93.6431  Y62.4632   
N6975  X96.1019  Y64.9949   
N6980  X98.5609  Y67.5269   
N6985  X93.9571  Y72.0853   
N6990  X89.0929  Y76.6439   
N6995  X88.8321  Y62.0400   
N7000 G0  Z3.0000 
N7005  X99.2636  Y80.9818 
N7010  Z0.1000 
N7015 G1  Z-1.0000  F100.00 
N7020  X99.0961  Y79.3915   F300.00 
N7025  X98.6933  Y78.7302   
N7030  X94.1333  Y82.8961   
N7035  X84.8302  Y92.1969   
N7040  X75.5006  Y101.8376   
N7045  X70.8615  Y107.0233   
N7050  X70.1708  Y108.8731   
N7055  X70.0391  Y110.6684   
N7060  X70.4217  Y112.3499   
N7065  X71.2731  Y113.8585   
N7070  X72.5482  Y115.1350   
N7075  X74.2017  Y116.1198   
N7080  X76.1886  Y116.7542   
N7085  X78.4635  Y116.9789   
N7090  X79.9944  Y117.2040   
N7095  X80.8371  Y117.7909   
N7100  X80.9053  Y118.6066   
N7105  X80.1126  Y119.5183   
N7110  X79.0972  Y119.9367   
N7115  X77.3363  Y120.2424   
N7120  X71.4874  Y120.5269   
N7125  X64.1443  Y120.5976   
N7130  X70.0557  Y122.0061   
N7135  X75.6985  Y123.0166   
N7140  X81.6260  Y123.6527   
N7145  X85.7734  Y123.7618   
N7150  X86.5344  Y123.5709   
N7155  X86.0760  Y123.1911   
N7160  X84.7651  Y122.6125   
N7165  X84.1919  Y122.1193   
N7170  X84.2242  Y121.4216   
N7175  X84.7310  Y120.2296   
N7180  X85.1343  Y118.8603   
N7185  X85.1201  Y117.5263   
N7190  X84.7269  Y116.2732   
N7195  X83.9932  Y115.1462   
N7200  X82.9576  Y114.1905   
N7205  X81.6587  Y113.4519   
N7210  X80.1349  Y112.9752   
N7215  X78.4248  Y112.8063   
N7220  X76.5046  Y112.6740   
N7225  X75.2025  Y112.2563   
N7230  X74.4623  Y111.5212   
N7235  X74.2281  Y110.4370   
N7240  X74.5360  Y108.8124   
N7245  X75.7125  Y107.8380   
N7250  X78.1376  Y107.3607   
N7255  X82.1908  Y107.2277   
N7260  X87.0753  Y106.9549   
N7265  X90.8273  Y106.1009   
N7270  X93.7063  Y104.5727   
N7275  X95.9727  Y102.2768   
N7280  X97.2212  Y100.2073   
N7285  X98.2697  Y97.7928   
N7290  X98.8816  Y95.6794   
N7295  X98.8197  Y94.5130   
N7300  X97.3732  Y95.5781   
N7305  X94.3251  Y98.5687   
N7310  X91.6905  Y101.1046   
N7315  X89.4974  Y102.8275   
N7320  X87.9973  Y103.5699   
N7325  X87.5855  Y103.5208   
N7330  X87.4413  Y103.1636   
N7335  X93.3525  Y96.8113   
N7340  X98.0264  Y91.7583   
N7345  X98.9843  Y90.2126   
N7350  X99.2636  Y89.0032   
N7355  X99.1073  Y87.6416   
N7360  X98.7312  Y87.0755   
N7365  X95.9280  Y89.5088   
N7370  X89.9362  Y95.3595   
N7375  X83.5520  Y101.3991   
N7380  X81.6414  Y102.8772   
N7385  X80.6672  Y103.2575   
N7390  X80.7993  Y102.5019   
N7395  X82.2726  Y100.5915   
N7400  X89.4621  Y93.0523   
N7405  X97.5746  Y84.5372   
N7410  X98.9366  Y82.4910   
N7415  X99.2636  Y80.9818   
N7420 G0  Z3.0000 
N7425  X110.7985  Y88.2924 
N7430  Z0.1000 
N7435 G1  Z-1.0000  F100.00 
N7440  X101.0132  Y78.7302   F300.00 
N7445  X100.6546  Y80.9997   
N7450  X100.9743  Y82.5137   
N7455  X102.3186  Y84.5422   
N7460  X110.3904  Y92.9866   
N7465  X120.1265  Y103.1698   
N7470  X119.9607  Y103.5542   
N7475  X119.4641  Y103.5350   
N7480  X117.4865  Y102.2912   
N7485  X109.6429  Y95.0206   
N7490  X103.8911  Y89.4093   
N7495  X101.1874  Y87.0755   
N7500  X100.8111  Y87.6416   
N7505  X100.6546  Y89.0032   
N7510  X100.9337  Y90.2126   
N7515  X101.8918  Y91.7583   
N7520  X106.5657  Y96.8113   
N7525  X112.4769  Y103.2070   
N7530  X112.3485  Y103.5262   
N7535  X111.9730  Y103.5597   
N7540  X110.5339  Y102.8070   
N7545  X105.2808  Y98.2803   
N7550  X100.5188  Y93.6821   
N7555  X101.0181  Y96.1161   
N7560  X101.7749  Y98.8061   
N7565  X102.8699  Y101.1048   
N7570  X104.3178  Y103.0223   
N7575  X106.1334  Y104.5686   
N7580  X108.3314  Y105.7535   
N7585  X110.9266  Y106.5878   
N7590  X113.9340  Y107.0808   
N7595  X117.3682  Y107.2429   
N7600  X121.2251  Y107.3866   
N7605  X123.8016  Y107.8480   
N7610  X125.2418  Y108.6738   
N7615  X125.6899  Y109.9100   
N7620  X125.4141  Y111.1908   
N7625  X124.5769  Y112.0944   
N7630  X123.1643  Y112.6298   
N7635  X121.1618  Y112.8063   
N7640  X119.5065  Y112.9752   
N7645  X118.0491  Y113.4552   
N7650  X116.8204  Y114.2059   
N7655  X115.8511  Y115.1870   
N7660  X115.1722  Y116.3582   
N7665  X114.8142  Y117.6795   
N7670  X114.8083  Y119.1105   
N7675  X115.1850  Y120.6106   
N7680  X115.5022  Y121.6144   
N7685  X115.4624  Y122.2610   
N7690  X114.9893  Y122.7138   
N7695  X114.0068  Y123.1365   
N7700  X112.1291  Y123.8235   
N7705  X114.2153  Y123.9587   
N7710  X120.1139  Y123.9701   
N7715  X123.8312  Y123.4448   
N7720  X130.1766  Y121.7901   
N7725  X135.7737  Y120.5976   
N7730  X128.1241  Y120.5162   
N7735  X122.4363  Y120.2781   
N7740  X119.5036  Y119.8201   
N7745  X118.8241  Y118.9575   
N7750  X119.0245  Y118.0273   
N7755  X119.9367  Y117.2833   
N7760  X121.3919  Y116.9789   
N7765  X124.8552  Y116.4500   
N7770  X126.3010  Y115.8151   
N7775  X127.5293  Y114.9566   
N7780  X128.5197  Y113.8921   
N7785  X129.2522  Y112.6391   
N7790  X129.7066  Y111.2148   
N7795  X129.8625  Y109.6372   
N7800  X129.4977  Y108.1282   
N7805  X127.3008  Y105.3017   
N7810  X110.7985  Y88.2924   
N7815 G0  Z3.0000 
N7820  X104.3778  Y108.2528 
N7825  Z0.1000 
N7830 G1  Z-1.0000  F100.00 
N7835  X102.2011  Y106.9054   F300.00 
N7840  X99.7795  Y106.4815   
N7845  X97.4140  Y106.9771   
N7850  X95.4056  Y108.3876   
N7855  X94.0377  Y110.1338   
N7860  X93.6513  Y111.2570   
N7865  X93.8207  Y111.5423   
N7870  X94.2285  Y111.6201   
N7875  X95.7520  Y111.0857   
N7880  X97.8340  Y110.3362   
N7885  X99.9591  Y110.0246   
N7890  X102.0840  Y110.3362   
N7895  X104.1663  Y111.0857   
N7900  X105.8866  Y111.7985   
N7905  X106.1579  Y111.6091   
N7910  X106.2180  Y111.0524   
N7915  X105.6775  Y109.7787   
N7920  X104.3778  Y108.2528   
N7925 G0  Z3.0000 
N7930  X93.7002  Y113.7961 
N7935  Z0.1000 
N7940 G1  Z-1.0000  F100.00 
N7945  X93.5346  Y113.3454   F300.00 
N7950  X93.0126  Y113.0438   
N7955  X90.7447  Y112.8370   
N7960  X87.7891  Y112.8678   
N7965  X90.5402  Y114.3181   
N7970  X93.2916  Y115.7683   
N7975  X91.2357  Y117.4806   
N7980  X89.1798  Y119.1929   
N7985  X91.8868  Y118.7312   
N7990  X94.5938  Y118.2695   
N7995  X94.1907  Y120.7536   
N8000  X94.0440  Y122.3939   
N8005  X94.3029  Y123.1138   
N8010  X94.9916  Y122.9269   
N8015  X96.1342  Y121.8468   
N8020  X97.2141  Y120.8145   
N8025  X97.9641  Y120.5677   
N8030  X98.4946  Y121.1346   
N8035  X98.9159  Y122.5423   
N8040  X99.4113  Y124.0157   
N8045  X99.9591  Y124.6285   
N8050  X100.5067  Y124.0157   
N8055  X101.0021  Y122.5423   
N8060  X101.3930  Y121.1257   
N8065  X101.8766  Y120.5836   
N8070  X102.6501  Y120.8766   
N8075  X103.9102  Y121.9655   
N8080  X105.1292  Y122.9458   
N8085  X105.7924  Y123.0466   
N8090  X105.9229  Y122.2474   
N8095  X105.5432  Y120.5282   
N8100  X104.8923  Y118.2585   
N8105  X107.8153  Y118.7139   
N8110  X110.7382  Y119.1692   
N8115  X108.6823  Y117.4688   
N8120  X106.6264  Y115.7683   
N8125  X109.3778  Y114.3181   
N8130  X112.1291  Y112.8678   
N8135  X109.1736  Y112.8370   
N8140  X106.8555  Y113.0495   
N8145  X106.3646  Y113.3825   
N8150  X106.2180  Y113.9029   
N8155  X105.6209  Y115.2745   
N8160  X104.1852  Y117.0323   
N8165  X101.9704  Y118.6289   
N8170  X99.6940  Y119.1420   
N8175  X97.4920  Y118.5737   
N8180  X95.5006  Y116.9255   
N8185  X94.2291  Y115.1237   
N8190  X93.7002  Y113.7961   
N8195 G0  Z3.0000 
N8200  X78.2703  Y122.3219 
N8205  Z0.1000 
N8210 G1  Z-1.0000  F100.00 
N8215  X79.0385  Y122.4566   F300.00 
N8220  X79.6033  Y122.2671   
N8225  X79.5084  Y121.9864   
N8230  X78.6906  Y121.9018   
N8235  X77.9687  Y122.0412   
N8240  X78.2703  Y122.3219   
N8245 G0  Z3.0000 
N8250  X66.5785  Y135.9874 
N8255  Z0.1000 
N8260 G1  Z-1.0000  F100.00 
N8265  X66.3043  Y133.4489   F300.00 
N8270  X65.7811  Y133.0578   
N8275  X64.8398  Y132.9738   
N8280  X63.8370  Y133.0805   
N8285  X63.3205  Y133.8124   
N8290  X63.1013  Y139.6221   
N8295  Y146.2705   
N8300  X65.2473  Y145.9322   
N8305  X67.0007  Y145.4181   
N8310  X68.2028  Y144.6570   
N8315  X70.5623  Y142.4250   
N8320  X71.5004  Y141.7252   
N8325  X72.2787  Y141.6273   
N8330  X73.2977  Y142.2468   
N8335  X74.9573  Y143.7007   
N8340  X77.4585  Y145.5499   
N8345  X79.3186  Y146.0552   
N8350  X80.1578  Y145.7761   
N8355  X80.6376  Y144.9081   
N8360  X81.0346  Y139.4066   
N8365  X81.2347  Y132.9738   
N8370  X79.1223   
N8375  X77.9139  Y133.0375   
N8380  X77.2854  Y133.4450   
N8385  X77.0471  Y134.5203   
N8390  X77.0098  Y136.5874   
N8395  Y140.2008   
N8400  X74.5759  Y137.8418   
N8405  X72.1419  Y135.4827   
N8410  X69.8361  Y137.7176   
N8415  X68.0676  Y139.1562   
N8420  X67.0544  Y139.4768   
N8425  X66.7183  Y138.2554   
N8430  X66.5785  Y135.9874   
N8435 G0  Z3.0000 
N8440  X87.9890  Y139.4066 
N8445  Z0.1000 
N8450 G1  Z-1.0000  F100.00 
N8455  X88.1889  Y132.9738   F300.00 
N8460  X86.4244   
N8465  X84.6596   
N8470  Y139.6288   
N8475  X84.8686  Y145.3654   
N8480  X85.3348  Y146.0625   
N8485  X86.2243  Y146.0615   
N8490  X87.0966  Y145.7869   
N8495  X87.5896  Y144.9319   
N8500  X87.9890  Y139.4066   
N8505 G0  Z3.0000 
N8510  X95.8215  Y134.4300 
N8515  Z0.1000 
N8520 G1  Z-1.0000  F100.00 
N8525  X94.7206  Y133.3348   F300.00 
N8530  X92.9661  Y132.9738   
N8535  X90.8901   
N8540  X92.2093  Y135.5817   
N8545  X95.0943  Y141.6667   
N8550  X96.2915  Y144.0991   
N8555  X97.3487  Y145.4539   
N8560  X98.6028  Y146.0101   
N8565  X100.3912  Y146.0459   
N8570  X101.6619  Y145.8052   
N8575  X102.7217  Y144.9452   
N8580  X103.9626  Y142.9849   
N8585  X105.7764  Y139.4442   
N8590  X108.9906  Y132.9738   
N8595  X106.9332   
N8600  X105.1943  Y133.3366   
N8605  X104.0967  Y134.4300   
N8610  X103.3172  Y135.8862   
N8615  X101.6383  Y134.3088   
N8620  X99.9591  Y132.7314   
N8625  X98.2800  Y134.3088   
N8630  X96.6008  Y135.8862   
N8635  X95.8215  Y134.4300   
N8640 G0  Z3.0000 
N8645  X98.9141  Y138.5400 
N8650  Z0.1000 
N8655 G1  Z-1.0000  F100.00 
N8660  X98.7071  Y139.6021   F300.00 
N8665  X98.8790  Y141.0721   
N8670  X99.4334  Y142.3442   
N8675  X99.8176  Y142.3387   
N8680  X100.3689  Y141.9628   
N8685  X101.0118  Y140.9945   
N8690  X101.1872  Y139.7847   
N8695  X100.9105  Y138.6817   
N8700  X100.1966  Y138.0334   
N8705  X99.4876  Y138.0728   
N8710  X98.9141  Y138.5400   
N8715 G0  Z3.0000 
N8720  X115.2586  Y136.4510 
N8725  Z0.1000 
N8730 G1  Z-1.0000  F100.00 
N8735  X114.9978  Y133.4955   F300.00 
N8740  X114.4762  Y133.0608   
N8745  X113.5199  Y132.9738   
N8750  X112.5175  Y133.0803   
N8755  X112.0010  Y133.8083   
N8760  X111.7814  Y139.5805   
N8765  X111.9923  Y145.1963   
N8770  X112.4142  Y146.0219   
N8775  X113.1877  Y146.1869   
N8780  X115.0606  Y145.3763   
N8785  X117.5882  Y143.4271   
N8790  X120.5824  Y140.6672   
N8795  X123.2295  Y143.3782   
N8800  X125.6856  Y145.4311   
N8805  X126.7146  Y145.8644   
N8810  X127.6959  Y145.9509   
N8815  X128.7446  Y145.7640   
N8820  X129.3076  Y145.0086   
N8825  X129.7147  Y139.3932   
N8830  X129.9148  Y132.9738   
N8835  X127.8023   
N8840  X126.5939  Y133.0375   
N8845  X125.9655  Y133.4450   
N8850  X125.7273  Y134.5203   
N8855  X125.6899  Y136.5874   
N8860  Y140.2008   
N8865  X123.2559  Y137.8418   
N8870  X120.8220  Y135.4827   
N8875  X118.5287  Y137.7054   
N8880  X115.7470  Y139.9280   
N8885  X115.4021  Y138.9067   
N8890  X115.2586  Y136.4510   
N8895 G0  Z3.0000 
N8900  X120.6917  Y122.3219 
N8905  Z0.1000 
N8910 G1  Z-1.0000  F100.00 
N8915  X121.4597  Y122.4566   F300.00 
N8920  X122.0245  Y122.2671   
N8925  X121.9296  Y121.9864   
N8930  X121.1117  Y121.9018   
N8935  X120.3899  Y122.0412   
N8940  X120.6917  Y122.3219   
N8945 G0  Z3.0000 
N8950  X136.8169  Y139.6266 
N8955  Z0.1000 
N8960 G1  Z-1.0000  F100.00 
N8965  Y132.9738   F300.00 
N8970  X135.0565   
N8975  X133.7046  Y133.1958   
N8980  X132.9736  Y134.1793   
N8985  X132.7168  Y136.4009   
N8990  X132.7868  Y140.3372   
N8995  X132.9378  Y143.4905   
N9000  X133.2141  Y145.1521   
N9005  X133.8061  Y145.8368   
N9010  X134.9043  Y146.0593   
N9015  X136.8169  Y146.2793   
N9020  Y139.6266   
N9025 G0  Z3.0000 
N9030  X80.1416  Y158.0094 
N9035  Z0.1000 
N9040 G1  Z-1.0000  F100.00 
N9045  X99.9591   F300.00 
N9050  X149.3346   
N9055  Y125.7628   
N9060  X149.1231  Y98.8800   
N9065  X148.8050  Y91.9377   
N9070  X148.2975  Y87.5693   
N9075  X146.1177  Y78.2224   
N9080  X142.9334  Y69.2437   
N9085  X138.8071  Y60.7212   
N9090  X133.8006  Y52.7427   
N9095  X127.9764  Y45.3965   
N9100  X121.3964  Y38.7701   
N9105  X114.1229  Y32.9517   
N9110  X106.2180  Y28.0291   
N9115  X102.2279  Y26.0342   
N9120  X99.9591  Y25.2078   
N9125  X97.9967  Y25.8763   
N9130  X94.7432  Y27.4750   
N9135  X86.5314  Y32.5513   
N9140  X79.0134  Y38.4721   
N9145  X72.2464  Y45.1589   
N9150  X66.2861  Y52.5334   
N9155  X61.1895  Y60.5171   
N9160  X57.0128  Y69.0318   
N9165  X53.8124  Y77.9990   
N9170  X51.6447  Y87.3404   
N9175  X51.1215  Y91.8038   
N9180  X50.7965  Y98.7468   
N9185  X50.5836  Y125.7628   
N9190  Y158.0094   
N9195  X80.1416   
N9200 G0  Z3.0000 
N9205  X50.2664  Y30.3712 
N9210  Z0.1000 
N9215 G1  Z-1.0000  F100.00 
N9220  X48.5421  Y29.1498   F300.00 
N9225  X47.4435  Y27.2371   
N9230  X46.6762  Y24.9584   
N9235  X46.0129  Y27.2714   
N9240  X45.5770  Y28.4185   
N9245  X44.9736  Y29.2653   
N9250  X42.9247  Y30.4018   
N9255  X40.4998  Y31.2193   
N9260  X43.0238  Y31.6936   
N9265  X44.3389  Y32.0204   
N9270  X45.1716  Y32.4896   
N9275  X45.6746  Y33.2405   
N9280  X46.0003  Y34.4124   
N9285  X46.4961  Y35.9815   
N9290  X46.7720  Y36.0196   
N9295  X47.1166  Y35.6135   
N9300  X47.7912  Y33.4086   
N9305  X48.3903  Y32.4174   
N9310  X50.0620  Y31.7367   
N9315  X52.3220  Y31.2268   
N9320  X50.2664  Y30.3712   
N9325 G0  Z3.0000 
N9330 M5
N9335 M30

