N5 (File Name = inter on Friday, November 10, 2023)
N10 (Default Mill Post)
N15  G91.1
N20 G0  Z3.0000 
N25 M3 S4000 
N30  X73.5113  Y126.3342 
N35  Z0.1000 
N40 G1  Z-0.7000  F100.00 
N45  X68.7146  Y123.1437   F300.00 
N50  X63.2590  Y122.0052   
N55  X57.9114  Y122.9337   
N60  X53.4390  Y125.9439   
N65  X50.7812  Y129.5105   
N70  X49.0509  Y133.3442   
N75  X48.3673  Y137.0714   
N80  X48.8503  Y140.3181   
N85  X50.4751  Y142.4082   
N90  X52.5790  Y142.8631   
N95  X54.4005  Y141.8005   
N100  X55.1772  Y139.3384   
N105  X55.7592  Y135.2810   
N110  X57.3579  Y132.0061   
N115  X59.7501  Y129.8180   
N120  X62.7144  Y129.0211   
N125  X65.6625  Y129.4888   
N130  X68.0143  Y130.7514   
N135  X69.7140  Y132.5990   
N140  X70.7051  Y134.8211   
N145  X70.9333  Y137.2069   
N150  X70.3414  Y139.5468   
N155  X68.8753  Y141.6300   
N160  X66.4781  Y143.2460   
N165  X63.7794  Y145.3715   
N170  X62.2610  Y148.1604   
N175  X62.2275  Y150.5861   
N180  X63.9845  Y151.6225   
N185  X66.6664  Y150.9907   
N190  X69.9565  Y149.3708   
N195  X75.5501  Y144.8191   
N200  X77.4307  Y140.5852   
N205  X77.6579  Y135.5535   
N210  X76.3218  Y130.5331   
N215  X73.5113  Y126.3342   
N220 G0  Z0.1000 
N225 G1  Z-1.4000  F100.00 
N230  X68.7146  Y123.1437   F300.00 
N235  X63.2590  Y122.0052   
N240  X57.9114  Y122.9337   
N245  X53.4390  Y125.9439   
N250  X50.7812  Y129.5105   
N255  X49.0509  Y133.3442   
N260  X48.3673  Y137.0714   
N265  X48.8503  Y140.3181   
N270  X50.4751  Y142.4082   
N275  X52.5790  Y142.8631   
N280  X54.4005  Y141.8005   
N285  X55.1772  Y139.3384   
N290  X55.7592  Y135.2810   
N295  X57.3579  Y132.0061   
N300  X59.7501  Y129.8180   
N305  X62.7144  Y129.0211   
N310  X65.6625  Y129.4888   
N315  X68.0143  Y130.7514   
N320  X69.7140  Y132.5990   
N325  X70.7051  Y134.8211   
N330  X70.9333  Y137.2069   
N335  X70.3414  Y139.5468   
N340  X68.8753  Y141.6300   
N345  X66.4781  Y143.2460   
N350  X63.7794  Y145.3715   
N355  X62.2610  Y148.1604   
N360  X62.2275  Y150.5861   
N365  X63.9845  Y151.6225   
N370  X66.6664  Y150.9907   
N375  X69.9565  Y149.3708   
N380  X75.5501  Y144.8191   
N385  X77.4307  Y140.5852   
N390  X77.6579  Y135.5535   
N395  X76.3218  Y130.5331   
N400  X73.5113  Y126.3342   
N405 G0  Z3.0000 
N410  X50.8127  Y161.3696 
N415  Z0.1000 
N420 G1  Z-0.7000  F100.00 
N425  X38.6710  Y157.1284   F300.00 
N430  X36.5351  Y157.5424   
N435  X35.4243  Y159.4456   
N440  X35.7342  Y161.3691   
N445  X38.1713  Y163.4129   
N450  X49.8044  Y168.0893   
N455  X51.8265  Y168.9586   
N460  X52.8446  Y170.2582   
N465  X52.5430  Y176.1199   
N470  X52.1552  Y181.4754   
N475  X52.7175  Y182.5887   
N480  X53.8332  Y182.9169   
N485  X56.1702  Y181.2403   
N490  X58.9074  Y177.2243   
N495  X61.1818  Y172.3917   
N500  X62.1314  Y168.2652   
N505  X58.8068  Y165.2644   
N510  X50.8127  Y161.3696   
N515 G0  Z0.1000 
N520 G1  Z-1.4000  F100.00 
N525  X38.6710  Y157.1284   F300.00 
N530  X36.5351  Y157.5424   
N535  X35.4243  Y159.4456   
N540  X35.7342  Y161.3691   
N545  X38.1713  Y163.4129   
N550  X49.8044  Y168.0893   
N555  X51.8265  Y168.9586   
N560  X52.8446  Y170.2582   
N565  X52.5430  Y176.1199   
N570  X52.1552  Y181.4754   
N575  X52.7175  Y182.5887   
N580  X53.8332  Y182.9169   
N585  X56.1702  Y181.2403   
N590  X58.9074  Y177.2243   
N595  X61.1818  Y172.3917   
N600  X62.1314  Y168.2652   
N605  X58.8068  Y165.2644   
N610  X50.8127  Y161.3696   
N615 G0  Z3.0000 
N620  X48.3979  Y192.6374 
N625  Z0.1000 
N630 G1  Z-0.7000  F100.00 
N635  X43.4548  Y189.8382   F300.00 
N640  X36.2074  Y187.3041   
N645  X28.4059  Y185.8103   
N650  X26.7614  Y186.4909   
N655  X25.5791  Y188.2118   
N660  X24.9098  Y189.9845   
N665  X25.4101  Y191.2343   
N670  X31.2495  Y193.3791   
N675  X43.1458  Y196.9792   
N680  X44.5060  Y198.5513   
N685  X44.4124  Y200.8868   
N690  X43.3716  Y203.2849   
N695  X40.7818  Y204.3962   
N700  X36.1305  Y204.2927   
N705  X28.9067  Y203.0444   
N710  X23.6817  Y202.5772   
N715  X22.3609  Y203.2341   
N720  X21.5512  Y204.5569   
N725  X21.6675  Y206.7933   
N730  X24.0499  Y208.6493   
N735  X28.9140  Y210.2263   
N740  X36.4750  Y211.6274   
N745  X43.6175  Y211.9290   
N750  X45.8840  Y210.9922   
N755  X48.0514  Y209.1673   
N760  X50.6363  Y205.2232   
N765  X51.5658  Y200.6798   
N770  X50.8245  Y196.2483   
N775  X48.3979  Y192.6374   
N780 G0  Z0.1000 
N785 G1  Z-1.4000  F100.00 
N790  X43.4548  Y189.8382   F300.00 
N795  X36.2074  Y187.3041   
N800  X28.4059  Y185.8103   
N805  X26.7614  Y186.4909   
N810  X25.5791  Y188.2118   
N815  X24.9098  Y189.9845   
N820  X25.4101  Y191.2343   
N825  X31.2495  Y193.3791   
N830  X43.1458  Y196.9792   
N835  X44.5060  Y198.5513   
N840  X44.4124  Y200.8868   
N845  X43.3716  Y203.2849   
N850  X40.7818  Y204.3962   
N855  X36.1305  Y204.2927   
N860  X28.9067  Y203.0444   
N865  X23.6817  Y202.5772   
N870  X22.3609  Y203.2341   
N875  X21.5512  Y204.5569   
N880  X21.6675  Y206.7933   
N885  X24.0499  Y208.6493   
N890  X28.9140  Y210.2263   
N895  X36.4750  Y211.6274   
N900  X43.6175  Y211.9290   
N905  X45.8840  Y210.9922   
N910  X48.0514  Y209.1673   
N915  X50.6363  Y205.2232   
N920  X51.5658  Y200.6798   
N925  X50.8245  Y196.2483   
N930  X48.3979  Y192.6374   
N935 G0  Z3.0000 
N940  X46.1693  Y234.7626 
N945  Z0.1000 
N950 G1  Z-0.7000  F100.00 
N955  X45.6149  Y228.9892   F300.00 
N960  X31.2717  Y228.4845   
N965  X16.9285  Y227.9794   
N970  Y234.7345   
N975  X17.7698  Y240.1379   
N980  X20.0368  Y244.2406   
N985  X23.3427  Y246.5958   
N990  X27.3010  Y246.7560   
N995  X30.0820  Y246.5663   
N1000  X31.8074  Y247.4075   
N1005  X33.7299  Y248.5203   
N1010  X36.9845  Y248.9831   
N1015  X40.8478  Y247.8067   
N1020  X43.9137  Y244.6620   
N1025  X45.8110  Y240.1226   
N1030  X46.1693  Y234.7626   
N1035 G0  Z0.1000 
N1040 G1  Z-1.4000  F100.00 
N1045  X45.6149  Y228.9892   F300.00 
N1050  X31.2717  Y228.4845   
N1055  X16.9285  Y227.9794   
N1060  Y234.7345   
N1065  X17.7698  Y240.1379   
N1070  X20.0368  Y244.2406   
N1075  X23.3427  Y246.5958   
N1080  X27.3010  Y246.7560   
N1085  X30.0820  Y246.5663   
N1090  X31.8074  Y247.4075   
N1095  X33.7299  Y248.5203   
N1100  X36.9845  Y248.9831   
N1105  X40.8478  Y247.8067   
N1110  X43.9137  Y244.6620   
N1115  X45.8110  Y240.1226   
N1120  X46.1693  Y234.7626   
N1125 G0  Z3.0000 
N1130  X34.3144  Y238.5514 
N1135  Z0.1000 
N1140 G1  Z-0.7000  F100.00 
N1145  X35.0748  Y241.0146   F300.00 
N1150  X36.9224  Y242.0283   
N1155  X38.7696  Y241.0146   
N1160  X39.5300  Y238.5514   
N1165  X38.7696  Y236.0883   
N1170  X36.9224  Y235.0741   
N1175  X35.0748  Y236.0883   
N1180  X34.3144  Y238.5514   
N1185 G0  Z0.1000 
N1190 G1  Z-1.4000  F100.00 
N1195  X35.0748  Y241.0146   F300.00 
N1200  X36.9224  Y242.0283   
N1205  X38.7696  Y241.0146   
N1210  X39.5300  Y238.5514   
N1215  X38.7696  Y236.0883   
N1220  X36.9224  Y235.0741   
N1225  X35.0748  Y236.0883   
N1230  X34.3144  Y238.5514   
N1235 G0  Z3.0000 
N1240  X23.8828  Y237.8270 
N1245  Z0.1000 
N1250 G1  Z-0.7000  F100.00 
N1255  X24.4845  Y239.4681   F300.00 
N1260  X25.8886  Y239.8431   
N1265  X27.4942  Y239.0379   
N1270  X28.7002  Y237.1390   
N1275  X28.3778  Y235.6807   
N1280  X26.6357  Y235.0741   
N1285  X24.6915  Y235.8828   
N1290  X23.8828  Y237.8270   
N1295 G0  Z0.1000 
N1300 G1  Z-1.4000  F100.00 
N1305  X24.4845  Y239.4681   F300.00 
N1310  X25.8886  Y239.8431   
N1315  X27.4942  Y239.0379   
N1320  X28.7002  Y237.1390   
N1325  X28.3778  Y235.6807   
N1330  X26.6357  Y235.0741   
N1335  X24.6915  Y235.8828   
N1340  X23.8828  Y237.8270   
N1345 G0  Z3.0000 
N1350  X48.2229  Y286.9917 
N1355  Z0.1000 
N1360 G1  Z-0.7000  F100.00 
N1365  X47.7661  Y284.9011   F300.00 
N1370  X45.6307  Y284.0993   
N1375  X31.7266  Y286.1169   
N1380  X23.5580  Y288.3425   
N1385  X21.5675  Y289.6298   
N1390  X20.7331  Y291.1433   
N1395  X21.1880  Y293.2639   
N1400  X23.9439  Y294.1283   
N1405  X29.5040  Y293.7656   
N1410  X38.3709  Y292.2073   
N1415  X46.1999  Y289.9703   
N1420  X47.7720  Y288.6609   
N1425  X48.2229  Y286.9917   
N1430 G0  Z0.1000 
N1435 G1  Z-1.4000  F100.00 
N1440  X47.7661  Y284.9011   F300.00 
N1445  X45.6307  Y284.0993   
N1450  X31.7266  Y286.1169   
N1455  X23.5580  Y288.3425   
N1460  X21.5675  Y289.6298   
N1465  X20.7331  Y291.1433   
N1470  X21.1880  Y293.2639   
N1475  X23.9439  Y294.1283   
N1480  X29.5040  Y293.7656   
N1485  X38.3709  Y292.2073   
N1490  X46.1999  Y289.9703   
N1495  X47.7720  Y288.6609   
N1500  X48.2229  Y286.9917   
N1505 G0  Z3.0000 
N1510  X53.4296  Y309.3985 
N1515  Z0.1000 
N1520 G1  Z-0.7000  F100.00 
N1525  X52.6101  Y307.1936   F300.00 
N1530  X49.0928  Y307.0605   
N1535  X41.3160  Y309.2876   
N1540  X27.7199  Y314.1656   
N1545  X26.5288  Y314.9467   
N1550  X26.1720  Y316.0221   
N1555  X27.6258  Y318.7025   
N1560  X31.4097  Y321.5033   
N1565  X36.8520  Y323.7220   
N1570  X42.4268  Y325.6248   
N1575  X44.7460  Y327.0953   
N1580  X42.9586  Y328.5635   
N1585  X38.6606  Y330.4594   
N1590  X35.0862  Y332.2666   
N1595  X32.9784  Y334.3980   
N1600  X32.5373  Y336.5211   
N1605  X33.9625  Y338.3022   
N1610  X38.6434  Y337.5881   
N1615  X47.9489  Y334.6686   
N1620  X56.6606  Y330.9586   
N1625  X58.9448  Y329.3165   
N1630  X59.8585  Y327.7488   
N1635  X59.4086  Y326.2053   
N1640  X57.6034  Y324.6352   
N1645  X49.9547  Y321.2125   
N1650  X40.4284  Y317.7883   
N1655  X46.9248  Y315.1148   
N1660  X51.6752  Y312.3416   
N1665  X53.4296  Y309.3985   
N1670 G0  Z0.1000 
N1675 G1  Z-1.4000  F100.00 
N1680  X52.6101  Y307.1936   F300.00 
N1685  X49.0928  Y307.0605   
N1690  X41.3160  Y309.2876   
N1695  X27.7199  Y314.1656   
N1700  X26.5288  Y314.9467   
N1705  X26.1720  Y316.0221   
N1710  X27.6258  Y318.7025   
N1715  X31.4097  Y321.5033   
N1720  X36.8520  Y323.7220   
N1725  X42.4268  Y325.6248   
N1730  X44.7460  Y327.0953   
N1735  X42.9586  Y328.5635   
N1740  X38.6606  Y330.4594   
N1745  X35.0862  Y332.2666   
N1750  X32.9784  Y334.3980   
N1755  X32.5373  Y336.5211   
N1760  X33.9625  Y338.3022   
N1765  X38.6434  Y337.5881   
N1770  X47.9489  Y334.6686   
N1775  X56.6606  Y330.9586   
N1780  X58.9448  Y329.3165   
N1785  X59.8585  Y327.7488   
N1790  X59.4086  Y326.2053   
N1795  X57.6034  Y324.6352   
N1800  X49.9547  Y321.2125   
N1805  X40.4284  Y317.7883   
N1810  X46.9248  Y315.1148   
N1815  X51.6752  Y312.3416   
N1820  X53.4296  Y309.3985   
N1825 G0  Z3.0000 
N1830  X71.5488  Y350.9382 
N1835  Z0.1000 
N1840 G1  Z-0.7000  F100.00 
N1845  X70.4942  Y348.8772   F300.00 
N1850  X68.8146  Y348.4450   
N1855  X59.5466  Y353.2441   
N1860  X52.2488  Y356.9053   
N1865  X50.5224  Y356.8980   
N1870  X49.4634  Y355.8226   
N1875  X47.7252  Y354.0420   
N1880  X45.5868  Y353.3639   
N1885  X43.7712  Y353.8267   
N1890  X43.0024  Y355.4707   
N1895  X44.2828  Y360.1491   
N1900  X47.3457  Y365.7506   
N1905  X51.0010  Y370.4497   
N1910  X54.0590  Y372.4214   
N1915  X56.4166  Y371.5659   
N1920  X56.2422  Y368.2364   
N1925  X55.9884  Y365.8955   
N1930  X56.8429  Y363.9483   
N1935  X63.4428  Y359.2886   
N1940  X72.1693  Y354.1613   
N1945  X71.5488  Y350.9382   
N1950 G0  Z0.1000 
N1955 G1  Z-1.4000  F100.00 
N1960  X70.4942  Y348.8772   F300.00 
N1965  X68.8146  Y348.4450   
N1970  X59.5466  Y353.2441   
N1975  X52.2488  Y356.9053   
N1980  X50.5224  Y356.8980   
N1985  X49.4634  Y355.8226   
N1990  X47.7252  Y354.0420   
N1995  X45.5868  Y353.3639   
N2000  X43.7712  Y353.8267   
N2005  X43.0024  Y355.4707   
N2010  X44.2828  Y360.1491   
N2015  X47.3457  Y365.7506   
N2020  X51.0010  Y370.4497   
N2025  X54.0590  Y372.4214   
N2030  X56.4166  Y371.5659   
N2035  X56.2422  Y368.2364   
N2040  X55.9884  Y365.8955   
N2045  X56.8429  Y363.9483   
N2050  X63.4428  Y359.2886   
N2055  X72.1693  Y354.1613   
N2060  X71.5488  Y350.9382   
N2065 G0  Z3.0000 
N2070  X89.7893  Y377.4359 
N2075  Z0.1000 
N2080 G1  Z-0.7000  F100.00 
N2085  X83.2830  Y370.6961   F300.00 
N2090  X72.1141  Y378.6922   
N2095  X62.1314  Y387.6108   
N2100  X66.5664  Y394.4246   
N2105  X71.4148  Y399.1124   
N2110  X73.4260  Y400.0231   
N2115  X74.9666  Y400.0423   
N2120  X75.8896  Y399.2183   
N2125  X76.0498  Y397.5979   
N2130  X73.4935  Y392.1611   
N2135  X71.9805  Y389.2125   
N2140  X72.1259  Y387.5231   
N2145  X73.6492  Y387.3994   
N2150  X76.2691  Y389.1450   
N2155  X79.2744  Y390.8304   
N2160  X82.1209  Y390.9191   
N2165  X83.5161  Y390.2326   
N2170  X83.9774  Y389.3648   
N2175  X82.0913  Y385.6533   
N2180  X80.4828  Y382.0803   
N2185  X81.0702  Y380.4308   
N2190  X83.2253  Y380.9611   
N2195  X86.3222  Y383.9274   
N2200  X89.7380  Y387.2289   
N2205  X91.0736  Y387.2579   
N2210  X92.5328  Y386.3502   
N2215  X93.7141  Y384.9900   
N2220  X93.7550  Y383.3903   
N2225  X89.7893  Y377.4359   
N2230 G0  Z0.1000 
N2235 G1  Z-1.4000  F100.00 
N2240  X83.2830  Y370.6961   F300.00 
N2245  X72.1141  Y378.6922   
N2250  X62.1314  Y387.6108   
N2255  X66.5664  Y394.4246   
N2260  X71.4148  Y399.1124   
N2265  X73.4260  Y400.0231   
N2270  X74.9666  Y400.0423   
N2275  X75.8896  Y399.2183   
N2280  X76.0498  Y397.5979   
N2285  X73.4935  Y392.1611   
N2290  X71.9805  Y389.2125   
N2295  X72.1259  Y387.5231   
N2300  X73.6492  Y387.3994   
N2305  X76.2691  Y389.1450   
N2310  X79.2744  Y390.8304   
N2315  X82.1209  Y390.9191   
N2320  X83.5161  Y390.2326   
N2325  X83.9774  Y389.3648   
N2330  X82.0913  Y385.6533   
N2335  X80.4828  Y382.0803   
N2340  X81.0702  Y380.4308   
N2345  X83.2253  Y380.9611   
N2350  X86.3222  Y383.9274   
N2355  X89.7380  Y387.2289   
N2360  X91.0736  Y387.2579   
N2365  X92.5328  Y386.3502   
N2370  X93.7141  Y384.9900   
N2375  X93.7550  Y383.3903   
N2380  X89.7893  Y377.4359   
N2385 G0  Z3.0000 
N2390  X108.7133  Y398.8359 
N2395  Z0.1000 
N2400 G1  Z-0.7000  F100.00 
N2405  X106.6582  Y397.2352   F300.00 
N2410  X104.4922  Y397.6171   
N2415  X101.1168  Y400.6613   
N2420  X95.4341  Y407.0459   
N2425  X86.4888  Y417.3301   
N2430  X91.8296  Y421.8237   
N2435  X98.1042  Y425.5209   
N2440  X101.0148  Y426.1586   
N2445  X103.6337  Y426.0196   
N2450  X105.8549  Y425.1266   
N2455  X107.5724  Y423.5013   
N2460  X108.6802  Y421.1673   
N2465  X109.0730  Y418.1462   
N2470  X109.2825  Y416.1715   
N2475  X110.0301  Y414.9429   
N2480  X113.8544  Y414.1208   
N2485  X118.3224  Y413.7010   
N2490  X121.0644  Y412.6074   
N2495  X121.8668  Y411.0027   
N2500  X120.5164  Y409.0502   
N2505  X116.7010  Y407.7067   
N2510  X110.4372  Y408.0975   
N2515  X102.9881  Y409.3281   
N2520  X106.8878  Y405.1189   
N2525  X109.5353  Y401.3572   
N2530  X109.5304  Y400.0369   
N2535  X108.7133  Y398.8359   
N2540 G0  Z0.1000 
N2545 G1  Z-1.4000  F100.00 
N2550  X106.6582  Y397.2352   F300.00 
N2555  X104.4922  Y397.6171   
N2560  X101.1168  Y400.6613   
N2565  X95.4341  Y407.0459   
N2570  X86.4888  Y417.3301   
N2575  X91.8296  Y421.8237   
N2580  X98.1042  Y425.5209   
N2585  X101.0148  Y426.1586   
N2590  X103.6337  Y426.0196   
N2595  X105.8549  Y425.1266   
N2600  X107.5724  Y423.5013   
N2605  X108.6802  Y421.1673   
N2610  X109.0730  Y418.1462   
N2615  X109.2825  Y416.1715   
N2620  X110.0301  Y414.9429   
N2625  X113.8544  Y414.1208   
N2630  X118.3224  Y413.7010   
N2635  X121.0644  Y412.6074   
N2640  X121.8668  Y411.0027   
N2645  X120.5164  Y409.0502   
N2650  X116.7010  Y407.7067   
N2655  X110.4372  Y408.0975   
N2660  X102.9881  Y409.3281   
N2665  X106.8878  Y405.1189   
N2670  X109.5353  Y401.3572   
N2675  X109.5304  Y400.0369   
N2680  X108.7133  Y398.8359   
N2685 G0  Z3.0000 
N2690  X96.9032  Y416.7555 
N2695  Z0.1000 
N2700 G1  Z-0.7000  F100.00 
N2705  X97.9529  Y418.6213   F300.00 
N2710  X100.5930  Y419.3630   
N2715  X103.1902  Y418.8761   
N2720  X102.1188  Y416.7555   
N2725  X98.4290  Y414.1475   
N2730  X97.3512  Y414.9133   
N2735  X96.9032  Y416.7555   
N2740 G0  Z0.1000 
N2745 G1  Z-1.4000  F100.00 
N2750  X97.9529  Y418.6213   F300.00 
N2755  X100.5930  Y419.3630   
N2760  X103.1902  Y418.8761   
N2765  X102.1188  Y416.7555   
N2770  X98.4290  Y414.1475   
N2775  X97.3512  Y414.9133   
N2780  X96.9032  Y416.7555   
N2785 G0  Z3.0000 
N2790  X138.6223  Y422.5915 
N2795  Z0.1000 
N2800 G1  Z-0.7000  F100.00 
N2805  X137.7411  Y420.8691   F300.00 
N2810  X135.6240  Y420.4714   
N2815  X133.1002  Y421.3190   
N2820  X131.0003  Y423.3308   
N2825  X121.3123  Y439.5634   
N2830  X120.3385  Y442.6180   
N2835  X121.0393  Y444.1950   
N2840  X123.2787  Y444.9027   
N2845  X127.3159  Y444.5311   
N2850  X139.8411  Y440.7230   
N2855  X140.9095  Y440.5915   
N2860  X141.1057  Y441.4628   
N2865  X138.7554  Y446.9322   
N2870  X136.6816  Y452.0955   
N2875  X136.8550  Y454.3955   
N2880  X140.3699  Y454.8302   
N2885  X143.6432  Y451.6332   
N2890  X149.0682  Y443.7032   
N2895  X154.4307  Y433.9615   
N2900  X154.3853  Y432.0656   
N2905  X152.8733  Y430.9804   
N2910  X148.1900  Y430.8227   
N2915  X140.6976  Y432.9862   
N2920  X131.6745  Y435.7549   
N2925  X135.1454  Y429.4019   
N2930  X138.6223  Y422.5915   
N2935 G0  Z0.1000 
N2940 G1  Z-1.4000  F100.00 
N2945  X137.7411  Y420.8691   F300.00 
N2950  X135.6240  Y420.4714   
N2955  X133.1002  Y421.3190   
N2960  X131.0003  Y423.3308   
N2965  X121.3123  Y439.5634   
N2970  X120.3385  Y442.6180   
N2975  X121.0393  Y444.1950   
N2980  X123.2787  Y444.9027   
N2985  X127.3159  Y444.5311   
N2990  X139.8411  Y440.7230   
N2995  X140.9095  Y440.5915   
N3000  X141.1057  Y441.4628   
N3005  X138.7554  Y446.9322   
N3010  X136.6816  Y452.0955   
N3015  X136.8550  Y454.3955   
N3020  X140.3699  Y454.8302   
N3025  X143.6432  Y451.6332   
N3030  X149.0682  Y443.7032   
N3035  X154.4307  Y433.9615   
N3040  X154.3853  Y432.0656   
N3045  X152.8733  Y430.9804   
N3050  X148.1900  Y430.8227   
N3055  X140.6976  Y432.9862   
N3060  X131.6745  Y435.7549   
N3065  X135.1454  Y429.4019   
N3070  X138.6223  Y422.5915   
N3075 G0  Z3.0000 
N3080  X165.2053  Y410.6928 
N3085  Z0.1000 
N3090 G1  Z-0.7000  F100.00 
N3095  X154.9600  Y405.7768   F300.00 
N3100  X148.4921  Y403.7548   
N3105  X145.7919  Y404.2298   
N3110  X149.0288  Y407.1089   
N3115  X156.4961  Y411.7415   
N3120  X167.6147  Y417.4129   
N3125  X180.0916  Y423.0272   
N3130  X191.6325  Y427.4863   
N3135  X205.0246  Y431.4013   
N3140  X218.9755  Y434.2399   
N3145  X233.3103  Y436.0008   
N3150  X247.8530  Y436.6824   
N3155  X262.4278  Y436.2822   
N3160  X276.8597  Y434.7993   
N3165  X290.9728  Y432.2317   
N3170  X304.5910  Y428.5774   
N3175  X317.0092  Y424.0468   
N3180  X330.4801  Y418.1985   
N3185  X342.5469  Y412.1752   
N3190  X350.7524  Y407.1193   
N3195  X353.6409  Y404.0623   
N3200  X353.0500  Y403.5808   
N3205  X351.2822  Y403.7587   
N3210  X344.7587  Y405.9754   
N3215  X335.1501  Y410.4794   
N3220  X314.2829  Y419.7469   
N3225  X292.8499  Y426.3744   
N3230  X271.0809  Y430.3619   
N3235  X249.2039  Y431.7098   
N3240  X227.4486  Y430.4171   
N3245  X206.0447  Y426.4834   
N3250  X185.2204  Y419.9086   
N3255  X165.2053  Y410.6928   
N3260 G0  Z0.1000 
N3265 G1  Z-1.4000  F100.00 
N3270  X154.9600  Y405.7768   F300.00 
N3275  X148.4921  Y403.7548   
N3280  X145.7919  Y404.2298   
N3285  X149.0288  Y407.1089   
N3290  X156.4961  Y411.7415   
N3295  X167.6147  Y417.4129   
N3300  X180.0916  Y423.0272   
N3305  X191.6325  Y427.4863   
N3310  X205.0246  Y431.4013   
N3315  X218.9755  Y434.2399   
N3320  X233.3103  Y436.0008   
N3325  X247.8530  Y436.6824   
N3330  X262.4278  Y436.2822   
N3335  X276.8597  Y434.7993   
N3340  X290.9728  Y432.2317   
N3345  X304.5910  Y428.5774   
N3350  X317.0092  Y424.0468   
N3355  X330.4801  Y418.1985   
N3360  X342.5469  Y412.1752   
N3365  X350.7524  Y407.1193   
N3370  X353.6409  Y404.0623   
N3375  X353.0500  Y403.5808   
N3380  X351.2822  Y403.7587   
N3385  X344.7587  Y405.9754   
N3390  X335.1501  Y410.4794   
N3395  X314.2829  Y419.7469   
N3400  X292.8499  Y426.3744   
N3405  X271.0809  Y430.3619   
N3410  X249.2039  Y431.7098   
N3415  X227.4486  Y430.4171   
N3420  X206.0447  Y426.4834   
N3425  X185.2204  Y419.9086   
N3430  X165.2053  Y410.6928   
N3435 G0  Z3.0000 
N3440  X173.0402  Y442.9334 
N3445  Z0.1000 
N3450 G1  Z-0.7000  F100.00 
N3455  X171.7096  Y440.2475   F300.00 
N3460  X169.2253  Y438.7616   
N3465  X167.4644  Y438.6773   
N3470  X166.6143  Y439.6921   
N3475  X167.0371  Y447.4368   
N3480  X168.1696  Y462.4473   
N3485  X169.0370  Y467.7338   
N3490  X170.1577  Y468.9200   
N3495  X171.7811  Y469.1280   
N3500  X176.6704  Y466.5900   
N3505  X183.9731  Y460.0797   
N3510  X194.2632  Y448.7246   
N3515  X193.2924  Y447.1657   
N3520  X190.9825  Y446.4186   
N3525  X188.2399  Y446.5867   
N3530  X185.9700  Y447.7739   
N3535  X182.6291  Y449.1247   
N3540  X178.5071  Y448.4491   
N3545  X174.8839  Y446.2254   
N3550  X173.0402  Y442.9334   
N3555 G0  Z0.1000 
N3560 G1  Z-1.4000  F100.00 
N3565  X171.7096  Y440.2475   F300.00 
N3570  X169.2253  Y438.7616   
N3575  X167.4644  Y438.6773   
N3580  X166.6143  Y439.6921   
N3585  X167.0371  Y447.4368   
N3590  X168.1696  Y462.4473   
N3595  X169.0370  Y467.7338   
N3600  X170.1577  Y468.9200   
N3605  X171.7811  Y469.1280   
N3610  X176.6704  Y466.5900   
N3615  X183.9731  Y460.0797   
N3620  X194.2632  Y448.7246   
N3625  X193.2924  Y447.1657   
N3630  X190.9825  Y446.4186   
N3635  X188.2399  Y446.5867   
N3640  X185.9700  Y447.7739   
N3645  X182.6291  Y449.1247   
N3650  X178.5071  Y448.4491   
N3655  X174.8839  Y446.2254   
N3660  X173.0402  Y442.9334   
N3665 G0  Z3.0000 
N3670  X173.9800  Y456.7906 
N3675  Z0.1000 
N3680 G1  Z-0.7000  F100.00 
N3685  X174.4941  Y458.4096   F300.00 
N3690  X175.7049  Y458.8043   
N3695  X177.1124  Y458.0444   
N3700  X178.2178  Y456.1992   
N3705  X177.9803  Y454.7410   
N3710  X176.4427  Y454.1348   
N3715  X174.7035  Y454.9149   
N3720  X173.9800  Y456.7906   
N3725 G0  Z0.1000 
N3730 G1  Z-1.4000  F100.00 
N3735  X174.4941  Y458.4096   F300.00 
N3740  X175.7049  Y458.8043   
N3745  X177.1124  Y458.0444   
N3750  X178.2178  Y456.1992   
N3755  X177.9803  Y454.7410   
N3760  X176.4427  Y454.1348   
N3765  X174.7035  Y454.9149   
N3770  X173.9800  Y456.7906   
N3775 G0  Z3.0000 
N3780  X226.9094  Y455.1027 
N3785  Z0.1000 
N3790 G1  Z-0.7000  F100.00 
N3795  X223.1359  Y453.1994   F300.00 
N3800  X219.1346  Y452.4409   
N3805  X215.1304  Y452.7243   
N3810  X211.3485  Y453.9451   
N3815  X208.0150  Y455.9996   
N3820  X205.3548  Y458.7841   
N3825  X203.5934  Y462.1949   
N3830  X202.9562  Y466.1287   
N3835  X203.5900  Y470.2620   
N3840  X205.3311  Y473.9266   
N3845  X207.9406  Y476.9900   
N3850  X211.1785  Y479.3196   
N3855  X214.8052  Y480.7833   
N3860  X218.5812  Y481.2485   
N3865  X222.2670  Y480.5827   
N3870  X225.6227  Y478.6533   
N3875  X228.6181  Y475.4342   
N3880  X228.4914  Y474.3938   
N3885  X227.3899  Y473.4156   
N3890  X224.6957  Y472.6433   
N3895  X221.6737  Y473.4767   
N3900  X218.9617  Y474.3441   
N3905  X216.3423  Y474.1765   
N3910  X213.9777  Y473.1613   
N3915  X212.0306  Y471.4862   
N3920  X210.6635  Y469.3389   
N3925  X210.0391  Y466.9063   
N3930  X210.3195  Y464.3762   
N3935  X211.6678  Y461.9357   
N3940  X214.3256  Y460.0763   
N3945  X217.7119  Y459.4400   
N3950  X221.0921  Y460.0309   
N3955  X223.7332  Y461.8549   
N3960  X225.8390  Y463.2841   
N3965  X228.1474  Y463.3674   
N3970  X230.0088  Y462.2639   
N3975  X230.7732  Y460.1325   
N3980  X229.6382  Y457.6964   
N3985  X226.9094  Y455.1027   
N3990 G0  Z0.1000 
N3995 G1  Z-1.4000  F100.00 
N4000  X223.1359  Y453.1994   F300.00 
N4005  X219.1346  Y452.4409   
N4010  X215.1304  Y452.7243   
N4015  X211.3485  Y453.9451   
N4020  X208.0150  Y455.9996   
N4025  X205.3548  Y458.7841   
N4030  X203.5934  Y462.1949   
N4035  X202.9562  Y466.1287   
N4040  X203.5900  Y470.2620   
N4045  X205.3311  Y473.9266   
N4050  X207.9406  Y476.9900   
N4055  X211.1785  Y479.3196   
N4060  X214.8052  Y480.7833   
N4065  X218.5812  Y481.2485   
N4070  X222.2670  Y480.5827   
N4075  X225.6227  Y478.6533   
N4080  X228.6181  Y475.4342   
N4085  X228.4914  Y474.3938   
N4090  X227.3899  Y473.4156   
N4095  X224.6957  Y472.6433   
N4100  X221.6737  Y473.4767   
N4105  X218.9617  Y474.3441   
N4110  X216.3423  Y474.1765   
N4115  X213.9777  Y473.1613   
N4120  X212.0306  Y471.4862   
N4125  X210.6635  Y469.3389   
N4130  X210.0391  Y466.9063   
N4135  X210.3195  Y464.3762   
N4140  X211.6678  Y461.9357   
N4145  X214.3256  Y460.0763   
N4150  X217.7119  Y459.4400   
N4155  X221.0921  Y460.0309   
N4160  X223.7332  Y461.8549   
N4165  X225.8390  Y463.2841   
N4170  X228.1474  Y463.3674   
N4175  X230.0088  Y462.2639   
N4180  X230.7732  Y460.1325   
N4185  X229.6382  Y457.6964   
N4190  X226.9094  Y455.1027   
N4195 G0  Z3.0000 
N4200  X253.0104  Y469.4873 
N4205  Z0.1000 
N4210 G1  Z-0.7000  F100.00 
N4215  X252.4284  Y461.3177   F300.00 
N4220  X251.3555  Y456.2766   
N4225  X249.7612  Y454.2831   
N4230  X247.6160  Y455.2574   
N4235  X246.7718  Y460.1024   
N4240  X246.4204  Y470.0718   
N4245  X246.9684  Y481.5871   
N4250  X248.0344  Y483.3273   
N4255  X249.9677  Y483.6905   
N4260  X251.9114  Y483.3421   
N4265  X252.9124  Y481.5773   
N4270  X253.0104  Y469.4873   
N4275 G0  Z0.1000 
N4280 G1  Z-1.4000  F100.00 
N4285  X252.4284  Y461.3177   F300.00 
N4290  X251.3555  Y456.2766   
N4295  X249.7612  Y454.2831   
N4300  X247.6160  Y455.2574   
N4305  X246.7718  Y460.1024   
N4310  X246.4204  Y470.0718   
N4315  X246.9684  Y481.5871   
N4320  X248.0344  Y483.3273   
N4325  X249.9677  Y483.6905   
N4330  X251.9114  Y483.3421   
N4335  X252.9124  Y481.5773   
N4340  X253.0104  Y469.4873   
N4345 G0  Z3.0000 
N4350  X275.9140  Y462.9440 
N4355  Z0.1000 
N4360 G1  Z-0.7000  F100.00 
N4365  X274.9683  Y466.6703   F300.00 
N4370  X276.7621  Y470.7676   
N4375  X278.8778  Y473.4949   
N4380  X280.9201  Y474.7368   
N4385  X283.3231  Y474.6018   
N4390  X286.5220  Y473.1978   
N4395  X288.7565  Y470.9608   
N4400  X289.7678  Y467.7604   
N4405  X289.4751  Y464.3387   
N4410  X287.7985  Y461.4365   
N4415  X284.8563  Y459.7313   
N4420  X281.4223  Y459.4741   
N4425  X278.2046  Y460.5750   
N4430  X275.9140  Y462.9440   
N4435 G0  Z0.1000 
N4440 G1  Z-1.4000  F100.00 
N4445  X274.9683  Y466.6703   F300.00 
N4450  X276.7621  Y470.7676   
N4455  X278.8778  Y473.4949   
N4460  X280.9201  Y474.7368   
N4465  X283.3231  Y474.6018   
N4470  X286.5220  Y473.1978   
N4475  X288.7565  Y470.9608   
N4480  X289.7678  Y467.7604   
N4485  X289.4751  Y464.3387   
N4490  X287.7985  Y461.4365   
N4495  X284.8563  Y459.7313   
N4500  X281.4223  Y459.4741   
N4505  X278.2046  Y460.5750   
N4510  X275.9140  Y462.9440   
N4515 G0  Z3.0000 
N4520  X293.2358  Y456.9769 
N4525  Z0.1000 
N4530 G1  Z-0.7000  F100.00 
N4535  X290.3069  Y454.2472   F300.00 
N4540  X286.8956  Y452.6711   
N4545  X283.2152  Y452.1871   
N4550  X279.4806  Y452.7362   
N4555  X275.9041  Y454.2565   
N4560  X272.6998  Y456.6886   
N4565  X270.0814  Y459.9713   
N4570  X268.2629  Y464.0445   
N4575  X268.1500  Y468.4637   
N4580  X269.9528  Y473.1391   
N4585  X273.2207  Y477.2877   
N4590  X277.5048  Y480.1264   
N4595  X282.5627  Y481.2825   
N4600  X287.1696  Y480.6458   
N4605  X291.1093  Y478.5346   
N4610  X294.1653  Y475.2656   
N4615  X296.1218  Y471.1575   
N4620  X296.7634  Y466.5284   
N4625  X295.8734  Y461.6957   
N4630  X293.2358  Y456.9769   
N4635 G0  Z0.1000 
N4640 G1  Z-1.4000  F100.00 
N4645  X290.3069  Y454.2472   F300.00 
N4650  X286.8956  Y452.6711   
N4655  X283.2152  Y452.1871   
N4660  X279.4806  Y452.7362   
N4665  X275.9041  Y454.2565   
N4670  X272.6998  Y456.6886   
N4675  X270.0814  Y459.9713   
N4680  X268.2629  Y464.0445   
N4685  X268.1500  Y468.4637   
N4690  X269.9528  Y473.1391   
N4695  X273.2207  Y477.2877   
N4700  X277.5048  Y480.1264   
N4705  X282.5627  Y481.2825   
N4710  X287.1696  Y480.6458   
N4715  X291.1093  Y478.5346   
N4720  X294.1653  Y475.2656   
N4725  X296.1218  Y471.1575   
N4730  X296.7634  Y466.5284   
N4735  X295.8734  Y461.6957   
N4740  X293.2358  Y456.9769   
N4745 G0  Z3.0000 
N4750  X335.7656  Y453.2107 
N4755  Z0.1000 
N4760 G1  Z-0.7000  F100.00 
N4765  X329.9941  Y439.6797   F300.00 
N4770  X327.9864  Y439.3328   
N4775  X325.6243  Y441.5140   
N4780  X323.2306  Y445.7844   
N4785  X321.1287  Y451.7066   
N4790  X318.8090  Y459.9930   
N4795  X315.7190  Y452.7174   
N4800  X313.5461  Y448.3485   
N4805  X311.5773  Y445.9820   
N4810  X309.7849  Y445.5986   
N4815  X308.1413  Y447.1781   
N4820  X308.5351  Y451.9797   
N4825  X310.9888  Y461.0866   
N4830  X314.5391  Y470.0259   
N4835  X316.1803  Y472.4117   
N4840  X317.7647  Y473.4151   
N4845  X319.3161  Y473.0400   
N4850  X320.8586  Y471.2925   
N4855  X324.0157  Y463.6971   
N4860  X326.4813  Y456.9434   
N4865  X328.1756  Y454.1348   
N4870  X329.5969  Y456.1775   
N4875  X331.4051  Y461.0890   
N4880  X332.8358  Y465.2948   
N4885  X334.1703  Y467.4149   
N4890  X335.7838  Y467.7648   
N4895  X338.0523  Y466.6585   
N4900  X338.8192  Y465.4126   
N4905  X338.7290  Y462.9642   
N4910  X335.7656  Y453.2107   
N4915 G0  Z0.1000 
N4920 G1  Z-1.4000  F100.00 
N4925  X329.9941  Y439.6797   F300.00 
N4930  X327.9864  Y439.3328   
N4935  X325.6243  Y441.5140   
N4940  X323.2306  Y445.7844   
N4945  X321.1287  Y451.7066   
N4950  X318.8090  Y459.9930   
N4955  X315.7190  Y452.7174   
N4960  X313.5461  Y448.3485   
N4965  X311.5773  Y445.9820   
N4970  X309.7849  Y445.5986   
N4975  X308.1413  Y447.1781   
N4980  X308.5351  Y451.9797   
N4985  X310.9888  Y461.0866   
N4990  X314.5391  Y470.0259   
N4995  X316.1803  Y472.4117   
N5000  X317.7647  Y473.4151   
N5005  X319.3161  Y473.0400   
N5010  X320.8586  Y471.2925   
N5015  X324.0157  Y463.6971   
N5020  X326.4813  Y456.9434   
N5025  X328.1756  Y454.1348   
N5030  X329.5969  Y456.1775   
N5035  X331.4051  Y461.0890   
N5040  X332.8358  Y465.2948   
N5045  X334.1703  Y467.4149   
N5050  X335.7838  Y467.7648   
N5055  X338.0523  Y466.6585   
N5060  X338.8192  Y465.4126   
N5065  X338.7290  Y462.9642   
N5070  X335.7656  Y453.2107   
N5075 G0  Z3.0000 
N5080  X360.2033  Y436.9002 
N5085  Z0.1000 
N5090 G1  Z-0.7000  F100.00 
N5095  X359.9471  Y438.8035   F300.00 
N5100  X360.9702  Y440.7255   
N5105  X362.4703  Y441.3662   
N5110  X362.9050  Y438.8350   
N5115  X362.2288  Y435.2024   
N5120  X361.3841  Y435.3848   
N5125  X360.2033  Y436.9002   
N5130 G0  Z0.1000 
N5135 G1  Z-1.4000  F100.00 
N5140  X359.9471  Y438.8035   F300.00 
N5145  X360.9702  Y440.7255   
N5150  X362.4703  Y441.3662   
N5155  X362.9050  Y438.8350   
N5160  X362.2288  Y435.2024   
N5165  X361.3841  Y435.3848   
N5170  X360.2033  Y436.9002   
N5175 G0  Z3.0000 
N5180  X369.4295  Y433.7062 
N5185  Z0.1000 
N5190 G1  Z-0.7000  F100.00 
N5195  X367.7776  Y423.6171   F300.00 
N5200  X366.5090  Y419.5005   
N5205  X364.1607  Y420.1377   
N5210  X362.4925  Y421.3141   
N5215  X361.4970  Y423.0370   
N5220  X361.1663  Y425.3139   
N5225  X360.1136  Y428.5192   
N5230  X357.3164  Y430.9055   
N5235  X353.3136  Y432.1819   
N5240  X348.6461  Y432.0577   
N5245  X344.1939  Y431.9281   
N5250  X343.4547  Y432.6678   
N5255  X343.6971  Y433.9230   
N5260  X347.0962  Y437.9184   
N5265  X354.3308  Y443.7914   
N5270  X364.8295  Y450.8196   
N5275  X367.3192  Y451.3952   
N5280  X368.9874  Y450.4761   
N5285  X370.0924  Y448.6669   
N5290  X370.5221  Y445.7405   
N5295  X369.4295  Y433.7062   
N5300 G0  Z0.1000 
N5305 G1  Z-1.4000  F100.00 
N5310  X367.7776  Y423.6171   F300.00 
N5315  X366.5090  Y419.5005   
N5320  X364.1607  Y420.1377   
N5325  X362.4925  Y421.3141   
N5330  X361.4970  Y423.0370   
N5335  X361.1663  Y425.3139   
N5340  X360.1136  Y428.5192   
N5345  X357.3164  Y430.9055   
N5350  X353.3136  Y432.1819   
N5355  X348.6461  Y432.0577   
N5360  X344.1939  Y431.9281   
N5365  X343.4547  Y432.6678   
N5370  X343.6971  Y433.9230   
N5375  X347.0962  Y437.9184   
N5380  X354.3308  Y443.7914   
N5385  X364.8295  Y450.8196   
N5390  X367.3192  Y451.3952   
N5395  X368.9874  Y450.4761   
N5400  X370.0924  Y448.6669   
N5405  X370.5221  Y445.7405   
N5410  X369.4295  Y433.7062   
N5415 G0  Z3.0000 
N5420  X393.5040  Y402.2590 
N5425  Z0.1000 
N5430 G1  Z-0.7000  F100.00 
N5435  X391.7022  Y400.5687   F300.00 
N5440  X389.3352  Y400.5982   
N5445  X386.2610  Y402.3946   
N5450  X382.3376  Y406.0055   
N5455  X376.7484  Y411.7725   
N5460  X385.0392  Y421.5393   
N5465  X391.5026  Y428.4704   
N5470  X395.4009  Y431.4200   
N5475  X397.8685  Y430.8227   
N5480  X398.3504  Y428.7257   
N5485  X396.8675  Y425.2405   
N5490  X393.4385  Y420.4783   
N5495  X387.2451  Y411.6395   
N5500  X390.9990  Y407.3189   
N5505  X393.3069  Y404.5738   
N5510  X393.5040  Y402.2590   
N5515 G0  Z0.1000 
N5520 G1  Z-1.4000  F100.00 
N5525  X391.7022  Y400.5687   F300.00 
N5530  X389.3352  Y400.5982   
N5535  X386.2610  Y402.3946   
N5540  X382.3376  Y406.0055   
N5545  X376.7484  Y411.7725   
N5550  X385.0392  Y421.5393   
N5555  X391.5026  Y428.4704   
N5560  X395.4009  Y431.4200   
N5565  X397.8685  Y430.8227   
N5570  X398.3504  Y428.7257   
N5575  X396.8675  Y425.2405   
N5580  X393.4385  Y420.4783   
N5585  X387.2451  Y411.6395   
N5590  X390.9990  Y407.3189   
N5595  X393.3069  Y404.5738   
N5600  X393.5040  Y402.2590   
N5605 G0  Z3.0000 
N5610  X422.1978  Y372.2726 
N5615  Z0.1000 
N5620 G1  Z-0.7000  F100.00 
N5625  X420.6375  Y374.1113   F300.00 
N5630  X420.9509  Y376.3586   
N5635  X423.0760  Y378.8942   
N5640  X426.9520  Y381.5964   
N5645  X431.8266  Y383.7835   
N5650  X433.0222  Y383.0448   
N5655  X434.2389  Y381.0173   
N5660  X435.0009  Y378.5896   
N5665  X434.7742  Y376.2955   
N5670  X433.7299  Y374.2597   
N5675  X432.0375  Y372.6048   
N5680  X427.3911  Y370.9336   
N5685  X424.7777  Y371.1652   
N5690  X422.1978  Y372.2726   
N5695 G0  Z0.1000 
N5700 G1  Z-1.4000  F100.00 
N5705  X420.6375  Y374.1113   F300.00 
N5710  X420.9509  Y376.3586   
N5715  X423.0760  Y378.8942   
N5720  X426.9520  Y381.5964   
N5725  X431.8266  Y383.7835   
N5730  X433.0222  Y383.0448   
N5735  X434.2389  Y381.0173   
N5740  X435.0009  Y378.5896   
N5745  X434.7742  Y376.2955   
N5750  X433.7299  Y374.2597   
N5755  X432.0375  Y372.6048   
N5760  X427.3911  Y370.9336   
N5765  X424.7777  Y371.1652   
N5770  X422.1978  Y372.2726   
N5775 G0  Z3.0000 
N5780  X436.5602  Y367.3320 
N5785  Z0.1000 
N5790 G1  Z-0.7000  F100.00 
N5795  X431.4333  Y364.4559   F300.00 
N5800  X426.3059  Y363.8177   
N5805  X421.3038  Y365.4066   
N5810  X416.5529  Y369.2102   
N5815  X413.0864  Y373.8216   
N5820  X411.9435  Y377.2117   
N5825  X415.2977  Y381.0996   
N5830  X422.6438  Y386.9080   
N5835  X432.8334  Y394.0836   
N5840  X436.9786  Y388.9030   
N5845  X440.2322  Y383.1241   
N5850  X441.2390  Y377.1718   
N5855  X440.0104  Y371.6921   
N5860  X436.5602  Y367.3320   
N5865 G0  Z0.1000 
N5870 G1  Z-1.4000  F100.00 
N5875  X431.4333  Y364.4559   F300.00 
N5880  X426.3059  Y363.8177   
N5885  X421.3038  Y365.4066   
N5890  X416.5529  Y369.2102   
N5895  X413.0864  Y373.8216   
N5900  X411.9435  Y377.2117   
N5905  X415.2977  Y381.0996   
N5910  X422.6438  Y386.9080   
N5915  X432.8334  Y394.0836   
N5920  X436.9786  Y388.9030   
N5925  X440.2322  Y383.1241   
N5930  X441.2390  Y377.1718   
N5935  X440.0104  Y371.6921   
N5940  X436.5602  Y367.3320   
N5945 G0  Z3.0000 
N5950  X441.9881  Y334.1373 
N5955  Z0.1000 
N5960 G1  Z-0.7000  F100.00 
N5965  X440.4308  Y332.6248   F300.00 
N5970  X438.6763  Y332.9452   
N5975  X436.6365  Y335.1570   
N5980  X434.2217  Y339.3194   
N5985  X430.7093  Y347.1213   
N5990  X442.7165  Y354.0844   
N5995  X450.3632  Y357.7037   
N6000  X454.7947  Y358.5070   
N6005  X456.2840  Y357.7510   
N6010  X457.5437  Y356.1686   
N6015  X460.1413  Y350.3596   
N6020  X461.3650  Y344.7991   
N6025  X460.4459  Y341.5869   
N6030  X459.4312  Y341.1172   
N6035  X458.1804  Y341.5400   
N6040  X455.3659  Y345.4738   
N6045  X453.2452  Y348.8639   
N6050  X451.4420  Y349.7894   
N6055  X450.4352  Y348.3400   
N6060  X450.7032  Y344.6044   
N6065  X451.0453  Y340.4824   
N6070  X450.4061  Y339.6358   
N6075  X449.1637  Y339.3889   
N6080  X446.6917  Y340.4652   
N6085  X444.5183  Y343.0525   
N6090  X442.6130  Y345.3658   
N6095  X440.8187  Y344.9780   
N6100  X440.0099  Y342.7489   
N6105  X441.0601  Y339.5397   
N6110  X442.1493  Y336.4265   
N6115  X441.9881  Y334.1373   
N6120 G0  Z0.1000 
N6125 G1  Z-1.4000  F100.00 
N6130  X440.4308  Y332.6248   F300.00 
N6135  X438.6763  Y332.9452   
N6140  X436.6365  Y335.1570   
N6145  X434.2217  Y339.3194   
N6150  X430.7093  Y347.1213   
N6155  X442.7165  Y354.0844   
N6160  X450.3632  Y357.7037   
N6165  X454.7947  Y358.5070   
N6170  X456.2840  Y357.7510   
N6175  X457.5437  Y356.1686   
N6180  X460.1413  Y350.3596   
N6185  X461.3650  Y344.7991   
N6190  X460.4459  Y341.5869   
N6195  X459.4312  Y341.1172   
N6200  X458.1804  Y341.5400   
N6205  X455.3659  Y345.4738   
N6210  X453.2452  Y348.8639   
N6215  X451.4420  Y349.7894   
N6220  X450.4352  Y348.3400   
N6225  X450.7032  Y344.6044   
N6230  X451.0453  Y340.4824   
N6235  X450.4061  Y339.6358   
N6240  X449.1637  Y339.3889   
N6245  X446.6917  Y340.4652   
N6250  X444.5183  Y343.0525   
N6255  X442.6130  Y345.3658   
N6260  X440.8187  Y344.9780   
N6265  X440.0099  Y342.7489   
N6270  X441.0601  Y339.5397   
N6275  X442.1493  Y336.4265   
N6280  X441.9881  Y334.1373   
N6285 G0  Z3.0000 
N6290  X467.2193  Y295.9242 
N6295  Z0.1000 
N6300 G1  Z-0.7000  F100.00 
N6305  X466.4185  Y292.2773   F300.00 
N6310  X464.5437  Y290.6569   
N6315  X462.3871  Y291.2620   
N6320  X460.7411  Y294.2924   
N6325  X460.0369  Y296.0158   
N6330  X458.8886  Y297.0296   
N6335  X454.4108  Y297.3351   
N6340  X450.1005  Y297.5766   
N6345  X448.9986  Y298.3952   
N6350  X448.4471  Y299.7396   
N6355  X449.2277  Y301.9056   
N6360  X452.6287  Y303.8310   
N6365  X458.8935  Y305.6101   
N6370  X468.2661  Y307.3355   
N6375  X475.3977  Y308.4567   
N6380  X477.2921  Y300.9914   
N6385  X478.3749  Y295.3052   
N6390  X478.3162  Y292.1176   
N6395  X476.5854  Y290.6874   
N6400  X474.6082  Y291.0003   
N6405  X472.7976  Y292.8233   
N6410  X471.5660  Y295.9242   
N6415  X470.2866  Y299.6080   
N6420  X468.8200  Y301.1402   
N6425  X467.6894  Y299.6080   
N6430  X467.2193  Y295.9242   
N6435 G0  Z0.1000 
N6440 G1  Z-1.4000  F100.00 
N6445  X466.4185  Y292.2773   F300.00 
N6450  X464.5437  Y290.6569   
N6455  X462.3871  Y291.2620   
N6460  X460.7411  Y294.2924   
N6465  X460.0369  Y296.0158   
N6470  X458.8886  Y297.0296   
N6475  X454.4108  Y297.3351   
N6480  X450.1005  Y297.5766   
N6485  X448.9986  Y298.3952   
N6490  X448.4471  Y299.7396   
N6495  X449.2277  Y301.9056   
N6500  X452.6287  Y303.8310   
N6505  X458.8935  Y305.6101   
N6510  X468.2661  Y307.3355   
N6515  X475.3977  Y308.4567   
N6520  X477.2921  Y300.9914   
N6525  X478.3749  Y295.3052   
N6530  X478.3162  Y292.1176   
N6535  X476.5854  Y290.6874   
N6540  X474.6082  Y291.0003   
N6545  X472.7976  Y292.8233   
N6550  X471.5660  Y295.9242   
N6555  X470.2866  Y299.6080   
N6560  X468.8200  Y301.1402   
N6565  X467.6894  Y299.6080   
N6570  X467.2193  Y295.9242   
N6575 G0  Z3.0000 
N6580  X491.2322  Y262.4367 
N6585  Z0.1000 
N6590 G1  Z-0.7000  F100.00 
N6595  X491.2228  Y260.3427   F300.00 
N6600  X490.3831  Y259.5517   
N6605  X486.1763  Y261.0228   
N6610  X485.0137  Y262.3726   
N6615  X484.6052  Y264.0330   
N6620  X485.5386  Y265.8342   
N6625  X487.6459  Y266.0023   
N6630  X489.8902  Y264.7865   
N6635  X491.2322  Y262.4367   
N6640 G0  Z0.1000 
N6645 G1  Z-1.4000  F100.00 
N6650  X491.2228  Y260.3427   F300.00 
N6655  X490.3831  Y259.5517   
N6660  X486.1763  Y261.0228   
N6665  X485.0137  Y262.3726   
N6670  X484.6052  Y264.0330   
N6675  X485.5386  Y265.8342   
N6680  X487.6459  Y266.0023   
N6685  X489.8902  Y264.7865   
N6690  X491.2322  Y262.4367   
N6695 G0  Z3.0000 
N6700  X482.8665  Y255.9373 
N6705  Z0.1000 
N6710 G1  Z-0.7000  F100.00 
N6715  X482.5269  Y254.0774   F300.00 
N6720  X481.0194  Y253.0282   
N6725  X471.5660  Y252.4600   
N6730  X463.3999  Y253.1179   
N6735  X457.7152  Y255.1399   
N6740  X454.3920  Y258.5991   
N6745  X453.3108  Y263.5682   
N6750  X454.2881  Y268.5936   
N6755  X457.3298  Y272.2907   
N6760  X462.5995  Y274.7825   
N6765  X470.2620  Y276.1900   
N6770  X479.4827  Y276.5975   
N6775  X480.8508  Y275.6848   
N6780  X481.1283  Y273.7919   
N6785  X480.7917  Y271.9719   
N6790  X479.4975  Y270.7812   
N6795  X472.3328  Y269.4432   
N6800  X466.2455  Y268.4994   
N6805  X462.3733  Y267.0126   
N6810  X460.6100  Y264.9151   
N6815  X460.8490  Y262.1390   
N6820  X461.8707  Y260.8454   
N6825  X463.9420  Y260.0051   
N6830  X472.3806  Y259.4142   
N6835  X481.1214  Y258.8356   
N6840  X482.5397  Y257.7854   
N6845  X482.8665  Y255.9373   
N6850 G0  Z0.1000 
N6855 G1  Z-1.4000  F100.00 
N6860  X482.5269  Y254.0774   F300.00 
N6865  X481.0194  Y253.0282   
N6870  X471.5660  Y252.4600   
N6875  X463.3999  Y253.1179   
N6880  X457.7152  Y255.1399   
N6885  X454.3920  Y258.5991   
N6890  X453.3108  Y263.5682   
N6895  X454.2881  Y268.5936   
N6900  X457.3298  Y272.2907   
N6905  X462.5995  Y274.7825   
N6910  X470.2620  Y276.1900   
N6915  X479.4827  Y276.5975   
N6920  X480.8508  Y275.6848   
N6925  X481.1283  Y273.7919   
N6930  X480.7917  Y271.9719   
N6935  X479.4975  Y270.7812   
N6940  X472.3328  Y269.4432   
N6945  X466.2455  Y268.4994   
N6950  X462.3733  Y267.0126   
N6955  X460.6100  Y264.9151   
N6960  X460.8490  Y262.1390   
N6965  X461.8707  Y260.8454   
N6970  X463.9420  Y260.0051   
N6975  X472.3806  Y259.4142   
N6980  X481.1214  Y258.8356   
N6985  X482.5397  Y257.7854   
N6990  X482.8665  Y255.9373   
N6995 G0  Z3.0000 
N7000  X481.1470  Y221.6002 
N7005  Z0.1000 
N7010 G1  Z-0.7000  F100.00 
N7015  X480.3097  Y218.6147   F300.00 
N7020  X477.6509  Y217.6887   
N7025  X474.9562  Y218.6665   
N7030  X474.1740  Y222.0349   
N7035  X473.9626  Y224.3931   
N7040  X472.9711  Y225.7010   
N7045  X466.4924  Y226.3816   
N7050  X460.4957  Y226.6384   
N7055  X456.4018  Y227.4442   
N7060  X454.0579  Y228.8517   
N7065  X453.3108  Y230.9136   
N7070  X453.8815  Y232.0609   
N7075  X455.7734  Y232.8081   
N7080  X464.6118  Y233.3359   
N7085  X473.5945  Y233.8706   
N7090  X475.3962  Y234.6709   
N7095  X475.9122  Y235.9434   
N7100  X476.9644  Y237.8107   
N7105  X479.6168  Y238.5514   
N7110  X481.5610  Y238.3528   
N7115  X482.5343  Y237.4781   
N7120  X482.2440  Y232.0319   
N7125  X481.1470  Y221.6002   
N7130 G0  Z0.1000 
N7135 G1  Z-1.4000  F100.00 
N7140  X480.3097  Y218.6147   F300.00 
N7145  X477.6509  Y217.6887   
N7150  X474.9562  Y218.6665   
N7155  X474.1740  Y222.0349   
N7160  X473.9626  Y224.3931   
N7165  X472.9711  Y225.7010   
N7170  X466.4924  Y226.3816   
N7175  X460.4957  Y226.6384   
N7180  X456.4018  Y227.4442   
N7185  X454.0579  Y228.8517   
N7190  X453.3108  Y230.9136   
N7195  X453.8815  Y232.0609   
N7200  X455.7734  Y232.8081   
N7205  X464.6118  Y233.3359   
N7210  X473.5945  Y233.8706   
N7215  X475.3962  Y234.6709   
N7220  X475.9122  Y235.9434   
N7225  X476.9644  Y237.8107   
N7230  X479.6168  Y238.5514   
N7235  X481.5610  Y238.3528   
N7240  X482.5343  Y237.4781   
N7245  X482.2440  Y232.0319   
N7250  X481.1470  Y221.6002   
N7255 G0  Z3.0000 
N7260  X464.6290  Y193.3200 
N7265  Z0.1000 
N7270 G1  Z-0.7000  F100.00 
N7275  X464.1791  Y195.0148   F300.00 
N7280  X464.6142  Y196.7200   
N7285  X465.7305  Y198.0368   
N7290  X467.3223  Y198.5641   
N7295  X468.5144  Y197.8086   
N7300  X468.9161  Y196.0482   
N7305  X468.5253  Y194.0434   
N7310  X467.3395  Y192.5536   
N7315  X465.8759  Y192.3659   
N7320  X464.6290  Y193.3200   
N7325 G0  Z0.1000 
N7330 G1  Z-1.4000  F100.00 
N7335  X464.1791  Y195.0148   F300.00 
N7340  X464.6142  Y196.7200   
N7345  X465.7305  Y198.0368   
N7350  X467.3223  Y198.5641   
N7355  X468.5144  Y197.8086   
N7360  X468.9161  Y196.0482   
N7365  X468.5253  Y194.0434   
N7370  X467.3395  Y192.5536   
N7375  X465.8759  Y192.3659   
N7380  X464.6290  Y193.3200   
N7385 G0  Z3.0000 
N7390  X470.6715  Y186.3810 
N7395  Z0.1000 
N7400 G1  Z-0.7000  F100.00 
N7405  X466.9793  Y184.8187   F300.00 
N7410  X463.8242  Y186.3066   
N7415  X460.7278  Y187.1730   
N7420  X456.8300  Y187.0108   
N7425  X452.6992  Y187.1636   
N7430  X449.2810  Y189.5218   
N7435  X447.7286  Y191.5773   
N7440  X447.0761  Y193.7206   
N7445  X448.2234  Y200.9607   
N7450  X450.9866  Y208.9957   
N7455  X464.3308  Y205.8850   
N7460  X476.5347  Y201.9621   
N7465  X477.0773  Y198.9668   
N7470  X475.8289  Y194.1706   
N7475  X473.4678  Y189.3744   
N7480  X470.6715  Y186.3810   
N7485 G0  Z0.1000 
N7490 G1  Z-1.4000  F100.00 
N7495  X466.9793  Y184.8187   F300.00 
N7500  X463.8242  Y186.3066   
N7505  X460.7278  Y187.1730   
N7510  X456.8300  Y187.0108   
N7515  X452.6992  Y187.1636   
N7520  X449.2810  Y189.5218   
N7525  X447.7286  Y191.5773   
N7530  X447.0761  Y193.7206   
N7535  X448.2234  Y200.9607   
N7540  X450.9866  Y208.9957   
N7545  X464.3308  Y205.8850   
N7550  X476.5347  Y201.9621   
N7555  X477.0773  Y198.9668   
N7560  X475.8289  Y194.1706   
N7565  X473.4678  Y189.3744   
N7570  X470.6715  Y186.3810   
N7575 G0  Z3.0000 
N7580  X453.3108  Y196.8254 
N7585  Z0.1000 
N7590 G1  Z-0.7000  F100.00 
N7595  X454.0717  Y199.2886   F300.00 
N7600  X455.9188  Y200.3028   
N7605  X457.7659  Y199.2886   
N7610  X458.5268  Y196.8254   
N7615  X457.7659  Y194.3628   
N7620  X455.9188  Y193.3486   
N7625  X454.0717  Y194.3628   
N7630  X453.3108  Y196.8254   
N7635 G0  Z0.1000 
N7640 G1  Z-1.4000  F100.00 
N7645  X454.0717  Y199.2886   F300.00 
N7650  X455.9188  Y200.3028   
N7655  X457.7659  Y199.2886   
N7660  X458.5268  Y196.8254   
N7665  X457.7659  Y194.3628   
N7670  X455.9188  Y193.3486   
N7675  X454.0717  Y194.3628   
N7680  X453.3108  Y196.8254   
N7685 G0  Z3.0000 
N7690  X443.2271  Y153.7092 
N7695  Z0.1000 
N7700 G1  Z-0.7000  F100.00 
N7705  X441.8753  Y155.6011   F300.00 
N7710  X441.2011  Y157.7518   
N7715  X441.6565  Y162.1995   
N7720  X444.1339  Y165.7922   
N7725  X445.9869  Y166.8740   
N7730  X448.1736  Y167.2697   
N7735  X451.1197  Y166.2461   
N7740  X454.1865  Y163.7855   
N7745  X455.8306  Y161.0444   
N7750  X456.1248  Y158.2772   
N7755  X455.3131  Y155.7081   
N7760  X453.6400  Y153.5623   
N7765  X451.3503  Y152.0646   
N7770  X448.6886  Y151.4397   
N7775  X445.8992  Y151.9128   
N7780  X443.2271  Y153.7092   
N7785 G0  Z0.1000 
N7790 G1  Z-1.4000  F100.00 
N7795  X441.8753  Y155.6011   F300.00 
N7800  X441.2011  Y157.7518   
N7805  X441.6565  Y162.1995   
N7810  X444.1339  Y165.7922   
N7815  X445.9869  Y166.8740   
N7820  X448.1736  Y167.2697   
N7825  X451.1197  Y166.2461   
N7830  X454.1865  Y163.7855   
N7835  X455.8306  Y161.0444   
N7840  X456.1248  Y158.2772   
N7845  X455.3131  Y155.7081   
N7850  X453.6400  Y153.5623   
N7855  X451.3503  Y152.0646   
N7860  X448.6886  Y151.4397   
N7865  X445.8992  Y151.9128   
N7870  X443.2271  Y153.7092   
N7875 G0  Z3.0000 
N7880  X457.9083  Y148.7893 
N7885  Z0.1000 
N7890 G1  Z-0.7000  F100.00 
N7895  X452.9890  Y145.7579   F300.00 
N7900  X447.8848  Y144.7738   
N7905  X442.9284  Y145.8338   
N7910  X438.4541  Y148.9357   
N7915  X436.2088  Y151.7536   
N7920  X434.7377  Y154.8436   
N7925  X434.0256  Y158.0726   
N7930  X434.0551  Y161.3090   
N7935  X434.8101  Y164.4197   
N7940  X436.2743  Y167.2737   
N7945  X438.4314  Y169.7383   
N7950  X441.2652  Y171.6805   
N7955  X446.0056  Y173.6114   
N7960  X450.1064  Y174.0160   
N7965  X453.9475  Y172.8589   
N7970  X457.9083  Y170.1030   
N7975  X461.6721  Y165.4640   
N7980  X462.6991  Y159.4461   
N7985  X461.6721  Y153.4283   
N7990  X457.9083  Y148.7893   
N7995 G0  Z0.1000 
N8000 G1  Z-1.4000  F100.00 
N8005  X452.9890  Y145.7579   F300.00 
N8010  X447.8848  Y144.7738   
N8015  X442.9284  Y145.8338   
N8020  X438.4541  Y148.9357   
N8025  X436.2088  Y151.7536   
N8030  X434.7377  Y154.8436   
N8035  X434.0256  Y158.0726   
N8040  X434.0551  Y161.3090   
N8045  X434.8101  Y164.4197   
N8050  X436.2743  Y167.2737   
N8055  X438.4314  Y169.7383   
N8060  X441.2652  Y171.6805   
N8065  X446.0056  Y173.6114   
N8070  X450.1064  Y174.0160   
N8075  X453.9475  Y172.8589   
N8080  X457.9083  Y170.1030   
N8085  X461.6721  Y165.4640   
N8090  X462.6991  Y159.4461   
N8095  X461.6721  Y153.4283   
N8100  X457.9083  Y148.7893   
N8105 G0  Z3.0000 
N8110  X444.5277  Y122.8273 
N8115  Z0.1000 
N8120 G1  Z-0.7000  F100.00 
N8125  X442.2321  Y120.4243   F300.00 
N8130  X433.3701  Y126.4954   
N8135  X424.7304  Y132.4704   
N8140  X422.1012  Y128.1379   
N8145  X419.9584  Y125.3914   
N8150  X417.7958  Y124.0234   
N8155  X415.7935  Y124.0894   
N8160  X414.1297  Y125.6462   
N8165  X414.8281  Y128.8417   
N8170  X417.6273  Y134.1001   
N8175  X421.0559  Y139.0180   
N8180  X423.6437  Y141.1914   
N8185  X435.6997  Y133.2584   
N8190  X444.1157  Y126.3672   
N8195  X445.1284  Y124.4068   
N8200  X444.5277  Y122.8273   
N8205 G0  Z0.1000 
N8210 G1  Z-1.4000  F100.00 
N8215  X442.2321  Y120.4243   F300.00 
N8220  X433.3701  Y126.4954   
N8225  X424.7304  Y132.4704   
N8230  X422.1012  Y128.1379   
N8235  X419.9584  Y125.3914   
N8240  X417.7958  Y124.0234   
N8245  X415.7935  Y124.0894   
N8250  X414.1297  Y125.6462   
N8255  X414.8281  Y128.8417   
N8260  X417.6273  Y134.1001   
N8265  X421.0559  Y139.0180   
N8270  X423.6437  Y141.1914   
N8275  X435.6997  Y133.2584   
N8280  X444.1157  Y126.3672   
N8285  X445.1284  Y124.4068   
N8290  X444.5277  Y122.8273   
N8295 G0  Z3.0000 
N8300  X391.6682  Y75.9281 
N8305  Z0.1000 
N8310 G1  Z-0.7000  F100.00 
N8315  X387.3570  Y72.8745   F300.00 
N8320  X384.6110  Y68.0926   
N8325  X382.6929  Y62.3961   
N8330  X381.0345  Y68.1784   
N8335  X379.9449  Y71.0461   
N8340  X378.4364  Y73.1633   
N8345  X373.3135  Y76.0045   
N8350  X367.2512  Y78.0482   
N8355  X373.5618  Y79.2339   
N8360  X376.8357  Y80.0535   
N8365  X378.9440  Y81.2368   
N8370  X380.2593  Y83.1184   
N8375  X381.1538  Y86.0310   
N8380  X382.4356  Y91.6418   
N8385  X384.1975  Y86.0798   
N8390  X386.7528  Y81.4581   
N8395  X391.3829  Y79.2926   
N8400  X396.8074  Y78.0669   
N8405  X391.6682  Y75.9281   
N8410 G0  Z0.1000 
N8415 G1  Z-1.4000  F100.00 
N8420  X387.3570  Y72.8745   F300.00 
N8425  X384.6110  Y68.0926   
N8430  X382.6929  Y62.3961   
N8435  X381.0345  Y68.1784   
N8440  X379.9449  Y71.0461   
N8445  X378.4364  Y73.1633   
N8450  X373.3135  Y76.0045   
N8455  X367.2512  Y78.0482   
N8460  X373.5618  Y79.2339   
N8465  X376.8357  Y80.0535   
N8470  X378.9440  Y81.2368   
N8475  X380.2593  Y83.1184   
N8480  X381.1538  Y86.0310   
N8485  X382.4356  Y91.6418   
N8490  X384.1975  Y86.0798   
N8495  X386.7528  Y81.4581   
N8500  X391.3829  Y79.2926   
N8505  X396.8074  Y78.0669   
N8510  X391.6682  Y75.9281   
N8515 G0  Z3.0000 
N8520  X296.0769  Y70.0191 
N8525  Z0.1000 
N8530 G1  Z-0.7000  F100.00 
N8535  X281.1759  Y66.8340   F300.00 
N8540  X278.2120  Y66.7995   
N8545  X278.0903  Y67.6540   
N8550  X285.9272  Y71.5848   
N8555  X303.7936  Y77.7338   
N8560  X321.3209  Y84.1282   
N8565  X337.8813  Y92.1785   
N8570  X353.3950  Y101.8162   
N8575  X367.7810  Y112.9718   
N8580  X380.9596  Y125.5767   
N8585  X392.8510  Y139.5621   
N8590  X403.3753  Y154.8584   
N8595  X412.4516  Y171.3966   
N8600  X420.5709  Y189.6874   
N8605  X425.7939  Y206.0728   
N8610  X428.7829  Y223.2586   
N8615  X430.1998  Y243.9523   
N8620  X430.3259  Y267.0954   
N8625  X428.1856  Y283.8569   
N8630  X422.7473  Y305.0306   
N8635  X415.2543  Y324.6711   
N8640  X405.5171  Y343.1999   
N8645  X393.3453  Y361.0362   
N8650  X385.6656  Y371.9784   
N8655  X382.1523  Y378.6926   
N8660  X382.0862  Y380.0523   
N8665  X383.2158  Y379.8601   
N8670  X389.2657  Y374.1601   
N8675  X402.0422  Y357.8397   
N8680  X413.6625  Y338.7344   
N8685  X423.3293  Y318.3240   
N8690  X430.2461  Y298.0887   
N8695  X432.6698  Y288.1311   
N8700  X434.0586  Y278.9104   
N8705  X434.9107  Y250.7213   
N8710  X434.2749  Y222.3508   
N8715  X432.8576  Y213.3272   
N8720  X430.2614  Y203.1922   
N8725  X426.4479  Y191.0451   
N8730  X421.8971  Y179.2814   
N8735  X416.6372  Y167.9286   
N8740  X410.6952  Y157.0136   
N8745  X404.0978  Y146.5637   
N8750  X396.8725  Y136.6057   
N8755  X389.0469  Y127.1661   
N8760  X380.6477  Y118.2726   
N8765  X371.7024  Y109.9522   
N8770  X362.2377  Y102.2316   
N8775  X352.2817  Y95.1379   
N8780  X341.8609  Y88.6982   
N8785  X331.0030  Y82.9395   
N8790  X319.7350  Y77.8885   
N8795  X308.0836  Y73.5729   
N8800  X296.0769  Y70.0191   
N8805 G0  Z0.1000 
N8810 G1  Z-1.4000  F100.00 
N8815  X281.1759  Y66.8340   F300.00 
N8820  X278.2120  Y66.7995   
N8825  X278.0903  Y67.6540   
N8830  X285.9272  Y71.5848   
N8835  X303.7936  Y77.7338   
N8840  X321.3209  Y84.1282   
N8845  X337.8813  Y92.1785   
N8850  X353.3950  Y101.8162   
N8855  X367.7810  Y112.9718   
N8860  X380.9596  Y125.5767   
N8865  X392.8510  Y139.5621   
N8870  X403.3753  Y154.8584   
N8875  X412.4516  Y171.3966   
N8880  X420.5709  Y189.6874   
N8885  X425.7939  Y206.0728   
N8890  X428.7829  Y223.2586   
N8895  X430.1998  Y243.9523   
N8900  X430.3259  Y267.0954   
N8905  X428.1856  Y283.8569   
N8910  X422.7473  Y305.0306   
N8915  X415.2543  Y324.6711   
N8920  X405.5171  Y343.1999   
N8925  X393.3453  Y361.0362   
N8930  X385.6656  Y371.9784   
N8935  X382.1523  Y378.6926   
N8940  X382.0862  Y380.0523   
N8945  X383.2158  Y379.8601   
N8950  X389.2657  Y374.1601   
N8955  X402.0422  Y357.8397   
N8960  X413.6625  Y338.7344   
N8965  X423.3293  Y318.3240   
N8970  X430.2461  Y298.0887   
N8975  X432.6698  Y288.1311   
N8980  X434.0586  Y278.9104   
N8985  X434.9107  Y250.7213   
N8990  X434.2749  Y222.3508   
N8995  X432.8576  Y213.3272   
N9000  X430.2614  Y203.1922   
N9005  X426.4479  Y191.0451   
N9010  X421.8971  Y179.2814   
N9015  X416.6372  Y167.9286   
N9020  X410.6952  Y157.0136   
N9025  X404.0978  Y146.5637   
N9030  X396.8725  Y136.6057   
N9035  X389.0469  Y127.1661   
N9040  X380.6477  Y118.2726   
N9045  X371.7024  Y109.9522   
N9050  X362.2377  Y102.2316   
N9055  X352.2817  Y95.1379   
N9060  X341.8609  Y88.6982   
N9065  X331.0030  Y82.9395   
N9070  X319.7350  Y77.8885   
N9075  X308.0836  Y73.5729   
N9080  X296.0769  Y70.0191   
N9085 G0  Z3.0000 
N9090  X307.2705  Y26.4455 
N9095  Z0.1000 
N9100 G1  Z-0.7000  F100.00 
N9105  X302.6428  Y23.1983   F300.00 
N9110  X300.9712  Y22.8602   
N9115  X300.3162  Y23.6186   
N9120  X302.9242  Y31.6610   
N9125  X304.7925  Y37.1639   
N9130  X305.0858  Y40.3003   
N9135  X303.4324  Y42.5367   
N9140  X299.4602  Y45.3419   
N9145  X295.4673  Y48.7005   
N9150  X294.3590  Y50.9921   
N9155  X296.1376  Y52.2537   
N9160  X298.7604  Y52.4317   
N9165  X301.5532  Y51.6062   
N9170  X303.8414  Y49.8581   
N9175  X305.9881  Y48.0751   
N9180  X307.9471  Y47.9824   
N9185  X309.5858  Y49.5260   
N9190  X310.7710  Y52.6529   
N9195  X312.5146  Y55.8873   
N9200  X315.5642  Y57.4210   
N9205  X317.6883  Y57.6034   
N9210  X318.5291  Y56.9400   
N9215  X316.7968  Y50.6831   
N9220  X314.2247  Y42.8935   
N9225  X321.4530  Y37.0777   
N9230  X326.7178  Y32.5624   
N9235  X326.8977  Y31.4077   
N9240  X325.6888  Y30.6138   
N9245  X322.2031  Y30.4916   
N9250  X318.0259  Y31.8114   
N9255  X312.0519  Y34.7925   
N9260  X311.1308  Y34.4327   
N9265  X310.7478  Y32.6753   
N9270  X309.7262  Y29.7095   
N9275  X307.2705  Y26.4455   
N9280 G0  Z0.1000 
N9285 G1  Z-1.4000  F100.00 
N9290  X302.6428  Y23.1983   F300.00 
N9295  X300.9712  Y22.8602   
N9300  X300.3162  Y23.6186   
N9305  X302.9242  Y31.6610   
N9310  X304.7925  Y37.1639   
N9315  X305.0858  Y40.3003   
N9320  X303.4324  Y42.5367   
N9325  X299.4602  Y45.3419   
N9330  X295.4673  Y48.7005   
N9335  X294.3590  Y50.9921   
N9340  X296.1376  Y52.2537   
N9345  X298.7604  Y52.4317   
N9350  X301.5532  Y51.6062   
N9355  X303.8414  Y49.8581   
N9360  X305.9881  Y48.0751   
N9365  X307.9471  Y47.9824   
N9370  X309.5858  Y49.5260   
N9375  X310.7710  Y52.6529   
N9380  X312.5146  Y55.8873   
N9385  X315.5642  Y57.4210   
N9390  X317.6883  Y57.6034   
N9395  X318.5291  Y56.9400   
N9400  X316.7968  Y50.6831   
N9405  X314.2247  Y42.8935   
N9410  X321.4530  Y37.0777   
N9415  X326.7178  Y32.5624   
N9420  X326.8977  Y31.4077   
N9425  X325.6888  Y30.6138   
N9430  X322.2031  Y30.4916   
N9435  X318.0259  Y31.8114   
N9440  X312.0519  Y34.7925   
N9445  X311.1308  Y34.4327   
N9450  X310.7478  Y32.6753   
N9455  X309.7262  Y29.7095   
N9460  X307.2705  Y26.4455   
N9465 G0  Z3.0000 
N9470  X270.4441  Y22.0988 
N9475  Z0.1000 
N9480 G1  Z-0.7000  F100.00 
N9485  X268.1062  Y19.0290   F300.00 
N9490  X265.2660  Y17.7525   
N9495  X262.9640  Y18.1645   
N9500  X262.2691  Y19.6489   
N9505  X263.2016  Y22.5778   
N9510  X265.7805  Y27.3237   
N9515  X269.4935  Y33.6166   
N9520  X264.0418  Y39.2412   
N9525  X258.5907  Y46.0870   
N9530  X259.8750  Y47.3536   
N9535  X262.8512  Y47.2028   
N9540  X266.2039  Y45.9298   
N9545  X268.6187  Y43.8309   
N9550  X270.5949  Y41.2859   
N9555  X272.3198  Y40.5689   
N9560  X273.9540  Y41.7004   
N9565  X275.6602  Y44.7002   
N9570  X278.0701  Y47.8297   
N9575  X281.1547  Y49.0469   
N9580  X283.6267  Y48.7517   
N9585  X284.4399  Y47.5532   
N9590  X283.5888  Y44.9782   
N9595  X281.0699  Y40.5560   
N9600  X277.4831  Y34.6732   
N9605  X283.0102  Y28.9707   
N9610  X286.1002  Y25.1385   
N9615  X287.2573  Y22.1411   
N9620  X286.4664  Y20.1886   
N9625  X283.7120  Y19.4912   
N9630  X281.3154  Y20.5124   
N9635  X279.0498  Y22.9681   
N9640  X276.8016  Y25.5549   
N9645  X274.5410  Y26.2646   
N9650  X272.3834  Y25.1084   
N9655  X270.4441  Y22.0988   
N9660 G0  Z0.1000 
N9665 G1  Z-1.4000  F100.00 
N9670  X268.1062  Y19.0290   F300.00 
N9675  X265.2660  Y17.7525   
N9680  X262.9640  Y18.1645   
N9685  X262.2691  Y19.6489   
N9690  X263.2016  Y22.5778   
N9695  X265.7805  Y27.3237   
N9700  X269.4935  Y33.6166   
N9705  X264.0418  Y39.2412   
N9710  X258.5907  Y46.0870   
N9715  X259.8750  Y47.3536   
N9720  X262.8512  Y47.2028   
N9725  X266.2039  Y45.9298   
N9730  X268.6187  Y43.8309   
N9735  X270.5949  Y41.2859   
N9740  X272.3198  Y40.5689   
N9745  X273.9540  Y41.7004   
N9750  X275.6602  Y44.7002   
N9755  X278.0701  Y47.8297   
N9760  X281.1547  Y49.0469   
N9765  X283.6267  Y48.7517   
N9770  X284.4399  Y47.5532   
N9775  X283.5888  Y44.9782   
N9780  X281.0699  Y40.5560   
N9785  X277.4831  Y34.6732   
N9790  X283.0102  Y28.9707   
N9795  X286.1002  Y25.1385   
N9800  X287.2573  Y22.1411   
N9805  X286.4664  Y20.1886   
N9810  X283.7120  Y19.4912   
N9815  X281.3154  Y20.5124   
N9820  X279.0498  Y22.9681   
N9825  X276.8016  Y25.5549   
N9830  X274.5410  Y26.2646   
N9835  X272.3834  Y25.1084   
N9840  X270.4441  Y22.0988   
N9845 G0  Z3.0000 
N9850  X247.0433  Y24.2721 
N9855  Z0.1000 
N9860 G1  Z-0.7000  F100.00 
N9865  X245.4594  Y19.1448   F300.00 
N9870  X244.2204  Y18.0709   
N9875  X242.5187  Y17.7525   
N9880  X240.6977  Y17.9916   
N9885  X239.8160  Y19.0777   
N9890  X240.2650  Y26.0108   
N9895  X241.4586  Y34.2691   
N9900  X236.6398  Y29.5375   
N9905  X231.8209  Y24.8059   
N9910  X228.8748  Y29.2970   
N9915  X225.9287  Y33.7881   
N9920  X224.7213  Y26.6392   
N9925  X223.0368  Y20.9510   
N9930  X221.7584  Y19.8150   
N9935  X219.9719  Y19.4912   
N9940  X218.1746  Y19.6844   
N9945  X217.2545  Y20.4591   
N9950  X217.5167  Y24.9241   
N9955  X218.6034  Y38.8326   
N9960  X219.2204  Y45.8381   
N9965  X220.2982  Y47.0219   
N9970  X222.1611  Y47.3082   
N9975  X225.5552  Y45.8761   
N9980  X228.6811  Y42.1035   
N9985  X231.0472  Y38.5049   
N9990  X233.0643  Y37.1896   
N9995  X235.2293  Y38.1111   
N10000  X238.0384  Y41.2233   
N10005  X241.4374  Y44.2926   
N10010  X244.8084  Y45.5696   
N10015  X246.5066  Y45.2793   
N10020  X247.5248  Y44.1788   
N10025  X248.1399  Y38.1806   
N10030  X247.0433  Y24.2721   
N10035 G0  Z0.1000 
N10040 G1  Z-1.4000  F100.00 
N10045  X245.4594  Y19.1448   F300.00 
N10050  X244.2204  Y18.0709   
N10055  X242.5187  Y17.7525   
N10060  X240.6977  Y17.9916   
N10065  X239.8160  Y19.0777   
N10070  X240.2650  Y26.0108   
N10075  X241.4586  Y34.2691   
N10080  X236.6398  Y29.5375   
N10085  X231.8209  Y24.8059   
N10090  X228.8748  Y29.2970   
N10095  X225.9287  Y33.7881   
N10100  X224.7213  Y26.6392   
N10105  X223.0368  Y20.9510   
N10110  X221.7584  Y19.8150   
N10115  X219.9719  Y19.4912   
N10120  X218.1746  Y19.6844   
N10125  X217.2545  Y20.4591   
N10130  X217.5167  Y24.9241   
N10135  X218.6034  Y38.8326   
N10140  X219.2204  Y45.8381   
N10145  X220.2982  Y47.0219   
N10150  X222.1611  Y47.3082   
N10155  X225.5552  Y45.8761   
N10160  X228.6811  Y42.1035   
N10165  X231.0472  Y38.5049   
N10170  X233.0643  Y37.1896   
N10175  X235.2293  Y38.1111   
N10180  X238.0384  Y41.2233   
N10185  X241.4374  Y44.2926   
N10190  X244.8084  Y45.5696   
N10195  X246.5066  Y45.2793   
N10200  X247.5248  Y44.1788   
N10205  X248.1399  Y38.1806   
N10210  X247.0433  Y24.2721   
N10215 G0  Z3.0000 
N10220  X230.7732  Y0.6121 
N10225  Z0.1000 
N10230 G1  Z-0.7000  F100.00 
N10235  X216.6242  Y1.9856   F300.00 
N10240  X202.6146  Y4.2013   
N10245  X188.7791  Y7.2381   
N10250  X175.1505  Y11.0772   
N10255  X161.7629  Y15.6989   
N10260  X148.6498  Y21.0831   
N10265  X135.8452  Y27.2099   
N10270  X123.3832  Y34.0591   
N10275  X111.2966  Y41.6117   
N10280  X99.6196  Y49.8478   
N10285  X88.3862  Y58.7472   
N10290  X77.6298  Y68.2903   
N10295  X67.3845  Y78.4577   
N10300  X57.6837  Y89.2289   
N10305  X48.5610  Y100.5846   
N10310  X40.0504  Y112.5046   
N10315  X28.8194  Y131.4768   
N10320  X18.6884  Y153.0064   
N10325  X10.1862  Y175.8331   
N10330  X3.8435  Y198.6947   
N10335  X1.4578  Y216.2698   
N10340  X0.0419  Y242.2565   
N10345  X0.0000  Y267.3497   
N10350  X1.7150  Y288.5313   
N10355  X5.5443  Y308.4582   
N10360  X11.8465  Y329.7886   
N10365  X19.3665  Y349.6224   
N10370  X28.3369  Y368.4749   
N10375  X38.7415  Y386.3235   
N10380  X50.5629  Y403.1466   
N10385  X63.7839  Y418.9229   
N10390  X78.3887  Y433.6303   
N10395  X94.3597  Y447.2466   
N10400  X111.6810  Y459.7505   
N10405  X126.6748  Y469.0669   
N10410  X141.6847  Y477.0940   
N10415  X156.8425  Y483.8743   
N10420  X172.2803  Y489.4496   
N10425  X188.1300  Y493.8619   
N10430  X204.5229  Y497.1535   
N10435  X221.5909  Y499.3663   
N10440  X239.4661  Y500.5421   
N10445  X268.4778  Y500.3150   
N10450  X282.0916  Y499.1573   
N10455  X295.2948  Y497.2718   
N10460  X308.2256  Y494.6342   
N10465  X321.0218  Y491.2209   
N10470  X346.7625  Y481.9715   
N10475  X368.6568  Y471.6301   
N10480  X388.7818  Y459.4982   
N10485  X407.9591  Y445.0205   
N10490  X427.0117  Y427.6395   
N10495  X438.9558  Y415.0267   
N10500  X449.8610  Y401.7899   
N10505  X459.7436  Y387.9001   
N10510  X468.6189  Y373.3287   
N10515  X476.5041  Y358.0462   
N10520  X483.4150  Y342.0250   
N10525  X489.3673  Y325.2354   
N10530  X494.3779  Y307.6495   
N10535  X498.1155  Y285.9410   
N10540  X500.0089  Y259.9307   
N10545  X499.9256  Y233.4734   
N10550  X497.7326  Y210.4240   
N10555  X494.3242  Y193.3914   
N10560  X489.7759  Y176.7630   
N10565  X484.1291  Y160.5855   
N10570  X477.4237  Y144.9063   
N10575  X469.7002  Y129.7722   
N10580  X460.9979  Y115.2304   
N10585  X451.3572  Y101.3278   
N10590  X440.8187  Y88.1122   
N10595  X429.4226  Y75.6294   
N10600  X417.2084  Y63.9278   
N10605  X404.2170  Y53.0531   
N10610  X390.4879  Y43.0537   
N10615  X376.0619  Y33.9758   
N10620  X360.9790  Y25.8664   
N10625  X345.2791  Y18.7732   
N10630  X329.0026  Y12.7430   
N10635  X304.9557  Y5.9819   
N10640  X281.0187  Y1.7623   
N10645  X256.5164  Y0.0000   
N10650  X230.7732  Y0.6121   
N10655 G0  Z0.1000 
N10660 G1  Z-1.4000  F100.00 
N10665  X216.6242  Y1.9856   F300.00 
N10670  X202.6146  Y4.2013   
N10675  X188.7791  Y7.2381   
N10680  X175.1505  Y11.0772   
N10685  X161.7629  Y15.6989   
N10690  X148.6498  Y21.0831   
N10695  X135.8452  Y27.2099   
N10700  X123.3832  Y34.0591   
N10705  X111.2966  Y41.6117   
N10710  X99.6196  Y49.8478   
N10715  X88.3862  Y58.7472   
N10720  X77.6298  Y68.2903   
N10725  X67.3845  Y78.4577   
N10730  X57.6837  Y89.2289   
N10735  X48.5610  Y100.5846   
N10740  X40.0504  Y112.5046   
N10745  X28.8194  Y131.4768   
N10750  X18.6884  Y153.0064   
N10755  X10.1862  Y175.8331   
N10760  X3.8435  Y198.6947   
N10765  X1.4578  Y216.2698   
N10770  X0.0419  Y242.2565   
N10775  X0.0000  Y267.3497   
N10780  X1.7150  Y288.5313   
N10785  X5.5443  Y308.4582   
N10790  X11.8465  Y329.7886   
N10795  X19.3665  Y349.6224   
N10800  X28.3369  Y368.4749   
N10805  X38.7415  Y386.3235   
N10810  X50.5629  Y403.1466   
N10815  X63.7839  Y418.9229   
N10820  X78.3887  Y433.6303   
N10825  X94.3597  Y447.2466   
N10830  X111.6810  Y459.7505   
N10835  X126.6748  Y469.0669   
N10840  X141.6847  Y477.0940   
N10845  X156.8425  Y483.8743   
N10850  X172.2803  Y489.4496   
N10855  X188.1300  Y493.8619   
N10860  X204.5229  Y497.1535   
N10865  X221.5909  Y499.3663   
N10870  X239.4661  Y500.5421   
N10875  X268.4778  Y500.3150   
N10880  X282.0916  Y499.1573   
N10885  X295.2948  Y497.2718   
N10890  X308.2256  Y494.6342   
N10895  X321.0218  Y491.2209   
N10900  X346.7625  Y481.9715   
N10905  X368.6568  Y471.6301   
N10910  X388.7818  Y459.4982   
N10915  X407.9591  Y445.0205   
N10920  X427.0117  Y427.6395   
N10925  X438.9558  Y415.0267   
N10930  X449.8610  Y401.7899   
N10935  X459.7436  Y387.9001   
N10940  X468.6189  Y373.3287   
N10945  X476.5041  Y358.0462   
N10950  X483.4150  Y342.0250   
N10955  X489.3673  Y325.2354   
N10960  X494.3779  Y307.6495   
N10965  X498.1155  Y285.9410   
N10970  X500.0089  Y259.9307   
N10975  X499.9256  Y233.4734   
N10980  X497.7326  Y210.4240   
N10985  X494.3242  Y193.3914   
N10990  X489.7759  Y176.7630   
N10995  X484.1291  Y160.5855   
N11000  X477.4237  Y144.9063   
N11005  X469.7002  Y129.7722   
N11010  X460.9979  Y115.2304   
N11015  X451.3572  Y101.3278   
N11020  X440.8187  Y88.1122   
N11025  X429.4226  Y75.6294   
N11030  X417.2084  Y63.9278   
N11035  X404.2170  Y53.0531   
N11040  X390.4879  Y43.0537   
N11045  X376.0619  Y33.9758   
N11050  X360.9790  Y25.8664   
N11055  X345.2791  Y18.7732   
N11060  X329.0026  Y12.7430   
N11065  X304.9557  Y5.9819   
N11070  X281.0187  Y1.7623   
N11075  X256.5164  Y0.0000   
N11080  X230.7732  Y0.6121   
N11085 G0  Z3.0000 
N11090  X203.2484  Y34.2922 
N11095  Z0.1000 
N11100 G1  Z-0.7000  F100.00 
N11105  X200.2594  Y26.1601   F300.00 
N11110  X198.7332  Y24.1258   
N11115  X197.0797  Y23.2554   
N11120  X195.3563  Y23.1574   
N11125  X194.5392  Y24.0706   
N11130  X195.0794  Y31.0445   
N11135  X195.7269  Y37.9357   
N11140  X194.8738  Y37.9973   
N11145  X192.9922  Y36.4306   
N11150  X189.9998  Y34.1567   
N11155  X187.7668  Y33.6506   
N11160  X186.0035  Y34.9723   
N11165  X184.4215  Y38.1806   
N11170  X182.6868  Y41.6891   
N11175  X181.3364  Y39.4846   
N11180  X177.3968  Y30.2028   
N11185  X175.9351  Y29.0427   
N11190  X174.1934  Y29.3231   
N11195  X172.2946  Y31.1884   
N11200  X172.5119  Y34.9393   
N11205  X176.5363  Y49.3786   
N11210  X179.9900  Y56.6133   
N11215  X181.6223  Y57.6659   
N11220  X183.2545  Y57.0815   
N11225  X186.7112  Y51.2198   
N11230  X188.7771  Y46.3926   
N11235  X190.3246  Y44.3927   
N11240  X192.3215  Y44.7815   
N11245  X195.7353  Y47.1185   
N11250  X200.0559  Y49.6763   
N11255  X203.4357  Y50.6437   
N11260  X205.6051  Y50.0045   
N11265  X206.2941  Y47.7429   
N11270  X203.2484  Y34.2922   
N11275 G0  Z0.1000 
N11280 G1  Z-1.4000  F100.00 
N11285  X200.2594  Y26.1601   F300.00 
N11290  X198.7332  Y24.1258   
N11295  X197.0797  Y23.2554   
N11300  X195.3563  Y23.1574   
N11305  X194.5392  Y24.0706   
N11310  X195.0794  Y31.0445   
N11315  X195.7269  Y37.9357   
N11320  X194.8738  Y37.9973   
N11325  X192.9922  Y36.4306   
N11330  X189.9998  Y34.1567   
N11335  X187.7668  Y33.6506   
N11340  X186.0035  Y34.9723   
N11345  X184.4215  Y38.1806   
N11350  X182.6868  Y41.6891   
N11355  X181.3364  Y39.4846   
N11360  X177.3968  Y30.2028   
N11365  X175.9351  Y29.0427   
N11370  X174.1934  Y29.3231   
N11375  X172.2946  Y31.1884   
N11380  X172.5119  Y34.9393   
N11385  X176.5363  Y49.3786   
N11390  X179.9900  Y56.6133   
N11395  X181.6223  Y57.6659   
N11400  X183.2545  Y57.0815   
N11405  X186.7112  Y51.2198   
N11410  X188.7771  Y46.3926   
N11415  X190.3246  Y44.3927   
N11420  X192.3215  Y44.7815   
N11425  X195.7353  Y47.1185   
N11430  X200.0559  Y49.6763   
N11435  X203.4357  Y50.6437   
N11440  X205.6051  Y50.0045   
N11445  X206.2941  Y47.7429   
N11450  X203.2484  Y34.2922   
N11455 G0  Z3.0000 
N11460  X222.0803  Y67.2573 
N11465  Z0.1000 
N11470 G1  Z-0.7000  F100.00 
N11475  X220.5584  Y66.5388   F300.00 
N11480  X216.3876  Y66.9330   
N11485  X202.4678  Y70.3621   
N11490  X185.0607  Y76.1513   
N11495  X168.9049  Y82.9050   
N11500  X151.0090  Y92.8162   
N11505  X134.4919  Y104.4695   
N11510  X119.4327  Y117.7684   
N11515  X105.9101  Y132.6158   
N11520  X94.0034  Y148.9150   
N11525  X83.7911  Y166.5694   
N11530  X75.3524  Y185.4821   
N11535  X68.7658  Y205.5568   
N11540  X66.6595  Y214.3020   
N11545  X65.4447  Y223.0206   
N11550  X64.7745  Y250.7213   
N11555  X65.5595  Y279.0967   
N11560  X67.0094  Y288.2681   
N11565  X69.6135  Y298.5322   
N11570  X75.2583  Y315.4509   
N11575  X82.0830  Y331.7141   
N11580  X89.1097  Y344.4738   
N11585  X97.9317  Y358.1877   
N11590  X106.8134  Y370.3215   
N11595  X114.0195  Y378.3418   
N11600  X117.4343  Y380.4062   
N11605  X118.0109  Y379.8873   
N11610  X117.8852  Y378.5226   
N11615  X115.6764  Y373.8245   
N11620  X111.1104  Y367.4474   
N11625  X99.3244  Y351.3522   
N11630  X88.8711  Y333.5040   
N11635  X80.3044  Y314.9640   
N11640  X74.1795  Y296.7935   
N11645  X71.2098  Y280.2454   
N11650  X69.5420  Y259.7114   
N11655  X69.3429  Y238.8999   
N11660  X70.7805  Y221.5194   
N11665  X73.3048  Y208.8464   
N11670  X76.7526  Y196.4400   
N11675  X81.0825  Y184.3456   
N11680  X86.2532  Y172.6105   
N11685  X92.2243  Y161.2804   
N11690  X98.9538  Y150.4023   
N11695  X106.4014  Y140.0224   
N11700  X114.5256  Y130.1866   
N11705  X123.2856  Y120.9422   
N11710  X132.6404  Y112.3355   
N11715  X142.5486  Y104.4124   
N11720  X152.9689  Y97.2191   
N11725  X163.8609  Y90.8030   
N11730  X175.1830  Y85.2104   
N11735  X186.8945  Y80.4867   
N11740  X198.9535  Y76.6791   
N11745  X215.3911  Y71.2945   
N11750  X220.2947  Y68.9684   
N11755  X222.0803  Y67.2573   
N11760 G0  Z0.1000 
N11765 G1  Z-1.4000  F100.00 
N11770  X220.5584  Y66.5388   F300.00 
N11775  X216.3876  Y66.9330   
N11780  X202.4678  Y70.3621   
N11785  X185.0607  Y76.1513   
N11790  X168.9049  Y82.9050   
N11795  X151.0090  Y92.8162   
N11800  X134.4919  Y104.4695   
N11805  X119.4327  Y117.7684   
N11810  X105.9101  Y132.6158   
N11815  X94.0034  Y148.9150   
N11820  X83.7911  Y166.5694   
N11825  X75.3524  Y185.4821   
N11830  X68.7658  Y205.5568   
N11835  X66.6595  Y214.3020   
N11840  X65.4447  Y223.0206   
N11845  X64.7745  Y250.7213   
N11850  X65.5595  Y279.0967   
N11855  X67.0094  Y288.2681   
N11860  X69.6135  Y298.5322   
N11865  X75.2583  Y315.4509   
N11870  X82.0830  Y331.7141   
N11875  X89.1097  Y344.4738   
N11880  X97.9317  Y358.1877   
N11885  X106.8134  Y370.3215   
N11890  X114.0195  Y378.3418   
N11895  X117.4343  Y380.4062   
N11900  X118.0109  Y379.8873   
N11905  X117.8852  Y378.5226   
N11910  X115.6764  Y373.8245   
N11915  X111.1104  Y367.4474   
N11920  X99.3244  Y351.3522   
N11925  X88.8711  Y333.5040   
N11930  X80.3044  Y314.9640   
N11935  X74.1795  Y296.7935   
N11940  X71.2098  Y280.2454   
N11945  X69.5420  Y259.7114   
N11950  X69.3429  Y238.8999   
N11955  X70.7805  Y221.5194   
N11960  X73.3048  Y208.8464   
N11965  X76.7526  Y196.4400   
N11970  X81.0825  Y184.3456   
N11975  X86.2532  Y172.6105   
N11980  X92.2243  Y161.2804   
N11985  X98.9538  Y150.4023   
N11990  X106.4014  Y140.0224   
N11995  X114.5256  Y130.1866   
N12000  X123.2856  Y120.9422   
N12005  X132.6404  Y112.3355   
N12010  X142.5486  Y104.4124   
N12015  X152.9689  Y97.2191   
N12020  X163.8609  Y90.8030   
N12025  X175.1830  Y85.2104   
N12030  X186.8945  Y80.4867   
N12035  X198.9535  Y76.6791   
N12040  X215.3911  Y71.2945   
N12045  X220.2947  Y68.9684   
N12050  X222.0803  Y67.2573   
N12055 G0  Z3.0000 
N12060  X233.1762  Y76.4648 
N12065  Z0.1000 
N12070 G1  Z-0.7000  F100.00 
N12075  X217.0539  Y87.0383   F300.00 
N12080  X202.2756  Y98.5704   
N12085  X188.8427  Y111.0606   
N12090  X176.7566  Y124.5068   
N12095  X166.0180  Y138.9072   
N12100  X156.6287  Y154.2606   
N12105  X148.5897  Y170.5653   
N12110  X141.9021  Y187.8200   
N12115  X136.2917  Y206.7465   
N12120  X134.4865  Y216.3418   
N12125  X133.2219  Y227.5486   
N12130  X131.9357  Y259.3728   
N12135  X131.6750  Y311.3649   
N12140  X131.6754  Y390.6767   
N12145  X249.4636  Y390.4032   
N12150  X367.2512  Y390.1291   
N12155  X367.7071  Y311.2978   
N12160  X367.7642  Y260.3580   
N12165  X366.7017  Y229.4071   
N12170  X365.5194  Y218.4388   
N12175  X363.7793  Y208.8824   
N12180  X358.2567  Y189.2211   
N12185  X351.8430  Y171.9811   
N12190  X343.7055  Y155.3025   
N12195  X333.9683  Y139.3394   
N12200  X322.7575  Y124.2446   
N12205  X310.1983  Y110.1730   
N12210  X296.4160  Y97.2782   
N12215  X281.5361  Y85.7136   
N12220  X265.6834  Y75.6329   
N12225  X255.6116  Y70.3631   
N12230  X249.7824  Y68.1710   
N12235  X243.7463  Y70.6075   
N12240  X233.1762  Y76.4648   
N12245 G0  Z0.1000 
N12250 G1  Z-1.4000  F100.00 
N12255  X217.0539  Y87.0383   F300.00 
N12260  X202.2756  Y98.5704   
N12265  X188.8427  Y111.0606   
N12270  X176.7566  Y124.5068   
N12275  X166.0180  Y138.9072   
N12280  X156.6287  Y154.2606   
N12285  X148.5897  Y170.5653   
N12290  X141.9021  Y187.8200   
N12295  X136.2917  Y206.7465   
N12300  X134.4865  Y216.3418   
N12305  X133.2219  Y227.5486   
N12310  X131.9357  Y259.3728   
N12315  X131.6750  Y311.3649   
N12320  X131.6754  Y390.6767   
N12325  X249.4636  Y390.4032   
N12330  X367.2512  Y390.1291   
N12335  X367.7071  Y311.2978   
N12340  X367.7642  Y260.3580   
N12345  X366.7017  Y229.4071   
N12350  X365.5194  Y218.4388   
N12355  X363.7793  Y208.8824   
N12360  X358.2567  Y189.2211   
N12365  X351.8430  Y171.9811   
N12370  X343.7055  Y155.3025   
N12375  X333.9683  Y139.3394   
N12380  X322.7575  Y124.2446   
N12385  X310.1983  Y110.1730   
N12390  X296.4160  Y97.2782   
N12395  X281.5361  Y85.7136   
N12400  X265.6834  Y75.6329   
N12405  X255.6116  Y70.3631   
N12410  X249.7824  Y68.1710   
N12415  X243.7463  Y70.6075   
N12420  X233.1762  Y76.4648   
N12425 G0  Z3.0000 
N12430  X244.6989  Y152.4736 
N12435  Z0.1000 
N12440 G1  Z-0.7000  F100.00 
N12445  X242.4605  Y154.9915   F300.00 
N12450  X241.6153  Y156.6888   
N12455  X242.0865  Y158.2343   
N12460  X243.7961  Y160.2972   
N12465  X246.8935  Y162.7658   
N12470  X249.8978  Y163.7929   
N12475  X252.9020  Y162.7658   
N12480  X255.9989  Y160.2972   
N12485  X257.7090  Y158.2343   
N12490  X258.1797  Y156.6888   
N12495  X257.3345  Y154.9915   
N12500  X255.0961  Y152.4736   
N12505  X249.8978  Y148.1457   
N12510  X244.6989  Y152.4736   
N12515 G0  Z0.1000 
N12520 G1  Z-1.4000  F100.00 
N12525  X242.4605  Y154.9915   F300.00 
N12530  X241.6153  Y156.6888   
N12535  X242.0865  Y158.2343   
N12540  X243.7961  Y160.2972   
N12545  X246.8935  Y162.7658   
N12550  X249.8978  Y163.7929   
N12555  X252.9020  Y162.7658   
N12560  X255.9989  Y160.2972   
N12565  X257.7090  Y158.2343   
N12570  X258.1797  Y156.6888   
N12575  X257.3345  Y154.9915   
N12580  X255.0961  Y152.4736   
N12585  X249.8978  Y148.1457   
N12590  X244.6989  Y152.4736   
N12595 G0  Z3.0000 
N12600  X222.0803  Y155.0999 
N12605  Z0.1000 
N12610 G1  Z-0.7000  F100.00 
N12615  Y118.5900   F300.00 
N12620  X213.6776   
N12625  X207.4020  Y118.9300   
N12630  X204.1153  Y119.7486   
N12635  X202.9695  Y121.5164   
N12640  X203.5579  Y122.7849   
N12645  X205.8742  Y123.5493   
N12650  X209.9104  Y123.8055   
N12655  X216.8647   
N12660  Y161.2543   
N12665  Y198.7036   
N12670  X209.9104  Y205.3188   
N12675  X206.0659  Y209.2160   
N12680  X203.9817  Y212.4302   
N12685  X203.1237  Y216.2368   
N12690  X202.9562  Y221.9107   
N12695  X203.6067  Y229.0424   
N12700  X204.2903  Y230.8254   
N12705  X205.0985  Y231.4198   
N12710  X205.9447  Y230.8259   
N12715  X206.7426  Y229.0429   
N12720  X207.8499  Y221.9117   
N12725  X209.5876  Y213.7155   
N12730  X212.6500  Y208.4236   
N12735  X214.2182  Y207.3403   
N12740  X215.5661  Y207.5523   
N12745  X216.5094  Y209.2481   
N12750  X216.8647  Y212.6175   
N12755  X217.5433  Y217.0209   
N12760  X218.2515  Y217.6167   
N12765  X219.0819  Y217.2589   
N12770  X220.7348  Y214.0304   
N12775  X221.7570  Y208.0338   
N12780  X222.3809  Y202.9833   
N12785  X224.2290  Y198.7406   
N12790  X228.4293  Y193.5457   
N12795  X236.1100  Y185.6388   
N12800  X249.9170  Y171.7574   
N12805  X263.7052  Y185.6575   
N12810  X271.3682  Y193.5684   
N12815  X275.5641  Y198.7701   
N12820  X277.4141  Y203.0143   
N12825  X278.0391  Y208.0525   
N12830  X278.9951  Y214.0093   
N12835  X280.5569  Y217.0352   
N12840  X281.3888  Y217.3023   
N12845  X282.1615  Y216.6602   
N12850  X283.2472  Y212.4135   
N12855  X283.7997  Y206.9274   
N12860  X287.7117  Y210.3387   
N12865  X289.5776  Y212.3529   
N12870  X290.7830  Y214.7017   
N12875  X291.6233  Y221.5914   
N12880  X292.3226  Y227.9109   
N12885  X294.2313  Y231.5972   
N12890  X295.5969  Y232.3635   
N12895  X296.3869  Y231.5041   
N12900  X296.8393  Y222.9136   
N12905  X296.6875  Y216.6961   
N12910  X295.8557  Y212.6456   
N12915  X293.7764  Y209.3304   
N12920  X289.8851  Y205.3168   
N12925  X282.9303  Y198.5681   
N12930  Y161.1868   
N12935  Y123.8055   
N12940  X290.0300   
N12945  X295.5718  Y123.1358   
N12950  X296.5979  Y122.4355   
N12955  X296.5422  Y121.6134   
N12960  X293.4339  Y119.9699   
N12965  X286.7404  Y118.9349   
N12970  X277.7848  Y118.4106   
N12975  X277.3151  Y155.0477   
N12980  X276.8454  Y191.6853   
N12985  X264.9900  Y180.1724   
N12990  X253.1351  Y168.6600   
N12995  X259.7646  Y162.7619   
N13000  X266.3941  Y156.8637   
N13005  X258.1457  Y148.6158   
N13010  X249.8978  Y140.3679   
N13015  X242.0027  Y148.2630   
N13020  X234.1076  Y156.1580   
N13025  X240.2547  Y162.4874   
N13030  X246.4022  Y168.8172   
N13035  X234.8927  Y180.2133   
N13040  X222.7323  Y191.6099   
N13045  X222.0803  Y155.0999   
N13050 G0  Z0.1000 
N13055 G1  Z-1.4000  F100.00 
N13060  Y118.5900   F300.00 
N13065  X213.6776   
N13070  X207.4020  Y118.9300   
N13075  X204.1153  Y119.7486   
N13080  X202.9695  Y121.5164   
N13085  X203.5579  Y122.7849   
N13090  X205.8742  Y123.5493   
N13095  X209.9104  Y123.8055   
N13100  X216.8647   
N13105  Y161.2543   
N13110  Y198.7036   
N13115  X209.9104  Y205.3188   
N13120  X206.0659  Y209.2160   
N13125  X203.9817  Y212.4302   
N13130  X203.1237  Y216.2368   
N13135  X202.9562  Y221.9107   
N13140  X203.6067  Y229.0424   
N13145  X204.2903  Y230.8254   
N13150  X205.0985  Y231.4198   
N13155  X205.9447  Y230.8259   
N13160  X206.7426  Y229.0429   
N13165  X207.8499  Y221.9117   
N13170  X209.5876  Y213.7155   
N13175  X212.6500  Y208.4236   
N13180  X214.2182  Y207.3403   
N13185  X215.5661  Y207.5523   
N13190  X216.5094  Y209.2481   
N13195  X216.8647  Y212.6175   
N13200  X217.5433  Y217.0209   
N13205  X218.2515  Y217.6167   
N13210  X219.0819  Y217.2589   
N13215  X220.7348  Y214.0304   
N13220  X221.7570  Y208.0338   
N13225  X222.3809  Y202.9833   
N13230  X224.2290  Y198.7406   
N13235  X228.4293  Y193.5457   
N13240  X236.1100  Y185.6388   
N13245  X249.9170  Y171.7574   
N13250  X263.7052  Y185.6575   
N13255  X271.3682  Y193.5684   
N13260  X275.5641  Y198.7701   
N13265  X277.4141  Y203.0143   
N13270  X278.0391  Y208.0525   
N13275  X278.9951  Y214.0093   
N13280  X280.5569  Y217.0352   
N13285  X281.3888  Y217.3023   
N13290  X282.1615  Y216.6602   
N13295  X283.2472  Y212.4135   
N13300  X283.7997  Y206.9274   
N13305  X287.7117  Y210.3387   
N13310  X289.5776  Y212.3529   
N13315  X290.7830  Y214.7017   
N13320  X291.6233  Y221.5914   
N13325  X292.3226  Y227.9109   
N13330  X294.2313  Y231.5972   
N13335  X295.5969  Y232.3635   
N13340  X296.3869  Y231.5041   
N13345  X296.8393  Y222.9136   
N13350  X296.6875  Y216.6961   
N13355  X295.8557  Y212.6456   
N13360  X293.7764  Y209.3304   
N13365  X289.8851  Y205.3168   
N13370  X282.9303  Y198.5681   
N13375  Y161.1868   
N13380  Y123.8055   
N13385  X290.0300   
N13390  X295.5718  Y123.1358   
N13395  X296.5979  Y122.4355   
N13400  X296.5422  Y121.6134   
N13405  X293.4339  Y119.9699   
N13410  X286.7404  Y118.9349   
N13415  X277.7848  Y118.4106   
N13420  X277.3151  Y155.0477   
N13425  X276.8454  Y191.6853   
N13430  X264.9900  Y180.1724   
N13435  X253.1351  Y168.6600   
N13440  X259.7646  Y162.7619   
N13445  X266.3941  Y156.8637   
N13450  X258.1457  Y148.6158   
N13455  X249.8978  Y140.3679   
N13460  X242.0027  Y148.2630   
N13465  X234.1076  Y156.1580   
N13470  X240.2547  Y162.4874   
N13475  X246.4022  Y168.8172   
N13480  X234.8927  Y180.2133   
N13485  X222.7323  Y191.6099   
N13490  X222.0803  Y155.0999   
N13495 G0  Z3.0000 
N13500  X248.1591  Y202.4545 
N13505  Z0.1000 
N13510 G1  Z-0.7000  F100.00 
N13515  X247.7402  Y198.4789   F300.00 
N13520  X246.7333  Y196.8254   
N13525  X235.3333  Y207.2403   
N13530  X212.0754  Y230.4923   
N13535  X188.7515  Y254.5939   
N13540  X177.1538  Y267.5581   
N13545  X175.4270  Y272.1828   
N13550  X175.0978  Y276.6710   
N13555  X176.0543  Y280.8748   
N13560  X178.1829  Y284.6464   
N13565  X181.3704  Y287.8374   
N13570  X185.5043  Y290.2996   
N13575  X190.4714  Y291.8855   
N13580  X196.1586  Y292.4473   
N13585  X199.9859  Y293.0101   
N13590  X202.0927  Y294.4772   
N13595  X202.2633  Y296.5165   
N13600  X200.2816  Y298.7959   
N13605  X197.7431  Y299.8416   
N13610  X193.3407  Y300.6060   
N13615  X178.7186  Y301.3171   
N13620  X160.3608  Y301.4941   
N13625  X175.1392  Y305.0153   
N13630  X189.2463  Y307.5415   
N13635  X204.0650  Y309.1319   
N13640  X214.4336  Y309.4044   
N13645  X216.3359  Y308.9274   
N13650  X215.1901  Y307.9777   
N13655  X211.9128  Y306.5312   
N13660  X210.4796  Y305.2982   
N13665  X210.5605  Y303.5541   
N13670  X211.8275  Y300.5740   
N13675  X212.8358  Y297.1508   
N13680  X212.8004  Y293.8159   
N13685  X211.8172  Y290.6830   
N13690  X209.9829  Y287.8655   
N13695  X207.3941  Y285.4763   
N13700  X204.1468  Y283.6297   
N13705  X200.3373  Y282.4380   
N13710  X196.0620  Y282.0157   
N13715  X191.2614  Y281.6850   
N13720  X188.0063  Y280.6407   
N13725  X186.1558  Y278.8029   
N13730  X185.5703  Y276.0924   
N13735  X186.3401  Y272.0310   
N13740  X189.2813  Y269.5950   
N13745  X195.3440  Y268.4019   
N13750  X205.4770  Y268.0692   
N13755  X217.6882  Y267.3871   
N13760  X227.0681  Y265.2522   
N13765  X234.2658  Y261.4318   
N13770  X239.9319  Y255.6919   
N13775  X243.0529  Y250.5182   
N13780  X245.6742  Y244.4821   
N13785  X247.2040  Y239.1985   
N13790  X247.0492  Y236.2825   
N13795  X243.4329  Y238.9452   
N13800  X235.8128  Y246.4219   
N13805  X229.2262  Y252.7616   
N13810  X223.7435  Y257.0689   
N13815  X219.9931  Y258.9248   
N13820  X218.9636  Y258.8021   
N13825  X218.6034  Y257.9091   
N13830  X233.3812  Y242.0283   
N13835  X245.0661  Y229.3957   
N13840  X247.4607  Y225.5315   
N13845  X248.1591  Y222.5080   
N13850  X247.7683  Y219.1041   
N13855  X246.8280  Y217.6887   
N13860  X239.8200  Y223.7721   
N13865  X224.8406  Y238.3987   
N13870  X208.8799  Y253.4978   
N13875  X204.1035  Y257.1930   
N13880  X201.6679  Y258.1437   
N13885  X201.9981  Y256.2547   
N13890  X205.6815  Y251.4787   
N13895  X223.6553  Y232.6306   
N13900  X243.9365  Y211.3431   
N13905  X247.3415  Y206.2275   
N13910  X248.1591  Y202.4545   
N13915 G0  Z0.1000 
N13920 G1  Z-1.4000  F100.00 
N13925  X247.7402  Y198.4789   F300.00 
N13930  X246.7333  Y196.8254   
N13935  X235.3333  Y207.2403   
N13940  X212.0754  Y230.4923   
N13945  X188.7515  Y254.5939   
N13950  X177.1538  Y267.5581   
N13955  X175.4270  Y272.1828   
N13960  X175.0978  Y276.6710   
N13965  X176.0543  Y280.8748   
N13970  X178.1829  Y284.6464   
N13975  X181.3704  Y287.8374   
N13980  X185.5043  Y290.2996   
N13985  X190.4714  Y291.8855   
N13990  X196.1586  Y292.4473   
N13995  X199.9859  Y293.0101   
N14000  X202.0927  Y294.4772   
N14005  X202.2633  Y296.5165   
N14010  X200.2816  Y298.7959   
N14015  X197.7431  Y299.8416   
N14020  X193.3407  Y300.6060   
N14025  X178.7186  Y301.3171   
N14030  X160.3608  Y301.4941   
N14035  X175.1392  Y305.0153   
N14040  X189.2463  Y307.5415   
N14045  X204.0650  Y309.1319   
N14050  X214.4336  Y309.4044   
N14055  X216.3359  Y308.9274   
N14060  X215.1901  Y307.9777   
N14065  X211.9128  Y306.5312   
N14070  X210.4796  Y305.2982   
N14075  X210.5605  Y303.5541   
N14080  X211.8275  Y300.5740   
N14085  X212.8358  Y297.1508   
N14090  X212.8004  Y293.8159   
N14095  X211.8172  Y290.6830   
N14100  X209.9829  Y287.8655   
N14105  X207.3941  Y285.4763   
N14110  X204.1468  Y283.6297   
N14115  X200.3373  Y282.4380   
N14120  X196.0620  Y282.0157   
N14125  X191.2614  Y281.6850   
N14130  X188.0063  Y280.6407   
N14135  X186.1558  Y278.8029   
N14140  X185.5703  Y276.0924   
N14145  X186.3401  Y272.0310   
N14150  X189.2813  Y269.5950   
N14155  X195.3440  Y268.4019   
N14160  X205.4770  Y268.0692   
N14165  X217.6882  Y267.3871   
N14170  X227.0681  Y265.2522   
N14175  X234.2658  Y261.4318   
N14180  X239.9319  Y255.6919   
N14185  X243.0529  Y250.5182   
N14190  X245.6742  Y244.4821   
N14195  X247.2040  Y239.1985   
N14200  X247.0492  Y236.2825   
N14205  X243.4329  Y238.9452   
N14210  X235.8128  Y246.4219   
N14215  X229.2262  Y252.7616   
N14220  X223.7435  Y257.0689   
N14225  X219.9931  Y258.9248   
N14230  X218.9636  Y258.8021   
N14235  X218.6034  Y257.9091   
N14240  X233.3812  Y242.0283   
N14245  X245.0661  Y229.3957   
N14250  X247.4607  Y225.5315   
N14255  X248.1591  Y222.5080   
N14260  X247.7683  Y219.1041   
N14265  X246.8280  Y217.6887   
N14270  X239.8200  Y223.7721   
N14275  X224.8406  Y238.3987   
N14280  X208.8799  Y253.4978   
N14285  X204.1035  Y257.1930   
N14290  X201.6679  Y258.1437   
N14295  X201.9981  Y256.2547   
N14300  X205.6815  Y251.4787   
N14305  X223.6553  Y232.6306   
N14310  X243.9365  Y211.3431   
N14315  X247.3415  Y206.2275   
N14320  X248.1591  Y202.4545   
N14325 G0  Z3.0000 
N14330  X276.9962  Y220.7309 
N14335  Z0.1000 
N14340 G1  Z-0.7000  F100.00 
N14345  X252.5329  Y196.8254   F300.00 
N14350  X251.6364  Y202.4993   
N14355  X252.4358  Y206.2842   
N14360  X255.7964  Y211.3554   
N14365  X275.9761  Y232.4665   
N14370  X300.3162  Y257.9244   
N14375  X299.9018  Y258.8854   
N14380  X298.6603  Y258.8376   
N14385  X293.7163  Y255.7279   
N14390  X274.1073  Y237.5515   
N14395  X259.7276  Y223.5232   
N14400  X252.9686  Y217.6887   
N14405  X252.0277  Y219.1041   
N14410  X251.6364  Y222.5080   
N14415  X252.3343  Y225.5315   
N14420  X254.7294  Y229.3957   
N14425  X266.4143  Y242.0283   
N14430  X281.1921  Y258.0175   
N14435  X280.8713  Y258.8154   
N14440  X279.9325  Y258.8992   
N14445  X276.3349  Y257.0176   
N14450  X263.2021  Y245.7009   
N14455  X251.2969  Y234.2052   
N14460  X252.5452  Y240.2901   
N14465  X254.4372  Y247.0152   
N14470  X257.1748  Y252.7621   
N14475  X260.7946  Y257.5558   
N14480  X265.3335  Y261.4215   
N14485  X270.8285  Y264.3839   
N14490  X277.3166  Y266.4695   
N14495  X284.8351  Y267.7020   
N14500  X293.4206  Y268.1071   
N14505  X303.0627  Y268.4664   
N14510  X309.5040  Y269.6201   
N14515  X313.1045  Y271.6846   
N14520  X314.2247  Y274.7751   
N14525  X313.5353  Y277.9770   
N14530  X311.4422  Y280.2361   
N14535  X307.9107  Y281.5746   
N14540  X302.9045  Y282.0157   
N14545  X298.7663  Y282.4380   
N14550  X295.1228  Y283.6380   
N14555  X292.0511  Y285.5147   
N14560  X289.6278  Y287.9675   
N14565  X287.9305  Y290.8954   
N14570  X287.0356  Y294.1988   
N14575  X287.0208  Y297.7762   
N14580  X287.9626  Y301.5266   
N14585  X288.7555  Y304.0361   
N14590  X288.6560  Y305.6525   
N14595  X287.4732  Y306.7845   
N14600  X285.0170  Y307.8412   
N14605  X280.3228  Y309.5587   
N14610  X285.5384  Y309.8967   
N14615  X300.2847  Y309.9253   
N14620  X309.5779  Y308.6119   
N14625  X325.4414  Y304.4752   
N14630  X339.4342  Y301.4941   
N14635  X320.3101  Y301.2905   
N14640  X306.0907  Y300.6952   
N14645  X298.7589  Y299.5504   
N14650  X297.0601  Y297.3938   
N14655  X297.5613  Y295.0681   
N14660  X299.8416  Y293.2082   
N14665  X303.4797  Y292.4473   
N14670  X312.1381  Y291.1250   
N14675  X315.7525  Y289.5376   
N14680  X318.8233  Y287.3914   
N14685  X321.2992  Y284.7301   
N14690  X323.1306  Y281.5977   
N14695  X324.2665  Y278.0371   
N14700  X324.6564  Y274.0930   
N14705  X323.7441  Y270.3204   
N14710  X318.2521  Y263.2543   
N14715  X276.9962  Y220.7309   
N14720 G0  Z0.1000 
N14725 G1  Z-1.4000  F100.00 
N14730  X252.5329  Y196.8254   F300.00 
N14735  X251.6364  Y202.4993   
N14740  X252.4358  Y206.2842   
N14745  X255.7964  Y211.3554   
N14750  X275.9761  Y232.4665   
N14755  X300.3162  Y257.9244   
N14760  X299.9018  Y258.8854   
N14765  X298.6603  Y258.8376   
N14770  X293.7163  Y255.7279   
N14775  X274.1073  Y237.5515   
N14780  X259.7276  Y223.5232   
N14785  X252.9686  Y217.6887   
N14790  X252.0277  Y219.1041   
N14795  X251.6364  Y222.5080   
N14800  X252.3343  Y225.5315   
N14805  X254.7294  Y229.3957   
N14810  X266.4143  Y242.0283   
N14815  X281.1921  Y258.0175   
N14820  X280.8713  Y258.8154   
N14825  X279.9325  Y258.8992   
N14830  X276.3349  Y257.0176   
N14835  X263.2021  Y245.7009   
N14840  X251.2969  Y234.2052   
N14845  X252.5452  Y240.2901   
N14850  X254.4372  Y247.0152   
N14855  X257.1748  Y252.7621   
N14860  X260.7946  Y257.5558   
N14865  X265.3335  Y261.4215   
N14870  X270.8285  Y264.3839   
N14875  X277.3166  Y266.4695   
N14880  X284.8351  Y267.7020   
N14885  X293.4206  Y268.1071   
N14890  X303.0627  Y268.4664   
N14895  X309.5040  Y269.6201   
N14900  X313.1045  Y271.6846   
N14905  X314.2247  Y274.7751   
N14910  X313.5353  Y277.9770   
N14915  X311.4422  Y280.2361   
N14920  X307.9107  Y281.5746   
N14925  X302.9045  Y282.0157   
N14930  X298.7663  Y282.4380   
N14935  X295.1228  Y283.6380   
N14940  X292.0511  Y285.5147   
N14945  X289.6278  Y287.9675   
N14950  X287.9305  Y290.8954   
N14955  X287.0356  Y294.1988   
N14960  X287.0208  Y297.7762   
N14965  X287.9626  Y301.5266   
N14970  X288.7555  Y304.0361   
N14975  X288.6560  Y305.6525   
N14980  X287.4732  Y306.7845   
N14985  X285.0170  Y307.8412   
N14990  X280.3228  Y309.5587   
N14995  X285.5384  Y309.8967   
N15000  X300.2847  Y309.9253   
N15005  X309.5779  Y308.6119   
N15010  X325.4414  Y304.4752   
N15015  X339.4342  Y301.4941   
N15020  X320.3101  Y301.2905   
N15025  X306.0907  Y300.6952   
N15030  X298.7589  Y299.5504   
N15035  X297.0601  Y297.3938   
N15040  X297.5613  Y295.0681   
N15045  X299.8416  Y293.2082   
N15050  X303.4797  Y292.4473   
N15055  X312.1381  Y291.1250   
N15060  X315.7525  Y289.5376   
N15065  X318.8233  Y287.3914   
N15070  X321.2992  Y284.7301   
N15075  X323.1306  Y281.5977   
N15080  X324.2665  Y278.0371   
N15085  X324.6564  Y274.0930   
N15090  X323.7441  Y270.3204   
N15095  X318.2521  Y263.2543   
N15100  X276.9962  Y220.7309   
N15105 G0  Z3.0000 
N15110  X260.9444  Y270.6319 
N15115  Z0.1000 
N15120 G1  Z-0.7000  F100.00 
N15125  X255.5027  Y267.2634   F300.00 
N15130  X249.4488  Y266.2039   
N15135  X243.5349  Y267.4428   
N15140  X238.5140  Y270.9690   
N15145  X235.0943  Y275.3344   
N15150  X234.1283  Y278.1425   
N15155  X234.5517  Y278.8557   
N15160  X235.5713  Y279.0503   
N15165  X239.3799  Y277.7143   
N15170  X244.5851  Y275.8406   
N15175  X249.8978  Y275.0614   
N15180  X255.2099  Y275.8406   
N15185  X260.4156  Y277.7143   
N15190  X264.7165  Y279.4963   
N15195  X265.3946  Y279.0227   
N15200  X265.5450  Y277.6310   
N15205  X264.1936  Y274.4469   
N15210  X260.9444  Y270.6319   
N15215 G0  Z0.1000 
N15220 G1  Z-1.4000  F100.00 
N15225  X255.5027  Y267.2634   F300.00 
N15230  X249.4488  Y266.2039   
N15235  X243.5349  Y267.4428   
N15240  X238.5140  Y270.9690   
N15245  X235.0943  Y275.3344   
N15250  X234.1283  Y278.1425   
N15255  X234.5517  Y278.8557   
N15260  X235.5713  Y279.0503   
N15265  X239.3799  Y277.7143   
N15270  X244.5851  Y275.8406   
N15275  X249.8978  Y275.0614   
N15280  X255.2099  Y275.8406   
N15285  X260.4156  Y277.7143   
N15290  X264.7165  Y279.4963   
N15295  X265.3946  Y279.0227   
N15300  X265.5450  Y277.6310   
N15305  X264.1936  Y274.4469   
N15310  X260.9444  Y270.6319   
N15315 G0  Z3.0000 
N15320  X234.2506  Y284.4901 
N15325  Z0.1000 
N15330 G1  Z-0.7000  F100.00 
N15335  X233.8366  Y283.3635   F300.00 
N15340  X232.5316  Y282.6095   
N15345  X226.8616  Y282.0925   
N15350  X219.4727  Y282.1694   
N15355  X226.3506  Y285.7951   
N15360  X233.2289  Y289.4208   
N15365  X228.0893  Y293.7015   
N15370  X222.9496  Y297.9822   
N15375  X229.7171  Y296.8280   
N15380  X236.4845  Y295.6738   
N15385  X235.4767  Y301.8839   
N15390  X235.1101  Y305.9847   
N15395  X235.7571  Y307.7845   
N15400  X237.4791  Y307.3173   
N15405  X240.3355  Y304.6171   
N15410  X243.0352  Y302.0362   
N15415  X244.9104  Y301.4192   
N15420  X246.2366  Y302.8365   
N15425  X247.2897  Y306.3558   
N15430  X248.5282  Y310.0392   
N15435  X249.8978  Y311.5714   
N15440  X251.2668  Y310.0392   
N15445  X252.5053  Y306.3558   
N15450  X253.4826  Y302.8143   
N15455  X254.6915  Y301.4591   
N15460  X256.6253  Y302.1914   
N15465  X259.7754  Y304.9138   
N15470  X262.8231  Y307.3646   
N15475  X264.4809  Y307.6164   
N15480  X264.8072  Y305.6185   
N15485  X263.8580  Y301.3206   
N15490  X262.2307  Y295.6462   
N15495  X269.5383  Y296.7846   
N15500  X276.8454  Y297.9231   
N15505  X271.7058  Y293.6720   
N15510  X266.5661  Y289.4208   
N15515  X273.4444  Y285.7951   
N15520  X280.3228  Y282.1694   
N15525  X272.9339  Y282.0925   
N15530  X267.1387  Y282.6238   
N15535  X265.9116  Y283.4562   
N15540  X265.5450  Y284.7572   
N15545  X264.0522  Y288.1863   
N15550  X260.4629  Y292.5808   
N15555  X254.9261  Y296.5722   
N15560  X249.2349  Y297.8551   
N15565  X243.7301  Y296.4342   
N15570  X238.7515  Y292.3137   
N15575  X235.5728  Y287.8093   
N15580  X234.2506  Y284.4901   
N15585 G0  Z0.1000 
N15590 G1  Z-1.4000  F100.00 
N15595  X233.8366  Y283.3635   F300.00 
N15600  X232.5316  Y282.6095   
N15605  X226.8616  Y282.0925   
N15610  X219.4727  Y282.1694   
N15615  X226.3506  Y285.7951   
N15620  X233.2289  Y289.4208   
N15625  X228.0893  Y293.7015   
N15630  X222.9496  Y297.9822   
N15635  X229.7171  Y296.8280   
N15640  X236.4845  Y295.6738   
N15645  X235.4767  Y301.8839   
N15650  X235.1101  Y305.9847   
N15655  X235.7571  Y307.7845   
N15660  X237.4791  Y307.3173   
N15665  X240.3355  Y304.6171   
N15670  X243.0352  Y302.0362   
N15675  X244.9104  Y301.4192   
N15680  X246.2366  Y302.8365   
N15685  X247.2897  Y306.3558   
N15690  X248.5282  Y310.0392   
N15695  X249.8978  Y311.5714   
N15700  X251.2668  Y310.0392   
N15705  X252.5053  Y306.3558   
N15710  X253.4826  Y302.8143   
N15715  X254.6915  Y301.4591   
N15720  X256.6253  Y302.1914   
N15725  X259.7754  Y304.9138   
N15730  X262.8231  Y307.3646   
N15735  X264.4809  Y307.6164   
N15740  X264.8072  Y305.6185   
N15745  X263.8580  Y301.3206   
N15750  X262.2307  Y295.6462   
N15755  X269.5383  Y296.7846   
N15760  X276.8454  Y297.9231   
N15765  X271.7058  Y293.6720   
N15770  X266.5661  Y289.4208   
N15775  X273.4444  Y285.7951   
N15780  X280.3228  Y282.1694   
N15785  X272.9339  Y282.0925   
N15790  X267.1387  Y282.6238   
N15795  X265.9116  Y283.4562   
N15800  X265.5450  Y284.7572   
N15805  X264.0522  Y288.1863   
N15810  X260.4629  Y292.5808   
N15815  X254.9261  Y296.5722   
N15820  X249.2349  Y297.8551   
N15825  X243.7301  Y296.4342   
N15830  X238.7515  Y292.3137   
N15835  X235.5728  Y287.8093   
N15840  X234.2506  Y284.4901   
N15845 G0  Z3.0000 
N15850  X195.6757  Y305.8048 
N15855  Z0.1000 
N15860 G1  Z-0.7000  F100.00 
N15865  X197.5962  Y306.1414   F300.00 
N15870  X199.0082  Y305.6678   
N15875  X198.7711  Y304.9660   
N15880  X196.7264  Y304.7546   
N15885  X194.9217  Y305.1030   
N15890  X195.6757  Y305.8048   
N15895 G0  Z0.1000 
N15900 G1  Z-1.4000  F100.00 
N15905  X197.5962  Y306.1414   F300.00 
N15910  X199.0082  Y305.6678   
N15915  X198.7711  Y304.9660   
N15920  X196.7264  Y304.7546   
N15925  X194.9217  Y305.1030   
N15930  X195.6757  Y305.8048   
N15935 G0  Z3.0000 
N15940  X166.4462  Y339.9684 
N15945  Z0.1000 
N15950 G1  Z-0.7000  F100.00 
N15955  X165.7607  Y333.6223   F300.00 
N15960  X164.4527  Y332.6446   
N15965  X162.0995  Y332.4346   
N15970  X159.5925  Y332.7012   
N15975  X158.3013  Y334.5311   
N15980  X157.7533  Y349.0551   
N15985  Y365.6762   
N15990  X163.1182  Y364.8305   
N15995  X167.5019  Y363.5452   
N16000  X170.5071  Y361.6424   
N16005  X176.4057  Y356.0626   
N16010  X178.7511  Y354.3131   
N16015  X180.6968  Y354.0681   
N16020  X183.2442  Y355.6171   
N16025  X187.3933  Y359.2517   
N16030  X193.6462  Y363.8749   
N16035  X198.2965  Y365.1380   
N16040  X200.3945  Y364.4401   
N16045  X201.5940  Y362.2702   
N16050  X202.5866  Y348.5165   
N16055  X203.0868  Y332.4346   
N16060  X197.8057   
N16065  X194.7846  Y332.5938   
N16070  X193.2135  Y333.6125   
N16075  X192.6177  Y336.3008   
N16080  X192.5246  Y341.4686   
N16085  Y350.5021   
N16090  X186.4396  Y344.6044   
N16095  X180.3547  Y338.7068   
N16100  X174.5902  Y344.2940   
N16105  X170.1690  Y347.8906   
N16110  X167.6359  Y348.6919   
N16115  X166.7956  Y345.6384   
N16120  X166.4462  Y339.9684   
N16125 G0  Z0.1000 
N16130 G1  Z-1.4000  F100.00 
N16135  X165.7607  Y333.6223   F300.00 
N16140  X164.4527  Y332.6446   
N16145  X162.0995  Y332.4346   
N16150  X159.5925  Y332.7012   
N16155  X158.3013  Y334.5311   
N16160  X157.7533  Y349.0551   
N16165  Y365.6762   
N16170  X163.1182  Y364.8305   
N16175  X167.5019  Y363.5452   
N16180  X170.5071  Y361.6424   
N16185  X176.4057  Y356.0626   
N16190  X178.7511  Y354.3131   
N16195  X180.6968  Y354.0681   
N16200  X183.2442  Y355.6171   
N16205  X187.3933  Y359.2517   
N16210  X193.6462  Y363.8749   
N16215  X198.2965  Y365.1380   
N16220  X200.3945  Y364.4401   
N16225  X201.5940  Y362.2702   
N16230  X202.5866  Y348.5165   
N16235  X203.0868  Y332.4346   
N16240  X197.8057   
N16245  X194.7846  Y332.5938   
N16250  X193.2135  Y333.6125   
N16255  X192.6177  Y336.3008   
N16260  X192.5246  Y341.4686   
N16265  Y350.5021   
N16270  X186.4396  Y344.6044   
N16275  X180.3547  Y338.7068   
N16280  X174.5902  Y344.2940   
N16285  X170.1690  Y347.8906   
N16290  X167.6359  Y348.6919   
N16295  X166.7956  Y345.6384   
N16300  X166.4462  Y339.9684   
N16305 G0  Z3.0000 
N16310  X219.9724  Y348.5165 
N16315  Z0.1000 
N16320 G1  Z-0.7000  F100.00 
N16325  X220.4722  Y332.4346   F300.00 
N16330  X216.0609   
N16335  X211.6491   
N16340  Y349.0719   
N16345  X212.1715  Y363.4136   
N16350  X213.3370  Y365.1562   
N16355  X215.5607  Y365.1538   
N16360  X217.7414  Y364.4673   
N16365  X218.9740  Y362.3299   
N16370  X219.9724  Y348.5165   
N16375 G0  Z0.1000 
N16380 G1  Z-1.4000  F100.00 
N16385  X220.4722  Y332.4346   F300.00 
N16390  X216.0609   
N16395  X211.6491   
N16400  Y349.0719   
N16405  X212.1715  Y363.4136   
N16410  X213.3370  Y365.1562   
N16415  X215.5607  Y365.1538   
N16420  X217.7414  Y364.4673   
N16425  X218.9740  Y362.3299   
N16430  X219.9724  Y348.5165   
N16435 G0  Z3.0000 
