N5 (File Name = inter on Friday, November 10, 2023)
N10 (Default Mill Post)
N15  G91.1
N20 G0  Z3.0000 
N25 M3 S4000 
N30  X44.1060  Y75.7992 
N35  Z0.1000 
N40 G1  Z-0.7000  F100.00 
N45  X41.2281  Y73.8849   F300.00 
N50  X37.9548  Y73.2019   
N55  X34.7462  Y73.7590   
N60  X32.0628  Y75.5651   
N65  X30.4682  Y77.7050   
N70  X29.4300  Y80.0051   
N75  X29.0199  Y82.2414   
N80  X29.3097  Y84.1894   
N85  X30.2846  Y85.4435   
N90  X31.5469  Y85.7164   
N95  X32.6397  Y85.0789   
N100  X33.1057  Y83.6016   
N105  X33.4550  Y81.1672   
N110  X34.4142  Y79.2023   
N115  X35.8495  Y77.8895   
N120  X37.6280  Y77.4113   
N125  X39.3968  Y77.6920   
N130  X40.8079  Y78.4495   
N135  X41.8277  Y79.5581   
N140  X42.4223  Y80.8913   
N145  X42.5593  Y82.3228   
N150  X42.2041  Y83.7267   
N155  X41.3245  Y84.9766   
N160  X39.8862  Y85.9461   
N165  X38.2670  Y87.2215   
N170  X37.3560  Y88.8948   
N175  X37.3359  Y90.3501   
N180  X38.3900  Y90.9720   
N185  X39.9992  Y90.5929   
N190  X41.9732  Y89.6210   
N195  X45.3293  Y86.8900   
N200  X46.4576  Y84.3497   
N205  X46.5939  Y81.3307   
N210  X45.7923  Y78.3185   
N215  X44.1060  Y75.7992   
N220 G0  Z0.1000 
N225 G1  Z-1.4000  F100.00 
N230  X41.2281  Y73.8849   F300.00 
N235  X37.9548  Y73.2019   
N240  X34.7462  Y73.7590   
N245  X32.0628  Y75.5651   
N250  X30.4682  Y77.7050   
N255  X29.4300  Y80.0051   
N260  X29.0199  Y82.2414   
N265  X29.3097  Y84.1894   
N270  X30.2846  Y85.4435   
N275  X31.5469  Y85.7164   
N280  X32.6397  Y85.0789   
N285  X33.1057  Y83.6016   
N290  X33.4550  Y81.1672   
N295  X34.4142  Y79.2023   
N300  X35.8495  Y77.8895   
N305  X37.6280  Y77.4113   
N310  X39.3968  Y77.6920   
N315  X40.8079  Y78.4495   
N320  X41.8277  Y79.5581   
N325  X42.4223  Y80.8913   
N330  X42.5593  Y82.3228   
N335  X42.2041  Y83.7267   
N340  X41.3245  Y84.9766   
N345  X39.8862  Y85.9461   
N350  X38.2670  Y87.2215   
N355  X37.3560  Y88.8948   
N360  X37.3359  Y90.3501   
N365  X38.3900  Y90.9720   
N370  X39.9992  Y90.5929   
N375  X41.9732  Y89.6210   
N380  X45.3293  Y86.8900   
N385  X46.4576  Y84.3497   
N390  X46.5939  Y81.3307   
N395  X45.7923  Y78.3185   
N400  X44.1060  Y75.7992   
N405 G0  Z3.0000 
N410  X30.4871  Y96.8201 
N415  Z0.1000 
N420 G1  Z-0.7000  F100.00 
N425  X23.2022  Y94.2754   F300.00 
N430  X21.9207  Y94.5238   
N435  X21.2542  Y95.6658   
N440  X21.4402  Y96.8198   
N445  X22.9024  Y98.0461   
N450  X29.8821  Y100.8519   
N455  X31.0954  Y101.3735   
N460  X31.7062  Y102.1532   
N465  X31.5253  Y105.6701   
N470  X31.2926  Y108.8834   
N475  X31.6300  Y109.5514   
N480  X32.2994  Y109.7483   
N485  X33.7016  Y108.7424   
N490  X35.3438  Y106.3328   
N495  X36.7084  Y103.4332   
N500  X37.2782  Y100.9574   
N505  X35.2835  Y99.1570   
N510  X30.4871  Y96.8201   
N515 G0  Z0.1000 
N520 G1  Z-1.4000  F100.00 
N525  X23.2022  Y94.2754   F300.00 
N530  X21.9207  Y94.5238   
N535  X21.2542  Y95.6658   
N540  X21.4402  Y96.8198   
N545  X22.9024  Y98.0461   
N550  X29.8821  Y100.8519   
N555  X31.0954  Y101.3735   
N560  X31.7062  Y102.1532   
N565  X31.5253  Y105.6701   
N570  X31.2926  Y108.8834   
N575  X31.6300  Y109.5514   
N580  X32.2994  Y109.7483   
N585  X33.7016  Y108.7424   
N590  X35.3438  Y106.3328   
N595  X36.7084  Y103.4332   
N600  X37.2782  Y100.9574   
N605  X35.2835  Y99.1570   
N610  X30.4871  Y96.8201   
N615 G0  Z3.0000 
N620  X29.0382  Y115.5805 
N625  Z0.1000 
N630 G1  Z-0.7000  F100.00 
N635  X26.0725  Y113.9010   F300.00 
N640  X21.7240  Y112.3805   
N645  X17.0433  Y111.4843   
N650  X16.0566  Y111.8926   
N655  X15.3472  Y112.9252   
N660  X14.9457  Y113.9888   
N665  X15.2458  Y114.7387   
N670  X18.7494  Y116.0255   
N675  X25.8871  Y118.1855   
N680  X26.7032  Y119.1288   
N685  X26.6470  Y120.5300   
N690  X26.0225  Y121.9689   
N695  X24.4686  Y122.6357   
N700  X21.6779  Y122.5736   
N705  X17.3437  Y121.8246   
N710  X14.2088  Y121.5443   
N715  X13.4163  Y121.9384   
N720  X12.9305  Y122.7320   
N725  X13.0003  Y124.0739   
N730  X14.4297  Y125.1875   
N735  X17.3481  Y126.1337   
N740  X21.8846  Y126.9743   
N745  X26.1700  Y127.1553   
N750  X27.5299  Y126.5932   
N755  X28.8304  Y125.4982   
N760  X30.3813  Y123.1318   
N765  X30.9389  Y120.4059   
N770  X30.4942  Y117.7470   
N775  X29.0382  Y115.5805   
N780 G0  Z0.1000 
N785 G1  Z-1.4000  F100.00 
N790  X26.0725  Y113.9010   F300.00 
N795  X21.7240  Y112.3805   
N800  X17.0433  Y111.4843   
N805  X16.0566  Y111.8926   
N810  X15.3472  Y112.9252   
N815  X14.9457  Y113.9888   
N820  X15.2458  Y114.7387   
N825  X18.7494  Y116.0255   
N830  X25.8871  Y118.1855   
N835  X26.7032  Y119.1288   
N840  X26.6470  Y120.5300   
N845  X26.0225  Y121.9689   
N850  X24.4686  Y122.6357   
N855  X21.6779  Y122.5736   
N860  X17.3437  Y121.8246   
N865  X14.2088  Y121.5443   
N870  X13.4163  Y121.9384   
N875  X12.9305  Y122.7320   
N880  X13.0003  Y124.0739   
N885  X14.4297  Y125.1875   
N890  X17.3481  Y126.1337   
N895  X21.8846  Y126.9743   
N900  X26.1700  Y127.1553   
N905  X27.5299  Y126.5932   
N910  X28.8304  Y125.4982   
N915  X30.3813  Y123.1318   
N920  X30.9389  Y120.4059   
N925  X30.4942  Y117.7470   
N930  X29.0382  Y115.5805   
N935 G0  Z3.0000 
N940  X27.7011  Y140.8552 
N945  Z0.1000 
N950 G1  Z-0.7000  F100.00 
N955  X27.3685  Y137.3912   F300.00 
N960  X18.7627  Y137.0884   
N965  X10.1570  Y136.7853   
N970  Y140.8383   
N975  X10.6617  Y144.0803   
N980  X12.0219  Y146.5419   
N985  X14.0054  Y147.9550   
N990  X16.3803  Y148.0511   
N995  X18.0489  Y147.9373   
N1000  X19.0841  Y148.4420   
N1005  X20.2376  Y149.1097   
N1010  X22.1904  Y149.3873   
N1015  X24.5083  Y148.6815   
N1020  X26.3478  Y146.7947   
N1025  X27.4862  Y144.0711   
N1030  X27.7011  Y140.8552   
N1035 G0  Z0.1000 
N1040 G1  Z-1.4000  F100.00 
N1045  X27.3685  Y137.3912   F300.00 
N1050  X18.7627  Y137.0884   
N1055  X10.1570  Y136.7853   
N1060  Y140.8383   
N1065  X10.6617  Y144.0803   
N1070  X12.0219  Y146.5419   
N1075  X14.0054  Y147.9550   
N1080  X16.3803  Y148.0511   
N1085  X18.0489  Y147.9373   
N1090  X19.0841  Y148.4420   
N1095  X20.2376  Y149.1097   
N1100  X22.1904  Y149.3873   
N1105  X24.5083  Y148.6815   
N1110  X26.3478  Y146.7947   
N1115  X27.4862  Y144.0711   
N1120  X27.7011  Y140.8552   
N1125 G0  Z3.0000 
N1130  X20.5883  Y143.1284 
N1135  Z0.1000 
N1140 G1  Z-0.7000  F100.00 
N1145  X21.0446  Y144.6063   F300.00 
N1150  X22.1531  Y145.2145   
N1155  X23.2613  Y144.6063   
N1160  X23.7176  Y143.1284   
N1165  X23.2613  Y141.6506   
N1170  X22.1531  Y141.0421   
N1175  X21.0446  Y141.6506   
N1180  X20.5883  Y143.1284   
N1185 G0  Z0.1000 
N1190 G1  Z-1.4000  F100.00 
N1195  X21.0446  Y144.6063   F300.00 
N1200  X22.1531  Y145.2145   
N1205  X23.2613  Y144.6063   
N1210  X23.7176  Y143.1284   
N1215  X23.2613  Y141.6506   
N1220  X22.1531  Y141.0421   
N1225  X21.0446  Y141.6506   
N1230  X20.5883  Y143.1284   
N1235 G0  Z3.0000 
N1240  X14.3294  Y142.6938 
N1245  Z0.1000 
N1250 G1  Z-0.7000  F100.00 
N1255  X14.6905  Y143.6784   F300.00 
N1260  X15.5329  Y143.9035   
N1265  X16.4962  Y143.4203   
N1270  X17.2198  Y142.2810   
N1275  X17.0264  Y141.4061   
N1280  X15.9812  Y141.0421   
N1285  X14.8147  Y141.5273   
N1290  X14.3294  Y142.6938   
N1295 G0  Z0.1000 
N1300 G1  Z-1.4000  F100.00 
N1305  X14.6905  Y143.6784   F300.00 
N1310  X15.5329  Y143.9035   
N1315  X16.4962  Y143.4203   
N1320  X17.2198  Y142.2810   
N1325  X17.0264  Y141.4061   
N1330  X15.9812  Y141.0421   
N1335  X14.8147  Y141.5273   
N1340  X14.3294  Y142.6938   
N1345 G0  Z3.0000 
N1350  X28.9333  Y172.1921 
N1355  Z0.1000 
N1360 G1  Z-0.7000  F100.00 
N1365  X28.6592  Y170.9378   F300.00 
N1370  X27.3779  Y170.4567   
N1375  X19.0356  Y171.6673   
N1380  X14.1346  Y173.0026   
N1385  X12.9403  Y173.7749   
N1390  X12.4397  Y174.6830   
N1395  X12.7126  Y175.9554   
N1400  X14.3661  Y176.4740   
N1405  X17.7021  Y176.2564   
N1410  X23.0221  Y175.3214   
N1415  X27.7195  Y173.9793   
N1420  X28.6627  Y173.1936   
N1425  X28.9333  Y172.1921   
N1430 G0  Z0.1000 
N1435 G1  Z-1.4000  F100.00 
N1440  X28.6592  Y170.9378   F300.00 
N1445  X27.3779  Y170.4567   
N1450  X19.0356  Y171.6673   
N1455  X14.1346  Y173.0026   
N1460  X12.9403  Y173.7749   
N1465  X12.4397  Y174.6830   
N1470  X12.7126  Y175.9554   
N1475  X14.3661  Y176.4740   
N1480  X17.7021  Y176.2564   
N1485  X23.0221  Y175.3214   
N1490  X27.7195  Y173.9793   
N1495  X28.6627  Y173.1936   
N1500  X28.9333  Y172.1921   
N1505 G0  Z3.0000 
N1510  X32.0572  Y185.6360 
N1515  Z0.1000 
N1520 G1  Z-0.7000  F100.00 
N1525  X31.5655  Y184.3130   F300.00 
N1530  X29.4552  Y184.2332   
N1535  X24.7892  Y185.5694   
N1540  X16.6317  Y188.4962   
N1545  X15.9170  Y188.9648   
N1550  X15.7029  Y189.6100   
N1555  X16.5752  Y191.2183   
N1560  X18.8455  Y192.8987   
N1565  X22.1108  Y194.2299   
N1570  X25.4557  Y195.3715   
N1575  X26.8472  Y196.2539   
N1580  X25.7747  Y197.1347   
N1585  X23.1960  Y198.2723   
N1590  X21.0514  Y199.3566   
N1595  X19.7867  Y200.6354   
N1600  X19.5220  Y201.9093   
N1605  X20.3772  Y202.9779   
N1610  X23.1856  Y202.5494   
N1615  X28.7689  Y200.7978   
N1620  X33.9958  Y198.5718   
N1625  X35.3663  Y197.5866   
N1630  X35.9145  Y196.6460   
N1635  X35.6445  Y195.7199   
N1640  X34.5614  Y194.7778   
N1645  X29.9723  Y192.7242   
N1650  X24.2566  Y190.6698   
N1655  X28.1544  Y189.0657   
N1660  X31.0046  Y187.4018   
N1665  X32.0572  Y185.6360   
N1670 G0  Z0.1000 
N1675 G1  Z-1.4000  F100.00 
N1680  X31.5655  Y184.3130   F300.00 
N1685  X29.4552  Y184.2332   
N1690  X24.7892  Y185.5694   
N1695  X16.6317  Y188.4962   
N1700  X15.9170  Y188.9648   
N1705  X15.7029  Y189.6100   
N1710  X16.5752  Y191.2183   
N1715  X18.8455  Y192.8987   
N1720  X22.1108  Y194.2299   
N1725  X25.4557  Y195.3715   
N1730  X26.8472  Y196.2539   
N1735  X25.7747  Y197.1347   
N1740  X23.1960  Y198.2723   
N1745  X21.0514  Y199.3566   
N1750  X19.7867  Y200.6354   
N1755  X19.5220  Y201.9093   
N1760  X20.3772  Y202.9779   
N1765  X23.1856  Y202.5494   
N1770  X28.7689  Y200.7978   
N1775  X33.9958  Y198.5718   
N1780  X35.3663  Y197.5866   
N1785  X35.9145  Y196.6460   
N1790  X35.6445  Y195.7199   
N1795  X34.5614  Y194.7778   
N1800  X29.9723  Y192.7242   
N1805  X24.2566  Y190.6698   
N1810  X28.1544  Y189.0657   
N1815  X31.0046  Y187.4018   
N1820  X32.0572  Y185.6360   
N1825 G0  Z3.0000 
N1830  X42.9286  Y210.5594 
N1835  Z0.1000 
N1840 G1  Z-0.7000  F100.00 
N1845  X42.2958  Y209.3228   F300.00 
N1850  X41.2881  Y209.0635   
N1855  X35.7273  Y211.9429   
N1860  X31.3488  Y214.1396   
N1865  X30.3130  Y214.1351   
N1870  X29.6775  Y213.4900   
N1875  X28.6346  Y212.4216   
N1880  X27.3516  Y212.0148   
N1885  X26.2623  Y212.2924   
N1890  X25.8010  Y213.2788   
N1895  X26.5692  Y216.0858   
N1900  X28.4069  Y219.4466   
N1905  X30.6001  Y222.2660   
N1910  X32.4348  Y223.4491   
N1915  X33.8494  Y222.9358   
N1920  X33.7447  Y220.9381   
N1925  X33.5925  Y219.5336   
N1930  X34.1052  Y218.3653   
N1935  X38.0651  Y215.5695   
N1940  X43.3008  Y212.4932   
N1945  X42.9286  Y210.5594   
N1950 G0  Z0.1000 
N1955 G1  Z-1.4000  F100.00 
N1960  X42.2958  Y209.3228   F300.00 
N1965  X41.2881  Y209.0635   
N1970  X35.7273  Y211.9429   
N1975  X31.3488  Y214.1396   
N1980  X30.3130  Y214.1351   
N1985  X29.6775  Y213.4900   
N1990  X28.6346  Y212.4216   
N1995  X27.3516  Y212.0148   
N2000  X26.2623  Y212.2924   
N2005  X25.8010  Y213.2788   
N2010  X26.5692  Y216.0858   
N2015  X28.4069  Y219.4466   
N2020  X30.6001  Y222.2660   
N2025  X32.4348  Y223.4491   
N2030  X33.8494  Y222.9358   
N2035  X33.7447  Y220.9381   
N2040  X33.5925  Y219.5336   
N2045  X34.1052  Y218.3653   
N2050  X38.0651  Y215.5695   
N2055  X43.3008  Y212.4932   
N2060  X42.9286  Y210.5594   
N2065 G0  Z3.0000 
N2070  X53.8726  Y226.4577 
N2075  Z0.1000 
N2080 G1  Z-0.7000  F100.00 
N2085  X49.9689  Y222.4139   F300.00 
N2090  X43.2677  Y227.2114   
N2095  X37.2782  Y232.5626   
N2100  X39.9391  Y236.6508   
N2105  X42.8481  Y239.4634   
N2110  X44.0549  Y240.0098   
N2115  X44.9792  Y240.0213   
N2120  X45.5330  Y239.5269   
N2125  X45.6291  Y238.5547   
N2130  X44.0954  Y235.2927   
N2135  X43.1876  Y233.5235   
N2140  X43.2748  Y232.5099   
N2145  X44.1888  Y232.4357   
N2150  X45.7607  Y233.4830   
N2155  X47.5638  Y234.4943   
N2160  X49.2717  Y234.5475   
N2165  X50.1088  Y234.1356   
N2170  X50.3856  Y233.6149   
N2175  X49.2540  Y231.3881   
N2180  X48.2888  Y229.2443   
N2185  X48.6413  Y228.2546   
N2190  X49.9344  Y228.5728   
N2195  X51.7925  Y230.3526   
N2200  X53.8419  Y232.3334   
N2205  X54.6432  Y232.3508   
N2210  X55.5188  Y231.8062   
N2215  X56.2275  Y230.9901   
N2220  X56.2521  Y230.0303   
N2225  X53.8726  Y226.4577   
N2230 G0  Z0.1000 
N2235 G1  Z-1.4000  F100.00 
N2240  X49.9689  Y222.4139   F300.00 
N2245  X43.2677  Y227.2114   
N2250  X37.2782  Y232.5626   
N2255  X39.9391  Y236.6508   
N2260  X42.8481  Y239.4634   
N2265  X44.0549  Y240.0098   
N2270  X44.9792  Y240.0213   
N2275  X45.5330  Y239.5269   
N2280  X45.6291  Y238.5547   
N2285  X44.0954  Y235.2927   
N2290  X43.1876  Y233.5235   
N2295  X43.2748  Y232.5099   
N2300  X44.1888  Y232.4357   
N2305  X45.7607  Y233.4830   
N2310  X47.5638  Y234.4943   
N2315  X49.2717  Y234.5475   
N2320  X50.1088  Y234.1356   
N2325  X50.3856  Y233.6149   
N2330  X49.2540  Y231.3881   
N2335  X48.2888  Y229.2443   
N2340  X48.6413  Y228.2546   
N2345  X49.9344  Y228.5728   
N2350  X51.7925  Y230.3526   
N2355  X53.8419  Y232.3334   
N2360  X54.6432  Y232.3508   
N2365  X55.5188  Y231.8062   
N2370  X56.2275  Y230.9901   
N2375  X56.2521  Y230.0303   
N2380  X53.8726  Y226.4577   
N2385 G0  Z3.0000 
N2390  X65.2268  Y239.2975 
N2395  Z0.1000 
N2400 G1  Z-0.7000  F100.00 
N2405  X63.9938  Y238.3371   F300.00 
N2410  X62.6943  Y238.5662   
N2415  X60.6691  Y240.3927   
N2420  X57.2595  Y244.2234   
N2425  X51.8924  Y250.3938   
N2430  X55.0968  Y253.0899   
N2435  X58.8615  Y255.3082   
N2440  X60.6079  Y255.6908   
N2445  X62.1792  Y255.6074   
N2450  X63.5118  Y255.0717   
N2455  X64.5423  Y254.0965   
N2460  X65.2070  Y252.6961   
N2465  X65.4427  Y250.8835   
N2470  X65.5684  Y249.6987   
N2475  X66.0169  Y248.9615   
N2480  X68.3115  Y248.4683   
N2485  X70.9922  Y248.2164   
N2490  X72.6374  Y247.5602   
N2495  X73.1188  Y246.5975   
N2500  X72.3086  Y245.4260   
N2505  X70.0194  Y244.6199   
N2510  X66.2612  Y244.8544   
N2515  X61.7918  Y245.5927   
N2520  X64.1316  Y243.0672   
N2525  X65.7201  Y240.8102   
N2530  X65.7171  Y240.0181   
N2535  X65.2268  Y239.2975   
N2540 G0  Z0.1000 
N2545 G1  Z-1.4000  F100.00 
N2550  X63.9938  Y238.3371   F300.00 
N2555  X62.6943  Y238.5662   
N2560  X60.6691  Y240.3927   
N2565  X57.2595  Y244.2234   
N2570  X51.8924  Y250.3938   
N2575  X55.0968  Y253.0899   
N2580  X58.8615  Y255.3082   
N2585  X60.6079  Y255.6908   
N2590  X62.1792  Y255.6074   
N2595  X63.5118  Y255.0717   
N2600  X64.5423  Y254.0965   
N2605  X65.2070  Y252.6961   
N2610  X65.4427  Y250.8835   
N2615  X65.5684  Y249.6987   
N2620  X66.0169  Y248.9615   
N2625  X68.3115  Y248.4683   
N2630  X70.9922  Y248.2164   
N2635  X72.6374  Y247.5602   
N2640  X73.1188  Y246.5975   
N2645  X72.3086  Y245.4260   
N2650  X70.0194  Y244.6199   
N2655  X66.2612  Y244.8544   
N2660  X61.7918  Y245.5927   
N2665  X64.1316  Y243.0672   
N2670  X65.7201  Y240.8102   
N2675  X65.7171  Y240.0181   
N2680  X65.2268  Y239.2975   
N2685 G0  Z3.0000 
N2690  X58.1409  Y250.0491 
N2695  Z0.1000 
N2700 G1  Z-0.7000  F100.00 
N2705  X58.7708  Y251.1685   F300.00 
N2710  X60.3548  Y251.6136   
N2715  X61.9131  Y251.3214   
N2720  X61.2702  Y250.0491   
N2725  X59.0564  Y248.4843   
N2730  X58.4097  Y248.9438   
N2735  X58.1409  Y250.0491   
N2740 G0  Z0.1000 
N2745 G1  Z-1.4000  F100.00 
N2750  X58.7708  Y251.1685   F300.00 
N2755  X60.3548  Y251.6136   
N2760  X61.9131  Y251.3214   
N2765  X61.2702  Y250.0491   
N2770  X59.0564  Y248.4843   
N2775  X58.4097  Y248.9438   
N2780  X58.1409  Y250.0491   
N2785 G0  Z3.0000 
N2790  X83.1720  Y253.5506 
N2795  Z0.1000 
N2800 G1  Z-0.7000  F100.00 
N2805  X82.6433  Y252.5172   F300.00 
N2810  X81.3730  Y252.2786   
N2815  X79.8588  Y252.7872   
N2820  X78.5988  Y253.9942   
N2825  X72.7862  Y263.7336   
N2830  X72.2019  Y265.5663   
N2835  X72.6224  Y266.5125   
N2840  X73.9660  Y266.9371   
N2845  X76.3883  Y266.7142   
N2850  X83.9032  Y264.4294   
N2855  X84.5443  Y264.3504   
N2860  X84.6620  Y264.8732   
N2865  X83.2518  Y268.1548   
N2870  X82.0076  Y271.2527   
N2875  X82.1116  Y272.6327   
N2880  X84.2205  Y272.8935   
N2885  X86.1845  Y270.9753   
N2890  X89.4394  Y266.2174   
N2895  X92.6568  Y260.3725   
N2900  X92.6296  Y259.2350   
N2905  X91.7224  Y258.5839   
N2910  X88.9125  Y258.4892   
N2915  X84.4171  Y259.7873   
N2920  X79.0033  Y261.4485   
N2925  X81.0859  Y257.6368   
N2930  X83.1720  Y253.5506   
N2935 G0  Z0.1000 
N2940 G1  Z-1.4000  F100.00 
N2945  X82.6433  Y252.5172   F300.00 
N2950  X81.3730  Y252.2786   
N2955  X79.8588  Y252.7872   
N2960  X78.5988  Y253.9942   
N2965  X72.7862  Y263.7336   
N2970  X72.2019  Y265.5663   
N2975  X72.6224  Y266.5125   
N2980  X73.9660  Y266.9371   
N2985  X76.3883  Y266.7142   
N2990  X83.9032  Y264.4294   
N2995  X84.5443  Y264.3504   
N3000  X84.6620  Y264.8732   
N3005  X83.2518  Y268.1548   
N3010  X82.0076  Y271.2527   
N3015  X82.1116  Y272.6327   
N3020  X84.2205  Y272.8935   
N3025  X86.1845  Y270.9753   
N3030  X89.4394  Y266.2174   
N3035  X92.6568  Y260.3725   
N3040  X92.6296  Y259.2350   
N3045  X91.7224  Y258.5839   
N3050  X88.9125  Y258.4892   
N3055  X84.4171  Y259.7873   
N3060  X79.0033  Y261.4485   
N3065  X81.0859  Y257.6368   
N3070  X83.1720  Y253.5506   
N3075 G0  Z3.0000 
N3080  X99.1215  Y246.4115 
N3085  Z0.1000 
N3090 G1  Z-0.7000  F100.00 
N3095  X92.9744  Y243.4620   F300.00 
N3100  X89.0938  Y242.2488   
N3105  X87.4737  Y242.5338   
N3110  X89.4158  Y244.2612   
N3115  X93.8961  Y247.0407   
N3120  X100.5671  Y250.4435   
N3125  X108.0531  Y253.8120   
N3130  X114.9776  Y256.4874   
N3135  X123.0127  Y258.8364   
N3140  X131.3831  Y260.5396   
N3145  X139.9838  Y261.5961   
N3150  X148.7093  Y262.0050   
N3155  X157.4540  Y261.7649   
N3160  X166.1130  Y260.8752   
N3165  X174.5807  Y259.3346   
N3170  X182.7515  Y257.1421   
N3175  X190.2023  Y254.4238   
N3180  X198.2847  Y250.9148   
N3185  X205.5247  Y247.3009   
N3190  X210.4479  Y244.2674   
N3195  X212.1809  Y242.4333   
N3200  X211.8264  Y242.1444   
N3205  X210.7658  Y242.2511   
N3210  X206.8517  Y243.5811   
N3215  X201.0866  Y246.2835   
N3220  X188.5665  Y251.8439   
N3225  X175.7070  Y255.8203   
N3230  X162.6458  Y258.2128   
N3235  X149.5198  Y259.0215   
N3240  X136.4668  Y258.2459   
N3245  X123.6247  Y255.8857   
N3250  X111.1304  Y251.9409   
N3255  X99.1215  Y246.4115   
N3260 G0  Z0.1000 
N3265 G1  Z-1.4000  F100.00 
N3270  X92.9744  Y243.4620   F300.00 
N3275  X89.0938  Y242.2488   
N3280  X87.4737  Y242.5338   
N3285  X89.4158  Y244.2612   
N3290  X93.8961  Y247.0407   
N3295  X100.5671  Y250.4435   
N3300  X108.0531  Y253.8120   
N3305  X114.9776  Y256.4874   
N3310  X123.0127  Y258.8364   
N3315  X131.3831  Y260.5396   
N3320  X139.9838  Y261.5961   
N3325  X148.7093  Y262.0050   
N3330  X157.4540  Y261.7649   
N3335  X166.1130  Y260.8752   
N3340  X174.5807  Y259.3346   
N3345  X182.7515  Y257.1421   
N3350  X190.2023  Y254.4238   
N3355  X198.2847  Y250.9148   
N3360  X205.5247  Y247.3009   
N3365  X210.4479  Y244.2674   
N3370  X212.1809  Y242.4333   
N3375  X211.8264  Y242.1444   
N3380  X210.7658  Y242.2511   
N3385  X206.8517  Y243.5811   
N3390  X201.0866  Y246.2835   
N3395  X188.5665  Y251.8439   
N3400  X175.7070  Y255.8203   
N3405  X162.6458  Y258.2128   
N3410  X149.5198  Y259.0215   
N3415  X136.4668  Y258.2459   
N3420  X123.6247  Y255.8857   
N3425  X111.1304  Y251.9409   
N3430  X99.1215  Y246.4115   
N3435 G0  Z3.0000 
N3440  X103.8224  Y265.7555 
N3445  Z0.1000 
N3450 G1  Z-0.7000  F100.00 
N3455  X103.0240  Y264.1440   F300.00 
N3460  X101.5334  Y263.2525   
N3465  X100.4769  Y263.2019   
N3470  X99.9669  Y263.8108   
N3475  X100.2206  Y268.4575   
N3480  X100.9001  Y277.4637   
N3485  X101.4205  Y280.6355   
N3490  X102.0929  Y281.3473   
N3495  X103.0669  Y281.4720   
N3500  X106.0004  Y279.9492   
N3505  X110.3820  Y276.0432   
N3510  X116.5560  Y269.2302   
N3515  X115.9735  Y268.2949   
N3520  X114.5876  Y267.8466   
N3525  X112.9420  Y267.9475   
N3530  X111.5801  Y268.6598   
N3535  X109.5756  Y269.4703   
N3540  X107.1025  Y269.0649   
N3545  X104.9286  Y267.7307   
N3550  X103.8224  Y265.7555   
N3555 G0  Z0.1000 
N3560 G1  Z-1.4000  F100.00 
N3565  X103.0240  Y264.1440   F300.00 
N3570  X101.5334  Y263.2525   
N3575  X100.4769  Y263.2019   
N3580  X99.9669  Y263.8108   
N3585  X100.2206  Y268.4575   
N3590  X100.9001  Y277.4637   
N3595  X101.4205  Y280.6355   
N3600  X102.0929  Y281.3473   
N3605  X103.0669  Y281.4720   
N3610  X106.0004  Y279.9492   
N3615  X110.3820  Y276.0432   
N3620  X116.5560  Y269.2302   
N3625  X115.9735  Y268.2949   
N3630  X114.5876  Y267.8466   
N3635  X112.9420  Y267.9475   
N3640  X111.5801  Y268.6598   
N3645  X109.5756  Y269.4703   
N3650  X107.1025  Y269.0649   
N3655  X104.9286  Y267.7307   
N3660  X103.8224  Y265.7555   
N3665 G0  Z3.0000 
N3670  X104.3863  Y274.0697 
N3675  Z0.1000 
N3680 G1  Z-0.7000  F100.00 
N3685  X104.6947  Y275.0411   F300.00 
N3690  X105.4212  Y275.2779   
N3695  X106.2657  Y274.8220   
N3700  X106.9289  Y273.7149   
N3705  X106.7864  Y272.8400   
N3710  X105.8638  Y272.4763   
N3715  X104.8203  Y272.9443   
N3720  X104.3863  Y274.0697   
N3725 G0  Z0.1000 
N3730 G1  Z-1.4000  F100.00 
N3735  X104.6947  Y275.0411   F300.00 
N3740  X105.4212  Y275.2779   
N3745  X106.2657  Y274.8220   
N3750  X106.9289  Y273.7149   
N3755  X106.7864  Y272.8400   
N3760  X105.8638  Y272.4763   
N3765  X104.8203  Y272.9443   
N3770  X104.3863  Y274.0697   
N3775 G0  Z3.0000 
N3780  X136.1434  Y273.0570 
N3785  Z0.1000 
N3790 G1  Z-0.7000  F100.00 
N3795  X133.8793  Y271.9150   F300.00 
N3800  X131.4786  Y271.4600   
N3805  X129.0761  Y271.6300   
N3810  X126.8070  Y272.3624   
N3815  X124.8069  Y273.5952   
N3820  X123.2108  Y275.2658   
N3825  X122.1540  Y277.3123   
N3830  X121.7716  Y279.6725   
N3835  X122.1519  Y282.1524   
N3840  X123.1966  Y284.3512   
N3845  X124.7623  Y286.1892   
N3850  X126.7049  Y287.5869   
N3855  X128.8809  Y288.4651   
N3860  X131.1465  Y288.7442   
N3865  X133.3580  Y288.3448   
N3870  X135.3713  Y287.1871   
N3875  X137.1685  Y285.2557   
N3880  X137.0925  Y284.6315   
N3885  X136.4317  Y284.0445   
N3890  X134.8151  Y283.5812   
N3895  X133.0020  Y284.0812   
N3900  X131.3748  Y284.6016   
N3905  X129.8032  Y284.5011   
N3910  X128.3845  Y283.8920   
N3915  X127.2162  Y282.8869   
N3920  X126.3959  Y281.5986   
N3925  X126.0213  Y280.1391   
N3930  X126.1896  Y278.6210   
N3935  X126.9986  Y277.1567   
N3940  X128.5932  Y276.0411   
N3945  X130.6249  Y275.6594   
N3950  X132.6530  Y276.0139   
N3955  X134.2376  Y277.1082   
N3960  X135.5011  Y277.9658   
N3965  X136.8861  Y278.0157   
N3970  X138.0030  Y277.3537   
N3975  X138.4616  Y276.0748   
N3980  X137.7806  Y274.6132   
N3985  X136.1434  Y273.0570   
N3990 G0  Z0.1000 
N3995 G1  Z-1.4000  F100.00 
N4000  X133.8793  Y271.9150   F300.00 
N4005  X131.4786  Y271.4600   
N4010  X129.0761  Y271.6300   
N4015  X126.8070  Y272.3624   
N4020  X124.8069  Y273.5952   
N4025  X123.2108  Y275.2658   
N4030  X122.1540  Y277.3123   
N4035  X121.7716  Y279.6725   
N4040  X122.1519  Y282.1524   
N4045  X123.1966  Y284.3512   
N4050  X124.7623  Y286.1892   
N4055  X126.7049  Y287.5869   
N4060  X128.8809  Y288.4651   
N4065  X131.1465  Y288.7442   
N4070  X133.3580  Y288.3448   
N4075  X135.3713  Y287.1871   
N4080  X137.1685  Y285.2557   
N4085  X137.0925  Y284.6315   
N4090  X136.4317  Y284.0445   
N4095  X134.8151  Y283.5812   
N4100  X133.0020  Y284.0812   
N4105  X131.3748  Y284.6016   
N4110  X129.8032  Y284.5011   
N4115  X128.3845  Y283.8920   
N4120  X127.2162  Y282.8869   
N4125  X126.3959  Y281.5986   
N4130  X126.0213  Y280.1391   
N4135  X126.1896  Y278.6210   
N4140  X126.9986  Y277.1567   
N4145  X128.5932  Y276.0411   
N4150  X130.6249  Y275.6594   
N4155  X132.6530  Y276.0139   
N4160  X134.2376  Y277.1082   
N4165  X135.5011  Y277.9658   
N4170  X136.8861  Y278.0157   
N4175  X138.0030  Y277.3537   
N4180  X138.4616  Y276.0748   
N4185  X137.7806  Y274.6132   
N4190  X136.1434  Y273.0570   
N4195 G0  Z3.0000 
N4200  X151.8037  Y281.6876 
N4205  Z0.1000 
N4210 G1  Z-0.7000  F100.00 
N4215  X151.4545  Y276.7859   F300.00 
N4220  X150.8108  Y273.7613   
N4225  X149.8542  Y272.5653   
N4230  X148.5671  Y273.1498   
N4235  X148.0606  Y276.0568   
N4240  X147.8497  Y282.0383   
N4245  X148.1785  Y288.9474   
N4250  X148.8181  Y289.9915   
N4255  X149.9781  Y290.2094   
N4260  X151.1443  Y290.0003   
N4265  X151.7449  Y288.9415   
N4270  X151.8037  Y281.6876   
N4275 G0  Z0.1000 
N4280 G1  Z-1.4000  F100.00 
N4285  X151.4545  Y276.7859   F300.00 
N4290  X150.8108  Y273.7613   
N4295  X149.8542  Y272.5653   
N4300  X148.5671  Y273.1498   
N4305  X148.0606  Y276.0568   
N4310  X147.8497  Y282.0383   
N4315  X148.1785  Y288.9474   
N4320  X148.8181  Y289.9915   
N4325  X149.9781  Y290.2094   
N4330  X151.1443  Y290.0003   
N4335  X151.7449  Y288.9415   
N4340  X151.8037  Y281.6876   
N4345 G0  Z3.0000 
N4350  X165.5456  Y277.7617 
N4355  Z0.1000 
N4360 G1  Z-0.7000  F100.00 
N4365  X164.9782  Y279.9974   F300.00 
N4370  X166.0545  Y282.4558   
N4375  X167.3239  Y284.0922   
N4380  X168.5492  Y284.8373   
N4385  X169.9910  Y284.7563   
N4390  X171.9103  Y283.9139   
N4395  X173.2510  Y282.5717   
N4400  X173.8577  Y280.6515   
N4405  X173.6821  Y278.5985   
N4410  X172.6762  Y276.8572   
N4415  X170.9109  Y275.8341   
N4420  X168.8505  Y275.6798   
N4425  X166.9200  Y276.3403   
N4430  X165.5456  Y277.7617   
N4435 G0  Z0.1000 
N4440 G1  Z-1.4000  F100.00 
N4445  X164.9782  Y279.9974   F300.00 
N4450  X166.0545  Y282.4558   
N4455  X167.3239  Y284.0922   
N4460  X168.5492  Y284.8373   
N4465  X169.9910  Y284.7563   
N4470  X171.9103  Y283.9139   
N4475  X173.2510  Y282.5717   
N4480  X173.8577  Y280.6515   
N4485  X173.6821  Y278.5985   
N4490  X172.6762  Y276.8572   
N4495  X170.9109  Y275.8341   
N4500  X168.8505  Y275.6798   
N4505  X166.9200  Y276.3403   
N4510  X165.5456  Y277.7617   
N4515 G0  Z3.0000 
N4520  X175.9385  Y274.1815 
N4525  Z0.1000 
N4530 G1  Z-0.7000  F100.00 
N4535  X174.1812  Y272.5437   F300.00 
N4540  X172.1345  Y271.5981   
N4545  X169.9262  Y271.3077   
N4550  X167.6855  Y271.6371   
N4555  X165.5397  Y272.5493   
N4560  X163.6171  Y274.0085   
N4565  X162.0461  Y275.9781   
N4570  X160.9550  Y278.4220   
N4575  X160.8873  Y281.0735   
N4580  X161.9689  Y283.8787   
N4585  X163.9296  Y286.3678   
N4590  X166.5001  Y288.0710   
N4595  X169.5347  Y288.7646   
N4600  X172.2989  Y288.3826   
N4605  X174.6626  Y287.1159   
N4610  X176.4962  Y285.1546   
N4615  X177.6701  Y282.6897   
N4620  X178.0551  Y279.9123   
N4625  X177.5210  Y277.0127   
N4630  X175.9385  Y274.1815   
N4635 G0  Z0.1000 
N4640 G1  Z-1.4000  F100.00 
N4645  X174.1812  Y272.5437   F300.00 
N4650  X172.1345  Y271.5981   
N4655  X169.9262  Y271.3077   
N4660  X167.6855  Y271.6371   
N4665  X165.5397  Y272.5493   
N4670  X163.6171  Y274.0085   
N4675  X162.0461  Y275.9781   
N4680  X160.9550  Y278.4220   
N4685  X160.8873  Y281.0735   
N4690  X161.9689  Y283.8787   
N4695  X163.9296  Y286.3678   
N4700  X166.5001  Y288.0710   
N4705  X169.5347  Y288.7646   
N4710  X172.2989  Y288.3826   
N4715  X174.6626  Y287.1159   
N4720  X176.4962  Y285.1546   
N4725  X177.6701  Y282.6897   
N4730  X178.0551  Y279.9123   
N4735  X177.5210  Y277.0127   
N4740  X175.9385  Y274.1815   
N4745 G0  Z3.0000 
N4750  X201.4560  Y271.9218 
N4755  Z0.1000 
N4760 G1  Z-0.7000  F100.00 
N4765  X197.9931  Y263.8034   F300.00 
N4770  X196.7885  Y263.5952   
N4775  X195.3713  Y264.9039   
N4780  X193.9351  Y267.4661   
N4785  X192.6740  Y271.0194   
N4790  X191.2822  Y275.9911   
N4795  X189.4282  Y271.6259   
N4800  X188.1245  Y269.0046   
N4805  X186.9432  Y267.5847   
N4810  X185.8678  Y267.3546   
N4815  X184.8817  Y268.3023   
N4820  X185.1179  Y271.1832   
N4825  X186.5901  Y276.6473   
N4830  X188.7203  Y282.0108   
N4835  X189.7049  Y283.4422   
N4840  X190.6556  Y284.0442   
N4845  X191.5864  Y283.8192   
N4850  X192.5119  Y282.7707   
N4855  X194.4061  Y278.2135   
N4860  X195.8855  Y274.1614   
N4865  X196.9020  Y272.4763   
N4870  X197.7548  Y273.7019   
N4875  X198.8397  Y276.6487   
N4880  X199.6981  Y279.1722   
N4885  X200.4988  Y280.4442   
N4890  X201.4669  Y280.6542   
N4895  X202.8280  Y279.9903   
N4900  X203.2881  Y279.2428   
N4905  X203.2339  Y277.7738   
N4910  X201.4560  Y271.9218   
N4915 G0  Z0.1000 
N4920 G1  Z-1.4000  F100.00 
N4925  X197.9931  Y263.8034   F300.00 
N4930  X196.7885  Y263.5952   
N4935  X195.3713  Y264.9039   
N4940  X193.9351  Y267.4661   
N4945  X192.6740  Y271.0194   
N4950  X191.2822  Y275.9911   
N4955  X189.4282  Y271.6259   
N4960  X188.1245  Y269.0046   
N4965  X186.9432  Y267.5847   
N4970  X185.8678  Y267.3546   
N4975  X184.8817  Y268.3023   
N4980  X185.1179  Y271.1832   
N4985  X186.5901  Y276.6473   
N4990  X188.7203  Y282.0108   
N4995  X189.7049  Y283.4422   
N5000  X190.6556  Y284.0442   
N5005  X191.5864  Y283.8192   
N5010  X192.5119  Y282.7707   
N5015  X194.4061  Y278.2135   
N5020  X195.8855  Y274.1614   
N5025  X196.9020  Y272.4763   
N5030  X197.7548  Y273.7019   
N5035  X198.8397  Y276.6487   
N5040  X199.6981  Y279.1722   
N5045  X200.4988  Y280.4442   
N5050  X201.4669  Y280.6542   
N5055  X202.8280  Y279.9903   
N5060  X203.2881  Y279.2428   
N5065  X203.2339  Y277.7738   
N5070  X201.4560  Y271.9218   
N5075 G0  Z3.0000 
N5080  X216.1183  Y262.1357 
N5085  Z0.1000 
N5090 G1  Z-0.7000  F100.00 
N5095  X215.9646  Y263.2776   F300.00 
N5100  X216.5784  Y264.4308   
N5105  X217.4785  Y264.8152   
N5110  X217.7393  Y263.2966   
N5115  X217.3336  Y261.1170   
N5120  X216.8268  Y261.2264   
N5125  X216.1183  Y262.1357   
N5130 G0  Z0.1000 
N5135 G1  Z-1.4000  F100.00 
N5140  X215.9646  Y263.2776   F300.00 
N5145  X216.5784  Y264.4308   
N5150  X217.4785  Y264.8152   
N5155  X217.7393  Y263.2966   
N5160  X217.3336  Y261.1170   
N5165  X216.8268  Y261.2264   
N5170  X216.1183  Y262.1357   
N5175 G0  Z3.0000 
N5180  X221.6540  Y260.2193 
N5185  Z0.1000 
N5190 G1  Z-0.7000  F100.00 
N5195  X220.6628  Y254.1660   F300.00 
N5200  X219.9017  Y251.6961   
N5205  X218.4927  Y252.0784   
N5210  X217.4918  Y252.7842   
N5215  X216.8945  Y253.8179   
N5220  X216.6961  Y255.1840   
N5225  X216.0645  Y257.1072   
N5230  X214.3862  Y258.5389   
N5235  X211.9846  Y259.3048   
N5240  X209.1841  Y259.2302   
N5245  X206.5129  Y259.1525   
N5250  X206.0693  Y259.5963   
N5255  X206.2148  Y260.3494   
N5260  X208.2542  Y262.7466   
N5265  X212.5949  Y266.2703   
N5270  X218.8940  Y270.4872   
N5275  X220.3878  Y270.8325   
N5280  X221.3887  Y270.2811   
N5285  X222.0517  Y269.1956   
N5290  X222.3095  Y267.4398   
N5295  X221.6540  Y260.2193   
N5300 G0  Z0.1000 
N5305 G1  Z-1.4000  F100.00 
N5310  X220.6628  Y254.1660   F300.00 
N5315  X219.9017  Y251.6961   
N5320  X218.4927  Y252.0784   
N5325  X217.4918  Y252.7842   
N5330  X216.8945  Y253.8179   
N5335  X216.6961  Y255.1840   
N5340  X216.0645  Y257.1072   
N5345  X214.3862  Y258.5389   
N5350  X211.9846  Y259.3048   
N5355  X209.1841  Y259.2302   
N5360  X206.5129  Y259.1525   
N5365  X206.0693  Y259.5963   
N5370  X206.2148  Y260.3494   
N5375  X208.2542  Y262.7466   
N5380  X212.5949  Y266.2703   
N5385  X218.8940  Y270.4872   
N5390  X220.3878  Y270.8325   
N5395  X221.3887  Y270.2811   
N5400  X222.0517  Y269.1956   
N5405  X222.3095  Y267.4398   
N5410  X221.6540  Y260.2193   
N5415 G0  Z3.0000 
N5420  X236.0984  Y241.3513 
N5425  Z0.1000 
N5430 G1  Z-0.7000  F100.00 
N5435  X235.0174  Y240.3371   F300.00 
N5440  X233.5972  Y240.3549   
N5445  X231.7527  Y241.4327   
N5450  X229.3987  Y243.5992   
N5455  X226.0452  Y247.0593   
N5460  X231.0196  Y252.9193   
N5465  X234.8976  Y257.0779   
N5470  X237.2365  Y258.8476   
N5475  X238.7170  Y258.4892   
N5480  X239.0062  Y257.2311   
N5485  X238.1165  Y255.1400   
N5490  X236.0591  Y252.2827   
N5495  X232.3431  Y246.9795   
N5500  X234.5954  Y244.3872   
N5505  X235.9801  Y242.7402   
N5510  X236.0984  Y241.3513   
N5515 G0  Z0.1000 
N5520 G1  Z-1.4000  F100.00 
N5525  X235.0174  Y240.3371   F300.00 
N5530  X233.5972  Y240.3549   
N5535  X231.7527  Y241.4327   
N5540  X229.3987  Y243.5992   
N5545  X226.0452  Y247.0593   
N5550  X231.0196  Y252.9193   
N5555  X234.8976  Y257.0779   
N5560  X237.2365  Y258.8476   
N5565  X238.7170  Y258.4892   
N5570  X239.0062  Y257.2311   
N5575  X238.1165  Y255.1400   
N5580  X236.0591  Y252.2827   
N5585  X232.3431  Y246.9795   
N5590  X234.5954  Y244.3872   
N5595  X235.9801  Y242.7402   
N5600  X236.0984  Y241.3513   
N5605 G0  Z3.0000 
N5610  X253.3144  Y223.3598 
N5615  Z0.1000 
N5620 G1  Z-0.7000  F100.00 
N5625  X252.3782  Y224.4630   F300.00 
N5630  X252.5663  Y225.8114   
N5635  X253.8413  Y227.3327   
N5640  X256.1669  Y228.9539   
N5645  X259.0916  Y230.2662   
N5650  X259.8089  Y229.8230   
N5655  X260.5390  Y228.6065   
N5660  X260.9961  Y227.1499   
N5665  X260.8601  Y225.7735   
N5670  X260.2335  Y224.5520   
N5675  X259.2181  Y223.5591   
N5680  X256.4304  Y222.5564   
N5685  X254.8623  Y222.6954   
N5690  X253.3144  Y223.3598   
N5695 G0  Z0.1000 
N5700 G1  Z-1.4000  F100.00 
N5705  X252.3782  Y224.4630   F300.00 
N5710  X252.5663  Y225.8114   
N5715  X253.8413  Y227.3327   
N5720  X256.1669  Y228.9539   
N5725  X259.0916  Y230.2662   
N5730  X259.8089  Y229.8230   
N5735  X260.5390  Y228.6065   
N5740  X260.9961  Y227.1499   
N5745  X260.8601  Y225.7735   
N5750  X260.2335  Y224.5520   
N5755  X259.2181  Y223.5591   
N5760  X256.4304  Y222.5564   
N5765  X254.8623  Y222.6954   
N5770  X253.3144  Y223.3598   
N5775 G0  Z3.0000 
N5780  X261.9317  Y220.3955 
N5785  Z0.1000 
N5790 G1  Z-0.7000  F100.00 
N5795  X258.8556  Y218.6699   F300.00 
N5800  X255.7792  Y218.2869   
N5805  X252.7780  Y219.2402   
N5810  X249.9275  Y221.5224   
N5815  X247.8477  Y224.2891   
N5820  X247.1619  Y226.3232   
N5825  X249.1744  Y228.6559   
N5830  X253.5820  Y232.1409   
N5835  X259.6957  Y236.4461   
N5840  X262.1827  Y233.3378   
N5845  X264.1349  Y229.8706   
N5850  X264.7389  Y226.2992   
N5855  X264.0018  Y223.0115   
N5860  X261.9317  Y220.3955   
N5865 G0  Z0.1000 
N5870 G1  Z-1.4000  F100.00 
N5875  X258.8556  Y218.6699   F300.00 
N5880  X255.7792  Y218.2869   
N5885  X252.7780  Y219.2402   
N5890  X249.9275  Y221.5224   
N5895  X247.8477  Y224.2891   
N5900  X247.1619  Y226.3232   
N5905  X249.1744  Y228.6559   
N5910  X253.5820  Y232.1409   
N5915  X259.6957  Y236.4461   
N5920  X262.1827  Y233.3378   
N5925  X264.1349  Y229.8706   
N5930  X264.7389  Y226.2992   
N5935  X264.0018  Y223.0115   
N5940  X261.9317  Y220.3955   
N5945 G0  Z3.0000 
N5950  X265.1884  Y200.4790 
N5955  Z0.1000 
N5960 G1  Z-0.7000  F100.00 
N5965  X264.2540  Y199.5715   F300.00 
N5970  X263.2014  Y199.7637   
N5975  X261.9775  Y201.0908   
N5980  X260.5286  Y203.5882   
N5985  X258.4212  Y208.2693   
N5990  X265.6254  Y212.4471   
N5995  X270.2133  Y214.6186   
N6000  X272.8722  Y215.1006   
N6005  X273.7658  Y214.6470   
N6010  X274.5216  Y213.6975   
N6015  X276.0801  Y210.2122   
N6020  X276.8143  Y206.8760   
N6025  X276.2629  Y204.9487   
N6030  X275.6540  Y204.6669   
N6035  X274.9036  Y204.9206   
N6040  X273.2149  Y207.2808   
N6045  X271.9425  Y209.3148   
N6050  X270.8606  Y209.8701   
N6055  X270.2565  Y209.0005   
N6060  X270.4174  Y206.7592   
N6065  X270.6226  Y204.2860   
N6070  X270.2391  Y203.7780   
N6075  X269.4936  Y203.6299   
N6080  X268.0105  Y204.2757   
N6085  X266.7065  Y205.8280   
N6090  X265.5633  Y207.2160   
N6095  X264.4867  Y206.9833   
N6100  X264.0015  Y205.6459   
N6105  X264.6316  Y203.7204   
N6110  X265.2851  Y201.8525   
N6115  X265.1884  Y200.4790   
N6120 G0  Z0.1000 
N6125 G1  Z-1.4000  F100.00 
N6130  X264.2540  Y199.5715   F300.00 
N6135  X263.2014  Y199.7637   
N6140  X261.9775  Y201.0908   
N6145  X260.5286  Y203.5882   
N6150  X258.4212  Y208.2693   
N6155  X265.6254  Y212.4471   
N6160  X270.2133  Y214.6186   
N6165  X272.8722  Y215.1006   
N6170  X273.7658  Y214.6470   
N6175  X274.5216  Y213.6975   
N6180  X276.0801  Y210.2122   
N6185  X276.8143  Y206.8760   
N6190  X276.2629  Y204.9487   
N6195  X275.6540  Y204.6669   
N6200  X274.9036  Y204.9206   
N6205  X273.2149  Y207.2808   
N6210  X271.9425  Y209.3148   
N6215  X270.8606  Y209.8701   
N6220  X270.2565  Y209.0005   
N6225  X270.4174  Y206.7592   
N6230  X270.6226  Y204.2860   
N6235  X270.2391  Y203.7780   
N6240  X269.4936  Y203.6299   
N6245  X268.0105  Y204.2757   
N6250  X266.7065  Y205.8280   
N6255  X265.5633  Y207.2160   
N6260  X264.4867  Y206.9833   
N6265  X264.0015  Y205.6459   
N6270  X264.6316  Y203.7204   
N6275  X265.2851  Y201.8525   
N6280  X265.1884  Y200.4790   
N6285 G0  Z3.0000 
N6290  X280.3268  Y177.5515 
N6295  Z0.1000 
N6300 G1  Z-0.7000  F100.00 
N6305  X279.8463  Y175.3634   F300.00 
N6310  X278.7215  Y174.3912   
N6315  X277.4276  Y174.7543   
N6320  X276.4400  Y176.5725   
N6325  X276.0174  Y177.6065   
N6330  X275.3285  Y178.2147   
N6335  X272.6419  Y178.3981   
N6340  X270.0557  Y178.5429   
N6345  X269.3946  Y179.0341   
N6350  X269.0637  Y179.8407   
N6355  X269.5321  Y181.1403   
N6360  X271.5726  Y182.2955   
N6365  X275.3314  Y183.3630   
N6370  X280.9549  Y184.3982   
N6375  X285.2338  Y185.0709   
N6380  X286.3704  Y180.5918   
N6385  X287.0201  Y177.1801   
N6390  X286.9849  Y175.2676   
N6395  X285.9464  Y174.4095   
N6400  X284.7601  Y174.5973   
N6405  X283.6737  Y175.6910   
N6410  X282.9348  Y177.5515   
N6415  X282.1672  Y179.7618   
N6420  X281.2872  Y180.6811   
N6425  X280.6089  Y179.7618   
N6430  X280.3268  Y177.5515   
N6435 G0  Z0.1000 
N6440 G1  Z-1.4000  F100.00 
N6445  X279.8463  Y175.3634   F300.00 
N6450  X278.7215  Y174.3912   
N6455  X277.4276  Y174.7543   
N6460  X276.4400  Y176.5725   
N6465  X276.0174  Y177.6065   
N6470  X275.3285  Y178.2147   
N6475  X272.6419  Y178.3981   
N6480  X270.0557  Y178.5429   
N6485  X269.3946  Y179.0341   
N6490  X269.0637  Y179.8407   
N6495  X269.5321  Y181.1403   
N6500  X271.5726  Y182.2955   
N6505  X275.3314  Y183.3630   
N6510  X280.9549  Y184.3982   
N6515  X285.2338  Y185.0709   
N6520  X286.3704  Y180.5918   
N6525  X287.0201  Y177.1801   
N6530  X286.9849  Y175.2676   
N6535  X285.9464  Y174.4095   
N6540  X284.7601  Y174.5973   
N6545  X283.6737  Y175.6910   
N6550  X282.9348  Y177.5515   
N6555  X282.1672  Y179.7618   
N6560  X281.2872  Y180.6811   
N6565  X280.6089  Y179.7618   
N6570  X280.3268  Y177.5515   
N6575 G0  Z3.0000 
N6580  X294.7343  Y157.4594 
N6585  Z0.1000 
N6590 G1  Z-0.7000  F100.00 
N6595  X294.7287  Y156.2030   F300.00 
N6600  X294.2249  Y155.7284   
N6605  X291.7008  Y156.6110   
N6610  X291.0033  Y157.4209   
N6615  X290.7582  Y158.4171   
N6620  X291.3182  Y159.4978   
N6625  X292.5826  Y159.5987   
N6630  X293.9292  Y158.8692   
N6635  X294.7343  Y157.4594   
N6640 G0  Z0.1000 
N6645 G1  Z-1.4000  F100.00 
N6650  X294.7287  Y156.2030   F300.00 
N6655  X294.2249  Y155.7284   
N6660  X291.7008  Y156.6110   
N6665  X291.0033  Y157.4209   
N6670  X290.7582  Y158.4171   
N6675  X291.3182  Y159.4978   
N6680  X292.5826  Y159.5987   
N6685  X293.9292  Y158.8692   
N6690  X294.7343  Y157.4594   
N6695 G0  Z3.0000 
N6700  X289.7150  Y153.5598 
N6705  Z0.1000 
N6710 G1  Z-0.7000  F100.00 
N6715  X289.5113  Y152.4439   F300.00 
N6720  X288.6067  Y151.8143   
N6725  X282.9348  Y151.4734   
N6730  X278.0352  Y151.8682   
N6735  X274.6245  Y153.0814   
N6740  X272.6306  Y155.1568   
N6745  X271.9819  Y158.1383   
N6750  X272.5682  Y161.1534   
N6755  X274.3932  Y163.3717   
N6760  X277.5550  Y164.8667   
N6765  X282.1524  Y165.7112   
N6770  X287.6848  Y165.9557   
N6775  X288.5056  Y165.4081   
N6780  X288.6721  Y164.2724   
N6785  X288.4701  Y163.1804   
N6790  X287.6937  Y162.4660   
N6795  X283.3949  Y161.6632   
N6800  X279.7426  Y161.0969   
N6805  X277.4193  Y160.2048   
N6810  X276.3613  Y158.9464   
N6815  X276.5047  Y157.2808   
N6820  X277.1177  Y156.5046   
N6825  X278.3605  Y156.0004   
N6830  X283.4236  Y155.6459   
N6835  X288.6680  Y155.2988   
N6840  X289.5189  Y154.6686   
N6845  X289.7150  Y153.5598   
N6850 G0  Z0.1000 
N6855 G1  Z-1.4000  F100.00 
N6860  X289.5113  Y152.4439   F300.00 
N6865  X288.6067  Y151.8143   
N6870  X282.9348  Y151.4734   
N6875  X278.0352  Y151.8682   
N6880  X274.6245  Y153.0814   
N6885  X272.6306  Y155.1568   
N6890  X271.9819  Y158.1383   
N6895  X272.5682  Y161.1534   
N6900  X274.3932  Y163.3717   
N6905  X277.5550  Y164.8667   
N6910  X282.1524  Y165.7112   
N6915  X287.6848  Y165.9557   
N6920  X288.5056  Y165.4081   
N6925  X288.6721  Y164.2724   
N6930  X288.4701  Y163.1804   
N6935  X287.6937  Y162.4660   
N6940  X283.3949  Y161.6632   
N6945  X279.7426  Y161.0969   
N6950  X277.4193  Y160.2048   
N6955  X276.3613  Y158.9464   
N6960  X276.5047  Y157.2808   
N6965  X277.1177  Y156.5046   
N6970  X278.3605  Y156.0004   
N6975  X283.4236  Y155.6459   
N6980  X288.6680  Y155.2988   
N6985  X289.5189  Y154.6686   
N6990  X289.7150  Y153.5598   
N6995 G0  Z3.0000 
N7000  X288.6833  Y132.9579 
N7005  Z0.1000 
N7010 G1  Z-0.7000  F100.00 
N7015  X288.1810  Y131.1666   F300.00 
N7020  X286.5857  Y130.6110   
N7025  X284.9689  Y131.1977   
N7030  X284.4996  Y133.2187   
N7035  X284.3728  Y134.6336   
N7040  X283.7778  Y135.4183   
N7045  X279.8907  Y135.8267   
N7050  X276.2927  Y135.9807   
N7055  X273.8364  Y136.4642   
N7060  X272.4301  Y137.3087   
N7065  X271.9819  Y138.5458   
N7070  X272.3243  Y139.2342   
N7075  X273.4594  Y139.6825   
N7080  X278.7623  Y139.9992   
N7085  X284.1519  Y140.3200   
N7090  X285.2329  Y140.8002   
N7095  X285.5425  Y141.5637   
N7100  X286.1738  Y142.6840   
N7105  X287.7652  Y143.1284   
N7110  X288.9317  Y143.0093   
N7115  X289.5157  Y142.4844   
N7120  X289.3415  Y139.2168   
N7125  X288.6833  Y132.9579   
N7130 G0  Z0.1000 
N7135 G1  Z-1.4000  F100.00 
N7140  X288.1810  Y131.1666   F300.00 
N7145  X286.5857  Y130.6110   
N7150  X284.9689  Y131.1977   
N7155  X284.4996  Y133.2187   
N7160  X284.3728  Y134.6336   
N7165  X283.7778  Y135.4183   
N7170  X279.8907  Y135.8267   
N7175  X276.2927  Y135.9807   
N7180  X273.8364  Y136.4642   
N7185  X272.4301  Y137.3087   
N7190  X271.9819  Y138.5458   
N7195  X272.3243  Y139.2342   
N7200  X273.4594  Y139.6825   
N7205  X278.7623  Y139.9992   
N7210  X284.1519  Y140.3200   
N7215  X285.2329  Y140.8002   
N7220  X285.5425  Y141.5637   
N7225  X286.1738  Y142.6840   
N7230  X287.7652  Y143.1284   
N7235  X288.9317  Y143.0093   
N7240  X289.5157  Y142.4844   
N7245  X289.3415  Y139.2168   
N7250  X288.6833  Y132.9579   
N7255 G0  Z3.0000 
N7260  X278.7727  Y115.9900 
N7265  Z0.1000 
N7270 G1  Z-0.7000  F100.00 
N7275  X278.5027  Y117.0069   F300.00 
N7280  X278.7638  Y118.0300   
N7285  X279.4336  Y118.8201   
N7290  X280.3886  Y119.1365   
N7295  X281.1039  Y118.6832   
N7300  X281.3449  Y117.6270   
N7305  X281.1104  Y116.4241   
N7310  X280.3990  Y115.5302   
N7315  X279.5208  Y115.4176   
N7320  X278.7727  Y115.9900   
N7325 G0  Z0.1000 
N7330 G1  Z-1.4000  F100.00 
N7335  X278.5027  Y117.0069   F300.00 
N7340  X278.7638  Y118.0300   
N7345  X279.4336  Y118.8201   
N7350  X280.3886  Y119.1365   
N7355  X281.1039  Y118.6832   
N7360  X281.3449  Y117.6270   
N7365  X281.1104  Y116.4241   
N7370  X280.3990  Y115.5302   
N7375  X279.5208  Y115.4176   
N7380  X278.7727  Y115.9900   
N7385 G0  Z3.0000 
N7390  X282.3981  Y111.8267 
N7395  Z0.1000 
N7400 G1  Z-0.7000  F100.00 
N7405  X280.1828  Y110.8894   F300.00 
N7410  X278.2898  Y111.7821   
N7415  X276.4320  Y112.3019   
N7420  X274.0934  Y112.2046   
N7425  X271.6149  Y112.2963   
N7430  X269.5640  Y113.7111   
N7435  X268.6326  Y114.9445   
N7440  X268.2411  Y116.2304   
N7445  X268.9295  Y120.5744   
N7450  X270.5874  Y125.3953   
N7455  X278.5938  Y123.5289   
N7460  X285.9160  Y121.1752   
N7465  X286.2415  Y119.3780   
N7470  X285.4925  Y116.5004   
N7475  X284.0759  Y113.6227   
N7480  X282.3981  Y111.8267   
N7485 G0  Z0.1000 
N7490 G1  Z-1.4000  F100.00 
N7495  X280.1828  Y110.8894   F300.00 
N7500  X278.2898  Y111.7821   
N7505  X276.4320  Y112.3019   
N7510  X274.0934  Y112.2046   
N7515  X271.6149  Y112.2963   
N7520  X269.5640  Y113.7111   
N7525  X268.6326  Y114.9445   
N7530  X268.2411  Y116.2304   
N7535  X268.9295  Y120.5744   
N7540  X270.5874  Y125.3953   
N7545  X278.5938  Y123.5289   
N7550  X285.9160  Y121.1752   
N7555  X286.2415  Y119.3780   
N7560  X285.4925  Y116.5004   
N7565  X284.0759  Y113.6227   
N7570  X282.3981  Y111.8267   
N7575 G0  Z3.0000 
N7580  X271.9819  Y118.0933 
N7585  Z0.1000 
N7590 G1  Z-0.7000  F100.00 
N7595  X272.4384  Y119.5711   F300.00 
N7600  X273.5467  Y120.1797   
N7605  X274.6549  Y119.5711   
N7610  X275.1115  Y118.0933   
N7615  X274.6549  Y116.6157   
N7620  X273.5467  Y116.0072   
N7625  X272.4384  Y116.6157   
N7630  X271.9819  Y118.0933   
N7635 G0  Z0.1000 
N7640 G1  Z-1.4000  F100.00 
N7645  X272.4384  Y119.5711   F300.00 
N7650  X273.5467  Y120.1797   
N7655  X274.6549  Y119.5711   
N7660  X275.1115  Y118.0933   
N7665  X274.6549  Y116.6157   
N7670  X273.5467  Y116.0072   
N7675  X272.4384  Y116.6157   
N7680  X271.9819  Y118.0933   
N7685 G0  Z3.0000 
N7690  X265.9318  Y92.2239 
N7695  Z0.1000 
N7700 G1  Z-0.7000  F100.00 
N7705  X265.1207  Y93.3591   F300.00 
N7710  X264.7162  Y94.6495   
N7715  X264.9894  Y97.3181   
N7720  X266.4758  Y99.4737   
N7725  X267.5876  Y100.1227   
N7730  X268.8996  Y100.3601   
N7735  X270.6672  Y99.7460   
N7740  X272.5073  Y98.2696   
N7745  X273.4937  Y96.6250   
N7750  X273.6703  Y94.9647   
N7755  X273.1833  Y93.4233   
N7760  X272.1794  Y92.1358   
N7765  X270.8056  Y91.2372   
N7770  X269.2086  Y90.8623   
N7775  X267.5350  Y91.1461   
N7780  X265.9318  Y92.2239   
N7785 G0  Z0.1000 
N7790 G1  Z-1.4000  F100.00 
N7795  X265.1207  Y93.3591   F300.00 
N7800  X264.7162  Y94.6495   
N7805  X264.9894  Y97.3181   
N7810  X266.4758  Y99.4737   
N7815  X267.5876  Y100.1227   
N7820  X268.8996  Y100.3601   
N7825  X270.6672  Y99.7460   
N7830  X272.5073  Y98.2696   
N7835  X273.4937  Y96.6250   
N7840  X273.6703  Y94.9647   
N7845  X273.1833  Y93.4233   
N7850  X272.1794  Y92.1358   
N7855  X270.8056  Y91.2372   
N7860  X269.2086  Y90.8623   
N7865  X267.5350  Y91.1461   
N7870  X265.9318  Y92.2239   
N7875 G0  Z3.0000 
N7880  X274.7404  Y89.2721 
N7885  Z0.1000 
N7890 G1  Z-0.7000  F100.00 
N7895  X271.7888  Y87.4533   F300.00 
N7900  X268.7263  Y86.8628   
N7905  X265.7526  Y87.4988   
N7910  X263.0680  Y89.3599   
N7915  X261.7208  Y91.0506   
N7920  X260.8382  Y92.9046   
N7925  X260.4109  Y94.8420   
N7930  X260.4287  Y96.7838   
N7935  X260.8817  Y98.6502   
N7940  X261.7602  Y100.3625   
N7945  X263.0544  Y101.8413   
N7950  X264.7546  Y103.0066   
N7955  X267.5989  Y104.1651   
N7960  X270.0593  Y104.4078   
N7965  X272.3639  Y103.7136   
N7970  X274.7404  Y102.0601   
N7975  X276.9985  Y99.2767   
N7980  X277.6148  Y95.6661   
N7985  X276.9985  Y92.0554   
N7990  X274.7404  Y89.2721   
N7995 G0  Z0.1000 
N8000 G1  Z-1.4000  F100.00 
N8005  X271.7888  Y87.4533   F300.00 
N8010  X268.7263  Y86.8628   
N8015  X265.7526  Y87.4988   
N8020  X263.0680  Y89.3599   
N8025  X261.7208  Y91.0506   
N8030  X260.8382  Y92.9046   
N8035  X260.4109  Y94.8420   
N8040  X260.4287  Y96.7838   
N8045  X260.8817  Y98.6502   
N8050  X261.7602  Y100.3625   
N8055  X263.0544  Y101.8413   
N8060  X264.7546  Y103.0066   
N8065  X267.5989  Y104.1651   
N8070  X270.0593  Y104.4078   
N8075  X272.3639  Y103.7136   
N8080  X274.7404  Y102.0601   
N8085  X276.9985  Y99.2767   
N8090  X277.6148  Y95.6661   
N8095  X276.9985  Y92.0554   
N8100  X274.7404  Y89.2721   
N8105 G0  Z3.0000 
N8110  X266.7121  Y73.6951 
N8115  Z0.1000 
N8120 G1  Z-0.7000  F100.00 
N8125  X265.3348  Y72.2533   F300.00 
N8130  X260.0177  Y75.8959   
N8135  X254.8339  Y79.4809   
N8140  X253.2564  Y76.8815   
N8145  X251.9708  Y75.2336   
N8150  X250.6733  Y74.4128   
N8155  X249.4719  Y74.4524   
N8160  X248.4736  Y75.3865   
N8165  X248.8926  Y77.3037   
N8170  X250.5721  Y80.4587   
N8175  X252.6293  Y83.4094   
N8180  X254.1819  Y84.7134   
N8185  X261.4154  Y79.9537   
N8190  X266.4649  Y75.8191   
N8195  X267.0725  Y74.6428   
N8200  X266.7121  Y73.6951   
N8205 G0  Z0.1000 
N8210 G1  Z-1.4000  F100.00 
N8215  X265.3348  Y72.2533   F300.00 
N8220  X260.0177  Y75.8959   
N8225  X254.8339  Y79.4809   
N8230  X253.2564  Y76.8815   
N8235  X251.9708  Y75.2336   
N8240  X250.6733  Y74.4128   
N8245  X249.4719  Y74.4524   
N8250  X248.4736  Y75.3865   
N8255  X248.8926  Y77.3037   
N8260  X250.5721  Y80.4587   
N8265  X252.6293  Y83.4094   
N8270  X254.1819  Y84.7134   
N8275  X261.4154  Y79.9537   
N8280  X266.4649  Y75.8191   
N8285  X267.0725  Y74.6428   
N8290  X266.7121  Y73.6951   
N8295 G0  Z3.0000 
N8300  X234.9970  Y45.5561 
N8305  Z0.1000 
N8310 G1  Z-0.7000  F100.00 
N8315  X232.4103  Y43.7240   F300.00 
N8320  X230.7627  Y40.8549   
N8325  X229.6119  Y37.4370   
N8330  X228.6169  Y40.9063   
N8335  X227.9631  Y42.6270   
N8340  X227.0580  Y43.8973   
N8345  X223.9843  Y45.6019   
N8350  X220.3470  Y46.8281   
N8355  X224.1333  Y47.5396   
N8360  X226.0976  Y48.0313   
N8365  X227.3625  Y48.7412   
N8370  X228.1517  Y49.8702   
N8375  X228.6884  Y51.6177   
N8380  X229.4575  Y54.9841   
N8385  X230.5146  Y51.6470   
N8390  X232.0478  Y48.8740   
N8395  X234.8258  Y47.5747   
N8400  X238.0804  Y46.8394   
N8405  X234.9970  Y45.5561   
N8410 G0  Z0.1000 
N8415 G1  Z-1.4000  F100.00 
N8420  X232.4103  Y43.7240   F300.00 
N8425  X230.7627  Y40.8549   
N8430  X229.6119  Y37.4370   
N8435  X228.6169  Y40.9063   
N8440  X227.9631  Y42.6270   
N8445  X227.0580  Y43.8973   
N8450  X223.9843  Y45.6019   
N8455  X220.3470  Y46.8281   
N8460  X224.1333  Y47.5396   
N8465  X226.0976  Y48.0313   
N8470  X227.3625  Y48.7412   
N8475  X228.1517  Y49.8702   
N8480  X228.6884  Y51.6177   
N8485  X229.4575  Y54.9841   
N8490  X230.5146  Y51.6470   
N8495  X232.0478  Y48.8740   
N8500  X234.8258  Y47.5747   
N8505  X238.0804  Y46.8394   
N8510  X234.9970  Y45.5561   
N8515 G0  Z3.0000 
N8520  X177.6432  Y42.0107 
N8525  Z0.1000 
N8530 G1  Z-0.7000  F100.00 
N8535  X168.7027  Y40.0997   F300.00 
N8540  X166.9244  Y40.0790   
N8545  X166.8514  Y40.5917   
N8550  X171.5534  Y42.9502   
N8555  X182.2731  Y46.6395   
N8560  X192.7893  Y50.4761   
N8565  X202.7254  Y55.3062   
N8570  X212.0334  Y61.0887   
N8575  X220.6649  Y67.7819   
N8580  X228.5719  Y75.3448   
N8585  X235.7066  Y83.7359   
N8590  X242.0211  Y92.9135   
N8595  X247.4668  Y102.8363   
N8600  X252.3383  Y113.8105   
N8605  X255.4720  Y123.6416   
N8610  X257.2654  Y133.9529   
N8615  X258.1155  Y146.3689   
N8620  X258.1912  Y160.2545   
N8625  X256.9070  Y170.3112   
N8630  X253.6441  Y183.0153   
N8635  X249.1484  Y194.7994   
N8640  X243.3062  Y205.9164   
N8645  X236.0032  Y216.6181   
N8650  X231.3955  Y223.1833   
N8655  X229.2875  Y227.2117   
N8660  X229.2479  Y228.0276   
N8665  X229.9256  Y227.9122   
N8670  X233.5555  Y224.4923   
N8675  X241.2212  Y214.7002   
N8680  X248.1933  Y203.2372   
N8685  X253.9933  Y190.9912   
N8690  X258.1433  Y178.8502   
N8695  X259.5975  Y172.8757   
N8700  X260.4307  Y167.3434   
N8705  X260.9420  Y150.4302   
N8710  X260.5605  Y133.4082   
N8715  X259.7101  Y127.9941   
N8720  X258.1525  Y121.9133   
N8725  X255.8644  Y114.6251   
N8730  X253.1340  Y107.5670   
N8735  X249.9781  Y100.7555   
N8740  X246.4130  Y94.2065   
N8745  X242.4546  Y87.9367   
N8750  X238.1195  Y81.9620   
N8755  X233.4242  Y76.2984   
N8760  X228.3847  Y70.9623   
N8765  X223.0177  Y65.9702   
N8770  X217.3390  Y61.3379   
N8775  X211.3654  Y57.0818   
N8780  X205.1131  Y53.2180   
N8785  X198.5984  Y49.7629   
N8790  X191.8378  Y46.7323   
N8795  X184.8471  Y44.1430   
N8800  X177.6432  Y42.0107   
N8805 G0  Z0.1000 
N8810 G1  Z-1.4000  F100.00 
N8815  X168.7027  Y40.0997   F300.00 
N8820  X166.9244  Y40.0790   
N8825  X166.8514  Y40.5917   
N8830  X171.5534  Y42.9502   
N8835  X182.2731  Y46.6395   
N8840  X192.7893  Y50.4761   
N8845  X202.7254  Y55.3062   
N8850  X212.0334  Y61.0887   
N8855  X220.6649  Y67.7819   
N8860  X228.5719  Y75.3448   
N8865  X235.7066  Y83.7359   
N8870  X242.0211  Y92.9135   
N8875  X247.4668  Y102.8363   
N8880  X252.3383  Y113.8105   
N8885  X255.4720  Y123.6416   
N8890  X257.2654  Y133.9529   
N8895  X258.1155  Y146.3689   
N8900  X258.1912  Y160.2545   
N8905  X256.9070  Y170.3112   
N8910  X253.6441  Y183.0153   
N8915  X249.1484  Y194.7994   
N8920  X243.3062  Y205.9164   
N8925  X236.0032  Y216.6181   
N8930  X231.3955  Y223.1833   
N8935  X229.2875  Y227.2117   
N8940  X229.2479  Y228.0276   
N8945  X229.9256  Y227.9122   
N8950  X233.5555  Y224.4923   
N8955  X241.2212  Y214.7002   
N8960  X248.1933  Y203.2372   
N8965  X253.9933  Y190.9912   
N8970  X258.1433  Y178.8502   
N8975  X259.5975  Y172.8757   
N8980  X260.4307  Y167.3434   
N8985  X260.9420  Y150.4302   
N8990  X260.5605  Y133.4082   
N8995  X259.7101  Y127.9941   
N9000  X258.1525  Y121.9133   
N9005  X255.8644  Y114.6251   
N9010  X253.1340  Y107.5670   
N9015  X249.9781  Y100.7555   
N9020  X246.4130  Y94.2065   
N9025  X242.4546  Y87.9367   
N9030  X238.1195  Y81.9620   
N9035  X233.4242  Y76.2984   
N9040  X228.3847  Y70.9623   
N9045  X223.0177  Y65.9702   
N9050  X217.3390  Y61.3379   
N9055  X211.3654  Y57.0818   
N9060  X205.1131  Y53.2180   
N9065  X198.5984  Y49.7629   
N9070  X191.8378  Y46.7323   
N9075  X184.8471  Y44.1430   
N9080  X177.6432  Y42.0107   
N9085 G0  Z3.0000 
N9090  X159.3243  Y42.0430 
N9095  Z0.1000 
N9100 G1  Z-0.7000  F100.00 
N9105  X153.3392  Y39.0506   F300.00 
N9110  X149.9361  Y37.8111   
N9115  X146.9925  Y38.8137   
N9120  X142.1125  Y41.2118   
N9125  X129.7949  Y48.8261   
N9130  X118.5182  Y57.7072   
N9135  X108.3677  Y67.7373   
N9140  X99.4275  Y78.7987   
N9145  X91.7828  Y90.7742   
N9150  X85.5177  Y103.5459   
N9155  X80.7172  Y116.9965   
N9160  X77.4658  Y131.0084   
N9165  X76.6810  Y137.7034   
N9170  X76.1934  Y148.1176   
N9175  X75.8741  Y188.6411   
N9180  Y237.0100   
N9185  X149.9361   
N9190  X223.9982   
N9195  Y188.6411   
N9200  X223.6809  Y148.3175   
N9205  X223.2037  Y137.9042   
N9210  X222.4426  Y131.3517   
N9215  X219.1728  Y117.3316   
N9220  X214.3965  Y103.8638   
N9225  X208.2072  Y91.0802   
N9230  X200.6975  Y79.1127   
N9235  X191.9614  Y68.0936   
N9240  X182.0915  Y58.1542   
N9245  X171.1814  Y49.4267   
N9250  X159.3243  Y42.0430   
N9255 G0  Z0.1000 
N9260 G1  Z-1.4000  F100.00 
N9265  X153.3392  Y39.0506   F300.00 
N9270  X149.9361  Y37.8111   
N9275  X146.9925  Y38.8137   
N9280  X142.1125  Y41.2118   
N9285  X129.7949  Y48.8261   
N9290  X118.5182  Y57.7072   
N9295  X108.3677  Y67.7373   
N9300  X99.4275  Y78.7987   
N9305  X91.7828  Y90.7742   
N9310  X85.5177  Y103.5459   
N9315  X80.7172  Y116.9965   
N9320  X77.4658  Y131.0084   
N9325  X76.6810  Y137.7034   
N9330  X76.1934  Y148.1176   
N9335  X75.8741  Y188.6411   
N9340  Y237.0100   
N9345  X149.9361   
N9350  X223.9982   
N9355  Y188.6411   
N9360  X223.6809  Y148.3175   
N9365  X223.2037  Y137.9042   
N9370  X222.4426  Y131.3517   
N9375  X219.1728  Y117.3316   
N9380  X214.3965  Y103.8638   
N9385  X208.2072  Y91.0802   
N9390  X200.6975  Y79.1127   
N9395  X191.9614  Y68.0936   
N9400  X182.0915  Y58.1542   
N9405  X171.1814  Y49.4267   
N9410  X159.3243  Y42.0430   
N9415 G0  Z3.0000 
N9420  X139.9034  Y45.8781 
N9425  Z0.1000 
N9430 G1  Z-0.7000  F100.00 
N9435  X130.2302  Y52.2221   F300.00 
N9440  X121.3633  Y59.1413   
N9445  X113.3037  Y66.6352   
N9450  X106.0522  Y74.7028   
N9455  X99.6091  Y83.3429   
N9460  X93.9756  Y92.5548   
N9465  X89.1523  Y102.3374   
N9470  X85.1398  Y112.6901   
N9475  X81.7737  Y124.0458   
N9480  X80.6905  Y129.8029   
N9485  X79.9318  Y136.5269   
N9490  X79.1601  Y155.6211   
N9495  X79.0036  Y186.8158   
N9500  X79.0039  Y234.4020   
N9505  X149.6756  Y234.2379   
N9510  X220.3470  Y234.0735   
N9515  X220.6205  Y186.7755   
N9520  X220.6548  Y156.2121   
N9525  X220.0173  Y137.6419   
N9530  X219.3080  Y131.0610   
N9535  X218.2639  Y125.3273   
N9540  X214.9504  Y113.5308   
N9545  X211.1023  Y103.1869   
N9550  X206.2198  Y93.1799   
N9555  X200.3776  Y83.6022   
N9560  X193.6512  Y74.5455   
N9565  X186.1159  Y66.1027   
N9570  X177.8466  Y58.3660   
N9575  X168.9188  Y51.4273   
N9580  X159.4074  Y45.3790   
N9585  X153.3643  Y42.2171   
N9590  X149.8669  Y40.9019   
N9595  X146.2453  Y42.3638   
N9600  X139.9034  Y45.8781   
N9605 G0  Z0.1000 
N9610 G1  Z-1.4000  F100.00 
N9615  X130.2302  Y52.2221   F300.00 
N9620  X121.3633  Y59.1413   
N9625  X113.3037  Y66.6352   
N9630  X106.0522  Y74.7028   
N9635  X99.6091  Y83.3429   
N9640  X93.9756  Y92.5548   
N9645  X89.1523  Y102.3374   
N9650  X85.1398  Y112.6901   
N9655  X81.7737  Y124.0458   
N9660  X80.6905  Y129.8029   
N9665  X79.9318  Y136.5269   
N9670  X79.1601  Y155.6211   
N9675  X79.0036  Y186.8158   
N9680  X79.0039  Y234.4020   
N9685  X149.6756  Y234.2379   
N9690  X220.3470  Y234.0735   
N9695  X220.6205  Y186.7755   
N9700  X220.6548  Y156.2121   
N9705  X220.0173  Y137.6419   
N9710  X219.3080  Y131.0610   
N9715  X218.2639  Y125.3273   
N9720  X214.9504  Y113.5308   
N9725  X211.1023  Y103.1869   
N9730  X206.2198  Y93.1799   
N9735  X200.3776  Y83.6022   
N9740  X193.6512  Y74.5455   
N9745  X186.1159  Y66.1027   
N9750  X177.8466  Y58.3660   
N9755  X168.9188  Y51.4273   
N9760  X159.4074  Y45.3790   
N9765  X153.3643  Y42.2171   
N9770  X149.8669  Y40.9019   
N9775  X146.2453  Y42.3638   
N9780  X139.9034  Y45.8781   
N9785 G0  Z3.0000 
N9790  X133.2459  Y40.3537 
N9795  Z0.1000 
N9800 G1  Z-0.7000  F100.00 
N9805  X132.3328  Y39.9226   F300.00 
N9810  X129.8304  Y40.1591   
N9815  X121.4786  Y42.2165   
N9820  X111.0346  Y45.6900   
N9825  X101.3412  Y49.7422   
N9830  X90.6039  Y55.6888   
N9835  X80.6938  Y62.6807   
N9840  X71.6584  Y70.6599   
N9845  X63.5450  Y79.5681   
N9850  X56.4011  Y89.3475   
N9855  X50.2738  Y99.9400   
N9860  X45.2107  Y111.2874   
N9865  X41.2588  Y123.3320   
N9870  X39.9950  Y128.5790   
N9875  X39.2662  Y133.8101   
N9880  X38.8640  Y150.4302   
N9885  X39.3350  Y167.4552   
N9890  X40.2050  Y172.9580   
N9895  X41.7674  Y179.1163   
N9900  X45.1542  Y189.2673   
N9905  X49.2489  Y199.0251   
N9910  X53.4649  Y206.6808   
N9915  X58.7580  Y214.9090   
N9920  X64.0870  Y222.1892   
N9925  X68.4105  Y227.0012   
N9930  X70.4594  Y228.2399   
N9935  X70.8053  Y227.9285   
N9940  X70.7299  Y227.1097   
N9945  X69.4047  Y224.2909   
N9950  X66.6651  Y220.4647   
N9955  X59.5937  Y210.8078   
N9960  X53.3218  Y200.0990   
N9965  X48.1818  Y188.9752   
N9970  X44.5070  Y178.0731   
N9975  X42.7251  Y168.1444   
N9980  X41.7245  Y155.8242   
N9985  X41.6051  Y143.3375   
N9990  X42.4676  Y132.9094   
N9995  X43.9821  Y125.3057   
N10000  X46.0508  Y117.8620   
N10005  X48.6487  Y110.6055   
N10010  X51.7511  Y103.5645   
N10015  X55.3337  Y96.7666   
N10020  X59.3713  Y90.2399   
N10025  X63.8398  Y84.0120   
N10030  X68.7142  Y78.1107   
N10035  X73.9701  Y72.5641   
N10040  X79.5829  Y67.4002   
N10045  X85.5277  Y62.6464   
N10050  X91.7798  Y58.3305   
N10055  X98.3149  Y54.4809   
N10060  X105.1080  Y51.1254   
N10065  X112.1348  Y48.2912   
N10070  X119.3701  Y46.0067   
N10075  X129.2325  Y42.7760   
N10080  X132.1746  Y41.3803   
N10085  X133.2459  Y40.3537   
N10090 G0  Z0.1000 
N10095 G1  Z-1.4000  F100.00 
N10100  X132.3328  Y39.9226   F300.00 
N10105  X129.8304  Y40.1591   
N10110  X121.4786  Y42.2165   
N10115  X111.0346  Y45.6900   
N10120  X101.3412  Y49.7422   
N10125  X90.6039  Y55.6888   
N10130  X80.6938  Y62.6807   
N10135  X71.6584  Y70.6599   
N10140  X63.5450  Y79.5681   
N10145  X56.4011  Y89.3475   
N10150  X50.2738  Y99.9400   
N10155  X45.2107  Y111.2874   
N10160  X41.2588  Y123.3320   
N10165  X39.9950  Y128.5790   
N10170  X39.2662  Y133.8101   
N10175  X38.8640  Y150.4302   
N10180  X39.3350  Y167.4552   
N10185  X40.2050  Y172.9580   
N10190  X41.7674  Y179.1163   
N10195  X45.1542  Y189.2673   
N10200  X49.2489  Y199.0251   
N10205  X53.4649  Y206.6808   
N10210  X58.7580  Y214.9090   
N10215  X64.0870  Y222.1892   
N10220  X68.4105  Y227.0012   
N10225  X70.4594  Y228.2399   
N10230  X70.8053  Y227.9285   
N10235  X70.7299  Y227.1097   
N10240  X69.4047  Y224.2909   
N10245  X66.6651  Y220.4647   
N10250  X59.5937  Y210.8078   
N10255  X53.3218  Y200.0990   
N10260  X48.1818  Y188.9752   
N10265  X44.5070  Y178.0731   
N10270  X42.7251  Y168.1444   
N10275  X41.7245  Y155.8242   
N10280  X41.6051  Y143.3375   
N10285  X42.4676  Y132.9094   
N10290  X43.9821  Y125.3057   
N10295  X46.0508  Y117.8620   
N10300  X48.6487  Y110.6055   
N10305  X51.7511  Y103.5645   
N10310  X55.3337  Y96.7666   
N10315  X59.3713  Y90.2399   
N10320  X63.8398  Y84.0120   
N10325  X68.7142  Y78.1107   
N10330  X73.9701  Y72.5641   
N10335  X79.5829  Y67.4002   
N10340  X85.5277  Y62.6464   
N10345  X91.7798  Y58.3305   
N10350  X98.3149  Y54.4809   
N10355  X105.1080  Y51.1254   
N10360  X112.1348  Y48.2912   
N10365  X119.3701  Y46.0067   
N10370  X129.2325  Y42.7760   
N10375  X132.1746  Y41.3803   
N10380  X133.2459  Y40.3537   
N10385 G0  Z3.0000 
N10390  X121.9470  Y20.5750 
N10395  Z0.1000 
N10400 G1  Z-0.7000  F100.00 
N10405  X120.1536  Y15.6958   F300.00 
N10410  X119.2379  Y14.4752   
N10415  X118.2458  Y13.9530   
N10420  X117.2118  Y13.8942   
N10425  X116.7216  Y14.4421   
N10430  X117.0456  Y18.6264   
N10435  X117.4342  Y22.7610   
N10440  X116.9223  Y22.7980   
N10445  X115.7934  Y21.8580   
N10450  X113.9980  Y20.4937   
N10455  X112.6582  Y20.1900   
N10460  X111.6002  Y20.9830   
N10465  X110.6510  Y22.9080   
N10470  X109.6102  Y25.0130   
N10475  X108.8000  Y23.6904   
N10480  X106.4363  Y18.1214   
N10485  X105.5593  Y17.4253   
N10490  X104.5143  Y17.5936   
N10495  X103.3750  Y18.7127   
N10500  X103.5054  Y20.9632   
N10505  X105.9200  Y29.6267   
N10510  X107.9922  Y33.9674   
N10515  X108.9715  Y34.5990   
N10520  X109.9508  Y34.2483   
N10525  X112.0248  Y30.7314   
N10530  X113.2644  Y27.8351   
N10535  X114.1928  Y26.6352   
N10540  X115.3910  Y26.8685   
N10545  X117.4392  Y28.2706   
N10550  X120.0315  Y29.8053   
N10555  X122.0594  Y30.3857   
N10560  X123.3610  Y30.0022   
N10565  X123.7744  Y28.6453   
N10570  X121.9470  Y20.5750   
N10575 G0  Z0.1000 
N10580 G1  Z-1.4000  F100.00 
N10585  X120.1536  Y15.6958   F300.00 
N10590  X119.2379  Y14.4752   
N10595  X118.2458  Y13.9530   
N10600  X117.2118  Y13.8942   
N10605  X116.7216  Y14.4421   
N10610  X117.0456  Y18.6264   
N10615  X117.4342  Y22.7610   
N10620  X116.9223  Y22.7980   
N10625  X115.7934  Y21.8580   
N10630  X113.9980  Y20.4937   
N10635  X112.6582  Y20.1900   
N10640  X111.6002  Y20.9830   
N10645  X110.6510  Y22.9080   
N10650  X109.6102  Y25.0130   
N10655  X108.8000  Y23.6904   
N10660  X106.4363  Y18.1214   
N10665  X105.5593  Y17.4253   
N10670  X104.5143  Y17.5936   
N10675  X103.3750  Y18.7127   
N10680  X103.5054  Y20.9632   
N10685  X105.9200  Y29.6267   
N10690  X107.9922  Y33.9674   
N10695  X108.9715  Y34.5990   
N10700  X109.9508  Y34.2483   
N10705  X112.0248  Y30.7314   
N10710  X113.2644  Y27.8351   
N10715  X114.1928  Y26.6352   
N10720  X115.3910  Y26.8685   
N10725  X117.4392  Y28.2706   
N10730  X120.0315  Y29.8053   
N10735  X122.0594  Y30.3857   
N10740  X123.3610  Y30.0022   
N10745  X123.7744  Y28.6453   
N10750  X121.9470  Y20.5750   
N10755 G0  Z3.0000 
N10760  X138.4616  Y0.3672 
N10765  Z0.1000 
N10770 G1  Z-0.7000  F100.00 
N10775  X129.9723  Y1.1913   F300.00 
N10780  X121.5667  Y2.5208   
N10785  X113.2655  Y4.3428   
N10790  X105.0885  Y6.6462   
N10795  X97.0561  Y9.4192   
N10800  X89.1884  Y12.6496   
N10805  X81.5058  Y16.3256   
N10810  X74.0287  Y20.4351   
N10815  X66.7769  Y24.9666   
N10820  X59.7708  Y29.9082   
N10825  X53.0308  Y35.2477   
N10830  X46.5771  Y40.9735   
N10835  X40.4300  Y47.0738   
N10840  X34.6096  Y53.5364   
N10845  X29.1361  Y60.3497   
N10850  X24.0298  Y67.5016   
N10855  X17.2914  Y78.8848   
N10860  X11.2129  Y91.8023   
N10865  X6.1116  Y105.4981   
N10870  X2.3061  Y119.2148   
N10875  X0.8747  Y129.7597   
N10880  X0.0251  Y145.3514   
N10885  X0.0000  Y160.4071   
N10890  X1.0290  Y173.1159   
N10895  X3.3265  Y185.0718   
N10900  X7.1078  Y197.8698   
N10905  X11.6197  Y209.7699   
N10910  X17.0019  Y221.0812   
N10915  X23.2445  Y231.7902   
N10920  X30.3372  Y241.8839   
N10925  X38.2697  Y251.3495   
N10930  X47.0325  Y260.1738   
N10935  X56.6149  Y268.3434   
N10940  X67.0075  Y275.8457   
N10945  X76.0036  Y281.4354   
N10950  X85.0094  Y286.2516   
N10955  X94.1039  Y290.3197   
N10960  X103.3664  Y293.6648   
N10965  X112.8761  Y296.3121   
N10970  X122.7116  Y298.2870   
N10975  X132.9523  Y299.6147   
N10980  X143.6772  Y300.3202   
N10985  X161.0839  Y300.1839   
N10990  X169.2521  Y299.4893   
N10995  X177.1739  Y298.3580   
N11000  X184.9322  Y296.7755   
N11005  X192.6098  Y294.7275   
N11010  X208.0540  Y289.1780   
N11015  X221.1903  Y282.9733   
N11020  X233.2651  Y275.6943   
N11025  X244.7713  Y267.0078   
N11030  X256.2027  Y256.5794   
N11035  X263.3690  Y249.0118   
N11040  X269.9120  Y241.0698   
N11045  X275.8415  Y232.7361   
N11050  X281.1666  Y223.9935   
N11055  X285.8976  Y214.8241   
N11060  X290.0441  Y205.2115   
N11065  X293.6154  Y195.1380   
N11070  X296.6217  Y184.5866   
N11075  X298.8642  Y171.5617   
N11080  X300.0003  Y155.9558   
N11085  X299.9503  Y140.0817   
N11090  X298.6345  Y126.2522   
N11095  X296.5895  Y116.0329   
N11100  X293.8606  Y106.0560   
N11105  X290.4725  Y96.3497   
N11110  X286.4494  Y86.9423   
N11115  X281.8153  Y77.8620   
N11120  X276.5940  Y69.1371   
N11125  X270.8098  Y60.7956   
N11130  X264.4867  Y52.8664   
N11135  X257.6492  Y45.3769   
N11140  X250.3208  Y38.3560   
N11145  X242.5261  Y31.8313   
N11150  X234.2888  Y25.8318   
N11155  X225.6334  Y20.3852   
N11160  X216.5838  Y15.5196   
N11165  X207.1640  Y11.2637   
N11170  X197.3982  Y7.6457   
N11175  X182.9703  Y3.5891   
N11180  X168.6084  Y1.0574   
N11185  X153.9072  Y0.0000   
N11190  X138.4616  Y0.3672   
N11195 G0  Z0.1000 
N11200 G1  Z-1.4000  F100.00 
N11205  X129.9723  Y1.1913   F300.00 
N11210  X121.5667  Y2.5208   
N11215  X113.2655  Y4.3428   
N11220  X105.0885  Y6.6462   
N11225  X97.0561  Y9.4192   
N11230  X89.1884  Y12.6496   
N11235  X81.5058  Y16.3256   
N11240  X74.0287  Y20.4351   
N11245  X66.7769  Y24.9666   
N11250  X59.7708  Y29.9082   
N11255  X53.0308  Y35.2477   
N11260  X46.5771  Y40.9735   
N11265  X40.4300  Y47.0738   
N11270  X34.6096  Y53.5364   
N11275  X29.1361  Y60.3497   
N11280  X24.0298  Y67.5016   
N11285  X17.2914  Y78.8848   
N11290  X11.2129  Y91.8023   
N11295  X6.1116  Y105.4981   
N11300  X2.3061  Y119.2148   
N11305  X0.8747  Y129.7597   
N11310  X0.0251  Y145.3514   
N11315  X0.0000  Y160.4071   
N11320  X1.0290  Y173.1159   
N11325  X3.3265  Y185.0718   
N11330  X7.1078  Y197.8698   
N11335  X11.6197  Y209.7699   
N11340  X17.0019  Y221.0812   
N11345  X23.2445  Y231.7902   
N11350  X30.3372  Y241.8839   
N11355  X38.2697  Y251.3495   
N11360  X47.0325  Y260.1738   
N11365  X56.6149  Y268.3434   
N11370  X67.0075  Y275.8457   
N11375  X76.0036  Y281.4354   
N11380  X85.0094  Y286.2516   
N11385  X94.1039  Y290.3197   
N11390  X103.3664  Y293.6648   
N11395  X112.8761  Y296.3121   
N11400  X122.7116  Y298.2870   
N11405  X132.9523  Y299.6147   
N11410  X143.6772  Y300.3202   
N11415  X161.0839  Y300.1839   
N11420  X169.2521  Y299.4893   
N11425  X177.1739  Y298.3580   
N11430  X184.9322  Y296.7755   
N11435  X192.6098  Y294.7275   
N11440  X208.0540  Y289.1780   
N11445  X221.1903  Y282.9733   
N11450  X233.2651  Y275.6943   
N11455  X244.7713  Y267.0078   
N11460  X256.2027  Y256.5794   
N11465  X263.3690  Y249.0118   
N11470  X269.9120  Y241.0698   
N11475  X275.8415  Y232.7361   
N11480  X281.1666  Y223.9935   
N11485  X285.8976  Y214.8241   
N11490  X290.0441  Y205.2115   
N11495  X293.6154  Y195.1380   
N11500  X296.6217  Y184.5866   
N11505  X298.8642  Y171.5617   
N11510  X300.0003  Y155.9558   
N11515  X299.9503  Y140.0817   
N11520  X298.6345  Y126.2522   
N11525  X296.5895  Y116.0329   
N11530  X293.8606  Y106.0560   
N11535  X290.4725  Y96.3497   
N11540  X286.4494  Y86.9423   
N11545  X281.8153  Y77.8620   
N11550  X276.5940  Y69.1371   
N11555  X270.8098  Y60.7956   
N11560  X264.4867  Y52.8664   
N11565  X257.6492  Y45.3769   
N11570  X250.3208  Y38.3560   
N11575  X242.5261  Y31.8313   
N11580  X234.2888  Y25.8318   
N11585  X225.6334  Y20.3852   
N11590  X216.5838  Y15.5196   
N11595  X207.1640  Y11.2637   
N11600  X197.3982  Y7.6457   
N11605  X182.9703  Y3.5891   
N11610  X168.6084  Y1.0574   
N11615  X153.9072  Y0.0000   
N11620  X138.4616  Y0.3672   
N11625 G0  Z3.0000 
N11630  X148.2235  Y14.5630 
N11635  Z0.1000 
N11640 G1  Z-0.7000  F100.00 
N11645  X147.2731  Y11.4867   F300.00 
N11650  X146.5298  Y10.8424   
N11655  X145.5088  Y10.6513   
N11660  X144.4162  Y10.7948   
N11665  X143.8872  Y11.4465   
N11670  X144.1566  Y15.6062   
N11675  X144.8727  Y20.5611   
N11680  X141.9815  Y17.7222   
N11685  X139.0902  Y14.8833   
N11690  X137.3226  Y17.5779   
N11695  X135.5549  Y20.2725   
N11700  X134.8305  Y15.9832   
N11705  X133.8198  Y12.5704   
N11710  X133.0528  Y11.8888   
N11715  X131.9809  Y11.6945   
N11720  X130.9026  Y11.8104   
N11725  X130.3505  Y12.2753   
N11730  X130.5078  Y14.9542   
N11735  X131.1598  Y23.2992   
N11740  X131.5300  Y27.5024   
N11745  X132.1767  Y28.2127   
N11750  X133.2944  Y28.3845   
N11755  X135.3308  Y27.5252   
N11760  X137.2064  Y25.2617   
N11765  X138.6260  Y23.1026   
N11770  X139.8362  Y22.3134   
N11775  X141.1352  Y22.8663   
N11780  X142.8206  Y24.7336   
N11785  X144.8600  Y26.5751   
N11790  X146.8825  Y27.3413   
N11795  X147.9015  Y27.1671   
N11800  X148.5124  Y26.5068   
N11805  X148.8814  Y22.9080   
N11810  X148.2235  Y14.5630   
N11815 G0  Z0.1000 
N11820 G1  Z-1.4000  F100.00 
N11825  X147.2731  Y11.4867   F300.00 
N11830  X146.5298  Y10.8424   
N11835  X145.5088  Y10.6513   
N11840  X144.4162  Y10.7948   
N11845  X143.8872  Y11.4465   
N11850  X144.1566  Y15.6062   
N11855  X144.8727  Y20.5611   
N11860  X141.9815  Y17.7222   
N11865  X139.0902  Y14.8833   
N11870  X137.3226  Y17.5779   
N11875  X135.5549  Y20.2725   
N11880  X134.8305  Y15.9832   
N11885  X133.8198  Y12.5704   
N11890  X133.0528  Y11.8888   
N11895  X131.9809  Y11.6945   
N11900  X130.9026  Y11.8104   
N11905  X130.3505  Y12.2753   
N11910  X130.5078  Y14.9542   
N11915  X131.1598  Y23.2992   
N11920  X131.5300  Y27.5024   
N11925  X132.1767  Y28.2127   
N11930  X133.2944  Y28.3845   
N11935  X135.3308  Y27.5252   
N11940  X137.2064  Y25.2617   
N11945  X138.6260  Y23.1026   
N11950  X139.8362  Y22.3134   
N11955  X141.1352  Y22.8663   
N11960  X142.8206  Y24.7336   
N11965  X144.8600  Y26.5751   
N11970  X146.8825  Y27.3413   
N11975  X147.9015  Y27.1671   
N11980  X148.5124  Y26.5068   
N11985  X148.8814  Y22.9080   
N11990  X148.2235  Y14.5630   
N11995 G0  Z3.0000 
N12000  X162.2637  Y13.2590 
N12005  Z0.1000 
N12010 G1  Z-0.7000  F100.00 
N12015  X160.8610  Y11.4172   F300.00 
N12020  X159.1569  Y10.6513   
N12025  X157.7757  Y10.8985   
N12030  X157.3588  Y11.7892   
N12035  X157.9183  Y13.5464   
N12040  X159.4656  Y16.3939   
N12045  X161.6933  Y20.1696   
N12050  X158.4224  Y23.5443   
N12055  X155.1518  Y27.6517   
N12060  X155.9224  Y28.4117   
N12065  X157.7080  Y28.3212   
N12070  X159.7196  Y27.5574   
N12075  X161.1685  Y26.2981   
N12080  X162.3542  Y24.7711   
N12085  X163.3891  Y24.3409   
N12090  X164.3696  Y25.0198   
N12095  X165.3933  Y26.8197   
N12100  X166.8392  Y28.6973   
N12105  X168.6900  Y29.4277   
N12110  X170.1731  Y29.2505   
N12115  X170.6610  Y28.5314   
N12120  X170.1504  Y26.9864   
N12125  X168.6391  Y24.3332   
N12130  X166.4871  Y20.8036   
N12135  X169.8032  Y17.3821   
N12140  X171.6572  Y15.0829   
N12145  X172.3515  Y13.2845   
N12150  X171.8769  Y12.1129   
N12155  X170.2243  Y11.6945   
N12160  X168.7864  Y12.3072   
N12165  X167.4271  Y13.7806   
N12170  X166.0781  Y15.3327   
N12175  X164.7218  Y15.7585   
N12180  X163.4273  Y15.0648   
N12185  X162.2637  Y13.2590   
N12190 G0  Z0.1000 
N12195 G1  Z-1.4000  F100.00 
N12200  X160.8610  Y11.4172   F300.00 
N12205  X159.1569  Y10.6513   
N12210  X157.7757  Y10.8985   
N12215  X157.3588  Y11.7892   
N12220  X157.9183  Y13.5464   
N12225  X159.4656  Y16.3939   
N12230  X161.6933  Y20.1696   
N12235  X158.4224  Y23.5443   
N12240  X155.1518  Y27.6517   
N12245  X155.9224  Y28.4117   
N12250  X157.7080  Y28.3212   
N12255  X159.7196  Y27.5574   
N12260  X161.1685  Y26.2981   
N12265  X162.3542  Y24.7711   
N12270  X163.3891  Y24.3409   
N12275  X164.3696  Y25.0198   
N12280  X165.3933  Y26.8197   
N12285  X166.8392  Y28.6973   
N12290  X168.6900  Y29.4277   
N12295  X170.1731  Y29.2505   
N12300  X170.6610  Y28.5314   
N12305  X170.1504  Y26.9864   
N12310  X168.6391  Y24.3332   
N12315  X166.4871  Y20.8036   
N12320  X169.8032  Y17.3821   
N12325  X171.6572  Y15.0829   
N12330  X172.3515  Y13.2845   
N12335  X171.8769  Y12.1129   
N12340  X170.2243  Y11.6945   
N12345  X168.7864  Y12.3072   
N12350  X167.4271  Y13.7806   
N12355  X166.0781  Y15.3327   
N12360  X164.7218  Y15.7585   
N12365  X163.4273  Y15.0648   
N12370  X162.2637  Y13.2590   
N12375 G0  Z3.0000 
N12380  X184.3592  Y15.8670 
N12385  Z0.1000 
N12390 G1  Z-0.7000  F100.00 
N12395  X181.5826  Y13.9187   F300.00 
N12400  X180.5797  Y13.7159   
N12405  X180.1867  Y14.1709   
N12410  X181.7515  Y18.9963   
N12415  X182.8724  Y22.2980   
N12420  X183.0484  Y24.1798   
N12425  X182.0563  Y25.5216   
N12430  X179.6731  Y27.2047   
N12435  X177.2774  Y29.2198   
N12440  X176.6124  Y30.5947   
N12445  X177.6795  Y31.3517   
N12450  X179.2532  Y31.4585   
N12455  X180.9289  Y30.9632   
N12460  X182.3018  Y29.9144   
N12465  X183.5898  Y28.8446   
N12470  X184.7651  Y28.7890   
N12475  X185.7483  Y29.7151   
N12480  X186.4595  Y31.5912   
N12485  X187.5056  Y33.5318   
N12490  X189.3353  Y34.4520   
N12495  X190.6098  Y34.5614   
N12500  X191.1142  Y34.1634   
N12505  X190.0749  Y30.4094   
N12510  X188.5316  Y25.7357   
N12515  X192.8685  Y22.2462   
N12520  X196.0274  Y19.5371   
N12525  X196.1353  Y18.8443   
N12530  X195.4100  Y18.3680   
N12535  X193.3186  Y18.2946   
N12540  X190.8123  Y19.0865   
N12545  X187.2280  Y20.8751   
N12550  X186.6753  Y20.6593   
N12555  X186.4456  Y19.6048   
N12560  X185.8326  Y17.8254   
N12565  X184.3592  Y15.8670   
N12570 G0  Z0.1000 
N12575 G1  Z-1.4000  F100.00 
N12580  X181.5826  Y13.9187   F300.00 
N12585  X180.5797  Y13.7159   
N12590  X180.1867  Y14.1709   
N12595  X181.7515  Y18.9963   
N12600  X182.8724  Y22.2980   
N12605  X183.0484  Y24.1798   
N12610  X182.0563  Y25.5216   
N12615  X179.6731  Y27.2047   
N12620  X177.2774  Y29.2198   
N12625  X176.6124  Y30.5947   
N12630  X177.6795  Y31.3517   
N12635  X179.2532  Y31.4585   
N12640  X180.9289  Y30.9632   
N12645  X182.3018  Y29.9144   
N12650  X183.5898  Y28.8446   
N12655  X184.7651  Y28.7890   
N12660  X185.7483  Y29.7151   
N12665  X186.4595  Y31.5912   
N12670  X187.5056  Y33.5318   
N12675  X189.3353  Y34.4520   
N12680  X190.6098  Y34.5614   
N12685  X191.1142  Y34.1634   
N12690  X190.0749  Y30.4094   
N12695  X188.5316  Y25.7357   
N12700  X192.8685  Y22.2462   
N12705  X196.0274  Y19.5371   
N12710  X196.1353  Y18.8443   
N12715  X195.4100  Y18.3680   
N12720  X193.3186  Y18.2946   
N12725  X190.8123  Y19.0865   
N12730  X187.2280  Y20.8751   
N12735  X186.6753  Y20.6593   
N12740  X186.4456  Y19.6048   
N12745  X185.8326  Y17.8254   
N12750  X184.3592  Y15.8670   
N12755 G0  Z3.0000 
N12760  X146.8169  Y91.4826 
N12765  Z0.1000 
N12770 G1  Z-0.7000  F100.00 
N12775  X145.4739  Y92.9933   F300.00 
N12780  X144.9668  Y94.0117   
N12785  X145.2494  Y94.9390   
N12790  X146.2752  Y96.1767   
N12795  X148.1336  Y97.6578   
N12800  X149.9361  Y98.2740   
N12805  X151.7386  Y97.6578   
N12810  X153.5968  Y96.1767   
N12815  X154.6228  Y94.9390   
N12820  X154.9052  Y94.0117   
N12825  X154.3981  Y92.9933   
N12830  X153.0551  Y91.4826   
N12835  X149.9361  Y88.8859   
N12840  X146.8169  Y91.4826   
N12845 G0  Z0.1000 
N12850 G1  Z-1.4000  F100.00 
N12855  X145.4739  Y92.9933   F300.00 
N12860  X144.9668  Y94.0117   
N12865  X145.2494  Y94.9390   
N12870  X146.2752  Y96.1767   
N12875  X148.1336  Y97.6578   
N12880  X149.9361  Y98.2740   
N12885  X151.7386  Y97.6578   
N12890  X153.5968  Y96.1767   
N12895  X154.6228  Y94.9390   
N12900  X154.9052  Y94.0117   
N12905  X154.3981  Y92.9933   
N12910  X153.0551  Y91.4826   
N12915  X149.9361  Y88.8859   
N12920  X146.8169  Y91.4826   
N12925 G0  Z3.0000 
N12930  X133.2459  Y93.0584 
N12935  Z0.1000 
N12940 G1  Z-0.7000  F100.00 
N12945  Y71.1528   F300.00 
N12950  X128.2044   
N12955  X124.4391  Y71.3568   
N12960  X122.4671  Y71.8479   
N12965  X121.7796  Y72.9086   
N12970  X122.1327  Y73.6697   
N12975  X123.5224  Y74.1283   
N12980  X125.9441  Y74.2821   
N12985  X130.1166   
N12990  Y96.7510   
N12995  Y119.2201   
N13000  X125.9441  Y123.1892   
N13005  X123.6375  Y125.5275   
N13010  X122.3870  Y127.4560   
N13015  X121.8722  Y129.7399   
N13020  X121.7716  Y133.1442   
N13025  X122.1620  Y137.4231   
N13030  X122.5721  Y138.4929   
N13035  X123.0570  Y138.8495   
N13040  X123.5647  Y138.4932   
N13045  X124.0434  Y137.4234   
N13050  X124.7078  Y133.1448   
N13055  X125.7505  Y128.2272   
N13060  X127.5879  Y125.0520   
N13065  X128.5288  Y124.4021   
N13070  X129.3375  Y124.5293   
N13075  X129.9034  Y125.5467   
N13080  X130.1166  Y127.5684   
N13085  X130.5238  Y130.2103   
N13090  X130.9487  Y130.5678   
N13095  X131.4469  Y130.3532   
N13100  X132.4387  Y128.4161   
N13105  X133.0519  Y124.8181   
N13110  X133.4263  Y121.7879   
N13115  X134.5351  Y119.2423   
N13120  X137.0553  Y116.1254   
N13125  X141.6636  Y111.3814   
N13130  X149.9477  Y103.0527   
N13135  X158.2205  Y111.3926   
N13140  X162.8182  Y116.1390   
N13145  X165.3357  Y119.2601   
N13150  X166.4457  Y121.8065   
N13155  X166.8206  Y124.8294   
N13160  X167.3942  Y128.4034   
N13165  X168.3313  Y130.2189   
N13170  X168.8304  Y130.3792   
N13175  X169.2941  Y129.9939   
N13180  X169.9455  Y127.4459   
N13185  X170.2769  Y124.1543   
N13190  X172.6241  Y126.2011   
N13195  X173.7436  Y127.4096   
N13200  X174.4669  Y128.8188   
N13205  X174.9710  Y132.9526   
N13210  X175.3906  Y136.7442   
N13215  X176.5358  Y138.9560   
N13220  X177.3552  Y139.4158   
N13225  X177.8291  Y138.9001   
N13230  X178.1006  Y133.7459   
N13235  X178.0095  Y130.0155   
N13240  X177.5104  Y127.5852   
N13245  X176.2629  Y125.5961   
N13250  X173.9281  Y123.1880   
N13255  X169.7553  Y119.1388   
N13260  Y96.7104   
N13265  Y74.2821   
N13270  X174.0150   
N13275  X177.3401  Y73.8802   
N13280  X177.9557  Y73.4600   
N13285  X177.9223  Y72.9668   
N13290  X176.0574  Y71.9807   
N13295  X172.0413  Y71.3598   
N13300  X166.6680  Y71.0451   
N13305  X166.3862  Y93.0270   
N13310  X166.1044  Y115.0092   
N13315  X158.9913  Y108.1016   
N13320  X151.8785  Y101.1943   
N13325  X155.8561  Y97.6555   
N13330  X159.8338  Y94.1166   
N13335  X154.8848  Y89.1680   
N13340  X149.9361  Y84.2193   
N13345  X145.1992  Y88.9563   
N13350  X140.4622  Y93.6932   
N13355  X144.1504  Y97.4908   
N13360  X147.8388  Y101.2886   
N13365  X140.9332  Y108.1261   
N13370  X133.6371  Y114.9640   
N13375  X133.2459  Y93.0584   
N13380 G0  Z0.1000 
N13385 G1  Z-1.4000  F100.00 
N13390  Y71.1528   F300.00 
N13395  X128.2044   
N13400  X124.4391  Y71.3568   
N13405  X122.4671  Y71.8479   
N13410  X121.7796  Y72.9086   
N13415  X122.1327  Y73.6697   
N13420  X123.5224  Y74.1283   
N13425  X125.9441  Y74.2821   
N13430  X130.1166   
N13435  Y96.7510   
N13440  Y119.2201   
N13445  X125.9441  Y123.1892   
N13450  X123.6375  Y125.5275   
N13455  X122.3870  Y127.4560   
N13460  X121.8722  Y129.7399   
N13465  X121.7716  Y133.1442   
N13470  X122.1620  Y137.4231   
N13475  X122.5721  Y138.4929   
N13480  X123.0570  Y138.8495   
N13485  X123.5647  Y138.4932   
N13490  X124.0434  Y137.4234   
N13495  X124.7078  Y133.1448   
N13500  X125.7505  Y128.2272   
N13505  X127.5879  Y125.0520   
N13510  X128.5288  Y124.4021   
N13515  X129.3375  Y124.5293   
N13520  X129.9034  Y125.5467   
N13525  X130.1166  Y127.5684   
N13530  X130.5238  Y130.2103   
N13535  X130.9487  Y130.5678   
N13540  X131.4469  Y130.3532   
N13545  X132.4387  Y128.4161   
N13550  X133.0519  Y124.8181   
N13555  X133.4263  Y121.7879   
N13560  X134.5351  Y119.2423   
N13565  X137.0553  Y116.1254   
N13570  X141.6636  Y111.3814   
N13575  X149.9477  Y103.0527   
N13580  X158.2205  Y111.3926   
N13585  X162.8182  Y116.1390   
N13590  X165.3357  Y119.2601   
N13595  X166.4457  Y121.8065   
N13600  X166.8206  Y124.8294   
N13605  X167.3942  Y128.4034   
N13610  X168.3313  Y130.2189   
N13615  X168.8304  Y130.3792   
N13620  X169.2941  Y129.9939   
N13625  X169.9455  Y127.4459   
N13630  X170.2769  Y124.1543   
N13635  X172.6241  Y126.2011   
N13640  X173.7436  Y127.4096   
N13645  X174.4669  Y128.8188   
N13650  X174.9710  Y132.9526   
N13655  X175.3906  Y136.7442   
N13660  X176.5358  Y138.9560   
N13665  X177.3552  Y139.4158   
N13670  X177.8291  Y138.9001   
N13675  X178.1006  Y133.7459   
N13680  X178.0095  Y130.0155   
N13685  X177.5104  Y127.5852   
N13690  X176.2629  Y125.5961   
N13695  X173.9281  Y123.1880   
N13700  X169.7553  Y119.1388   
N13705  Y96.7104   
N13710  Y74.2821   
N13715  X174.0150   
N13720  X177.3401  Y73.8802   
N13725  X177.9557  Y73.4600   
N13730  X177.9223  Y72.9668   
N13735  X176.0574  Y71.9807   
N13740  X172.0413  Y71.3598   
N13745  X166.6680  Y71.0451   
N13750  X166.3862  Y93.0270   
N13755  X166.1044  Y115.0092   
N13760  X158.9913  Y108.1016   
N13765  X151.8785  Y101.1943   
N13770  X155.8561  Y97.6555   
N13775  X159.8338  Y94.1166   
N13780  X154.8848  Y89.1680   
N13785  X149.9361  Y84.2193   
N13790  X145.1992  Y88.9563   
N13795  X140.4622  Y93.6932   
N13800  X144.1504  Y97.4908   
N13805  X147.8388  Y101.2886   
N13810  X140.9332  Y108.1261   
N13815  X133.6371  Y114.9640   
N13820  X133.2459  Y93.0584   
N13825 G0  Z3.0000 
N13830  X148.8929  Y121.4706 
N13835  Z0.1000 
N13840 G1  Z-0.7000  F100.00 
N13845  X148.6416  Y119.0853   F300.00 
N13850  X148.0375  Y118.0933   
N13855  X141.1976  Y124.3421   
N13860  X127.2431  Y138.2930   
N13865  X113.2490  Y152.7537   
N13870  X106.2905  Y160.5322   
N13875  X105.2544  Y163.3069   
N13880  X105.0569  Y165.9998   
N13885  X105.6308  Y168.5220   
N13890  X106.9079  Y170.7849   
N13895  X108.8204  Y172.6995   
N13900  X111.3007  Y174.1768   
N13905  X114.2809  Y175.1283   
N13910  X117.6932  Y175.4654   
N13915  X119.9895  Y175.8031   
N13920  X121.2536  Y176.6834   
N13925  X121.3559  Y177.9069   
N13930  X120.1669  Y179.2745   
N13935  X118.6438  Y179.9019   
N13940  X116.0024  Y180.3606   
N13945  X107.2293  Y180.7872   
N13950  X96.2149  Y180.8934   
N13955  X105.0817  Y183.0061   
N13960  X113.5458  Y184.5218   
N13965  X122.4369  Y185.4760   
N13970  X128.6580  Y185.6395   
N13975  X129.7993  Y185.3533   
N13980  X129.1119  Y184.7835   
N13985  X127.1455  Y183.9156   
N13990  X126.2857  Y183.1758   
N13995  X126.3341  Y182.1294   
N14000  X127.0944  Y180.3413   
N14005  X127.6993  Y178.2875   
N14010  X127.6781  Y176.2865   
N14015  X127.0882  Y174.4068   
N14020  X125.9876  Y172.7164   
N14025  X124.4343  Y171.2829   
N14030  X122.4860  Y170.1749   
N14035  X120.2004  Y169.4599   
N14040  X117.6352  Y169.2065   
N14045  X114.7549  Y169.0081   
N14050  X112.8019  Y168.3816   
N14055  X111.6916  Y167.2789   
N14060  X111.3403  Y165.6526   
N14065  X111.8022  Y163.2159   
N14070  X113.5668  Y161.7543   
N14075  X117.2044  Y161.0384   
N14080  X123.2841  Y160.8388   
N14085  X130.6107  Y160.4296   
N14090  X136.2386  Y159.1486   
N14095  X140.5571  Y156.8564   
N14100  X143.9567  Y153.4125   
N14105  X145.8293  Y150.3084   
N14110  X147.4021  Y146.6868   
N14115  X148.3199  Y143.5167   
N14120  X148.2270  Y141.7671   
N14125  X146.0573  Y143.3647   
N14130  X141.4853  Y147.8506   
N14135  X137.5334  Y151.6544   
N14140  X134.2439  Y154.2387   
N14145  X131.9937  Y155.3523   
N14150  X131.3760  Y155.2786   
N14155  X131.1598  Y154.7429   
N14160  X140.0264  Y145.2145   
N14165  X147.0372  Y137.6351   
N14170  X148.4739  Y135.3166   
N14175  X148.8929  Y133.5026   
N14180  X148.6584  Y131.4602   
N14185  X148.0943  Y130.6110   
N14190  X143.8896  Y134.2610   
N14195  X134.9021  Y143.0368   
N14200  X125.3258  Y152.0961   
N14205  X122.4600  Y154.3132   
N14210  X120.9987  Y154.8836   
N14215  X121.1968  Y153.7502   
N14220  X123.4068  Y150.8847   
N14225  X134.1909  Y139.5760   
N14230  X146.3595  Y126.8037   
N14235  X148.4024  Y123.7344   
N14240  X148.8929  Y121.4706   
N14245 G0  Z0.1000 
N14250 G1  Z-1.4000  F100.00 
N14255  X148.6416  Y119.0853   F300.00 
N14260  X148.0375  Y118.0933   
N14265  X141.1976  Y124.3421   
N14270  X127.2431  Y138.2930   
N14275  X113.2490  Y152.7537   
N14280  X106.2905  Y160.5322   
N14285  X105.2544  Y163.3069   
N14290  X105.0569  Y165.9998   
N14295  X105.6308  Y168.5220   
N14300  X106.9079  Y170.7849   
N14305  X108.8204  Y172.6995   
N14310  X111.3007  Y174.1768   
N14315  X114.2809  Y175.1283   
N14320  X117.6932  Y175.4654   
N14325  X119.9895  Y175.8031   
N14330  X121.2536  Y176.6834   
N14335  X121.3559  Y177.9069   
N14340  X120.1669  Y179.2745   
N14345  X118.6438  Y179.9019   
N14350  X116.0024  Y180.3606   
N14355  X107.2293  Y180.7872   
N14360  X96.2149  Y180.8934   
N14365  X105.0817  Y183.0061   
N14370  X113.5458  Y184.5218   
N14375  X122.4369  Y185.4760   
N14380  X128.6580  Y185.6395   
N14385  X129.7993  Y185.3533   
N14390  X129.1119  Y184.7835   
N14395  X127.1455  Y183.9156   
N14400  X126.2857  Y183.1758   
N14405  X126.3341  Y182.1294   
N14410  X127.0944  Y180.3413   
N14415  X127.6993  Y178.2875   
N14420  X127.6781  Y176.2865   
N14425  X127.0882  Y174.4068   
N14430  X125.9876  Y172.7164   
N14435  X124.4343  Y171.2829   
N14440  X122.4860  Y170.1749   
N14445  X120.2004  Y169.4599   
N14450  X117.6352  Y169.2065   
N14455  X114.7549  Y169.0081   
N14460  X112.8019  Y168.3816   
N14465  X111.6916  Y167.2789   
N14470  X111.3403  Y165.6526   
N14475  X111.8022  Y163.2159   
N14480  X113.5668  Y161.7543   
N14485  X117.2044  Y161.0384   
N14490  X123.2841  Y160.8388   
N14495  X130.6107  Y160.4296   
N14500  X136.2386  Y159.1486   
N14505  X140.5571  Y156.8564   
N14510  X143.9567  Y153.4125   
N14515  X145.8293  Y150.3084   
N14520  X147.4021  Y146.6868   
N14525  X148.3199  Y143.5167   
N14530  X148.2270  Y141.7671   
N14535  X146.0573  Y143.3647   
N14540  X141.4853  Y147.8506   
N14545  X137.5334  Y151.6544   
N14550  X134.2439  Y154.2387   
N14555  X131.9937  Y155.3523   
N14560  X131.3760  Y155.2786   
N14565  X131.1598  Y154.7429   
N14570  X140.0264  Y145.2145   
N14575  X147.0372  Y137.6351   
N14580  X148.4739  Y135.3166   
N14585  X148.8929  Y133.5026   
N14590  X148.6584  Y131.4602   
N14595  X148.0943  Y130.6110   
N14600  X143.8896  Y134.2610   
N14605  X134.9021  Y143.0368   
N14610  X125.3258  Y152.0961   
N14615  X122.4600  Y154.3132   
N14620  X120.9987  Y154.8836   
N14625  X121.1968  Y153.7502   
N14630  X123.4068  Y150.8847   
N14635  X134.1909  Y139.5760   
N14640  X146.3595  Y126.8037   
N14645  X148.4024  Y123.7344   
N14650  X148.8929  Y121.4706   
N14655 G0  Z3.0000 
N14660  X166.1949  Y132.4363 
N14665  Z0.1000 
N14670 G1  Z-0.7000  F100.00 
N14675  X151.5172  Y118.0933   F300.00 
N14680  X150.9793  Y121.4975   
N14685  X151.4589  Y123.7684   
N14690  X153.4752  Y126.8111   
N14695  X165.5829  Y139.4776   
N14700  X180.1867  Y154.7520   
N14705  X179.9380  Y155.3286   
N14710  X179.1932  Y155.2999   
N14715  X176.2268  Y153.4341   
N14720  X164.4616  Y142.5285   
N14725  X155.8340  Y134.1117   
N14730  X151.7786  Y130.6110   
N14735  X151.2141  Y131.4602   
N14740  X150.9793  Y133.5026   
N14745  X151.3980  Y135.3166   
N14750  X152.8351  Y137.6351   
N14755  X159.8459  Y145.2145   
N14760  X168.7124  Y154.8079   
N14765  X168.5199  Y155.2866   
N14770  X167.9567  Y155.3369   
N14775  X165.7981  Y154.2080   
N14780  X157.9186  Y147.4180   
N14785  X150.7756  Y140.5208   
N14790  X151.5246  Y144.1716   
N14795  X152.6597  Y148.2066   
N14800  X154.3023  Y151.6547   
N14805  X156.4741  Y154.5308   
N14810  X159.1974  Y156.8502   
N14815  X162.4944  Y158.6276   
N14820  X166.3871  Y159.8790   
N14825  X170.8982  Y160.6185   
N14830  X176.0494  Y160.8616   
N14835  X181.8346  Y161.0771   
N14840  X185.6992  Y161.7693   
N14845  X187.8595  Y163.0080   
N14850  X188.5316  Y164.8623   
N14855  X188.1180  Y166.7834   
N14860  X186.8622  Y168.1388   
N14865  X184.7433  Y168.9419   
N14870  X181.7396  Y169.2065   
N14875  X179.2567  Y169.4599   
N14880  X177.0707  Y170.1799   
N14885  X175.2277  Y171.3059   
N14890  X173.7738  Y172.7776   
N14895  X172.7554  Y174.5343   
N14900  X172.2184  Y176.5163   
N14905  X172.2096  Y178.6627   
N14910  X172.7746  Y180.9129   
N14915  X173.2504  Y182.4186   
N14920  X173.1907  Y183.3884   
N14925  X172.4810  Y184.0676   
N14930  X171.0073  Y184.7016   
N14935  X168.1908  Y185.7321   
N14940  X171.3201  Y185.9349   
N14945  X180.1678  Y185.9520   
N14950  X185.7436  Y185.1640   
N14955  X195.2616  Y182.6820   
N14960  X203.6571  Y180.8934   
N14965  X192.1828  Y180.7713   
N14970  X183.6513  Y180.4141   
N14975  X179.2523  Y179.7272   
N14980  X178.2331  Y178.4332   
N14985  X178.5338  Y177.0379   
N14990  X179.9019  Y175.9219   
N14995  X182.0847  Y175.4654   
N15000  X187.2797  Y174.6721   
N15005  X189.4483  Y173.7196   
N15010  X191.2907  Y172.4319   
N15015  X192.7763  Y170.8352   
N15020  X193.8751  Y168.9558   
N15025  X194.5566  Y166.8194   
N15030  X194.7905  Y164.4530   
N15035  X194.2432  Y162.1895   
N15040  X190.9480  Y157.9499   
N15045  X166.1949  Y132.4363   
N15050 G0  Z0.1000 
N15055 G1  Z-1.4000  F100.00 
N15060  X151.5172  Y118.0933   F300.00 
N15065  X150.9793  Y121.4975   
N15070  X151.4589  Y123.7684   
N15075  X153.4752  Y126.8111   
N15080  X165.5829  Y139.4776   
N15085  X180.1867  Y154.7520   
N15090  X179.9380  Y155.3286   
N15095  X179.1932  Y155.2999   
N15100  X176.2268  Y153.4341   
N15105  X164.4616  Y142.5285   
N15110  X155.8340  Y134.1117   
N15115  X151.7786  Y130.6110   
N15120  X151.2141  Y131.4602   
N15125  X150.9793  Y133.5026   
N15130  X151.3980  Y135.3166   
N15135  X152.8351  Y137.6351   
N15140  X159.8459  Y145.2145   
N15145  X168.7124  Y154.8079   
N15150  X168.5199  Y155.2866   
N15155  X167.9567  Y155.3369   
N15160  X165.7981  Y154.2080   
N15165  X157.9186  Y147.4180   
N15170  X150.7756  Y140.5208   
N15175  X151.5246  Y144.1716   
N15180  X152.6597  Y148.2066   
N15185  X154.3023  Y151.6547   
N15190  X156.4741  Y154.5308   
N15195  X159.1974  Y156.8502   
N15200  X162.4944  Y158.6276   
N15205  X166.3871  Y159.8790   
N15210  X170.8982  Y160.6185   
N15215  X176.0494  Y160.8616   
N15220  X181.8346  Y161.0771   
N15225  X185.6992  Y161.7693   
N15230  X187.8595  Y163.0080   
N15235  X188.5316  Y164.8623   
N15240  X188.1180  Y166.7834   
N15245  X186.8622  Y168.1388   
N15250  X184.7433  Y168.9419   
N15255  X181.7396  Y169.2065   
N15260  X179.2567  Y169.4599   
N15265  X177.0707  Y170.1799   
N15270  X175.2277  Y171.3059   
N15275  X173.7738  Y172.7776   
N15280  X172.7554  Y174.5343   
N15285  X172.2184  Y176.5163   
N15290  X172.2096  Y178.6627   
N15295  X172.7746  Y180.9129   
N15300  X173.2504  Y182.4186   
N15305  X173.1907  Y183.3884   
N15310  X172.4810  Y184.0676   
N15315  X171.0073  Y184.7016   
N15320  X168.1908  Y185.7321   
N15325  X171.3201  Y185.9349   
N15330  X180.1678  Y185.9520   
N15335  X185.7436  Y185.1640   
N15340  X195.2616  Y182.6820   
N15345  X203.6571  Y180.8934   
N15350  X192.1828  Y180.7713   
N15355  X183.6513  Y180.4141   
N15360  X179.2523  Y179.7272   
N15365  X178.2331  Y178.4332   
N15370  X178.5338  Y177.0379   
N15375  X179.9019  Y175.9219   
N15380  X182.0847  Y175.4654   
N15385  X187.2797  Y174.6721   
N15390  X189.4483  Y173.7196   
N15395  X191.2907  Y172.4319   
N15400  X192.7763  Y170.8352   
N15405  X193.8751  Y168.9558   
N15410  X194.5566  Y166.8194   
N15415  X194.7905  Y164.4530   
N15420  X194.2432  Y162.1895   
N15425  X190.9480  Y157.9499   
N15430  X166.1949  Y132.4363   
N15435 G0  Z3.0000 
N15440  X156.5640  Y162.3764 
N15445  Z0.1000 
N15450 G1  Z-0.7000  F100.00 
N15455  X153.2990  Y160.3553   F300.00 
N15460  X149.6667  Y159.7196   
N15465  X146.1185  Y160.4630   
N15470  X143.1060  Y162.5786   
N15475  X141.0542  Y165.1979   
N15480  X140.4746  Y166.8827   
N15485  X140.7286  Y167.3106   
N15490  X141.3404  Y167.4274   
N15495  X143.6255  Y166.6258   
N15500  X146.7486  Y165.5015   
N15505  X149.9361  Y165.0341   
N15510  X153.1234  Y165.5015   
N15515  X156.2467  Y166.6258   
N15520  X158.8272  Y167.6950   
N15525  X159.2341  Y167.4108   
N15530  X159.3243  Y166.5758   
N15535  X158.5135  Y164.6653   
N15540  X156.5640  Y162.3764   
N15545 G0  Z0.1000 
N15550 G1  Z-1.4000  F100.00 
N15555  X153.2990  Y160.3553   F300.00 
N15560  X149.6667  Y159.7196   
N15565  X146.1185  Y160.4630   
N15570  X143.1060  Y162.5786   
N15575  X141.0542  Y165.1979   
N15580  X140.4746  Y166.8827   
N15585  X140.7286  Y167.3106   
N15590  X141.3404  Y167.4274   
N15595  X143.6255  Y166.6258   
N15600  X146.7486  Y165.5015   
N15605  X149.9361  Y165.0341   
N15610  X153.1234  Y165.5015   
N15615  X156.2467  Y166.6258   
N15620  X158.8272  Y167.6950   
N15625  X159.2341  Y167.4108   
N15630  X159.3243  Y166.5758   
N15635  X158.5135  Y164.6653   
N15640  X156.5640  Y162.3764   
N15645 G0  Z3.0000 
N15650  X140.5480  Y170.6912 
N15655  Z0.1000 
N15660 G1  Z-0.7000  F100.00 
N15665  X140.2996  Y170.0152   F300.00 
N15670  X139.5166  Y169.5628   
N15675  X136.1147  Y169.2527   
N15680  X131.6814  Y169.2988   
N15685  X135.8081  Y171.4742   
N15690  X139.9350  Y173.6496   
N15695  X136.8512  Y176.2179   
N15700  X133.7675  Y178.7863   
N15705  X137.8279  Y178.0938   
N15710  X141.8883  Y177.4013   
N15715  X141.2836  Y181.1273   
N15720  X141.0636  Y183.5877   
N15725  X141.4519  Y184.6676   
N15730  X142.4850  Y184.3873   
N15735  X144.1988  Y182.7672   
N15740  X145.8186  Y181.2186   
N15745  X146.9437  Y180.8484   
N15750  X147.7394  Y181.6988   
N15755  X148.3713  Y183.8104   
N15760  X149.1144  Y186.0204   
N15765  X149.9361  Y186.9397   
N15770  X150.7575  Y186.0204   
N15775  X151.5006  Y183.8104   
N15780  X152.0870  Y181.6855   
N15785  X152.8123  Y180.8724   
N15790  X153.9726  Y181.3118   
N15795  X155.8626  Y182.9452   
N15800  X157.6912  Y184.4156   
N15805  X158.6859  Y184.5667   
N15810  X158.8816  Y183.3680   
N15815  X158.3121  Y180.7893   
N15820  X157.3358  Y177.3847   
N15825  X161.7203  Y178.0678   
N15830  X166.1044  Y178.7508   
N15835  X163.0207  Y176.2002   
N15840  X159.9369  Y173.6496   
N15845  X164.0639  Y171.4742   
N15850  X168.1908  Y169.2988   
N15855  X163.7576  Y169.2527   
N15860  X160.2805  Y169.5714   
N15865  X159.5443  Y170.0708   
N15870  X159.3243  Y170.8515   
N15875  X158.4286  Y172.9089   
N15880  X156.2751  Y175.5455   
N15885  X152.9530  Y177.9403   
N15890  X149.5384  Y178.7100   
N15895  X146.2356  Y177.8575   
N15900  X143.2485  Y175.3853   
N15905  X141.3413  Y172.6827   
N15910  X140.5480  Y170.6912   
N15915 G0  Z0.1000 
N15920 G1  Z-1.4000  F100.00 
N15925  X140.2996  Y170.0152   F300.00 
N15930  X139.5166  Y169.5628   
N15935  X136.1147  Y169.2527   
N15940  X131.6814  Y169.2988   
N15945  X135.8081  Y171.4742   
N15950  X139.9350  Y173.6496   
N15955  X136.8512  Y176.2179   
N15960  X133.7675  Y178.7863   
N15965  X137.8279  Y178.0938   
N15970  X141.8883  Y177.4013   
N15975  X141.2836  Y181.1273   
N15980  X141.0636  Y183.5877   
N15985  X141.4519  Y184.6676   
N15990  X142.4850  Y184.3873   
N15995  X144.1988  Y182.7672   
N16000  X145.8186  Y181.2186   
N16005  X146.9437  Y180.8484   
N16010  X147.7394  Y181.6988   
N16015  X148.3713  Y183.8104   
N16020  X149.1144  Y186.0204   
N16025  X149.9361  Y186.9397   
N16030  X150.7575  Y186.0204   
N16035  X151.5006  Y183.8104   
N16040  X152.0870  Y181.6855   
N16045  X152.8123  Y180.8724   
N16050  X153.9726  Y181.3118   
N16055  X155.8626  Y182.9452   
N16060  X157.6912  Y184.4156   
N16065  X158.6859  Y184.5667   
N16070  X158.8816  Y183.3680   
N16075  X158.3121  Y180.7893   
N16080  X157.3358  Y177.3847   
N16085  X161.7203  Y178.0678   
N16090  X166.1044  Y178.7508   
N16095  X163.0207  Y176.2002   
N16100  X159.9369  Y173.6496   
N16105  X164.0639  Y171.4742   
N16110  X168.1908  Y169.2988   
N16115  X163.7576  Y169.2527   
N16120  X160.2805  Y169.5714   
N16125  X159.5443  Y170.0708   
N16130  X159.3243  Y170.8515   
N16135  X158.4286  Y172.9089   
N16140  X156.2751  Y175.5455   
N16145  X152.9530  Y177.9403   
N16150  X149.5384  Y178.7100   
N16155  X146.2356  Y177.8575   
N16160  X143.2485  Y175.3853   
N16165  X141.3413  Y172.6827   
N16170  X140.5480  Y170.6912   
N16175 G0  Z3.0000 
N16180  X117.4034  Y183.4798 
N16185  Z0.1000 
N16190 G1  Z-0.7000  F100.00 
N16195  X118.5557  Y183.6817   F300.00 
N16200  X119.4029  Y183.3976   
N16205  X119.2606  Y182.9765   
N16210  X118.0338  Y182.8497   
N16215  X116.9510  Y183.0587   
N16220  X117.4034  Y183.4798   
N16225 G0  Z0.1000 
N16230 G1  Z-1.4000  F100.00 
N16235  X118.5557  Y183.6817   F300.00 
N16240  X119.4029  Y183.3976   
N16245  X119.2606  Y182.9765   
N16250  X118.0338  Y182.8497   
N16255  X116.9510  Y183.0587   
N16260  X117.4034  Y183.4798   
N16265 G0  Z3.0000 
N16270  X99.8660  Y203.9776 
N16275  Z0.1000 
N16280 G1  Z-0.7000  F100.00 
N16285  X99.4547  Y200.1700   F300.00 
N16290  X98.6700  Y199.5834   
N16295  X97.2581  Y199.4574   
N16300  X95.7539  Y199.6174   
N16305  X94.9792  Y200.7153   
N16310  X94.6504  Y209.4295   
N16315  Y219.4020   
N16320  X97.8693  Y218.8946   
N16325  X100.4994  Y218.1234   
N16330  X102.3025  Y216.9818   
N16335  X105.8416  Y213.6340   
N16340  X107.2488  Y212.5843   
N16345  X108.4162  Y212.4373   
N16350  X109.9446  Y213.3667   
N16355  X112.4341  Y215.5474   
N16360  X116.1858  Y218.3212   
N16365  X118.9759  Y219.0791   
N16370  X120.2347  Y218.6604   
N16375  X120.9544  Y217.3585   
N16380  X121.5499  Y209.1063   
N16385  X121.8500  Y199.4574   
N16390  X118.6814   
N16395  X116.8688  Y199.5529   
N16400  X115.9262  Y200.1641   
N16405  X115.5687  Y201.7771   
N16410  X115.5128  Y204.8777   
N16415  Y210.2977   
N16420  X111.8619  Y206.7592   
N16425  X108.2110  Y203.2206   
N16430  X104.7523  Y206.5729   
N16435  X102.0997  Y208.7308   
N16440  X100.5798  Y209.2116   
N16445  X100.0757  Y207.3795   
N16450  X99.8660  Y203.9776   
N16455 G0  Z0.1000 
N16460 G1  Z-1.4000  F100.00 
N16465  X99.4547  Y200.1700   F300.00 
N16470  X98.6700  Y199.5834   
N16475  X97.2581  Y199.4574   
N16480  X95.7539  Y199.6174   
N16485  X94.9792  Y200.7153   
N16490  X94.6504  Y209.4295   
N16495  Y219.4020   
N16500  X97.8693  Y218.8946   
N16505  X100.4994  Y218.1234   
N16510  X102.3025  Y216.9818   
N16515  X105.8416  Y213.6340   
N16520  X107.2488  Y212.5843   
N16525  X108.4162  Y212.4373   
