N5 (File Name = lisa on Monday, November 20, 2023)
N10 (Default Mill Post)
N15  G91.1
N20 G0  Z5.0000 
N25 M3 S4000 
N30  X21.3178  Y5.4431 
N35  Z0.1000 
N40 G1  Z-0.7000  F100.00 
N45  X21.0133  Y5.8699   F300.00 
N50  X20.9177  Y6.3303   
N55  X21.0295  Y6.8224   
N60  X21.3473  Y7.3444   
N65  X22.5951  Y8.4706   
N70  X24.6494  Y9.6942   
N75  X26.6472  Y10.8714   
N80  X27.6545  Y11.9153   
N85  X28.3410  Y12.8115   
N90  X29.1111  Y13.4731   
N95  X29.9389  Y13.8828   
N100  X30.7986  Y14.0232   
N105  X31.6385  Y14.1629   
N110  X32.2791  Y14.5523   
N115  X32.5676  Y14.9608   
N120  X32.7266  Y15.6957   
N125  X32.8083  Y19.5898   
N130  X32.5696  Y26.0249   
N135  X32.3280  Y28.3529   
N140  X32.0554  Y29.4282   
N145  X31.7019  Y29.4480   
N150  X31.1127  Y29.2269   
N155  X30.4873  Y29.0050   
N160  X30.0169  Y29.1438   
N165  X29.6166  Y29.7120   
N170  X29.2018  Y30.7784   
N175  X28.8652  Y32.2645   
N180  X28.7750  Y33.9548   
N185  X28.9301  Y35.7992   
N190  X29.3297  Y37.7474   
N195  X29.8979  Y40.4565   
N200  X29.4571  Y41.1951   
N205  X28.1119  Y42.3244   
N210  X26.6702  Y43.4711   
N215  X25.8040  Y44.4338   
N220  X25.3590  Y45.4450   
N225  X25.1808  Y46.7370   
N230  X25.2282  Y48.3475   
N235  X25.7608  Y49.8699   
N240  X26.2913  Y51.3449   
N245  X26.1671  Y52.7360   
N250  X25.8481  Y54.0195   
N255  X25.4293  Y55.0493   
N260  X24.8275  Y55.9853   
N265  X23.9600  Y56.9875   
N270  X23.1386  Y58.0331   
N275  X22.7659  Y59.0334   
N280  X22.8208  Y60.1269   
N285  X23.2824  Y61.4521   
N290  X23.6943  Y62.9064   
N295  X23.7454  Y65.1666   
N300  X23.7873  Y67.3986   
N305  X23.9574  Y67.9604   
N310  X24.2729  Y68.4377   
N315  X25.1646  Y69.6728   
N320  X25.8023  Y70.8177   
N325  X26.2210  Y71.9474   
N330  X26.4558  Y73.1375   
N335  X27.1223  Y76.2078   
N340  X27.9055  Y77.8827   
N345  X29.1607  Y79.9220   
N350  X30.5824  Y81.8706   
N355  X31.8650  Y83.2735   
N360  X32.7944  Y84.2798   
N365  X33.2070  Y85.2452   
N370  X33.8798  Y87.0062   
N375  X34.4544  Y87.6518   
N380  X35.2906  Y88.2636   
N385  X36.1927  Y88.7212   
N390  X36.9649  Y88.9042   
N395  X37.6294  Y88.9977   
N400  X37.9410  Y89.4020   
N405  X37.9499  Y90.3249   
N410  X37.7063  Y91.9739   
N415  X37.3325  Y93.7271   
N420  X36.8458  Y95.0360   
N425  X36.1651  Y96.0629   
N430  X35.2093  Y96.9699   
N435  X33.6733  Y97.6334   
N440  X30.9042  Y98.4856   
N445  X27.9416  Y99.3783   
N450  X25.9404  Y100.1392   
N455  X24.2931  Y101.2069   
N460  X23.1464  Y102.4438   
N465  X22.5665  Y103.7522   
N470  X22.5100  Y104.4026   
N475  X22.6201  Y105.0341   
N480  X23.5874  Y106.4995   
N485  X24.1692  Y107.3241   
N490  X24.2024  Y107.6197   
N495  X24.0932  Y107.9199   
N500  X23.8273  Y108.7279   
N505  X23.8225  Y109.5906   
N510  X24.0654  Y110.4136   
N515  X24.5426  Y111.1022   
N520  X25.6222  Y111.9489   
N525  X25.8390  Y112.1836   
N530  X25.6433  Y112.7858   
N535  X25.2248  Y113.3455   
N540  X24.5826  Y113.5064   
N545  X23.9964  Y113.6182   
N550  X23.4869  Y113.8946   
N555  X23.1706  Y114.2468   
N560  X23.1642  Y114.5860   
N565  X23.4685  Y114.7578   
N570  X23.9891  Y114.8293   
N575  X24.5205  Y114.9466   
N580  X24.4889  Y115.5253   
N585  X24.4715  Y116.1891   
N590  X24.8020  Y116.7820   
N595  X25.7117  Y118.2809   
N600  X25.9962  Y119.1474   
N605  X25.7475  Y119.7361   
N610  X24.4855  Y121.8318   
N615  X23.2985  Y124.4180   
N620  X22.4786  Y126.7752   
N625  X22.2976  Y127.6430   
N630  X22.3180  Y128.1837   
N635  X22.7346  Y128.6610   
N640  X23.6078  Y129.0888   
N645  X26.7837  Y129.8178   
N650  X30.2232  Y130.5051   
N655  X31.3230  Y131.3375   
N660  X32.9531  Y132.9754   
N665  X34.7069  Y134.7777   
N670  X36.4372  Y136.2654   
N675  X38.2097  Y137.4659   
N680  X40.0902  Y138.4069   
N685  X42.1444  Y139.1159   
N690  X44.4380  Y139.6205   
N695  X47.0367  Y139.9483   
N700  X50.0062  Y140.1267   
N705  X53.2793  Y140.3337   
N710  X55.1048  Y140.6478   
N715  X56.9568  Y141.0172   
N720  X57.9953  Y140.8552   
N725  X59.0423  Y140.4335   
N730  X59.9521  Y139.8286   
N735  X60.5791  Y139.1169   
N740  X61.6054  Y137.8951   
N745  X63.3494  Y136.1822   
N750  X65.3592  Y134.1925   
N755  X67.0804  Y132.1591   
N760  X68.5192  Y130.0684   
N765  X69.6820  Y127.9066   
N770  X70.5754  Y125.6600   
N775  X71.2055  Y123.3150   
N780  X71.5789  Y120.8577   
N785  X71.7020  Y118.2745   
N790  Y116.4664   
N795  X73.0911  Y115.4733   
N800  X76.6290  Y112.7108   
N805  X80.0607  Y109.6355   
N810  X82.4027  Y107.0547   
N815  X84.4745  Y104.2299   
N820  X85.9539  Y101.6514   
N825  X86.3707  Y100.6077   
N830  X86.5186  Y99.8096   
N835  X86.4002  Y99.0526   
N840  X85.9527  Y98.6207   
N845  X85.0376  Y98.4529   
N850  X83.5166  Y98.4883   
N855  X81.2776  Y98.8347   
N860  X78.4991  Y99.5885   
N865  X75.4162  Y100.6761   
N870  X72.2639  Y102.0235   
N875  X69.3966  Y103.1876   
N880  X69.1821  Y103.0716   
N885  X69.1799  Y102.7019   
N890  X69.8402  Y101.0710   
N895  X70.7714  Y98.5774   
N900  X71.2511  Y97.0099   
N905  X70.5358  Y96.3946   
N910  X70.0655  Y96.0597   
N915  X69.4651  Y95.8747   
N920  X66.8141  Y95.7793   
N925  X63.3893  Y95.6187   
N930  X63.1886  Y95.4605   
N935  X63.0598  Y95.1361   
N940  X62.9708  Y93.7839   
N945  X62.9081  Y92.2562   
N950  X62.6632  Y91.3373   
N955  X62.1509  Y90.8709   
N960  X61.2858  Y90.7011   
N965  X60.1055  Y90.6199   
N970  X60.6782  Y89.4293   
N975  X61.3425  Y88.4183   
N980  X62.1609  Y87.7095   
N985  X63.6298  Y86.6427   
N990  X64.8203  Y85.2645   
N995  X65.8143  Y83.4552   
N1000  X66.6942  Y81.0950   
N1005  X67.3232  Y79.4502   
N1010  X68.1677  Y77.9037   
N1015  X69.3290  Y76.2961   
N1020  X70.9086  Y74.4679   
N1025  X72.6907  Y72.4251   
N1030  X73.6684  Y70.9146   
N1035  X74.0604  Y69.4641   
N1040  X74.0852  Y67.6012   
N1045  X74.0128  Y62.0956   
N1050  X74.2458  Y60.7546   
N1055  X74.7234  Y59.5308   
N1060  X75.3023  Y57.9669   
N1065  X75.6094  Y56.6210   
N1070  X75.5430  Y55.4088   
N1075  X74.8369  Y54.1196   
N1080  X73.7142  Y52.8394   
N1085  X72.2522  Y51.6030   
N1090  X71.0181  Y50.6484   
N1095  X70.4366  Y50.0466   
N1100  X70.5891  Y49.5531   
N1105  X71.1200  Y48.8591   
N1110  X72.0373  Y47.7306   
N1115  X72.6654  Y46.5454   
N1120  X73.0254  Y45.2507   
N1125  X73.1384  Y43.7933   
N1130  X72.9582  Y41.9694   
N1135  X72.4068  Y40.3186   
N1140  X71.4550  Y38.7791   
N1145  X70.0737  Y37.2891   
N1150  X68.4725  Y35.8074   
N1155  X68.7643  Y33.9266   
N1160  X69.0562  Y30.3388   
N1165  X68.9776  Y29.1444   
N1170  X68.7147  Y28.5279   
N1175  X68.2269  Y28.4517   
N1180  X67.4733  Y28.8782   
N1185  X66.8956  Y29.2255   
N1190  X66.4509  Y29.3038   
N1195  X66.1366  Y29.0992   
N1200  X65.9500  Y28.5974   
N1205  X65.9495  Y26.6462   
N1210  X66.4280  Y23.3373   
N1215  X67.2135  Y19.3528   
N1220  X68.0065  Y16.1498   
N1225  X68.7360  Y13.9797   
N1230  X69.0546  Y13.3606   
N1235  X69.3306  Y13.0940   
N1240  X70.8161  Y12.2074   
N1245  X71.5218  Y11.5607   
N1250  X72.1382  Y10.7428   
N1255  X73.0167  Y8.8680   
N1260  X73.2354  Y7.9480   
N1265  X73.2784  Y7.1310   
N1270  X73.1239  Y6.4856   
N1275  X72.7503  Y6.0803   
N1280  X70.8743  Y5.7709   
N1285  X67.3106  Y5.5341   
N1290  X63.3249  Y5.4275   
N1295  X60.1833  Y5.5087   
N1300  X57.8084  Y5.8354   
N1305  X57.0208  Y6.0919   
N1310  X56.4646  Y6.4423   
N1315  X56.1132  Y6.9105   
N1320  X55.9401  Y7.5203   
N1325  X56.0231  Y9.2607   
N1330  X56.1237  Y10.3281   
N1335  X55.9628  Y11.9149   
N1340  X54.1630  Y21.0346   
N1345  X53.0241  Y26.5909   
N1350  X52.0246  Y26.6741   
N1355  X51.1613  Y26.8871   
N1360  X50.7543  Y27.5340   
N1365  X50.5114  Y28.0408   
N1370  X50.2141  Y28.2687   
N1375  X49.8307  Y28.2262   
N1380  X49.3292  Y27.9222   
N1385  X48.7579  Y27.5931   
N1390  X48.3015  Y27.5323   
N1395  X47.9990  Y27.7325   
N1400  X47.8895  Y28.1867   
N1405  X47.7663  Y28.7105   
N1410  X47.4612  Y29.0086   
N1415  X47.0716  Y29.0357   
N1420  X46.6944  Y28.7461   
N1425  X46.2803  Y27.2799   
N1430  X45.8671  Y24.4440   
N1435  X45.5446  Y21.0044   
N1440  X45.4025  Y17.7273   
N1445  X45.4806  Y14.5106   
N1450  X45.6684  Y13.6483   
N1455  X46.0115  Y12.8325   
N1460  X46.5223  Y11.1072   
N1465  X46.8037  Y8.9209   
N1470  X46.8090  Y6.9494   
N1475  X46.6936  Y6.2555   
N1480  X46.4917  Y5.8687   
N1485  X44.2757  Y5.5586   
N1490  X37.9310  Y5.2895   
N1495  X25.1427  Y5.0342   
N1500  X22.3744  Y5.1532   
N1505  X21.3178  Y5.4431   
N1510 G0  Z0.1000 
N1515 G1  Z-1.0000  F100.00 
N1520  X21.0133  Y5.8699   F300.00 
N1525  X20.9177  Y6.3303   
N1530  X21.0295  Y6.8224   
N1535  X21.3473  Y7.3444   
N1540  X22.5951  Y8.4706   
N1545  X24.6494  Y9.6942   
N1550  X26.6472  Y10.8714   
N1555  X27.6545  Y11.9153   
N1560  X28.3410  Y12.8115   
N1565  X29.1111  Y13.4731   
N1570  X29.9389  Y13.8828   
N1575  X30.7986  Y14.0232   
N1580  X31.6385  Y14.1629   
N1585  X32.2791  Y14.5523   
N1590  X32.5676  Y14.9608   
N1595  X32.7266  Y15.6957   
N1600  X32.8083  Y19.5898   
N1605  X32.5696  Y26.0249   
N1610  X32.3280  Y28.3529   
N1615  X32.0554  Y29.4282   
N1620  X31.7019  Y29.4480   
N1625  X31.1127  Y29.2269   
N1630  X30.4873  Y29.0050   
N1635  X30.0169  Y29.1438   
N1640  X29.6166  Y29.7120   
N1645  X29.2018  Y30.7784   
N1650  X28.8652  Y32.2645   
N1655  X28.7750  Y33.9548   
N1660  X28.9301  Y35.7992   
N1665  X29.3297  Y37.7474   
N1670  X29.8979  Y40.4565   
N1675  X29.4571  Y41.1951   
N1680  X28.1119  Y42.3244   
N1685  X26.6702  Y43.4711   
N1690  X25.8040  Y44.4338   
N1695  X25.3590  Y45.4450   
N1700  X25.1808  Y46.7370   
N1705  X25.2282  Y48.3475   
N1710  X25.7608  Y49.8699   
N1715  X26.2913  Y51.3449   
N1720  X26.1671  Y52.7360   
N1725  X25.8481  Y54.0195   
N1730  X25.4293  Y55.0493   
N1735  X24.8275  Y55.9853   
N1740  X23.9600  Y56.9875   
N1745  X23.1386  Y58.0331   
N1750  X22.7659  Y59.0334   
N1755  X22.8208  Y60.1269   
N1760  X23.2824  Y61.4521   
N1765  X23.6943  Y62.9064   
N1770  X23.7454  Y65.1666   
N1775  X23.7873  Y67.3986   
N1780  X23.9574  Y67.9604   
N1785  X24.2729  Y68.4377   
N1790  X25.1646  Y69.6728   
N1795  X25.8023  Y70.8177   
N1800  X26.2210  Y71.9474   
N1805  X26.4558  Y73.1375   
N1810  X27.1223  Y76.2078   
N1815  X27.9055  Y77.8827   
N1820  X29.1607  Y79.9220   
N1825  X30.5824  Y81.8706   
N1830  X31.8650  Y83.2735   
N1835  X32.7944  Y84.2798   
N1840  X33.2070  Y85.2452   
N1845  X33.8798  Y87.0062   
N1850  X34.4544  Y87.6518   
N1855  X35.2906  Y88.2636   
N1860  X36.1927  Y88.7212   
N1865  X36.9649  Y88.9042   
N1870  X37.6294  Y88.9977   
N1875  X37.9410  Y89.4020   
N1880  X37.9499  Y90.3249   
N1885  X37.7063  Y91.9739   
N1890  X37.3325  Y93.7271   
N1895  X36.8458  Y95.0360   
N1900  X36.1651  Y96.0629   
N1905  X35.2093  Y96.9699   
N1910  X33.6733  Y97.6334   
N1915  X30.9042  Y98.4856   
N1920  X27.9416  Y99.3783   
N1925  X25.9404  Y100.1392   
N1930  X24.2931  Y101.2069   
N1935  X23.1464  Y102.4438   
N1940  X22.5665  Y103.7522   
N1945  X22.5100  Y104.4026   
N1950  X22.6201  Y105.0341   
N1955  X23.5874  Y106.4995   
N1960  X24.1692  Y107.3241   
N1965  X24.2024  Y107.6197   
N1970  X24.0932  Y107.9199   
N1975  X23.8273  Y108.7279   
N1980  X23.8225  Y109.5906   
N1985  X24.0654  Y110.4136   
N1990  X24.5426  Y111.1022   
N1995  X25.6222  Y111.9489   
N2000  X25.8390  Y112.1836   
N2005  X25.6433  Y112.7858   
N2010  X25.2248  Y113.3455   
N2015  X24.5826  Y113.5064   
N2020  X23.9964  Y113.6182   
N2025  X23.4869  Y113.8946   
N2030  X23.1706  Y114.2468   
N2035  X23.1642  Y114.5860   
N2040  X23.4685  Y114.7578   
N2045  X23.9891  Y114.8293   
N2050  X24.5205  Y114.9466   
N2055  X24.4889  Y115.5253   
N2060  X24.4715  Y116.1891   
N2065  X24.8020  Y116.7820   
N2070  X25.7117  Y118.2809   
N2075  X25.9962  Y119.1474   
N2080  X25.7475  Y119.7361   
N2085  X24.4855  Y121.8318   
N2090  X23.2985  Y124.4180   
N2095  X22.4786  Y126.7752   
N2100  X22.2976  Y127.6430   
N2105  X22.3180  Y128.1837   
N2110  X22.7346  Y128.6610   
N2115  X23.6078  Y129.0888   
N2120  X26.7837  Y129.8178   
N2125  X30.2232  Y130.5051   
N2130  X31.3230  Y131.3375   
N2135  X32.9531  Y132.9754   
N2140  X34.7069  Y134.7777   
N2145  X36.4372  Y136.2654   
N2150  X38.2097  Y137.4659   
N2155  X40.0902  Y138.4069   
N2160  X42.1444  Y139.1159   
N2165  X44.4380  Y139.6205   
N2170  X47.0367  Y139.9483   
N2175  X50.0062  Y140.1267   
N2180  X53.2793  Y140.3337   
N2185  X55.1048  Y140.6478   
N2190  X56.9568  Y141.0172   
N2195  X57.9953  Y140.8552   
N2200  X59.0423  Y140.4335   
N2205  X59.9521  Y139.8286   
N2210  X60.5791  Y139.1169   
N2215  X61.6054  Y137.8951   
N2220  X63.3494  Y136.1822   
N2225  X65.3592  Y134.1925   
N2230  X67.0804  Y132.1591   
N2235  X68.5192  Y130.0684   
N2240  X69.6820  Y127.9066   
N2245  X70.5754  Y125.6600   
N2250  X71.2055  Y123.3150   
N2255  X71.5789  Y120.8577   
N2260  X71.7020  Y118.2745   
N2265  Y116.4664   
N2270  X73.0911  Y115.4733   
N2275  X76.6290  Y112.7108   
N2280  X80.0607  Y109.6355   
N2285  X82.4027  Y107.0547   
N2290  X84.4745  Y104.2299   
N2295  X85.9539  Y101.6514   
N2300  X86.3707  Y100.6077   
N2305  X86.5186  Y99.8096   
N2310  X86.4002  Y99.0526   
N2315  X85.9527  Y98.6207   
N2320  X85.0376  Y98.4529   
N2325  X83.5166  Y98.4883   
N2330  X81.2776  Y98.8347   
N2335  X78.4991  Y99.5885   
N2340  X75.4162  Y100.6761   
N2345  X72.2639  Y102.0235   
N2350  X69.3966  Y103.1876   
N2355  X69.1821  Y103.0716   
N2360  X69.1799  Y102.7019   
N2365  X69.8402  Y101.0710   
N2370  X70.7714  Y98.5774   
N2375  X71.2511  Y97.0099   
N2380  X70.5358  Y96.3946   
N2385  X70.0655  Y96.0597   
N2390  X69.4651  Y95.8747   
N2395  X66.8141  Y95.7793   
N2400  X63.3893  Y95.6187   
N2405  X63.1886  Y95.4605   
N2410  X63.0598  Y95.1361   
N2415  X62.9708  Y93.7839   
N2420  X62.9081  Y92.2562   
N2425  X62.6632  Y91.3373   
N2430  X62.1509  Y90.8709   
N2435  X61.2858  Y90.7011   
N2440  X60.1055  Y90.6199   
N2445  X60.6782  Y89.4293   
N2450  X61.3425  Y88.4183   
N2455  X62.1609  Y87.7095   
N2460  X63.6298  Y86.6427   
N2465  X64.8203  Y85.2645   
N2470  X65.8143  Y83.4552   
N2475  X66.6942  Y81.0950   
N2480  X67.3232  Y79.4502   
N2485  X68.1677  Y77.9037   
N2490  X69.3290  Y76.2961   
N2495  X70.9086  Y74.4679   
N2500  X72.6907  Y72.4251   
N2505  X73.6684  Y70.9146   
N2510  X74.0604  Y69.4641   
N2515  X74.0852  Y67.6012   
N2520  X74.0128  Y62.0956   
N2525  X74.2458  Y60.7546   
N2530  X74.7234  Y59.5308   
N2535  X75.3023  Y57.9669   
N2540  X75.6094  Y56.6210   
N2545  X75.5430  Y55.4088   
N2550  X74.8369  Y54.1196   
N2555  X73.7142  Y52.8394   
N2560  X72.2522  Y51.6030   
N2565  X71.0181  Y50.6484   
N2570  X70.4366  Y50.0466   
N2575  X70.5891  Y49.5531   
N2580  X71.1200  Y48.8591   
N2585  X72.0373  Y47.7306   
N2590  X72.6654  Y46.5454   
N2595  X73.0254  Y45.2507   
N2600  X73.1384  Y43.7933   
N2605  X72.9582  Y41.9694   
N2610  X72.4068  Y40.3186   
N2615  X71.4550  Y38.7791   
N2620  X70.0737  Y37.2891   
N2625  X68.4725  Y35.8074   
N2630  X68.7643  Y33.9266   
N2635  X69.0562  Y30.3388   
N2640  X68.9776  Y29.1444   
N2645  X68.7147  Y28.5279   
N2650  X68.2269  Y28.4517   
N2655  X67.4733  Y28.8782   
N2660  X66.8956  Y29.2255   
N2665  X66.4509  Y29.3038   
N2670  X66.1366  Y29.0992   
N2675  X65.9500  Y28.5974   
N2680  X65.9495  Y26.6462   
N2685  X66.4280  Y23.3373   
N2690  X67.2135  Y19.3528   
N2695  X68.0065  Y16.1498   
N2700  X68.7360  Y13.9797   
N2705  X69.0546  Y13.3606   
N2710  X69.3306  Y13.0940   
N2715  X70.8161  Y12.2074   
N2720  X71.5218  Y11.5607   
N2725  X72.1382  Y10.7428   
N2730  X73.0167  Y8.8680   
N2735  X73.2354  Y7.9480   
N2740  X73.2784  Y7.1310   
N2745  X73.1239  Y6.4856   
N2750  X72.7503  Y6.0803   
N2755  X70.8743  Y5.7709   
N2760  X67.3106  Y5.5341   
N2765  X63.3249  Y5.4275   
N2770  X60.1833  Y5.5087   
N2775  X57.8084  Y5.8354   
N2780  X57.0208  Y6.0919   
N2785  X56.4646  Y6.4423   
N2790  X56.1132  Y6.9105   
N2795  X55.9401  Y7.5203   
N2800  X56.0231  Y9.2607   
N2805  X56.1237  Y10.3281   
N2810  X55.9628  Y11.9149   
N2815  X54.1630  Y21.0346   
N2820  X53.0241  Y26.5909   
N2825  X52.0246  Y26.6741   
N2830  X51.1613  Y26.8871   
N2835  X50.7543  Y27.5340   
N2840  X50.5114  Y28.0408   
N2845  X50.2141  Y28.2687   
N2850  X49.8307  Y28.2262   
N2855  X49.3292  Y27.9222   
N2860  X48.7579  Y27.5931   
N2865  X48.3015  Y27.5323   
N2870  X47.9990  Y27.7325   
N2875  X47.8895  Y28.1867   
N2880  X47.7663  Y28.7105   
N2885  X47.4612  Y29.0086   
N2890  X47.0716  Y29.0357   
N2895  X46.6944  Y28.7461   
N2900  X46.2803  Y27.2799   
N2905  X45.8671  Y24.4440   
N2910  X45.5446  Y21.0044   
N2915  X45.4025  Y17.7273   
N2920  X45.4806  Y14.5106   
N2925  X45.6684  Y13.6483   
N2930  X46.0115  Y12.8325   
N2935  X46.5223  Y11.1072   
N2940  X46.8037  Y8.9209   
N2945  X46.8090  Y6.9494   
N2950  X46.6936  Y6.2555   
N2955  X46.4917  Y5.8687   
N2960  X44.2757  Y5.5586   
N2965  X37.9310  Y5.2895   
N2970  X25.1427  Y5.0342   
N2975  X22.3744  Y5.1532   
N2980  X21.3178  Y5.4431   
N2985 G0  Z5.0000 
N2990  X25.4000  Y7.6732 
N2995  Z0.1000 
N3000 G1  Z-0.7000  F100.00 
N3005  X25.2445  Y7.4863   F300.00 
N3010  X24.8708  Y7.4086   
N3015  X24.4971  Y7.4863   
N3020  X24.3416  Y7.6732   
N3025  X24.4971  Y7.8600   
N3030  X24.8708  Y7.9378   
N3035  X25.2445  Y7.8600   
N3040  X25.4000  Y7.6732   
N3045 G0  Z0.1000 
N3050 G1  Z-1.0000  F100.00 
N3055  X25.2445  Y7.4863   F300.00 
N3060  X24.8708  Y7.4086   
N3065  X24.4971  Y7.4863   
N3070  X24.3416  Y7.6732   
N3075  X24.4971  Y7.8600   
N3080  X24.8708  Y7.9378   
N3085  X25.2445  Y7.8600   
N3090  X25.4000  Y7.6732   
N3095 G0  Z5.0000 
N3100  X28.9586  Y7.6552 
N3105  Z0.1000 
N3110 G1  Z-0.7000  F100.00 
N3115  X28.9857  Y7.5520   F300.00 
N3120  X28.8401  Y7.4745   
N3125  X28.0767  Y7.4086   
N3130  X27.2406  Y7.4873   
N3135  X27.0727  Y7.5901   
N3140  X27.0593  Y7.7393   
N3145  X27.3544  Y7.9368   
N3150  X27.9076  Y7.9825   
N3155  X28.5114  Y7.8856   
N3160  X28.9586  Y7.6552   
N3165 G0  Z0.1000 
N3170 G1  Z-1.0000  F100.00 
N3175  X28.9857  Y7.5520   F300.00 
N3180  X28.8401  Y7.4745   
N3185  X28.0767  Y7.4086   
N3190  X27.2406  Y7.4873   
N3195  X27.0727  Y7.5901   
N3200  X27.0593  Y7.7393   
N3205  X27.3544  Y7.9368   
N3210  X27.9076  Y7.9825   
N3215  X28.5114  Y7.8856   
N3220  X28.9586  Y7.6552   
N3225 G0  Z5.0000 
N3230  X30.2846  Y9.3528 
N3235  Z0.1000 
N3240 G1  Z-0.7000  F100.00 
N3245  X29.8458  Y9.1064   F300.00 
N3250  X29.3899  Y9.0272   
N3255  X28.1781  Y9.3724   
N3260  X27.3843  Y9.7249   
N3265  X28.1292  Y10.0220   
N3270  X29.2907  Y10.2970   
N3275  X30.2112  Y10.2231   
N3280  X30.6295  Y9.8814   
N3285  X30.5688  Y9.6354   
N3290  X30.2846  Y9.3528   
N3295 G0  Z0.1000 
N3300 G1  Z-1.0000  F100.00 
N3305  X29.8458  Y9.1064   F300.00 
N3310  X29.3899  Y9.0272   
N3315  X28.1781  Y9.3724   
N3320  X27.3843  Y9.7249   
N3325  X28.1292  Y10.0220   
N3330  X29.2907  Y10.2970   
N3335  X30.2112  Y10.2231   
N3340  X30.6295  Y9.8814   
N3345  X30.5688  Y9.6354   
N3350  X30.2846  Y9.3528   
N3355 G0  Z5.0000 
N3360  X33.7104  Y7.6345 
N3365  Z0.1000 
N3370 G1  Z-0.7000  F100.00 
N3375  X33.2048  Y7.4617   F300.00 
N3380  X32.2684  Y7.4144   
N3385  X31.3314  Y7.4868   
N3390  X30.8239  Y7.6732   
N3395  X30.7393  Y7.9864   
N3400  X30.8837  Y8.2383   
N3405  X31.2304  Y8.4060   
N3410  X31.7531  Y8.4669   
N3415  X33.1521  Y8.1679   
N3420  X33.6165  Y7.8963   
N3425  X33.7104  Y7.6345   
N3430 G0  Z0.1000 
N3435 G1  Z-1.0000  F100.00 
N3440  X33.2048  Y7.4617   F300.00 
N3445  X32.2684  Y7.4144   
N3450  X31.3314  Y7.4868   
N3455  X30.8239  Y7.6732   
N3460  X30.7393  Y7.9864   
N3465  X30.8837  Y8.2383   
N3470  X31.2304  Y8.4060   
N3475  X31.7531  Y8.4669   
N3480  X33.1521  Y8.1679   
N3485  X33.6165  Y7.8963   
N3490  X33.7104  Y7.6345   
N3495 G0  Z5.0000 
N3500  X45.2138  Y7.8324 
N3505  Z0.1000 
N3510 G1  Z-0.7000  F100.00 
N3515  X41.6927  Y7.5864   F300.00 
N3520  X38.4738  Y7.6309   
N3525  X37.5708  Y9.1238   
N3530  X36.9145  Y10.1934   
N3535  X36.0413  Y11.2911   
N3540  X35.0787  Y12.2728   
N3545  X34.1537  Y12.9944   
N3550  X33.7995  Y13.2477   
N3555  X33.6485  Y13.5200   
N3560  X33.8538  Y14.7020   
N3565  X34.0639  Y16.3485   
N3570  X34.1567  Y18.9372   
N3575  X33.9707  Y25.1701   
N3580  X33.9168  Y27.1852   
N3585  X34.0639  Y27.6476   
N3590  X34.3641  Y28.0144   
N3595  X34.7602  Y28.5271   
N3600  X34.9250  Y28.9721   
N3605  X34.9926  Y29.2999   
N3610  X35.2004  Y29.3010   
N3615  X36.0666  Y28.3050   
N3620  X36.7535  Y27.5166   
N3625  X37.3439  Y27.2766   
N3630  X37.8855  Y27.5880   
N3635  X38.4259  Y28.4537   
N3640  X38.9991  Y29.3792   
N3645  X39.2608  Y29.5551   
N3650  X39.5443  Y29.5782   
N3655  X39.9499  Y29.3684   
N3660  X40.1742  Y28.9721   
N3665  X40.4103  Y28.3930   
N3670  X40.8445  Y27.8363   
N3675  X41.3640  Y27.4176   
N3680  X41.8557  Y27.2523   
N3685  X42.4446  Y27.5933   
N3690  X43.1834  Y28.4429   
N3695  X43.7746  Y29.1802   
N3700  X44.2558  Y29.5596   
N3705  X44.6253  Y29.5802   
N3710  X44.8816  Y29.2414   
N3715  X44.5833  Y25.2066   
N3720  X44.2689  Y21.2740   
N3725  X44.2129  Y17.2531   
N3730  X44.4018  Y13.8970   
N3735  X44.5838  Y12.7035   
N3740  X44.8219  Y11.9586   
N3745  X45.2217  Y10.8444   
N3750  X45.4456  Y9.5185   
N3755  X45.4557  Y8.3810   
N3760  X45.2138  Y7.8324   
N3765 G0  Z0.1000 
N3770 G1  Z-1.0000  F100.00 
N3775  X41.6927  Y7.5864   F300.00 
N3780  X38.4738  Y7.6309   
N3785  X37.5708  Y9.1238   
N3790  X36.9145  Y10.1934   
N3795  X36.0413  Y11.2911   
N3800  X35.0787  Y12.2728   
N3805  X34.1537  Y12.9944   
N3810  X33.7995  Y13.2477   
N3815  X33.6485  Y13.5200   
N3820  X33.8538  Y14.7020   
N3825  X34.0639  Y16.3485   
N3830  X34.1567  Y18.9372   
N3835  X33.9707  Y25.1701   
N3840  X33.9168  Y27.1852   
N3845  X34.0639  Y27.6476   
N3850  X34.3641  Y28.0144   
N3855  X34.7602  Y28.5271   
N3860  X34.9250  Y28.9721   
N3865  X34.9926  Y29.2999   
N3870  X35.2004  Y29.3010   
N3875  X36.0666  Y28.3050   
N3880  X36.7535  Y27.5166   
N3885  X37.3439  Y27.2766   
N3890  X37.8855  Y27.5880   
N3895  X38.4259  Y28.4537   
N3900  X38.9991  Y29.3792   
N3905  X39.2608  Y29.5551   
N3910  X39.5443  Y29.5782   
N3915  X39.9499  Y29.3684   
N3920  X40.1742  Y28.9721   
N3925  X40.4103  Y28.3930   
N3930  X40.8445  Y27.8363   
N3935  X41.3640  Y27.4176   
N3940  X41.8557  Y27.2523   
N3945  X42.4446  Y27.5933   
N3950  X43.1834  Y28.4429   
N3955  X43.7746  Y29.1802   
N3960  X44.2558  Y29.5596   
N3965  X44.6253  Y29.5802   
N3970  X44.8816  Y29.2414   
N3975  X44.5833  Y25.2066   
N3980  X44.2689  Y21.2740   
N3985  X44.2129  Y17.2531   
N3990  X44.4018  Y13.8970   
N3995  X44.5838  Y12.7035   
N4000  X44.8219  Y11.9586   
N4005  X45.2217  Y10.8444   
N4010  X45.4456  Y9.5185   
N4015  X45.4557  Y8.3810   
N4020  X45.2138  Y7.8324   
N4025 G0  Z5.0000 
N4030  X58.6910  Y12.1802 
N4035  Z0.1000 
N4040 G1  Z-0.7000  F100.00 
N4045  X57.6613  Y11.6730   F300.00 
N4050  X57.4249  Y11.7270   
N4055  X57.2828  Y11.9726   
N4060  X56.0918  Y17.9919   
N4065  X54.5781  Y25.4609   
N4070  X54.3154  Y27.2692   
N4075  X54.4749  Y27.5138   
N4080  X54.8260  Y27.3008   
N4085  X55.2199  Y27.0797   
N4090  X55.7271  Y26.9877   
N4095  X56.2545  Y27.1952   
N4100  X56.6269  Y27.9323   
N4105  X56.9481  Y28.6382   
N4110  X57.2827  Y29.0089   
N4115  X57.8931  Y28.8216   
N4120  X58.8777  Y28.1860   
N4125  X59.8484  Y27.5396   
N4130  X60.4253  Y27.3264   
N4135  X61.2510  Y28.2529   
N4140  X61.7073  Y28.8523   
N4145  X62.0964  Y29.0446   
N4150  X62.4808  Y28.8276   
N4155  X62.9232  Y28.1996   
N4160  X63.4763  Y27.5258   
N4165  X64.0591  Y27.2074   
N4170  X64.4067  Y27.0594   
N4175  X64.6599  Y26.5162   
N4180  X65.2549  Y22.9056   
N4185  X66.3941  Y16.6699   
N4190  X66.8361  Y14.9595   
N4195  X66.8902  Y14.4490   
N4200  X66.7953  Y14.1129   
N4205  X66.5231  Y13.9096   
N4210  X66.0453  Y13.7975   
N4215  X64.3598  Y13.6807   
N4220  X62.5883  Y13.5176   
N4225  X61.1320  Y13.2340   
N4230  X59.8724  Y12.7987   
N4235  X58.6910  Y12.1802   
N4240 G0  Z0.1000 
N4245 G1  Z-1.0000  F100.00 
N4250  X57.6613  Y11.6730   F300.00 
N4255  X57.4249  Y11.7270   
N4260  X57.2828  Y11.9726   
N4265  X56.0918  Y17.9919   
N4270  X54.5781  Y25.4609   
N4275  X54.3154  Y27.2692   
N4280  X54.4749  Y27.5138   
N4285  X54.8260  Y27.3008   
N4290  X55.2199  Y27.0797   
N4295  X55.7271  Y26.9877   
N4300  X56.2545  Y27.1952   
N4305  X56.6269  Y27.9323   
N4310  X56.9481  Y28.6382   
N4315  X57.2827  Y29.0089   
N4320  X57.8931  Y28.8216   
N4325  X58.8777  Y28.1860   
N4330  X59.8484  Y27.5396   
N4335  X60.4253  Y27.3264   
N4340  X61.2510  Y28.2529   
N4345  X61.7073  Y28.8523   
N4350  X62.0964  Y29.0446   
N4355  X62.4808  Y28.8276   
N4360  X62.9232  Y28.1996   
N4365  X63.4763  Y27.5258   
N4370  X64.0591  Y27.2074   
N4375  X64.4067  Y27.0594   
N4380  X64.6599  Y26.5162   
N4385  X65.2549  Y22.9056   
N4390  X66.3941  Y16.6699   
N4395  X66.8361  Y14.9595   
N4400  X66.8902  Y14.4490   
N4405  X66.7953  Y14.1129   
N4410  X66.5231  Y13.9096   
N4415  X66.0453  Y13.7975   
N4420  X64.3598  Y13.6807   
N4425  X62.5883  Y13.5176   
N4430  X61.1320  Y13.2340   
N4435  X59.8724  Y12.7987   
N4440  X58.6910  Y12.1802   
N4445 G0  Z5.0000 
N4450  X60.7824  Y7.8329 
N4455  Z0.1000 
N4460 G1  Z-0.7000  F100.00 
N4465  X60.7464  Y7.7262   F300.00 
N4470  X60.4352  Y7.6940   
N4475  X60.1605  Y7.7470   
N4480  X60.2753  Y7.8538   
N4485  X60.7824  Y7.8329   
N4490 G0  Z0.1000 
N4495 G1  Z-1.0000  F100.00 
N4500  X60.7464  Y7.7262   F300.00 
N4505  X60.4352  Y7.6940   
N4510  X60.1605  Y7.7470   
N4515  X60.2753  Y7.8538   
N4520  X60.7824  Y7.8329   
N4525 G0  Z5.0000 
N4530  X64.5583  Y8.2023 
N4535  Z0.1000 
N4540 G1  Z-0.7000  F100.00 
N4545  X64.2250  Y7.8311   F300.00 
N4550  X63.8213  Y7.6815   
N4555  X63.3159  Y7.8696   
N4560  X62.6827  Y8.3033   
N4565  X62.1416  Y8.8071   
N4570  X61.9124  Y9.2055   
N4575  X62.1121  Y9.5123   
N4580  X62.6558  Y9.7798   
N4585  X64.4442  Y10.1566   
N4590  X66.6154  Y10.2564   
N4595  X68.5069  Y9.9993   
N4600  X69.4372  Y9.6246   
N4605  X69.8244  Y9.2862   
N4610  X69.6319  Y9.0853   
N4615  X68.8232  Y9.1230   
N4620  X67.9105  Y9.1895   
N4625  X67.7657  Y9.0514   
N4630  X67.7332  Y8.7679   
N4635  X67.8693  Y8.3078   
N4640  X68.1963  Y7.9589   
N4645  X68.4575  Y7.7352   
N4650  X67.9727  Y7.6812   
N4655  X67.3471  Y7.8310   
N4660  X66.8072  Y8.2023   
N4665  X66.2506  Y8.5761   
N4670  X65.5849  Y8.7315   
N4675  X64.9618  Y8.5931   
N4680  X64.5583  Y8.2023   
N4685 G0  Z0.1000 
N4690 G1  Z-1.0000  F100.00 
N4695  X64.2250  Y7.8311   F300.00 
N4700  X63.8213  Y7.6815   
N4705  X63.3159  Y7.8696   
N4710  X62.6827  Y8.3033   
N4715  X62.1416  Y8.8071   
N4720  X61.9124  Y9.2055   
N4725  X62.1121  Y9.5123   
N4730  X62.6558  Y9.7798   
N4735  X64.4442  Y10.1566   
N4740  X66.6154  Y10.2564   
N4745  X68.5069  Y9.9993   
N4750  X69.4372  Y9.6246   
N4755  X69.8244  Y9.2862   
N4760  X69.6319  Y9.0853   
N4765  X68.8232  Y9.1230   
N4770  X67.9105  Y9.1895   
N4775  X67.7657  Y9.0514   
N4780  X67.7332  Y8.7679   
N4785  X67.8693  Y8.3078   
N4790  X68.1963  Y7.9589   
N4795  X68.4575  Y7.7352   
N4800  X67.9727  Y7.6812   
N4805  X67.3471  Y7.8310   
N4810  X66.8072  Y8.2023   
N4815  X66.2506  Y8.5761   
N4820  X65.5849  Y8.7315   
N4825  X64.9618  Y8.5931   
N4830  X64.5583  Y8.2023   
N4835 G0  Z5.0000 
N4840  X71.7020  Y7.9378 
N4845  Z0.1000 
N4850 G1  Z-0.7000  F100.00 
N4855  X71.5077  Y7.7509   F300.00 
N4860  X71.0405  Y7.6732   
N4865  X70.5734  Y7.7509   
N4870  X70.3791  Y7.9378   
N4875  X70.5734  Y8.1246   
N4880  X71.0405  Y8.2023   
N4885  X71.5077  Y8.1246   
N4890  X71.7020  Y7.9378   
N4895 G0  Z0.1000 
N4900 G1  Z-1.0000  F100.00 
N4905  X71.5077  Y7.7509   F300.00 
N4910  X71.0405  Y7.6732   
N4915  X70.5734  Y7.7509   
N4920  X70.3791  Y7.9378   
N4925  X70.5734  Y8.1246   
N4930  X71.0405  Y8.2023   
N4935  X71.5077  Y8.1246   
N4940  X71.7020  Y7.9378   
N4945 G0  Z5.0000 
N4950  X52.2551  Y29.6336 
N4955  Z0.1000 
N4960 G1  Z-0.7000  F100.00 
N4965  X51.9217  Y29.0823   F300.00 
N4970  X51.6425  Y28.8833   
N4975  X51.3690  Y29.0319   
N4980  X51.0524  Y29.5238   
N4985  X50.5785  Y30.1183   
N4990  X49.9532  Y30.5870   
N4995  X49.3961  Y31.0282   
N5000  X49.0860  Y31.5566   
N5005  X48.6779  Y33.4320   
N5010  X48.0701  Y35.3453   
N5015  X47.0798  Y37.2564   
N5020  X46.8902  Y37.6067   
N5025  X46.8752  Y37.8607   
N5030  X47.4926  Y38.4323   
N5035  X50.9322  Y41.5500   
N5040  X54.7525  Y44.9541   
N5045  X55.9769  Y45.7716   
N5050  X56.7941  Y46.0377   
N5055  X57.6838  Y45.7323   
N5060  X58.9434  Y44.9982   
N5065  X60.4762  Y44.1334   
N5070  X62.2996  Y43.3628   
N5075  X64.0776  Y42.8099   
N5080  X65.4739  Y42.5981   
N5085  X66.4286   
N5090  X66.2632  Y41.3414   
N5095  X66.2676  Y39.8768   
N5100  X66.6350  Y37.9679   
N5105  X67.6141  Y33.2578   
N5110  X67.8063  Y31.6144   
N5115  X67.7370  Y30.8544   
N5120  X67.3673  Y30.7494   
N5125  X66.7848  Y30.9186   
N5130  X66.2386  Y31.0764   
N5135  X65.7844  Y30.9724   
N5140  X65.3669  Y30.5746   
N5145  X64.9309  Y29.8513   
N5150  X64.5264  Y29.3111   
N5155  X64.0813  Y29.1397   
N5160  X63.6237  Y29.3362   
N5165  X63.1815  Y29.8998   
N5170  X62.6525  Y30.5107   
N5175  X62.0447  Y30.7143   
N5180  X61.4370  Y30.5107   
N5185  X60.9079  Y29.8998   
N5190  X60.4838  Y29.3399   
N5195  X60.0971  Y29.1061   
N5200  X59.4646  Y29.4215   
N5205  X58.4496  Y30.1822   
N5210  X57.4598  Y30.8935   
N5215  X56.8878  Y31.0903   
N5220  X56.0824  Y29.8802   
N5225  X55.6362  Y29.1454   
N5230  X55.3088  Y28.8398   
N5235  X54.1969  Y29.6336   
N5240  X53.4859  Y30.1941   
N5245  X52.9967  Y30.4273   
N5250  X52.6423  Y30.1941   
N5255  X52.2551  Y29.6336   
N5260 G0  Z0.1000 
N5265 G1  Z-1.0000  F100.00 
N5270  X51.9217  Y29.0823   F300.00 
N5275  X51.6425  Y28.8833   
N5280  X51.3690  Y29.0319   
N5285  X51.0524  Y29.5238   
N5290  X50.5785  Y30.1183   
N5295  X49.9532  Y30.5870   
N5300  X49.3961  Y31.0282   
N5305  X49.0860  Y31.5566   
N5310  X48.6779  Y33.4320   
N5315  X48.0701  Y35.3453   
N5320  X47.0798  Y37.2564   
N5325  X46.8902  Y37.6067   
N5330  X46.8752  Y37.8607   
N5335  X47.4926  Y38.4323   
N5340  X50.9322  Y41.5500   
N5345  X54.7525  Y44.9541   
N5350  X55.9769  Y45.7716   
N5355  X56.7941  Y46.0377   
N5360  X57.6838  Y45.7323   
N5365  X58.9434  Y44.9982   
N5370  X60.4762  Y44.1334   
N5375  X62.2996  Y43.3628   
N5380  X64.0776  Y42.8099   
N5385  X65.4739  Y42.5981   
N5390  X66.4286   
N5395  X66.2632  Y41.3414   
N5400  X66.2676  Y39.8768   
N5405  X66.6350  Y37.9679   
N5410  X67.6141  Y33.2578   
N5415  X67.8063  Y31.6144   
N5420  X67.7370  Y30.8544   
N5425  X67.3673  Y30.7494   
N5430  X66.7848  Y30.9186   
N5435  X66.2386  Y31.0764   
N5440  X65.7844  Y30.9724   
N5445  X65.3669  Y30.5746   
N5450  X64.9309  Y29.8513   
N5455  X64.5264  Y29.3111   
N5460  X64.0813  Y29.1397   
N5465  X63.6237  Y29.3362   
N5470  X63.1815  Y29.8998   
N5475  X62.6525  Y30.5107   
N5480  X62.0447  Y30.7143   
N5485  X61.4370  Y30.5107   
N5490  X60.9079  Y29.8998   
N5495  X60.4838  Y29.3399   
N5500  X60.0971  Y29.1061   
N5505  X59.4646  Y29.4215   
N5510  X58.4496  Y30.1822   
N5515  X57.4598  Y30.8935   
N5520  X56.8878  Y31.0903   
N5525  X56.0824  Y29.8802   
N5530  X55.6362  Y29.1454   
N5535  X55.3088  Y28.8398   
N5540  X54.1969  Y29.6336   
N5545  X53.4859  Y30.1941   
N5550  X52.9967  Y30.4273   
N5555  X52.6423  Y30.1941   
N5560  X52.2551  Y29.6336   
N5565 G0  Z5.0000 
N5570  X42.8413  Y30.1816 
N5575  Z0.1000 
N5580 G1  Z-0.7000  F100.00 
N5585  X42.3145  Y29.4208   F300.00 
N5590  X41.8981  Y29.1044   
N5595  X41.4051  Y29.4930   
N5600  X40.6943  Y30.4273   
N5605  X39.9471  Y31.3666   
N5610  X39.3721  Y31.7502   
N5615  X38.8470  Y31.4102   
N5620  X38.2183  Y30.5596   
N5625  X37.6317  Y29.7187   
N5630  X37.2013  Y29.3690   
N5635  X36.8116  Y29.7576   
N5640  X36.3231  Y30.6919   
N5645  X35.8530  Y31.5936   
N5650  X35.4054  Y31.9541   
N5655  X34.9348  Y31.7827   
N5660  X34.3958  Y31.0888   
N5665  X33.9443  Y30.4408   
N5670  X33.6144  Y30.2158   
N5675  X33.3475  Y30.4107   
N5680  X33.0852  Y31.0226   
N5685  X32.4037  Y32.3955   
N5690  X32.1683  Y32.6721   
N5695  X31.9621  Y32.7383   
N5700  X31.2302  Y32.1562   
N5705  X30.4450  Y31.4039   
N5710  X30.1715  Y32.1234   
N5715  X29.8979  Y33.8937   
N5720  X30.0649  Y35.3041   
N5725  X30.4562  Y37.1441   
N5730  X30.9070  Y38.7413   
N5735  X31.2525  Y39.4231   
N5740  X33.1383  Y38.1957   
N5745  X35.4659  Y36.7274   
N5750  X36.5678  Y36.2504   
N5755  X37.6577  Y35.9385   
N5760  X38.7574  Y35.7874   
N5765  X39.8886  Y35.7922   
N5770  X42.3333  Y36.2514   
N5775  X44.3552  Y36.8178   
N5780  X45.4208  Y36.9393   
N5785  X45.7391  Y36.8086   
N5790  X45.9912  Y36.5370   
N5795  X46.5276  Y35.5316   
N5800  X47.1662  Y34.1156   
N5805  X47.4878  Y32.9863   
N5810  X47.5068  Y32.0566   
N5815  X47.2376  Y31.2396   
N5820  X46.8084  Y30.5706   
N5825  X46.3661  Y30.2896   
N5830  X45.8318  Y30.3812   
N5835  X45.1270  Y30.8302   
N5840  X44.3565  Y31.2926   
N5845  X43.8187  Y31.4016   
N5850  X43.3781  Y30.9843   
N5855  X42.8413  Y30.1816   
N5860 G0  Z0.1000 
N5865 G1  Z-1.0000  F100.00 
N5870  X42.3145  Y29.4208   F300.00 
N5875  X41.8981  Y29.1044   
N5880  X41.4051  Y29.4930   
N5885  X40.6943  Y30.4273   
N5890  X39.9471  Y31.3666   
N5895  X39.3721  Y31.7502   
N5900  X38.8470  Y31.4102   
N5905  X38.2183  Y30.5596   
N5910  X37.6317  Y29.7187   
N5915  X37.2013  Y29.3690   
N5920  X36.8116  Y29.7576   
N5925  X36.3231  Y30.6919   
N5930  X35.8530  Y31.5936   
N5935  X35.4054  Y31.9541   
N5940  X34.9348  Y31.7827   
N5945  X34.3958  Y31.0888   
N5950  X33.9443  Y30.4408   
N5955  X33.6144  Y30.2158   
N5960  X33.3475  Y30.4107   
N5965  X33.0852  Y31.0226   
N5970  X32.4037  Y32.3955   
N5975  X32.1683  Y32.6721   
N5980  X31.9621  Y32.7383   
N5985  X31.2302  Y32.1562   
N5990  X30.4450  Y31.4039   
N5995  X30.1715  Y32.1234   
N6000  X29.8979  Y33.8937   
N6005  X30.0649  Y35.3041   
N6010  X30.4562  Y37.1441   
N6015  X30.9070  Y38.7413   
N6020  X31.2525  Y39.4231   
N6025  X33.1383  Y38.1957   
N6030  X35.4659  Y36.7274   
N6035  X36.5678  Y36.2504   
N6040  X37.6577  Y35.9385   
N6045  X38.7574  Y35.7874   
N6050  X39.8886  Y35.7922   
N6055  X42.3333  Y36.2514   
N6060  X44.3552  Y36.8178   
N6065  X45.4208  Y36.9393   
N6070  X45.7391  Y36.8086   
N6075  X45.9912  Y36.5370   
N6080  X46.5276  Y35.5316   
N6085  X47.1662  Y34.1156   
N6090  X47.4878  Y32.9863   
N6095  X47.5068  Y32.0566   
N6100  X47.2376  Y31.2396   
N6105  X46.8084  Y30.5706   
N6110  X46.3661  Y30.2896   
N6115  X45.8318  Y30.3812   
N6120  X45.1270  Y30.8302   
N6125  X44.3565  Y31.2926   
N6130  X43.8187  Y31.4016   
N6135  X43.3781  Y30.9843   
N6140  X42.8413  Y30.1816   
N6145 G0  Z5.0000 
N6150  X43.7251  Y37.9287 
N6155  Z0.1000 
N6160 G1  Z-0.7000  F100.00 
N6165  X41.8518  Y37.3919   F300.00 
N6170  X39.8197  Y37.1221   
N6175  X37.7832  Y37.1364   
N6180  X36.1156  Y37.8038   
N6185  X34.2665  Y38.9995   
N6190  X32.0500  Y40.7379   
N6195  X28.2751  Y43.8146   
N6200  X27.3191  Y44.5794   
N6205  X26.7692  Y45.2475   
N6210  X26.5181  Y46.0108   
N6215  X26.4583  Y47.0614   
N6220  X26.5178  Y48.1307   
N6225  X26.7521  Y49.0930   
N6230  X28.0791  Y51.6410   
N6235  X29.0029  Y53.5187   
N6240  X29.3700  Y55.8408   
N6245  X29.5704  Y57.4238   
N6250  X29.9193  Y58.7234   
N6255  X30.5604  Y60.1327   
N6260  X31.6373  Y62.0450   
N6265  X32.4114  Y63.3679   
N6270  Y68.4609   
N6275  X32.3816  Y71.5180   
N6280  X32.2520  Y73.1174   
N6285  X32.1309  Y73.4620   
N6290  X31.9622  Y73.5522   
N6295  X31.4516  Y73.1154   
N6300  X31.2778  Y72.6773   
N6305  X31.1660  Y71.7723   
N6310  X31.0885  Y68.0005   
N6315  Y63.3245   
N6320  X30.1796  Y61.8910   
N6325  X28.6722  Y59.2183   
N6330  X28.3198  Y58.2112   
N6335  X28.1335  Y57.1905   
N6340  X27.7962  Y55.8273   
N6345  X26.1975  Y56.7261   
N6350  X24.5460  Y58.0345   
N6355  X24.2329  Y58.6146   
N6360  X24.1010  Y59.2991   
N6365  X24.1545  Y60.0110   
N6370  X24.3979  Y60.6733   
N6375  X24.6666  Y61.9778   
N6380  X24.8622  Y64.3025   
N6385  X25.1133  Y67.1233   
N6390  X25.4140  Y67.8631   
N6395  X25.9604  Y68.6681   
N6400  X26.8082  Y69.8948   
N6405  X27.3239  Y70.8880   
N6410  X27.6467  Y71.9968   
N6415  X27.9159  Y73.5704   
N6420  X28.3849  Y75.7310   
N6425  X29.1084  Y77.4911   
N6430  X29.9908  Y78.9416   
N6435  X31.0786  Y80.4421   
N6440  X32.1837  Y81.7517   
N6445  X33.1178  Y82.6289   
N6450  X33.8241  Y83.1509   
N6455  X35.1670  Y82.3246   
N6460  X36.7791  Y81.4732   
N6465  X38.4931  Y80.8531   
N6470  X40.3687  Y80.4474   
N6475  X42.4656  Y80.2391   
N6480  X44.7720  Y80.2369   
N6485  X46.7926  Y80.5522   
N6490  X48.8619  Y81.2692   
N6495  X51.3145  Y82.4726   
N6500  X59.5154  Y86.6159   
N6505  X60.6276  Y87.1098   
N6510  X62.0138  Y86.1551   
N6515  X63.0277  Y85.3390   
N6520  X63.8248  Y84.3567   
N6525  X64.5450  Y82.9916   
N6530  X65.3282  Y81.0272   
N6535  X66.1658  Y78.9153   
N6540  X66.9896  Y77.3113   
N6545  X68.0140  Y75.8612   
N6550  X69.4530  Y74.2111   
N6555  X71.5453  Y71.7726   
N6560  X72.2033  Y70.7884   
N6565  X72.6366  Y69.8665   
N6570  X72.8708  Y68.9360   
N6575  X72.9314  Y67.9260   
N6580  X72.6336  Y65.3845   
N6585  X72.3882  Y63.7331   
N6590  X72.3983  Y62.4915   
N6595  X72.7306  Y61.1588   
N6600  X73.4517  Y59.2341   
N6605  X74.0320  Y57.6576   
N6610  X74.2911  Y56.5929   
N6615  X74.2576  Y55.8033   
N6620  X73.9605  Y55.0519   
N6625  X73.4662  Y54.3449   
N6630  X72.7842  Y53.6525   
N6635  X72.0860  Y53.1260   
N6640  X71.5429  Y52.9169   
N6645  X71.1913  Y53.1306   
N6650  X70.8841  Y53.6445   
N6655  X70.4634  Y54.4527   
N6660  X69.8633  Y55.1019   
N6665  X69.0613  Y55.6110   
N6670  X68.0343  Y55.9988   
N6675  X66.3529  Y56.2859   
N6680  X64.4342  Y56.2956   
N6685  X62.5206  Y56.0433   
N6690  X60.8541  Y55.5443   
N6695  X59.1828  Y54.7076   
N6700  X58.0950  Y53.8945   
N6705  X57.6922  Y53.2072   
N6710  X57.7794  Y52.9427   
N6715  X58.0760  Y52.7480   
N6720  X58.4520  Y52.4853   
N6725  X58.4647  Y52.1933   
N6730  X58.1605  Y51.9563   
N6735  X57.5859  Y51.8585   
N6740  X56.7180  Y52.0231   
N6745  X55.8353  Y52.4619   
N6750  X55.0647  Y53.0928   
N6755  X54.5333  Y53.8336   
N6760  X54.3557  Y54.2948   
N6765  X54.3214  Y54.7639   
N6770  X54.7317  Y56.3560   
N6775  X55.1288  Y57.6869   
N6780  X55.2593  Y58.6426   
N6785  X55.1217  Y59.6033   
N6790  X54.7148  Y60.9493   
N6795  X54.1241  Y62.7641   
N6800  X54.9771  Y65.1827   
N6805  X55.5790  Y67.1070   
N6810  X55.8285  Y68.3373   
N6815  X55.7118  Y69.1782   
N6820  X55.4219  Y70.0133   
N6825  X55.0445  Y70.6532   
N6830  X54.6653  Y70.9085   
N6835  X54.4721  Y70.8367   
N6840  X54.3738  Y70.5681   
N6845  X54.4183  Y69.1226   
N6850  X54.4157  Y67.3522   
N6855  X53.8737  Y65.6374   
N6860  X53.3965  Y64.1877   
N6865  X53.2129  Y62.8645   
N6870  X53.3212  Y61.6089   
N6875  X53.7198  Y60.3619   
N6880  X54.2584  Y59.1100   
N6885  X53.7232  Y57.4025   
N6890  X53.2818  Y55.5847   
N6895  X53.2617  Y54.1560   
N6900  X53.6843  Y52.9791   
N6905  X54.5706  Y51.9167   
N6910  X56.3500  Y50.9226   
N6915  X58.1384  Y50.2710   
N6920  X58.1996  Y49.2335   
N6925  X58.0058  Y47.9981   
N6930  X56.5643  Y47.2899   
N6935  X55.2647  Y46.7306   
N6940  X53.9174  Y45.8675   
N6945  X52.3588  Y44.5796   
N6950  X50.4256  Y42.7459   
N6955  X48.4401  Y40.8629   
N6960  X46.8378  Y39.5591   
N6965  X45.3543  Y38.6444   
N6970  X43.7251  Y37.9287   
N6975 G0  Z0.1000 
N6980 G1  Z-1.0000  F100.00 
N6985  X41.8518  Y37.3919   F300.00 
N6990  X39.8197  Y37.1221   
N6995  X37.7832  Y37.1364   
N7000  X36.1156  Y37.8038   
N7005  X34.2665  Y38.9995   
N7010  X32.0500  Y40.7379   
N7015  X28.2751  Y43.8146   
N7020  X27.3191  Y44.5794   
N7025  X26.7692  Y45.2475   
N7030  X26.5181  Y46.0108   
N7035  X26.4583  Y47.0614   
N7040  X26.5178  Y48.1307   
N7045  X26.7521  Y49.0930   
N7050  X28.0791  Y51.6410   
N7055  X29.0029  Y53.5187   
N7060  X29.3700  Y55.8408   
N7065  X29.5704  Y57.4238   
N7070  X29.9193  Y58.7234   
N7075  X30.5604  Y60.1327   
N7080  X31.6373  Y62.0450   
N7085  X32.4114  Y63.3679   
N7090  Y68.4609   
N7095  X32.3816  Y71.5180   
N7100  X32.2520  Y73.1174   
N7105  X32.1309  Y73.4620   
N7110  X31.9622  Y73.5522   
N7115  X31.4516  Y73.1154   
N7120  X31.2778  Y72.6773   
N7125  X31.1660  Y71.7723   
N7130  X31.0885  Y68.0005   
N7135  Y63.3245   
N7140  X30.1796  Y61.8910   
N7145  X28.6722  Y59.2183   
N7150  X28.3198  Y58.2112   
N7155  X28.1335  Y57.1905   
N7160  X27.7962  Y55.8273   
N7165  X26.1975  Y56.7261   
N7170  X24.5460  Y58.0345   
N7175  X24.2329  Y58.6146   
N7180  X24.1010  Y59.2991   
N7185  X24.1545  Y60.0110   
N7190  X24.3979  Y60.6733   
N7195  X24.6666  Y61.9778   
N7200  X24.8622  Y64.3025   
N7205  X25.1133  Y67.1233   
N7210  X25.4140  Y67.8631   
N7215  X25.9604  Y68.6681   
N7220  X26.8082  Y69.8948   
N7225  X27.3239  Y70.8880   
N7230  X27.6467  Y71.9968   
N7235  X27.9159  Y73.5704   
N7240  X28.3849  Y75.7310   
N7245  X29.1084  Y77.4911   
N7250  X29.9908  Y78.9416   
N7255  X31.0786  Y80.4421   
N7260  X32.1837  Y81.7517   
N7265  X33.1178  Y82.6289   
N7270  X33.8241  Y83.1509   
N7275  X35.1670  Y82.3246   
N7280  X36.7791  Y81.4732   
N7285  X38.4931  Y80.8531   
N7290  X40.3687  Y80.4474   
N7295  X42.4656  Y80.2391   
N7300  X44.7720  Y80.2369   
N7305  X46.7926  Y80.5522   
N7310  X48.8619  Y81.2692   
N7315  X51.3145  Y82.4726   
N7320  X59.5154  Y86.6159   
N7325  X60.6276  Y87.1098   
N7330  X62.0138  Y86.1551   
N7335  X63.0277  Y85.3390   
N7340  X63.8248  Y84.3567   
N7345  X64.5450  Y82.9916   
N7350  X65.3282  Y81.0272   
N7355  X66.1658  Y78.9153   
N7360  X66.9896  Y77.3113   
N7365  X68.0140  Y75.8612   
N7370  X69.4530  Y74.2111   
N7375  X71.5453  Y71.7726   
N7380  X72.2033  Y70.7884   
N7385  X72.6366  Y69.8665   
N7390  X72.8708  Y68.9360   
N7395  X72.9314  Y67.9260   
N7400  X72.6336  Y65.3845   
N7405  X72.3882  Y63.7331   
N7410  X72.3983  Y62.4915   
N7415  X72.7306  Y61.1588   
N7420  X73.4517  Y59.2341   
N7425  X74.0320  Y57.6576   
N7430  X74.2911  Y56.5929   
N7435  X74.2576  Y55.8033   
N7440  X73.9605  Y55.0519   
N7445  X73.4662  Y54.3449   
N7450  X72.7842  Y53.6525   
N7455  X72.0860  Y53.1260   
N7460  X71.5429  Y52.9169   
N7465  X71.1913  Y53.1306   
N7470  X70.8841  Y53.6445   
N7475  X70.4634  Y54.4527   
N7480  X69.8633  Y55.1019   
N7485  X69.0613  Y55.6110   
N7490  X68.0343  Y55.9988   
N7495  X66.3529  Y56.2859   
N7500  X64.4342  Y56.2956   
N7505  X62.5206  Y56.0433   
N7510  X60.8541  Y55.5443   
N7515  X59.1828  Y54.7076   
N7520  X58.0950  Y53.8945   
N7525  X57.6922  Y53.2072   
N7530  X57.7794  Y52.9427   
N7535  X58.0760  Y52.7480   
N7540  X58.4520  Y52.4853   
N7545  X58.4647  Y52.1933   
N7550  X58.1605  Y51.9563   
N7555  X57.5859  Y51.8585   
N7560  X56.7180  Y52.0231   
N7565  X55.8353  Y52.4619   
N7570  X55.0647  Y53.0928   
N7575  X54.5333  Y53.8336   
N7580  X54.3557  Y54.2948   
N7585  X54.3214  Y54.7639   
N7590  X54.7317  Y56.3560   
N7595  X55.1288  Y57.6869   
N7600  X55.2593  Y58.6426   
N7605  X55.1217  Y59.6033   
N7610  X54.7148  Y60.9493   
N7615  X54.1241  Y62.7641   
N7620  X54.9771  Y65.1827   
N7625  X55.5790  Y67.1070   
N7630  X55.8285  Y68.3373   
N7635  X55.7118  Y69.1782   
N7640  X55.4219  Y70.0133   
N7645  X55.0445  Y70.6532   
N7650  X54.6653  Y70.9085   
N7655  X54.4721  Y70.8367   
N7660  X54.3738  Y70.5681   
N7665  X54.4183  Y69.1226   
N7670  X54.4157  Y67.3522   
N7675  X53.8737  Y65.6374   
N7680  X53.3965  Y64.1877   
N7685  X53.2129  Y62.8645   
N7690  X53.3212  Y61.6089   
N7695  X53.7198  Y60.3619   
N7700  X54.2584  Y59.1100   
N7705  X53.7232  Y57.4025   
N7710  X53.2818  Y55.5847   
N7715  X53.2617  Y54.1560   
N7720  X53.6843  Y52.9791   
N7725  X54.5706  Y51.9167   
N7730  X56.3500  Y50.9226   
N7735  X58.1384  Y50.2710   
N7740  X58.1996  Y49.2335   
N7745  X58.0058  Y47.9981   
N7750  X56.5643  Y47.2899   
N7755  X55.2647  Y46.7306   
N7760  X53.9174  Y45.8675   
N7765  X52.3588  Y44.5796   
N7770  X50.4256  Y42.7459   
N7775  X48.4401  Y40.8629   
N7780  X46.8378  Y39.5591   
N7785  X45.3543  Y38.6444   
N7790  X43.7251  Y37.9287   
N7795 G0  Z5.0000 
N7800  X67.0401  Y46.7979 
N7805  Z0.1000 
N7810 G1  Z-0.7000  F100.00 
N7815  X65.6447  Y44.6414   F300.00 
N7820  X65.1841  Y44.1096   
N7825  X64.8792  Y43.9387   
N7830  X63.4996  Y44.2592   
N7835  X61.6546  Y44.9606   
N7840  X60.0001  Y45.7612   
N7845  X59.1919  Y46.3798   
N7850  X59.4254  Y48.4232   
N7855  X59.7902  Y51.4921   
N7860  X59.9209  Y52.6374   
N7865  X60.3381  Y53.5033   
N7870  X61.0954  Y54.1593   
N7875  X62.2465  Y54.6749   
N7880  X63.2948  Y54.9371   
N7885  X64.4664  Y55.0716   
N7890  X66.8604  Y54.9973   
N7895  X68.7895  Y54.5318   
N7900  X69.3800  Y54.1773   
N7905  X69.6146  Y53.7549   
N7910  X69.5544  Y52.4040   
N7915  X69.1503  Y50.9160   
N7920  X68.3347  Y49.1082   
N7925  X67.0401  Y46.7979   
N7930 G0  Z0.1000 
N7935 G1  Z-1.0000  F100.00 
N7940  X65.6447  Y44.6414   F300.00 
N7945  X65.1841  Y44.1096   
N7950  X64.8792  Y43.9387   
N7955  X63.4996  Y44.2592   
N7960  X61.6546  Y44.9606   
N7965  X60.0001  Y45.7612   
N7970  X59.1919  Y46.3798   
N7975  X59.4254  Y48.4232   
N7980  X59.7902  Y51.4921   
N7985  X59.9209  Y52.6374   
N7990  X60.3381  Y53.5033   
N7995  X61.0954  Y54.1593   
N8000  X62.2465  Y54.6749   
N8005  X63.2948  Y54.9371   
N8010  X64.4664  Y55.0716   
N8015  X66.8604  Y54.9973   
N8020  X68.7895  Y54.5318   
N8025  X69.3800  Y54.1773   
N8030  X69.6146  Y53.7549   
N8035  X69.5544  Y52.4040   
N8040  X69.1503  Y50.9160   
N8045  X68.3347  Y49.1082   
N8050  X67.0401  Y46.7979   
N8055 G0  Z5.0000 
N8060  X69.4348  Y38.4653 
N8065  Z0.1000 
N8070 G1  Z-0.7000  F100.00 
N8075  X68.7455  Y37.9995   F300.00 
N8080  X68.2932  Y37.8921   
N8085  X67.9898  Y38.1619   
N8090  X67.7472  Y38.8278   
N8095  X67.4919  Y40.4983   
N8100  X67.6047  Y41.2200   
N8105  X67.8840  Y42.0113   
N8110  X68.1623  Y43.0824   
N8115  X68.1339  Y44.3490   
N8120  X68.1253  Y45.6808   
N8125  X68.7088  Y46.9287   
N8130  X69.3159  Y47.7943   
N8135  X69.7357  Y48.1544   
N8140  X70.5799  Y47.5591   
N8145  X71.0567  Y46.9079   
N8150  X71.4166  Y46.1189   
N8155  X71.7775  Y44.2683   
N8160  X71.6458  Y42.2889   
N8165  X71.3899  Y41.3389   
N8170  X71.0045  Y40.4622   
N8175  X70.2365  Y39.3116   
N8180  X69.4348  Y38.4653   
N8185 G0  Z0.1000 
N8190 G1  Z-1.0000  F100.00 
N8195  X68.7455  Y37.9995   F300.00 
N8200  X68.2932  Y37.8921   
N8205  X67.9898  Y38.1619   
N8210  X67.7472  Y38.8278   
N8215  X67.4919  Y40.4983   
N8220  X67.6047  Y41.2200   
N8225  X67.8840  Y42.0113   
N8230  X68.1623  Y43.0824   
N8235  X68.1339  Y44.3490   
N8240  X68.1253  Y45.6808   
N8245  X68.7088  Y46.9287   
N8250  X69.3159  Y47.7943   
N8255  X69.7357  Y48.1544   
N8260  X70.5799  Y47.5591   
N8265  X71.0567  Y46.9079   
N8270  X71.4166  Y46.1189   
N8275  X71.7775  Y44.2683   
N8280  X71.6458  Y42.2889   
N8285  X71.3899  Y41.3389   
N8290  X71.0045  Y40.4622   
N8295  X70.2365  Y39.3116   
N8300  X69.4348  Y38.4653   
N8305 G0  Z5.0000 
N8310  X46.6216  Y81.8804 
N8315  Z0.1000 
N8320 G1  Z-0.7000  F100.00 
N8325  X44.8426  Y81.5905   F300.00 
N8330  X42.9999  Y81.5328   
N8335  X41.0860  Y81.7075   
N8340  X39.0930  Y82.1147   
N8345  X37.5518  Y82.5713   
N8350  X36.4113  Y83.0683   
N8355  X35.5509  Y83.6722   
N8360  X34.8500  Y84.4492   
N8365  X34.4835  Y85.1471   
N8370  X34.7720  Y85.9498   
N8375  X35.5874  Y86.9041   
N8380  X36.6357  Y87.4437   
N8385  X37.5711  Y87.4699   
N8390  X37.8883  Y87.2597   
N8395  X38.0477  Y86.8841   
N8400  X37.9756  Y86.4255   
N8405  X37.5847  Y86.1813   
N8410  X37.1720  Y85.9543   
N8415  X37.0693  Y85.6035   
N8420  X37.2704  Y85.1767   
N8425  X37.7692  Y84.7221   
N8430  X38.6595  Y84.2149   
N8435  X39.7154  Y83.8081   
N8440  X42.1502  Y83.3141   
N8445  X44.7261  Y83.2769   
N8450  X47.0958  Y83.7332   
N8455  X49.1913  Y84.6090   
N8460  X52.1445  Y86.0306   
N8465  X57.1646  Y88.7777   
N8470  X58.6469  Y89.6351   
N8475  X58.9740  Y89.5843   
N8480  X59.2188  Y89.2594   
N8485  X59.3720  Y88.6917   
N8490  X59.0694  Y88.1481   
N8495  X58.2026  Y87.5199   
N8500  X56.6629  Y86.6982   
N8505  X53.0489  Y84.7935   
N8510  X49.5000  Y82.9248   
N8515  X46.6216  Y81.8804   
N8520 G0  Z0.1000 
N8525 G1  Z-1.0000  F100.00 
N8530  X44.8426  Y81.5905   F300.00 
N8535  X42.9999  Y81.5328   
N8540  X41.0860  Y81.7075   
N8545  X39.0930  Y82.1147   
N8550  X37.5518  Y82.5713   
N8555  X36.4113  Y83.0683   
N8560  X35.5509  Y83.6722   
N8565  X34.8500  Y84.4492   
N8570  X34.4835  Y85.1471   
N8575  X34.7720  Y85.9498   
N8580  X35.5874  Y86.9041   
N8585  X36.6357  Y87.4437   
N8590  X37.5711  Y87.4699   
N8595  X37.8883  Y87.2597   
N8600  X38.0477  Y86.8841   
N8605  X37.9756  Y86.4255   
N8610  X37.5847  Y86.1813   
N8615  X37.1720  Y85.9543   
N8620  X37.0693  Y85.6035   
N8625  X37.2704  Y85.1767   
N8630  X37.7692  Y84.7221   
N8635  X38.6595  Y84.2149   
N8640  X39.7154  Y83.8081   
N8645  X42.1502  Y83.3141   
N8650  X44.7261  Y83.2769   
N8655  X47.0958  Y83.7332   
N8660  X49.1913  Y84.6090   
N8665  X52.1445  Y86.0306   
N8670  X57.1646  Y88.7777   
N8675  X58.6469  Y89.6351   
N8680  X58.9740  Y89.5843   
N8685  X59.2188  Y89.2594   
N8690  X59.3720  Y88.6917   
N8695  X59.0694  Y88.1481   
N8700  X58.2026  Y87.5199   
N8705  X56.6629  Y86.6982   
N8710  X53.0489  Y84.7935   
N8715  X49.5000  Y82.9248   
N8720  X46.6216  Y81.8804   
N8725 G0  Z5.0000 
N8730  X50.0431  Y86.4593 
N8735  Z0.1000 
N8740 G1  Z-0.7000  F100.00 
N8745  Y86.4594   F300.00 
N8750  X46.5150  Y84.8800   
N8755  X45.4268  Y84.6170   
N8760  X44.2223  Y84.5161   
N8765  X42.4061  Y84.5428   
N8770  X40.8781  Y84.7428   
N8775  X39.5552  Y85.0662   
N8780  X39.3797  Y88.2400   
N8785  X39.1325  Y91.0501   
N8790  X38.7844  Y93.3493   
N8795  X38.3645  Y95.4058   
N8800  X37.2732  Y96.7106   
N8805  X36.4345  Y97.7628   
N8810  X36.3893  Y98.0590   
N8815  X36.5379  Y98.3237   
N8820  X37.2040  Y98.6019   
N8825  X38.3247  Y98.6323   
N8830  X39.6020  Y98.4356   
N8835  X40.7380  Y98.0324   
N8840  X41.4715  Y97.7438   
N8845  X41.8147  Y97.9133   
N8850  X41.9425  Y98.3207   
N8855  X41.7582  Y98.6885   
N8860  X41.2257  Y99.0537   
N8865  X40.3087  Y99.4532   
N8870  X39.0731  Y99.8358   
N8875  X37.9676  Y99.9862   
N8880  X36.9844  Y99.9046   
N8885  X36.1156  Y99.5912   
N8890  X35.2987  Y99.2948   
N8895  X34.4492  Y99.1695   
N8900  X32.9161  Y99.3569   
N8905  X30.8279  Y99.8457   
N8910  X28.6399  Y100.5129   
N8915  X26.8073  Y101.2354   
N8920  X24.9804  Y102.3020   
N8925  X24.3867  Y102.8391   
N8930  X24.0055  Y103.3800   
N8935  X23.8363  Y103.9256   
N8940  X23.8787  Y104.4768   
N8945  X24.1322  Y105.0345   
N8950  X24.5963  Y105.5998   
N8955  X25.0625  Y106.0269   
N8960  X25.4721  Y106.2401   
N8965  X26.7791  Y106.2080   
N8970  X28.3104  Y106.0162   
N8975  X30.3158  Y106.2037   
N8980  X32.0014  Y106.2770   
N8985  X33.3279  Y106.1007   
N8990  X34.2934  Y105.9279   
N8995  X35.0614  Y105.9565   
N9000  X35.5482  Y106.1705   
N9005  X35.6698  Y106.5534   
N9010  X35.2849  Y106.9571   
N9015  X34.3955  Y107.3058   
N9020  X32.3131  Y108.0115   
N9025  X31.7385  Y108.3929   
N9030  X31.3373  Y108.8633   
N9035  X31.0496  Y109.6299   
N9040  X31.0659  Y110.4700   
N9045  X31.3603  Y111.2477   
N9050  X31.9065  Y111.8269   
N9055  X32.3195  Y112.0524   
N9060  X32.7688  Y112.1273   
N9065  X34.5475  Y111.8248   
N9070  X37.4460  Y111.3897   
N9075  X38.3884  Y111.2435   
N9080  X38.9972  Y110.7694   
N9085  X39.3095  Y109.9138   
N9090  X39.3624  Y108.6234   
N9095  X39.4213  Y107.0645   
N9100  X39.6444  Y106.6049   
N9105  X40.0632  Y106.1202   
N9110  X40.9947  Y105.3731   
N9115  X42.1490  Y104.8279   
N9120  X43.4910  Y104.4969   
N9125  X44.9860  Y104.3924   
N9130  X46.6815  Y104.5653   
N9135  X48.2762  Y105.2534   
N9140  X49.8398  Y106.1003   
N9145  X52.4365  Y105.2492   
N9150  X54.4849  Y104.4779   
N9155  X54.9088  Y104.1935   
N9160  X55.0333  Y103.9251   
N9165  X55.0806  Y103.6073   
N9170  X55.2983  Y103.4811   
N9175  X56.6987  Y103.7582   
N9180  X57.5973  Y103.9070   
N9185  X58.4247  Y103.8927   
N9190  X59.0311  Y103.7333   
N9195  X59.2666  Y103.4472   
N9200  X58.9678  Y103.2639   
N9205  X58.2493  Y103.1876   
N9210  X57.3829  Y103.0616   
N9215  X56.7941  Y102.7038   
N9220  X56.4304  Y102.2014   
N9225  X56.3816  Y101.8531   
N9230  X56.6445  Y101.6666   
N9235  X57.2161  Y101.6494   
N9240  X57.9170  Y101.6178   
N9245  X57.9929  Y101.1353   
N9250  X58.0538  Y100.6092   
N9255  X58.3694  Y100.3738   
N9260  X58.8609  Y100.4451   
N9265  X59.4497  Y100.8391   
N9270  X60.1350  Y101.4678   
N9275  X59.9561  Y100.6741   
N9280  X59.5598  Y99.8370   
N9285  X58.8523  Y99.0223   
N9290  X58.0217  Y98.4052   
N9295  X57.2560  Y98.1606   
N9300  X56.4620  Y98.3308   
N9305  X55.5296  Y98.7400   
N9310  X54.6846  Y99.1116   
N9315  X54.2282  Y99.0488   
N9320  X54.0618  Y98.7252   
N9325  X54.1451  Y98.3596   
N9330  X54.4664  Y97.9743   
N9335  X55.0136  Y97.5912   
N9340  X55.5043  Y97.2093   
N9345  X55.7977  Y96.4308   
N9350  X56.2050  Y91.6149   
N9355  X56.3392  Y89.4348   
N9360  X55.0909  Y88.8703   
N9365  X50.0431  Y86.4593   
N9370 G0  Z0.1000 
N9375 G1  Z-1.0000  F100.00 
N9380  Y86.4594   F300.00 
N9385  X46.5150  Y84.8800   
N9390  X45.4268  Y84.6170   
N9395  X44.2223  Y84.5161   
N9400  X42.4061  Y84.5428   
N9405  X40.8781  Y84.7428   
N9410  X39.5552  Y85.0662   
N9415  X39.3797  Y88.2400   
N9420  X39.1325  Y91.0501   
N9425  X38.7844  Y93.3493   
N9430  X38.3645  Y95.4058   
N9435  X37.2732  Y96.7106   
N9440  X36.4345  Y97.7628   
N9445  X36.3893  Y98.0590   
N9450  X36.5379  Y98.3237   
N9455  X37.2040  Y98.6019   
N9460  X38.3247  Y98.6323   
N9465  X39.6020  Y98.4356   
N9470  X40.7380  Y98.0324   
N9475  X41.4715  Y97.7438   
N9480  X41.8147  Y97.9133   
N9485  X41.9425  Y98.3207   
N9490  X41.7582  Y98.6885   
N9495  X41.2257  Y99.0537   
N9500  X40.3087  Y99.4532   
N9505  X39.0731  Y99.8358   
N9510  X37.9676  Y99.9862   
N9515  X36.9844  Y99.9046   
N9520  X36.1156  Y99.5912   
N9525  X35.2987  Y99.2948   
N9530  X34.4492  Y99.1695   
N9535  X32.9161  Y99.3569   
N9540  X30.8279  Y99.8457   
N9545  X28.6399  Y100.5129   
N9550  X26.8073  Y101.2354   
N9555  X24.9804  Y102.3020   
N9560  X24.3867  Y102.8391   
N9565  X24.0055  Y103.3800   
N9570  X23.8363  Y103.9256   
N9575  X23.8787  Y104.4768   
N9580  X24.1322  Y105.0345   
N9585  X24.5963  Y105.5998   
N9590  X25.0625  Y106.0269   
N9595  X25.4721  Y106.2401   
N9600  X26.7791  Y106.2080   
N9605  X28.3104  Y106.0162   
N9610  X30.3158  Y106.2037   
N9615  X32.0014  Y106.2770   
N9620  X33.3279  Y106.1007   
N9625  X34.2934  Y105.9279   
N9630  X35.0614  Y105.9565   
N9635  X35.5482  Y106.1705   
N9640  X35.6698  Y106.5534   
N9645  X35.2849  Y106.9571   
N9650  X34.3955  Y107.3058   
N9655  X32.3131  Y108.0115   
N9660  X31.7385  Y108.3929   
N9665  X31.3373  Y108.8633   
N9670  X31.0496  Y109.6299   
N9675  X31.0659  Y110.4700   
N9680  X31.3603  Y111.2477   
N9685  X31.9065  Y111.8269   
N9690  X32.3195  Y112.0524   
N9695  X32.7688  Y112.1273   
N9700  X34.5475  Y111.8248   
N9705  X37.4460  Y111.3897   
N9710  X38.3884  Y111.2435   
N9715  X38.9972  Y110.7694   
N9720  X39.3095  Y109.9138   
N9725  X39.3624  Y108.6234   
N9730  X39.4213  Y107.0645   
N9735  X39.6444  Y106.6049   
N9740  X40.0632  Y106.1202   
N9745  X40.9947  Y105.3731   
N9750  X42.1490  Y104.8279   
N9755  X43.4910  Y104.4969   
N9760  X44.9860  Y104.3924   
N9765  X46.6815  Y104.5653   
N9770  X48.2762  Y105.2534   
N9775  X49.8398  Y106.1003   
N9780  X52.4365  Y105.2492   
N9785  X54.4849  Y104.4779   
N9790  X54.9088  Y104.1935   
N9795  X55.0333  Y103.9251   
N9800  X55.0806  Y103.6073   
N9805  X55.2983  Y103.4811   
N9810  X56.6987  Y103.7582   
N9815  X57.5973  Y103.9070   
N9820  X58.4247  Y103.8927   
N9825  X59.0311  Y103.7333   
N9830  X59.2666  Y103.4472   
N9835  X58.9678  Y103.2639   
N9840  X58.2493  Y103.1876   
N9845  X57.3829  Y103.0616   
N9850  X56.7941  Y102.7038   
N9855  X56.4304  Y102.2014   
N9860  X56.3816  Y101.8531   
N9865  X56.6445  Y101.6666   
N9870  X57.2161  Y101.6494   
N9875  X57.9170  Y101.6178   
N9880  X57.9929  Y101.1353   
N9885  X58.0538  Y100.6092   
N9890  X58.3694  Y100.3738   
N9895  X58.8609  Y100.4451   
N9900  X59.4497  Y100.8391   
N9905  X60.1350  Y101.4678   
N9910  X59.9561  Y100.6741   
N9915  X59.5598  Y99.8370   
N9920  X58.8523  Y99.0223   
N9925  X58.0217  Y98.4052   
N9930  X57.2560  Y98.1606   
N9935  X56.4620  Y98.3308   
N9940  X55.5296  Y98.7400   
N9945  X54.6846  Y99.1116   
N9950  X54.2282  Y99.0488   
N9955  X54.0618  Y98.7252   
N9960  X54.1451  Y98.3596   
N9965  X54.4664  Y97.9743   
N9970  X55.0136  Y97.5912   
N9975  X55.5043  Y97.2093   
N9980  X55.7977  Y96.4308   
N9985  X56.2050  Y91.6149   
N9990  X56.3392  Y89.4348   
N9995  X55.0909  Y88.8703   
N10000  X50.0431  Y86.4593   
N10005 G0  Z5.0000 
N10010  X61.4872  Y92.4937 
N10015  Z0.1000 
N10020 G1  Z-0.7000  F100.00 
N10025  X61.2906  Y92.2151   F300.00 
N10030  X60.8958  Y92.1256   
N10035  X58.9646  Y92.5198   
N10040  X58.0111  Y92.8450   
N10045  X57.4618  Y93.3014   
N10050  X57.2102  Y94.0489   
N10055  X57.1499  Y95.2475   
N10060  X57.2987  Y95.9147   
N10065  X57.6665  Y96.6059   
N10070  X58.1357  Y97.1477   
N10075  X58.5887  Y97.3668   
N10080  X59.0351  Y97.4833   
N10085  X59.5049  Y97.8058   
N10090  X60.4123  Y98.9066   
N10095  X61.1064  Y100.3448   
N10100  X61.3823  Y101.7957   
N10105  X61.3055  Y102.5061   
N10110  X61.0863  Y103.1663   
N10115  X60.2799  Y104.2810   
N10120  X59.0809  Y105.0302   
N10125  X57.6074  Y105.3043   
N10130  X54.1785  Y106.0591   
N10135  X51.1146  Y107.0182   
N10140  X52.0642  Y108.1850   
N10145  X53.5957  Y110.1974   
N10150  X54.1790  Y110.9623   
N10155  X55.0718  Y111.1251   
N10160  X56.4729  Y111.3120   
N10165  X56.7874  Y111.5666   
N10170  X56.8853  Y111.9472   
N10175  X56.7051  Y112.3439   
N10180  X56.0254  Y112.4521   
N10185  X55.2590  Y112.5192   
N10190  X54.7793  Y112.7221   
N10195  X54.5670  Y113.0766   
N10200  X54.6026  Y113.5982   
N10205  X54.5513  Y114.5992   
N10210  X54.1292  Y115.7925   
N10215  X53.5182  Y116.7916   
N10220  X53.1987  Y117.0978   
N10225  X52.9003  Y117.2105   
N10230  X52.4598  Y117.0816   
N10235  X52.5078  Y116.4829   
N10240  X52.8528  Y114.5342   
N10245  X52.7098  Y114.1127   
N10250  X52.3441  Y113.8598   
N10255  X51.6659  Y113.7003   
N10260  X50.8971  Y113.7104   
N10265  X50.2683  Y113.8632   
N10270  X50.0102  Y114.1317   
N10275  X50.2597  Y114.8204   
N10280  X50.3679  Y115.1935   
N10285  X50.2299  Y115.5400   
N10290  X50.0515  Y115.6710   
N10295  X49.8127  Y115.6680   
N10300  X48.9930  Y115.2182   
N10305  X47.9755  Y114.7087   
N10310  X47.0123  Y114.5404   
N10315  X46.2344  Y114.7130   
N10320  X45.7729  Y115.2262   
N10325  X45.5803  Y115.6689   
N10330  X45.3831  Y115.8450   
N10335  X44.5992  Y115.4776   
N10340  X43.6055  Y115.1417   
N10345  X42.0950  Y114.9100   
N10350  X40.4896  Y114.8554   
N10355  X40.2603  Y115.0010   
N10360  X40.2166  Y115.3029   
N10365  X40.3185  Y116.0540   
N10370  X40.6244  Y116.8052   
N10375  X41.1349  Y117.5575   
N10380  X41.8503  Y118.3115   
N10385  X42.5621  Y119.0992   
N10390  X42.7905  Y119.6679   
N10395  X42.5369  Y119.9676   
N10400  X41.8027  Y119.9487   
N10405  X41.0213  Y119.9482   
N10410  X40.3340  Y120.3996   
N10415  X39.7870  Y120.7616   
N10420  X39.3890  Y120.7676   
N10425  X39.2296  Y120.4652   
N10430  X39.3984  Y119.9022   
N10435  X39.6872  Y118.6170   
N10440  X39.5331  Y117.6260   
N10445  X39.1575  Y116.5055   
N10450  X38.6903  Y115.5718   
N10455  X38.2612  Y115.1409   
N10460  X37.3652  Y115.1625   
N10465  X36.1382  Y115.4352   
N10470  X34.8469  Y115.8827   
N10475  X33.7582  Y116.4287   
N10480  X32.8095  Y116.9883   
N10485  X32.2684  Y117.1733   
N10490  X32.0595  Y116.9829   
N10495  X32.1071  Y116.4168   
N10500  X32.1361  Y115.7600   
N10505  X31.6725  Y115.6230   
N10510  X30.9674  Y115.8173   
N10515  X30.1056  Y116.2845   
N10520  X29.3442  Y116.7466   
N10525  X28.8153  Y116.9101   
N10530  X28.4488  Y116.7773   
N10535  X28.1747  Y116.3506   
N10540  X27.8259  Y115.9172   
N10545  X27.3405  Y115.6869   
N10550  X26.8710  Y115.6951   
N10555  X26.5703  Y115.9775   
N10560  X26.5843  Y116.4971   
N10565  X26.8897  Y117.2647   
N10570  X28.2360  Y119.2699   
N10575  X28.7510  Y120.0236   
N10580  X28.9788  Y120.6294   
N10585  X28.9106  Y121.0327   
N10590  X28.5380  Y121.1793   
N10595  X27.8020  Y120.8117   
N10600  X27.2838  Y120.5743   
N10605  X26.7334  Y120.7411   
N10610  X26.1554  Y121.3094   
N10615  X25.5544  Y122.2760   
N10620  X24.3638  Y125.0000   
N10625  X23.8125  Y127.0322   
N10630  X23.9831  Y127.5006   
N10635  X24.6034  Y127.8611   
N10640  X27.8433  Y128.4938   
N10645  X31.7503  Y128.8015   
N10650  X35.9210  Y128.6895   
N10655  X40.1385  Y128.1740   
N10660  X44.1854  Y127.2712   
N10665  X49.3839  Y125.7404   
N10670  X51.3291  Y124.9207   
N10675  X52.4420  Y123.8728   
N10680  X53.9823  Y122.1201   
N10685  X57.2976  Y117.7582   
N10690  X62.6053  Y110.3810   
N10695  X64.6975  Y107.7946   
N10700  X66.4273  Y105.9275   
N10705  X67.6736  Y104.5527   
N10710  X67.8431  Y104.0999   
N10715  X67.8234  Y103.6159   
N10720  X67.9581  Y102.3942   
N10725  X68.6395  Y100.3533   
N10730  X69.5853  Y97.5091   
N10735  X69.4520  Y97.2994   
N10740  X68.9256  Y97.1757   
N10745  X65.9341  Y97.1022   
N10750  X63.0982  Y97.0246   
N10755  X61.9653  Y96.7847   
N10760  X61.7376  Y96.0544   
N10765  X61.6478  Y94.6897   
N10770  X61.4872  Y92.4937   
N10775 G0  Z0.1000 
N10780 G1  Z-1.0000  F100.00 
N10785  X61.2906  Y92.2151   F300.00 
N10790  X60.8958  Y92.1256   
N10795  X58.9646  Y92.5198   
N10800  X58.0111  Y92.8450   
N10805  X57.4618  Y93.3014   
N10810  X57.2102  Y94.0489   
N10815  X57.1499  Y95.2475   
N10820  X57.2987  Y95.9147   
N10825  X57.6665  Y96.6059   
N10830  X58.1357  Y97.1477   
N10835  X58.5887  Y97.3668   
N10840  X59.0351  Y97.4833   
N10845  X59.5049  Y97.8058   
N10850  X60.4123  Y98.9066   
N10855  X61.1064  Y100.3448   
N10860  X61.3823  Y101.7957   
N10865  X61.3055  Y102.5061   
N10870  X61.0863  Y103.1663   
N10875  X60.2799  Y104.2810   
N10880  X59.0809  Y105.0302   
N10885  X57.6074  Y105.3043   
N10890  X54.1785  Y106.0591   
N10895  X51.1146  Y107.0182   
N10900  X52.0642  Y108.1850   
N10905  X53.5957  Y110.1974   
N10910  X54.1790  Y110.9623   
N10915  X55.0718  Y111.1251   
N10920  X56.4729  Y111.3120   
N10925  X56.7874  Y111.5666   
N10930  X56.8853  Y111.9472   
N10935  X56.7051  Y112.3439   
N10940  X56.0254  Y112.4521   
N10945  X55.2590  Y112.5192   
N10950  X54.7793  Y112.7221   
N10955  X54.5670  Y113.0766   
N10960  X54.6026  Y113.5982   
N10965  X54.5513  Y114.5992   
N10970  X54.1292  Y115.7925   
N10975  X53.5182  Y116.7916   
N10980  X53.1987  Y117.0978   
N10985  X52.9003  Y117.2105   
N10990  X52.4598  Y117.0816   
N10995  X52.5078  Y116.4829   
N11000  X52.8528  Y114.5342   
N11005  X52.7098  Y114.1127   
N11010  X52.3441  Y113.8598   
N11015  X51.6659  Y113.7003   
N11020  X50.8971  Y113.7104   
N11025  X50.2683  Y113.8632   
N11030  X50.0102  Y114.1317   
N11035  X50.2597  Y114.8204   
N11040  X50.3679  Y115.1935   
N11045  X50.2299  Y115.5400   
N11050  X50.0515  Y115.6710   
N11055  X49.8127  Y115.6680   
N11060  X48.9930  Y115.2182   
N11065  X47.9755  Y114.7087   
N11070  X47.0123  Y114.5404   
N11075  X46.2344  Y114.7130   
N11080  X45.7729  Y115.2262   
N11085  X45.5803  Y115.6689   
N11090  X45.3831  Y115.8450   
N11095  X44.5992  Y115.4776   
N11100  X43.6055  Y115.1417   
N11105  X42.0950  Y114.9100   
N11110  X40.4896  Y114.8554   
N11115  X40.2603  Y115.0010   
N11120  X40.2166  Y115.3029   
N11125  X40.3185  Y116.0540   
N11130  X40.6244  Y116.8052   
N11135  X41.1349  Y117.5575   
N11140  X41.8503  Y118.3115   
N11145  X42.5621  Y119.0992   
N11150  X42.7905  Y119.6679   
N11155  X42.5369  Y119.9676   
N11160  X41.8027  Y119.9487   
N11165  X41.0213  Y119.9482   
N11170  X40.3340  Y120.3996   
N11175  X39.7870  Y120.7616   
N11180  X39.3890  Y120.7676   
N11185  X39.2296  Y120.4652   
N11190  X39.3984  Y119.9022   
N11195  X39.6872  Y118.6170   
N11200  X39.5331  Y117.6260   
N11205  X39.1575  Y116.5055   
N11210  X38.6903  Y115.5718   
N11215  X38.2612  Y115.1409   
N11220  X37.3652  Y115.1625   
N11225  X36.1382  Y115.4352   
N11230  X34.8469  Y115.8827   
N11235  X33.7582  Y116.4287   
N11240  X32.8095  Y116.9883   
N11245  X32.2684  Y117.1733   
N11250  X32.0595  Y116.9829   
N11255  X32.1071  Y116.4168   
N11260  X32.1361  Y115.7600   
N11265  X31.6725  Y115.6230   
N11270  X30.9674  Y115.8173   
N11275  X30.1056  Y116.2845   
N11280  X29.3442  Y116.7466   
N11285  X28.8153  Y116.9101   
N11290  X28.4488  Y116.7773   
N11295  X28.1747  Y116.3506   
N11300  X27.8259  Y115.9172   
N11305  X27.3405  Y115.6869   
N11310  X26.8710  Y115.6951   
N11315  X26.5703  Y115.9775   
N11320  X26.5843  Y116.4971   
N11325  X26.8897  Y117.2647   
N11330  X28.2360  Y119.2699   
N11335  X28.7510  Y120.0236   
N11340  X28.9788  Y120.6294   
N11345  X28.9106  Y121.0327   
N11350  X28.5380  Y121.1793   
N11355  X27.8020  Y120.8117   
N11360  X27.2838  Y120.5743   
N11365  X26.7334  Y120.7411   
N11370  X26.1554  Y121.3094   
N11375  X25.5544  Y122.2760   
N11380  X24.3638  Y125.0000   
N11385  X23.8125  Y127.0322   
N11390  X23.9831  Y127.5006   
N11395  X24.6034  Y127.8611   
N11400  X27.8433  Y128.4938   
N11405  X31.7503  Y128.8015   
N11410  X35.9210  Y128.6895   
N11415  X40.1385  Y128.1740   
N11420  X44.1854  Y127.2712   
N11425  X49.3839  Y125.7404   
N11430  X51.3291  Y124.9207   
N11435  X52.4420  Y123.8728   
N11440  X53.9823  Y122.1201   
N11445  X57.2976  Y117.7582   
N11450  X62.6053  Y110.3810   
N11455  X64.6975  Y107.7946   
N11460  X66.4273  Y105.9275   
N11465  X67.6736  Y104.5527   
N11470  X67.8431  Y104.0999   
N11475  X67.8234  Y103.6159   
N11480  X67.9581  Y102.3942   
N11485  X68.6395  Y100.3533   
N11490  X69.5853  Y97.5091   
N11495  X69.4520  Y97.2994   
N11500  X68.9256  Y97.1757   
N11505  X65.9341  Y97.1022   
N11510  X63.0982  Y97.0246   
N11515  X61.9653  Y96.7847   
N11520  X61.7376  Y96.0544   
N11525  X61.6478  Y94.6897   
N11530  X61.4872  Y92.4937   
N11535 G0  Z5.0000 
N11540  X47.3604  Y106.3257 
N11545  Z0.1000 
N11550 G1  Z-0.7000  F100.00 
N11555  X45.8757  Y105.8694   F300.00 
N11560  X44.2732  Y105.7648   
N11565  X42.7634  Y106.0029   
N11570  X41.5566  Y106.5746   
N11575  X40.7850  Y107.4029   
N11580  X40.8354  Y107.5728   
N11585  X41.2269  Y107.4467   
N11590  X42.0747  Y107.1813   
N11595  X42.2709  Y107.3265   
N11600  X42.3333  Y107.6605   
N11605  X42.3913  Y107.9322   
N11610  X42.6700  Y108.0683   
N11615  X44.5161  Y108.0443   
N11620  X47.7308  Y107.7519   
N11625  X48.2771  Y107.5318   
N11630  X48.3690  Y107.2074   
N11635  X48.0386  Y106.7636   
N11640  X47.3604  Y106.3257   
N11645 G0  Z0.1000 
N11650 G1  Z-1.0000  F100.00 
N11655  X45.8757  Y105.8694   F300.00 
N11660  X44.2732  Y105.7648   
N11665  X42.7634  Y106.0029   
N11670  X41.5566  Y106.5746   
N11675  X40.7850  Y107.4029   
N11680  X40.8354  Y107.5728   
N11685  X41.2269  Y107.4467   
N11690  X42.0747  Y107.1813   
N11695  X42.2709  Y107.3265   
N11700  X42.3333  Y107.6605   
N11705  X42.3913  Y107.9322   
N11710  X42.6700  Y108.0683   
N11715  X44.5161  Y108.0443   
N11720  X47.7308  Y107.7519   
N11725  X48.2771  Y107.5318   
N11730  X48.3690  Y107.2074   
N11735  X48.0386  Y106.7636   
N11740  X47.3604  Y106.3257   
N11745 G0  Z5.0000 
N11750  X45.5083  Y109.5376 
N11755  Z0.1000 
N11760 G1  Z-0.7000  F100.00 
N11765  X45.6342  Y109.4180   F300.00 
N11770  X45.5665  Y109.3379   
N11775  X44.7963  Y109.2771   
N11780  X43.9651  Y109.3520   
N11785  X43.5239  Y109.5376   
N11790  X43.6700  Y109.7304   
N11795  X44.2378  Y109.7947   
N11800  X44.9447  Y109.7304   
N11805  X45.5083  Y109.5376   
N11810 G0  Z0.1000 
N11815 G1  Z-1.0000  F100.00 
N11820  X45.6342  Y109.4180   F300.00 
N11825  X45.5665  Y109.3379   
N11830  X44.7963  Y109.2771   
N11835  X43.9651  Y109.3520   
N11840  X43.5239  Y109.5376   
N11845  X43.6700  Y109.7304   
N11850  X44.2378  Y109.7947   
N11855  X44.9447  Y109.7304   
N11860  X45.5083  Y109.5376   
N11865 G0  Z5.0000 
N11870  X51.3321  Y109.8143 
N11875  Z0.1000 
N11880 G1  Z-0.7000  F100.00 
N11885  X50.5533  Y109.5109   F300.00 
N11890  X49.7846  Y109.4662   
N11895  X48.8626  Y109.6981   
N11900  X47.6238  Y110.2249   
N11905  X46.4542  Y110.7477   
N11910  X45.5808  Y111.0089   
N11915  X44.6276  Y111.0758   
N11920  X43.2183  Y111.0161   
N11925  X41.5980  Y110.9731   
N11930  X40.6779  Y111.1419   
N11935  X40.2544  Y111.6205   
N11940  X40.1241  Y112.5069   
N11945  X40.0843  Y113.3741   
N11950  X42.9075   
N11955  X45.3941  Y113.2780   
N11960  X45.9543  Y113.0922   
N11965  X46.3883  Y112.7561   
N11970  X47.0354  Y112.3042   
N11975  X47.6445  Y112.4585   
N11980  X48.5387  Y112.6213   
N11985  X50.3426  Y112.2994   
N11990  X51.8656  Y111.8558   
N11995  X52.5791  Y111.4626   
N12000  X52.5416  Y111.0974   
N12005  X52.2681  Y110.6306   
N12010  X51.3321  Y109.8143   
N12015 G0  Z0.1000 
N12020 G1  Z-1.0000  F100.00 
N12025  X50.5533  Y109.5109   F300.00 
N12030  X49.7846  Y109.4662   
N12035  X48.8626  Y109.6981   
N12040  X47.6238  Y110.2249   
N12045  X46.4542  Y110.7477   
N12050  X45.5808  Y111.0089   
N12055  X44.6276  Y111.0758   
N12060  X43.2183  Y111.0161   
N12065  X41.5980  Y110.9731   
N12070  X40.6779  Y111.1419   
N12075  X40.2544  Y111.6205   
N12080  X40.1241  Y112.5069   
N12085  X40.0843  Y113.3741   
N12090  X42.9075   
N12095  X45.3941  Y113.2780   
N12100  X45.9543  Y113.0922   
N12105  X46.3883  Y112.7561   
N12110  X47.0354  Y112.3042   
N12115  X47.6445  Y112.4585   
N12120  X48.5387  Y112.6213   
N12125  X50.3426  Y112.2994   
N12130  X51.8656  Y111.8558   
N12135  X52.5791  Y111.4626   
N12140  X52.5416  Y111.0974   
N12145  X52.2681  Y110.6306   
N12150  X51.3321  Y109.8143   
N12155 G0  Z5.0000 
N12160  X61.2893  Y123.9574 
N12165  Z0.1000 
N12170 G1  Z-0.7000  F100.00 
N12175  X60.9425  Y123.1759   F300.00 
N12180  X60.4148  Y122.8648   
N12185  X59.5541  Y123.0054   
N12190  X58.2083  Y123.5791   
N12195  X52.8002  Y125.9282   
N12200  X47.1457  Y127.8261   
N12205  X42.5005  Y129.3728   
N12210  X42.5154  Y129.9054   
N12215  X43.0312  Y130.8873   
N12220  X43.9639  Y132.1859   
N12225  X45.2293  Y133.6687   
N12230  X46.6361  Y135.0332   
N12235  X48.2557  Y136.3324   
N12240  X49.9116  Y137.4368   
N12245  X51.4276  Y138.2171   
N12250  X52.2935  Y138.4889   
N12255  X53.2218  Y138.6232   
N12260  X55.1555  Y138.5009   
N12265  X57.0093  Y137.8925   
N12270  X58.5640  Y136.8402   
N12275  X59.3150  Y135.9174   
N12280  X60.0628  Y134.6272   
N12285  X60.7283  Y133.1262   
N12290  X61.2321  Y131.5710   
N12295  X61.5128  Y129.8014   
N12300  X61.6182  Y127.6348   
N12305  X61.5449  Y125.5328   
N12310  X61.2893  Y123.9574   
N12315 G0  Z0.1000 
N12320 G1  Z-1.0000  F100.00 
N12325  X60.9425  Y123.1759   F300.00 
N12330  X60.4148  Y122.8648   
N12335  X59.5541  Y123.0054   
N12340  X58.2083  Y123.5791   
N12345  X52.8002  Y125.9282   
N12350  X47.1457  Y127.8261   
N12355  X42.5005  Y129.3728   
N12360  X42.5154  Y129.9054   
N12365  X43.0312  Y130.8873   
N12370  X43.9639  Y132.1859   
N12375  X45.2293  Y133.6687   
N12380  X46.6361  Y135.0332   
N12385  X48.2557  Y136.3324   
N12390  X49.9116  Y137.4368   
N12395  X51.4276  Y138.2171   
N12400  X52.2935  Y138.4889   
N12405  X53.2218  Y138.6232   
N12410  X55.1555  Y138.5009   
N12415  X57.0093  Y137.8925   
N12420  X58.5640  Y136.8402   
N12425  X59.3150  Y135.9174   
N12430  X60.0628  Y134.6272   
N12435  X60.7283  Y133.1262   
N12440  X61.2321  Y131.5710   
N12445  X61.5128  Y129.8014   
N12450  X61.6182  Y127.6348   
N12455  X61.5449  Y125.5328   
N12460  X61.2893  Y123.9574   
N12465 G0  Z5.0000 
N12470  X69.5779  Y124.5697 
N12475  Z0.1000 
N12480 G1  Z-0.7000  F100.00 
N12485  X70.0064  Y122.6777   F300.00 
N12490  X70.0584  Y120.2899   
N12495  X69.9822  Y117.7333   
N12500  X68.1301  Y118.8209   
N12505  X64.2275  Y120.9437   
N12510  X62.7793  Y121.7469   
N12515  X62.1770  Y122.2241   
N12520  X62.6020  Y124.2717   
N12525  X62.9297  Y126.4981   
N12530  X62.9053  Y128.8428   
N12535  X62.5346  Y131.2370   
N12540  X61.8232  Y133.6118   
N12545  X60.9659  Y136.1959   
N12550  X61.5209  Y135.8896   
N12555  X62.6494  Y134.9541   
N12560  X64.9715  Y132.6577   
N12565  X66.5199  Y130.6484   
N12570  X67.7759  Y128.6794   
N12575  X68.7813  Y126.6777   
N12580  X69.5779  Y124.5697   
N12585 G0  Z0.1000 
N12590 G1  Z-1.0000  F100.00 
N12595  X70.0064  Y122.6777   F300.00 
N12600  X70.0584  Y120.2899   
N12605  X69.9822  Y117.7333   
N12610  X68.1301  Y118.8209   
N12615  X64.2275  Y120.9437   
N12620  X62.7793  Y121.7469   
N12625  X62.1770  Y122.2241   
N12630  X62.6020  Y124.2717   
N12635  X62.9297  Y126.4981   
N12640  X62.9053  Y128.8428   
N12645  X62.5346  Y131.2370   
N12650  X61.8232  Y133.6118   
N12655  X60.9659  Y136.1959   
N12660  X61.5209  Y135.8896   
N12665  X62.6494  Y134.9541   
N12670  X64.9715  Y132.6577   
N12675  X66.5199  Y130.6484   
N12680  X67.7759  Y128.6794   
N12685  X68.7813  Y126.6777   
N12690  X69.5779  Y124.5697   
N12695 G0  Z5.0000 
N12700  X41.9129  Y131.4614 
N12705  Z0.1000 
N12710 G1  Z-0.7000  F100.00 
N12715  X41.1421  Y130.3063   F300.00 
N12720  X40.4614  Y129.7880   
N12725  X39.3879  Y129.7547   
N12730  X37.4385  Y130.0546   
N12735  X34.0651  Y130.4198   
N12740  X33.1775  Y130.5001   
N12745  X32.8083  Y130.6654   
N12750  X33.6156  Y131.6892   
N12755  X35.5050  Y133.4702   
N12760  X37.6782  Y135.2988   
N12765  X39.3365  Y136.4656   
N12770  X41.7447  Y137.4118   
N12775  X44.8024  Y138.2505   
N12780  X47.4939  Y138.7458   
N12785  X48.3848  Y138.7911   
N12790  X48.8030  Y138.6620   
N12795  X48.5189  Y138.2518   
N12800  X47.6353  Y137.5900   
N12805  X46.2378  Y136.5006   
N12810  X44.6968  Y134.9860   
N12815  X43.1944  Y133.2412   
N12820  X41.9129  Y131.4614   
N12825 G0  Z0.1000 
N12830 G1  Z-1.0000  F100.00 
N12835  X41.1421  Y130.3063   F300.00 
N12840  X40.4614  Y129.7880   
N12845  X39.3879  Y129.7547   
N12850  X37.4385  Y130.0546   
N12855  X34.0651  Y130.4198   
N12860  X33.1775  Y130.5001   
N12865  X32.8083  Y130.6654   
N12870  X33.6156  Y131.6892   
N12875  X35.5050  Y133.4702   
N12880  X37.6782  Y135.2988   
N12885  X39.3365  Y136.4656   
N12890  X41.7447  Y137.4118   
N12895  X44.8024  Y138.2505   
N12900  X47.4939  Y138.7458   
N12905  X48.3848  Y138.7911   
N12910  X48.8030  Y138.6620   
N12915  X48.5189  Y138.2518   
N12920  X47.6353  Y137.5900   
N12925  X46.2378  Y136.5006   
N12930  X44.6968  Y134.9860   
N12935  X43.1944  Y133.2412   
N12940  X41.9129  Y131.4614   
N12945 G0  Z5.0000 
N12950  X30.8239  Y112.7126 
N12955  Z0.1000 
N12960 G1  Z-0.7000  F100.00 
N12965  X29.6631  Y111.9612   F300.00 
N12970  X28.5750  Y112.1142   
N12975  X27.8016  Y112.3048   
N12980  X27.2123  Y112.6467   
N12985  X26.8550  Y113.0998   
N12990  X26.7774  Y113.6241   
N12995  X26.8737  Y113.9101   
N13000  X27.1246  Y114.0860   
N13005  X28.4668  Y114.2455   
N13010  X29.7980  Y114.2160   
N13015  X30.4175  Y113.9148   
N13020  X30.7716  Y113.6211   
N13025  X31.1711  Y113.5248   
N13030  X31.5989  Y113.6259   
N13035  X32.0376  Y113.9241   
N13040  X32.3715  Y114.1360   
N13045  X32.8959  Y114.2148   
N13050  X35.3632  Y113.9903   
N13055  X37.6931  Y113.6172   
N13060  X38.1539  Y113.4226   
N13065  X38.3152  Y113.1756   
N13070  X38.3159  Y112.9440   
N13075  X38.1835  Y112.8025   
N13080  X37.3589  Y112.7126   
N13085  X36.2908  Y112.8292   
N13090  X35.1895  Y113.1095   
N13095  X33.8966  Y113.4495   
N13100  X32.7527  Y113.4980   
N13105  X31.7358  Y113.2530   
N13110  X30.8239  Y112.7126   
N13115 G0  Z0.1000 
N13120 G1  Z-1.0000  F100.00 
N13125  X29.6631  Y111.9612   F300.00 
N13130  X28.5750  Y112.1142   
N13135  X27.8016  Y112.3048   
N13140  X27.2123  Y112.6467   
N13145  X26.8550  Y113.0998   
N13150  X26.7774  Y113.6241   
N13155  X26.8737  Y113.9101   
N13160  X27.1246  Y114.0860   
N13165  X28.4668  Y114.2455   
N13170  X29.7980  Y114.2160   
N13175  X30.4175  Y113.9148   
N13180  X30.7716  Y113.6211   
N13185  X31.1711  Y113.5248   
N13190  X31.5989  Y113.6259   
N13195  X32.0376  Y113.9241   
N13200  X32.3715  Y114.1360   
N13205  X32.8959  Y114.2148   
N13210  X35.3632  Y113.9903   
N13215  X37.6931  Y113.6172   
N13220  X38.1539  Y113.4226   
N13225  X38.3152  Y113.1756   
N13230  X38.3159  Y112.9440   
N13235  X38.1835  Y112.8025   
N13240  X37.3589  Y112.7126   
N13245  X36.2908  Y112.8292   
N13250  X35.1895  Y113.1095   
N13255  X33.8966  Y113.4495   
N13260  X32.7527  Y113.4980   
N13265  X31.7358  Y113.2530   
N13270  X30.8239  Y112.7126   
N13275 G0  Z5.0000 
N13280  X29.3313  Y107.4174 
N13285  Z0.1000 
N13290 G1  Z-0.7000  F100.00 
N13295  X27.8474  Y107.2542   F300.00 
N13300  X27.4006  Y107.2765   
N13305  X27.2423  Y107.6039   
N13310  X27.3747  Y108.1531   
N13315  X27.8004  Y108.8405   
N13320  X28.4757  Y109.4330   
N13325  X29.1116  Y109.5032   
N13330  X29.6511  Y109.0687   
N13335  X30.0376  Y108.1471   
N13340  X30.0623  Y107.5272   
N13345  X29.3313  Y107.4174   
N13350 G0  Z0.1000 
N13355 G1  Z-1.0000  F100.00 
N13360  X27.8474  Y107.2542   F300.00 
N13365  X27.4006  Y107.2765   
N13370  X27.2423  Y107.6039   
N13375  X27.3747  Y108.1531   
N13380  X27.8004  Y108.8405   
N13385  X28.4757  Y109.4330   
N13390  X29.1116  Y109.5032   
N13395  X29.6511  Y109.0687   
N13400  X30.0376  Y108.1471   
N13405  X30.0623  Y107.5272   
N13410  X29.3313  Y107.4174   
N13415 G0  Z5.0000 
N13420  X26.4367  Y109.3704 
N13425  Z0.1000 
N13430 G1  Z-0.7000  F100.00 
N13435  X25.9629  Y108.7634   F300.00 
N13440  X25.5456  Y108.5071   
N13445  X25.2486  Y108.6148   
N13450  X25.1354  Y109.0997   
N13455  X25.2626  Y109.6300   
N13460  X25.5920  Y110.1114   
N13465  X26.0456  Y110.4610   
N13470  X26.5453  Y110.5960   
N13475  X26.8626  Y110.5560   
N13480  X26.9547  Y110.3873   
N13485  X26.4367  Y109.3704   
N13490 G0  Z0.1000 
N13495 G1  Z-1.0000  F100.00 
N13500  X25.9629  Y108.7634   F300.00 
N13505  X25.5456  Y108.5071   
N13510  X25.2486  Y108.6148   
N13515  X25.1354  Y109.0997   
N13520  X25.2626  Y109.6300   
N13525  X25.5920  Y110.1114   
N13530  X26.0456  Y110.4610   
N13535  X26.5453  Y110.5960   
N13540  X26.8626  Y110.5560   
N13545  X26.9547  Y110.3873   
N13550  X26.4367  Y109.3704   
N13555 G0  Z5.0000 
N13560  X85.1957  Y99.9151 
N13565  Z0.1000 
N13570 G1  Z-0.7000  F100.00 
N13575  X85.0986  Y99.6173   F300.00 
N13580  X84.8650  Y99.5074   
N13585  X82.2667  Y99.9523   
N13590  X79.3277  Y100.6380   
N13595  X77.1001  Y101.4313   
N13600  X74.2969  Y102.6109   
N13605  X71.6262  Y103.8624   
N13610  X69.7962  Y104.8712   
N13615  X67.8889  Y106.3809   
N13620  X65.8363  Y108.4864   
N13625  X63.5623  Y111.2739   
N13630  X60.9909  Y114.8293   
N13635  X58.8853  Y117.8720   
N13640  X55.2478  Y122.6106   
N13645  X54.5847  Y123.4895   
N13650  X54.6818  Y123.5631   
N13655  X55.0399  Y123.4980   
N13660  X59.7158  Y121.5760   
N13665  X65.1207  Y118.9955   
N13670  X68.1304  Y117.2026   
N13675  X71.0561  Y115.2481   
N13680  X73.8436  Y113.1791   
N13685  X76.4390  Y111.0426   
N13690  X78.7881  Y108.8854   
N13695  X80.8368  Y106.7545   
N13700  X82.5312  Y104.6968   
N13705  X83.8172  Y102.7594   
N13710  X84.7908  Y100.9286   
N13715  X85.1957  Y99.9151   
N13720 G0  Z0.1000 
N13725 G1  Z-1.0000  F100.00 
N13730  X85.0986  Y99.6173   F300.00 
N13735  X84.8650  Y99.5074   
N13740  X82.2667  Y99.9523   
N13745  X79.3277  Y100.6380   
N13750  X77.1001  Y101.4313   
N13755  X74.2969  Y102.6109   
N13760  X71.6262  Y103.8624   
N13765  X69.7962  Y104.8712   
N13770  X67.8889  Y106.3809   
N13775  X65.8363  Y108.4864   
N13780  X63.5623  Y111.2739   
N13785  X60.9909  Y114.8293   
N13790  X58.8853  Y117.8720   
N13795  X55.2478  Y122.6106   
N13800  X54.5847  Y123.4895   
N13805  X54.6818  Y123.5631   
N13810  X55.0399  Y123.4980   
N13815  X59.7158  Y121.5760   
N13820  X65.1207  Y118.9955   
N13825  X68.1304  Y117.2026   
N13830  X71.0561  Y115.2481   
N13835  X73.8436  Y113.1791   
N13840  X76.4390  Y111.0426   
N13845  X78.7881  Y108.8854   
N13850  X80.8368  Y106.7545   
N13855  X82.5312  Y104.6968   
N13860  X83.8172  Y102.7594   
N13865  X84.7908  Y100.9286   
N13870  X85.1957  Y99.9151   
N13875 G0  Z5.0000 
N13880 M5
N13885 M30

