N5 (File Name = logotunellllll on Friday, November 17, 2023)
N10 (Default Mill Post)
N15  G91.1
N20 G0  Z5.0000 
N25 M3 
N30  X96.3034  Y58.4831 
N35  Z0.1000 
N40 G1  Z-0.7000  F100.00 
N45  X90.3740  Y57.1249   F300.00 
N50  X83.3899  Y56.5564   
N55  X76.7198  Y56.8098   
N60  X71.7327  Y57.9165   
N65  X66.1082  Y60.9823   
N70  X61.2419  Y65.2532   
N75  X56.9149  Y70.9678   
N80  X52.9076  Y78.3643   
N85  X50.3815  Y84.3142   
N90  X48.7276  Y89.7721   
N95  X47.8243  Y95.2608   
N100  X47.5489  Y101.3029   
N105  X48.0047  Y109.1940   
N110  X49.5694  Y115.4897   
N115  X52.5305  Y120.9355   
N120  X57.1756  Y126.2773   
N125  X61.3497  Y129.9280   
N130  X66.1198  Y133.1857   
N135  X71.4953  Y136.0536   
N140  X77.4856  Y138.5350   
N145  X84.0999  Y140.6337   
N150  X91.3479  Y142.3528   
N155  X99.2390  Y143.6959   
N160  X107.7824  Y144.6663   
N165  X114.5498  Y145.2533   
N170  X117.7838  Y145.2728   
N175  X118.4794  Y144.9965   
N180  X118.7765  Y144.4908   
N185  X118.8202  Y142.6744   
N190  X119.2935  Y139.3595   
N195  X120.5441  Y134.9124   
N200  X122.3180  Y130.1099   
N205  X124.3614  Y125.7285   
N210  X127.2471  Y121.5129   
N215  X131.3493  Y116.6770   
N220  X134.2393  Y113.7668   
N225  X136.9105  Y111.5978   
N230  X144.7407  Y107.2757   
N235  X153.1644  Y103.1514   
N240  X147.5720  Y96.6193   
N245  X141.4444  Y89.8101   
N250  X135.2029  Y83.5592   
N255  X128.8644  Y77.8794   
N260  X122.4452  Y72.7831   
N265  X115.9630  Y68.2829   
N270  X109.4339  Y64.3909   
N275  X102.8751  Y61.1203   
N280  X96.3034  Y58.4831   
N285 G0  Z0.1000 
N290 G1  Z-1.4000  F100.00 
N295  X90.3740  Y57.1249   F300.00 
N300  X83.3899  Y56.5564   
N305  X76.7198  Y56.8098   
N310  X71.7327  Y57.9165   
N315  X66.1082  Y60.9823   
N320  X61.2419  Y65.2532   
N325  X56.9149  Y70.9678   
N330  X52.9076  Y78.3643   
N335  X50.3815  Y84.3142   
N340  X48.7276  Y89.7721   
N345  X47.8243  Y95.2608   
N350  X47.5489  Y101.3029   
N355  X48.0047  Y109.1940   
N360  X49.5694  Y115.4897   
N365  X52.5305  Y120.9355   
N370  X57.1756  Y126.2773   
N375  X61.3497  Y129.9280   
N380  X66.1198  Y133.1857   
N385  X71.4953  Y136.0536   
N390  X77.4856  Y138.5350   
N395  X84.0999  Y140.6337   
N400  X91.3479  Y142.3528   
N405  X99.2390  Y143.6959   
N410  X107.7824  Y144.6663   
N415  X114.5498  Y145.2533   
N420  X117.7838  Y145.2728   
N425  X118.4794  Y144.9965   
N430  X118.7765  Y144.4908   
N435  X118.8202  Y142.6744   
N440  X119.2935  Y139.3595   
N445  X120.5441  Y134.9124   
N450  X122.3180  Y130.1099   
N455  X124.3614  Y125.7285   
N460  X127.2471  Y121.5129   
N465  X131.3493  Y116.6770   
N470  X134.2393  Y113.7668   
N475  X136.9105  Y111.5978   
N480  X144.7407  Y107.2757   
N485  X153.1644  Y103.1514   
N490  X147.5720  Y96.6193   
N495  X141.4444  Y89.8101   
N500  X135.2029  Y83.5592   
N505  X128.8644  Y77.8794   
N510  X122.4452  Y72.7831   
N515  X115.9630  Y68.2829   
N520  X109.4339  Y64.3909   
N525  X102.8751  Y61.1203   
N530  X96.3034  Y58.4831   
N535 G0  Z0.1000 
N540 G1  Z-2.0000  F100.00 
N545  X90.3740  Y57.1249   F300.00 
N550  X83.3899  Y56.5564   
N555  X76.7198  Y56.8098   
N560  X71.7327  Y57.9165   
N565  X66.1082  Y60.9823   
N570  X61.2419  Y65.2532   
N575  X56.9149  Y70.9678   
N580  X52.9076  Y78.3643   
N585  X50.3815  Y84.3142   
N590  X48.7276  Y89.7721   
N595  X47.8243  Y95.2608   
N600  X47.5489  Y101.3029   
N605  X48.0047  Y109.1940   
N610  X49.5694  Y115.4897   
N615  X52.5305  Y120.9355   
N620  X57.1756  Y126.2773   
N625  X61.3497  Y129.9280   
N630  X66.1198  Y133.1857   
N635  X71.4953  Y136.0536   
N640  X77.4856  Y138.5350   
N645  X84.0999  Y140.6337   
N650  X91.3479  Y142.3528   
N655  X99.2390  Y143.6959   
N660  X107.7824  Y144.6663   
N665  X114.5498  Y145.2533   
N670  X117.7838  Y145.2728   
N675  X118.4794  Y144.9965   
N680  X118.7765  Y144.4908   
N685  X118.8202  Y142.6744   
N690  X119.2935  Y139.3595   
N695  X120.5441  Y134.9124   
N700  X122.3180  Y130.1099   
N705  X124.3614  Y125.7285   
N710  X127.2471  Y121.5129   
N715  X131.3493  Y116.6770   
N720  X134.2393  Y113.7668   
N725  X136.9105  Y111.5978   
N730  X144.7407  Y107.2757   
N735  X153.1644  Y103.1514   
N740  X147.5720  Y96.6193   
N745  X141.4444  Y89.8101   
N750  X135.2029  Y83.5592   
N755  X128.8644  Y77.8794   
N760  X122.4452  Y72.7831   
N765  X115.9630  Y68.2829   
N770  X109.4339  Y64.3909   
N775  X102.8751  Y61.1203   
N780  X96.3034  Y58.4831   
N785 G0  Z5.0000 
N790  X153.3078  Y111.7298 
N795  Z0.1000 
N800 G1  Z-0.7000  F100.00 
N805  X150.0461  Y112.9126   F300.00 
N810  X146.7232  Y114.5789   
N815  X140.2808  Y119.0431   
N820  X134.7571  Y124.4797   
N825  X132.5824  Y127.3619   
N830  X130.9285  Y130.2466   
N835  X129.0935  Y134.7587   
N840  X127.7816  Y139.4358   
N845  X126.9932  Y144.2016   
N850  X126.7285  Y148.9808   
N855  X126.9873  Y153.6973   
N860  X127.7698  Y158.2755   
N865  X129.0757  Y162.6394   
N870  X130.9056  Y166.7130   
N875  X133.7585  Y170.9545   
N880  X137.5876  Y175.1512   
N885  X141.8954  Y178.8221   
N890  X146.1841  Y181.4858   
N895  X152.7073  Y184.1634   
N900  X158.8720  Y185.5841   
N905  X165.0838  Y185.8017   
N910  X171.7477  Y184.8699   
N915  X176.0577  Y183.7240   
N920  X180.0704  Y182.1769   
N925  X183.7839  Y180.2297   
N930  X187.1963  Y177.8836   
N935  X190.3060  Y175.1405   
N940  X193.1117  Y172.0014   
N945  X195.6108  Y168.4674   
N950  X197.8025  Y164.5404   
N955  X199.6847  Y160.5817   
N960  X200.7243  Y157.6534   
N965  X201.2233  Y154.5760   
N970  X201.4836  Y150.1701   
N975  X201.4669  Y142.9989   
N980  X200.1626  Y137.3908   
N985  X198.7572  Y133.6916   
N990  X196.9699  Y130.1555   
N995  X192.3410  Y123.6754   
N1000  X186.4569  Y118.1573   
N1005  X179.4992  Y113.8083   
N1010  X176.2081  Y112.2519   
N1015  X173.5666  Y111.4196   
N1020  X165.3097  Y110.9266   
N1025  X158.0520  Y111.0724   
N1030  X153.3078  Y111.7298   
N1035 G0  Z0.1000 
N1040 G1  Z-1.4000  F100.00 
N1045  X150.0461  Y112.9126   F300.00 
N1050  X146.7232  Y114.5789   
N1055  X140.2808  Y119.0431   
N1060  X134.7571  Y124.4797   
N1065  X132.5824  Y127.3619   
N1070  X130.9285  Y130.2466   
N1075  X129.0935  Y134.7587   
N1080  X127.7816  Y139.4358   
N1085  X126.9932  Y144.2016   
N1090  X126.7285  Y148.9808   
N1095  X126.9873  Y153.6973   
N1100  X127.7698  Y158.2755   
N1105  X129.0757  Y162.6394   
N1110  X130.9056  Y166.7130   
N1115  X133.7585  Y170.9545   
N1120  X137.5876  Y175.1512   
N1125  X141.8954  Y178.8221   
N1130  X146.1841  Y181.4858   
N1135  X152.7073  Y184.1634   
N1140  X158.8720  Y185.5841   
N1145  X165.0838  Y185.8017   
N1150  X171.7477  Y184.8699   
N1155  X176.0577  Y183.7240   
N1160  X180.0704  Y182.1769   
N1165  X183.7839  Y180.2297   
N1170  X187.1963  Y177.8836   
N1175  X190.3060  Y175.1405   
N1180  X193.1117  Y172.0014   
N1185  X195.6108  Y168.4674   
N1190  X197.8025  Y164.5404   
N1195  X199.6847  Y160.5817   
N1200  X200.7243  Y157.6534   
N1205  X201.2233  Y154.5760   
N1210  X201.4836  Y150.1701   
N1215  X201.4669  Y142.9989   
N1220  X200.1626  Y137.3908   
N1225  X198.7572  Y133.6916   
N1230  X196.9699  Y130.1555   
N1235  X192.3410  Y123.6754   
N1240  X186.4569  Y118.1573   
N1245  X179.4992  Y113.8083   
N1250  X176.2081  Y112.2519   
N1255  X173.5666  Y111.4196   
N1260  X165.3097  Y110.9266   
N1265  X158.0520  Y111.0724   
N1270  X153.3078  Y111.7298   
N1275 G0  Z0.1000 
N1280 G1  Z-2.0000  F100.00 
N1285  X150.0461  Y112.9126   F300.00 
N1290  X146.7232  Y114.5789   
N1295  X140.2808  Y119.0431   
N1300  X134.7571  Y124.4797   
N1305  X132.5824  Y127.3619   
N1310  X130.9285  Y130.2466   
N1315  X129.0935  Y134.7587   
N1320  X127.7816  Y139.4358   
N1325  X126.9932  Y144.2016   
N1330  X126.7285  Y148.9808   
N1335  X126.9873  Y153.6973   
N1340  X127.7698  Y158.2755   
N1345  X129.0757  Y162.6394   
N1350  X130.9056  Y166.7130   
N1355  X133.7585  Y170.9545   
N1360  X137.5876  Y175.1512   
N1365  X141.8954  Y178.8221   
N1370  X146.1841  Y181.4858   
N1375  X152.7073  Y184.1634   
N1380  X158.8720  Y185.5841   
N1385  X165.0838  Y185.8017   
N1390  X171.7477  Y184.8699   
N1395  X176.0577  Y183.7240   
N1400  X180.0704  Y182.1769   
N1405  X183.7839  Y180.2297   
N1410  X187.1963  Y177.8836   
N1415  X190.3060  Y175.1405   
N1420  X193.1117  Y172.0014   
N1425  X195.6108  Y168.4674   
N1430  X197.8025  Y164.5404   
N1435  X199.6847  Y160.5817   
N1440  X200.7243  Y157.6534   
N1445  X201.2233  Y154.5760   
N1450  X201.4836  Y150.1701   
N1455  X201.4669  Y142.9989   
N1460  X200.1626  Y137.3908   
N1465  X198.7572  Y133.6916   
N1470  X196.9699  Y130.1555   
N1475  X192.3410  Y123.6754   
N1480  X186.4569  Y118.1573   
N1485  X179.4992  Y113.8083   
N1490  X176.2081  Y112.2519   
N1495  X173.5666  Y111.4196   
N1500  X165.3097  Y110.9266   
N1505  X158.0520  Y111.0724   
N1510  X153.3078  Y111.7298   
N1515 G0  Z5.0000 
N1520  X172.5289  Y134.0447 
N1525  Z0.1000 
N1530 G1  Z-0.7000  F100.00 
N1535  X168.2027  Y133.0102   F300.00 
N1540  X163.8879  Y132.7385   
N1545  X159.8887  Y133.2223   
N1550  X156.5092  Y134.4539   
N1555  X154.4722  Y136.0568   
N1560  X152.2199  Y138.5547   
N1565  X150.2356  Y141.3444   
N1570  X149.0021  Y143.8226   
N1575  X148.4609  Y146.2170   
N1580  X148.3682  Y148.6598   
N1585  X148.7024  Y151.0986   
N1590  X149.4426  Y153.4803   
N1595  X152.0547  Y157.8585   
N1600  X153.8844  Y159.7488   
N1605  X156.0348  Y161.3695   
N1610  X159.4960  Y163.1755   
N1615  X162.7445  Y163.9774   
N1620  X165.9704  Y163.7935   
N1625  X169.3642  Y162.6423   
N1630  X172.6343  Y160.8194   
N1635  X175.2626  Y158.6639   
N1640  X177.2434  Y156.1919   
N1645  X178.5712  Y153.4197   
N1650  X179.2402  Y150.3636   
N1655  X179.2453  Y147.0396   
N1660  X178.5806  Y143.4641   
N1665  X177.2407  Y139.6533   
N1670  X175.1100  Y135.6005   
N1675  X174.0149  Y134.6760   
N1680  X172.5289  Y134.0447   
N1685 G0  Z0.1000 
N1690 G1  Z-1.4000  F100.00 
N1695  X168.2027  Y133.0102   F300.00 
N1700  X163.8879  Y132.7385   
N1705  X159.8887  Y133.2223   
N1710  X156.5092  Y134.4539   
N1715  X154.4722  Y136.0568   
N1720  X152.2199  Y138.5547   
N1725  X150.2356  Y141.3444   
N1730  X149.0021  Y143.8226   
N1735  X148.4609  Y146.2170   
N1740  X148.3682  Y148.6598   
N1745  X148.7024  Y151.0986   
N1750  X149.4426  Y153.4803   
N1755  X152.0547  Y157.8585   
N1760  X153.8844  Y159.7488   
N1765  X156.0348  Y161.3695   
N1770  X159.4960  Y163.1755   
N1775  X162.7445  Y163.9774   
N1780  X165.9704  Y163.7935   
N1785  X169.3642  Y162.6423   
N1790  X172.6343  Y160.8194   
N1795  X175.2626  Y158.6639   
N1800  X177.2434  Y156.1919   
N1805  X178.5712  Y153.4197   
N1810  X179.2402  Y150.3636   
N1815  X179.2453  Y147.0396   
N1820  X178.5806  Y143.4641   
N1825  X177.2407  Y139.6533   
N1830  X175.1100  Y135.6005   
N1835  X174.0149  Y134.6760   
N1840  X172.5289  Y134.0447   
N1845 G0  Z0.1000 
N1850 G1  Z-2.0000  F100.00 
N1855  X168.2027  Y133.0102   F300.00 
N1860  X163.8879  Y132.7385   
N1865  X159.8887  Y133.2223   
N1870  X156.5092  Y134.4539   
N1875  X154.4722  Y136.0568   
N1880  X152.2199  Y138.5547   
N1885  X150.2356  Y141.3444   
N1890  X149.0021  Y143.8226   
N1895  X148.4609  Y146.2170   
N1900  X148.3682  Y148.6598   
N1905  X148.7024  Y151.0986   
N1910  X149.4426  Y153.4803   
N1915  X152.0547  Y157.8585   
N1920  X153.8844  Y159.7488   
N1925  X156.0348  Y161.3695   
N1930  X159.4960  Y163.1755   
N1935  X162.7445  Y163.9774   
N1940  X165.9704  Y163.7935   
N1945  X169.3642  Y162.6423   
N1950  X172.6343  Y160.8194   
N1955  X175.2626  Y158.6639   
N1960  X177.2434  Y156.1919   
N1965  X178.5712  Y153.4197   
N1970  X179.2402  Y150.3636   
N1975  X179.2453  Y147.0396   
N1980  X178.5806  Y143.4641   
N1985  X177.2407  Y139.6533   
N1990  X175.1100  Y135.6005   
N1995  X174.0149  Y134.6760   
N2000  X172.5289  Y134.0447   
N2005 G0  Z5.0000 
N2010  X132.6482  Y180.7221 
N2015  Z0.1000 
N2020 G1  Z-0.7000  F100.00 
N2025  X127.3913  Y175.8378   F300.00 
N2030  X126.0808  Y178.4221   
N2035  X123.7910  Y184.6046   
N2040  X119.5811  Y198.2642   
N2045  X117.6703  Y207.4012   
N2050  X116.3166  Y216.2308   
N2055  X115.5201  Y224.6796   
N2060  X115.2800  Y232.6740   
N2065  X115.5964  Y240.1403   
N2070  X116.4684  Y247.0055   
N2075  X117.8959  Y253.1959   
N2080  X119.8786  Y258.6376   
N2085  X122.2522  Y263.1557   
N2090  X125.0167  Y266.9223   
N2095  X128.2323  Y269.9673   
N2100  X131.9582  Y272.3212   
N2105  X136.2544  Y274.0134   
N2110  X141.1806  Y275.0749   
N2115  X146.7962  Y275.5350   
N2120  X153.1612  Y275.4242   
N2125  X163.6749  Y274.2657   
N2130  X172.4574  Y272.0498   
N2135  X176.2658  Y270.5220   
N2140  X179.7213  Y268.7026   
N2145  X182.8502  Y266.5816   
N2150  X185.6790  Y264.1506   
N2155  X188.0319  Y261.5856   
N2160  X190.0747  Y258.7336   
N2165  X193.2303  Y252.2268   
N2170  X195.1448  Y244.7500   
N2175  X195.8176  Y236.4228   
N2180  X195.2480  Y227.3643   
N2185  X193.4356  Y217.6942   
N2190  X190.3793  Y207.5322   
N2195  X186.0782  Y196.9979   
N2200  X183.6728  Y192.2710   
N2205  X182.2221  Y190.3046   
N2210  X176.2539  Y191.7518   
N2215  X170.6755  Y192.7860   
N2220  X164.1976  Y193.1966   
N2225  X157.7534  Y192.9701   
N2230  X152.2763  Y192.0936   
N2235  X146.9388  Y190.2979   
N2240  X141.7789  Y187.7405   
N2245  X136.9609  Y184.5170   
N2250  X132.6482  Y180.7221   
N2255 G0  Z0.1000 
N2260 G1  Z-1.4000  F100.00 
N2265  X127.3913  Y175.8378   F300.00 
N2270  X126.0808  Y178.4221   
N2275  X123.7910  Y184.6046   
N2280  X119.5811  Y198.2642   
N2285  X117.6703  Y207.4012   
N2290  X116.3166  Y216.2308   
N2295  X115.5201  Y224.6796   
N2300  X115.2800  Y232.6740   
N2305  X115.5964  Y240.1403   
N2310  X116.4684  Y247.0055   
N2315  X117.8959  Y253.1959   
N2320  X119.8786  Y258.6376   
N2325  X122.2522  Y263.1557   
N2330  X125.0167  Y266.9223   
N2335  X128.2323  Y269.9673   
N2340  X131.9582  Y272.3212   
N2345  X136.2544  Y274.0134   
N2350  X141.1806  Y275.0749   
N2355  X146.7962  Y275.5350   
N2360  X153.1612  Y275.4242   
N2365  X163.6749  Y274.2657   
N2370  X172.4574  Y272.0498   
N2375  X176.2658  Y270.5220   
N2380  X179.7213  Y268.7026   
N2385  X182.8502  Y266.5816   
N2390  X185.6790  Y264.1506   
N2395  X188.0319  Y261.5856   
N2400  X190.0747  Y258.7336   
N2405  X193.2303  Y252.2268   
N2410  X195.1448  Y244.7500   
N2415  X195.8176  Y236.4228   
N2420  X195.2480  Y227.3643   
N2425  X193.4356  Y217.6942   
N2430  X190.3793  Y207.5322   
N2435  X186.0782  Y196.9979   
N2440  X183.6728  Y192.2710   
N2445  X182.2221  Y190.3046   
N2450  X176.2539  Y191.7518   
N2455  X170.6755  Y192.7860   
N2460  X164.1976  Y193.1966   
N2465  X157.7534  Y192.9701   
N2470  X152.2763  Y192.0936   
N2475  X146.9388  Y190.2979   
N2480  X141.7789  Y187.7405   
N2485  X136.9609  Y184.5170   
N2490  X132.6482  Y180.7221   
N2495 G0  Z0.1000 
N2500 G1  Z-2.0000  F100.00 
N2505  X127.3913  Y175.8378   F300.00 
N2510  X126.0808  Y178.4221   
N2515  X123.7910  Y184.6046   
N2520  X119.5811  Y198.2642   
N2525  X117.6703  Y207.4012   
N2530  X116.3166  Y216.2308   
N2535  X115.5201  Y224.6796   
N2540  X115.2800  Y232.6740   
N2545  X115.5964  Y240.1403   
N2550  X116.4684  Y247.0055   
N2555  X117.8959  Y253.1959   
N2560  X119.8786  Y258.6376   
N2565  X122.2522  Y263.1557   
N2570  X125.0167  Y266.9223   
N2575  X128.2323  Y269.9673   
N2580  X131.9582  Y272.3212   
N2585  X136.2544  Y274.0134   
N2590  X141.1806  Y275.0749   
N2595  X146.7962  Y275.5350   
N2600  X153.1612  Y275.4242   
N2605  X163.6749  Y274.2657   
N2610  X172.4574  Y272.0498   
N2615  X176.2658  Y270.5220   
N2620  X179.7213  Y268.7026   
N2625  X182.8502  Y266.5816   
N2630  X185.6790  Y264.1506   
N2635  X188.0319  Y261.5856   
N2640  X190.0747  Y258.7336   
N2645  X193.2303  Y252.2268   
N2650  X195.1448  Y244.7500   
N2655  X195.8176  Y236.4228   
N2660  X195.2480  Y227.3643   
N2665  X193.4356  Y217.6942   
N2670  X190.3793  Y207.5322   
N2675  X186.0782  Y196.9979   
N2680  X183.6728  Y192.2710   
N2685  X182.2221  Y190.3046   
N2690  X176.2539  Y191.7518   
N2695  X170.6755  Y192.7860   
N2700  X164.1976  Y193.1966   
N2705  X157.7534  Y192.9701   
N2710  X152.2763  Y192.0936   
N2715  X146.9388  Y190.2979   
N2720  X141.7789  Y187.7405   
N2725  X136.9609  Y184.5170   
N2730  X132.6482  Y180.7221   
N2735 G0  Z5.0000 
N2740  X251.9821  Y68.5230 
N2745  Z0.1000 
N2750 G1  Z-0.7000  F100.00 
N2755  X247.2713  Y67.0414   F300.00 
N2760  X242.8899  Y66.3594   
N2765  X238.4487  Y66.4505   
N2770  X233.5586  Y67.2891   
N2775  X228.2441  Y68.8349   
N2780  X223.0600  Y71.0182   
N2785  X217.9648  Y73.8716   
N2790  X212.9168  Y77.4274   
N2795  X207.8745  Y81.7182   
N2800  X202.7960  Y86.7759   
N2805  X197.6400  Y92.6333   
N2810  X192.3645  Y99.3228   
N2815  X186.5100  Y107.7023   
N2820  X189.5704  Y110.5298   
N2825  X194.6774  Y114.7482   
N2830  X199.0440  Y119.3835   
N2835  X202.6567  Y124.4053   
N2840  X205.5020  Y129.7832   
N2845  X207.5659  Y135.4859   
N2850  X208.8351  Y141.4833   
N2855  X209.2960  Y147.7439   
N2860  X208.9351  Y154.2377   
N2865  X208.4656  Y161.2329   
N2870  X211.1489  Y161.1108   
N2875  X217.0192  Y159.9162   
N2880  X231.7171  Y155.8412   
N2885  X240.0479  Y152.8423   
N2890  X247.6231  Y149.6145   
N2895  X254.4762  Y146.1358   
N2900  X260.6398  Y142.3843   
N2905  X266.1476  Y138.3380   
N2910  X271.0323  Y133.9741   
N2915  X275.3272  Y129.2708   
N2920  X279.0652  Y124.2064   
N2925  X281.0175  Y120.4633   
N2930  X282.2296  Y116.3293   
N2935  X282.7123  Y111.8875   
N2940  X282.4757  Y107.2215   
N2945  X281.5301  Y102.4142   
N2950  X279.8862  Y97.5492   
N2955  X277.5541  Y92.7096   
N2960  X274.5447  Y87.9789   
N2965  X268.9536  Y80.8783   
N2970  X263.5169  Y75.4306   
N2975  X257.9538  Y71.3931   
N2980  X251.9821  Y68.5230   
N2985 G0  Z0.1000 
N2990 G1  Z-1.4000  F100.00 
N2995  X247.2713  Y67.0414   F300.00 
N3000  X242.8899  Y66.3594   
N3005  X238.4487  Y66.4505   
N3010  X233.5586  Y67.2891   
N3015  X228.2441  Y68.8349   
N3020  X223.0600  Y71.0182   
N3025  X217.9648  Y73.8716   
N3030  X212.9168  Y77.4274   
N3035  X207.8745  Y81.7182   
N3040  X202.7960  Y86.7759   
N3045  X197.6400  Y92.6333   
N3050  X192.3645  Y99.3228   
N3055  X186.5100  Y107.7023   
N3060  X189.5704  Y110.5298   
N3065  X194.6774  Y114.7482   
N3070  X199.0440  Y119.3835   
N3075  X202.6567  Y124.4053   
N3080  X205.5020  Y129.7832   
N3085  X207.5659  Y135.4859   
N3090  X208.8351  Y141.4833   
N3095  X209.2960  Y147.7439   
N3100  X208.9351  Y154.2377   
N3105  X208.4656  Y161.2329   
N3110  X211.1489  Y161.1108   
N3115  X217.0192  Y159.9162   
N3120  X231.7171  Y155.8412   
N3125  X240.0479  Y152.8423   
N3130  X247.6231  Y149.6145   
N3135  X254.4762  Y146.1358   
N3140  X260.6398  Y142.3843   
N3145  X266.1476  Y138.3380   
N3150  X271.0323  Y133.9741   
N3155  X275.3272  Y129.2708   
N3160  X279.0652  Y124.2064   
N3165  X281.0175  Y120.4633   
N3170  X282.2296  Y116.3293   
N3175  X282.7123  Y111.8875   
N3180  X282.4757  Y107.2215   
N3185  X281.5301  Y102.4142   
N3190  X279.8862  Y97.5492   
N3195  X277.5541  Y92.7096   
N3200  X274.5447  Y87.9789   
N3205  X268.9536  Y80.8783   
N3210  X263.5169  Y75.4306   
N3215  X257.9538  Y71.3931   
N3220  X251.9821  Y68.5230   
N3225 G0  Z0.1000 
N3230 G1  Z-2.0000  F100.00 
N3235  X247.2713  Y67.0414   F300.00 
N3240  X242.8899  Y66.3594   
N3245  X238.4487  Y66.4505   
N3250  X233.5586  Y67.2891   
N3255  X228.2441  Y68.8349   
N3260  X223.0600  Y71.0182   
N3265  X217.9648  Y73.8716   
N3270  X212.9168  Y77.4274   
N3275  X207.8745  Y81.7182   
N3280  X202.7960  Y86.7759   
N3285  X197.6400  Y92.6333   
N3290  X192.3645  Y99.3228   
N3295  X186.5100  Y107.7023   
N3300  X189.5704  Y110.5298   
N3305  X194.6774  Y114.7482   
N3310  X199.0440  Y119.3835   
N3315  X202.6567  Y124.4053   
N3320  X205.5020  Y129.7832   
N3325  X207.5659  Y135.4859   
N3330  X208.8351  Y141.4833   
N3335  X209.2960  Y147.7439   
N3340  X208.9351  Y154.2377   
N3345  X208.4656  Y161.2329   
N3350  X211.1489  Y161.1108   
N3355  X217.0192  Y159.9162   
N3360  X231.7171  Y155.8412   
N3365  X240.0479  Y152.8423   
N3370  X247.6231  Y149.6145   
N3375  X254.4762  Y146.1358   
N3380  X260.6398  Y142.3843   
N3385  X266.1476  Y138.3380   
N3390  X271.0323  Y133.9741   
N3395  X275.3272  Y129.2708   
N3400  X279.0652  Y124.2064   
N3405  X281.0175  Y120.4633   
N3410  X282.2296  Y116.3293   
N3415  X282.7123  Y111.8875   
N3420  X282.4757  Y107.2215   
N3425  X281.5301  Y102.4142   
N3430  X279.8862  Y97.5492   
N3435  X277.5541  Y92.7096   
N3440  X274.5447  Y87.9789   
N3445  X268.9536  Y80.8783   
N3450  X263.5169  Y75.4306   
N3455  X257.9538  Y71.3931   
N3460  X251.9821  Y68.5230   
N3465 G0  Z5.0000 
N3470  X316.6092  Y13.2661 
N3475  Z0.1000 
N3480 G1  Z-0.7000  F100.00 
N3485  X271.7827  Y12.7661   F300.00 
N3490  X164.8515  Y12.4108   
N3495  X41.8389  Y12.3879   
N3500  X19.3690  Y12.6480   
N3505  X13.3246  Y13.1345   
N3510  X13.1402  Y166.4262   
N3515  X13.3248  Y318.7423   
N3520  X164.0418  Y318.9299   
N3525  X276.9603  Y318.8873   
N3530  X316.1016  Y318.3952   
N3535  X316.5334  Y317.6879   
N3540  X316.8593  Y315.0013   
N3545  X317.2461  Y297.1523   
N3550  X317.3267  Y165.7712   
N3555  X317.0674  Y58.3133   
N3560  X316.6092  Y13.2661   
N3565 G0  Z0.1000 
N3570 G1  Z-1.4000  F100.00 
N3575  X271.7827  Y12.7661   F300.00 
N3580  X164.8515  Y12.4108   
N3585  X41.8389  Y12.3879   
N3590  X19.3690  Y12.6480   
N3595  X13.3246  Y13.1345   
N3600  X13.1402  Y166.4262   
N3605  X13.3248  Y318.7423   
N3610  X164.0418  Y318.9299   
N3615  X276.9603  Y318.8873   
N3620  X316.1016  Y318.3952   
N3625  X316.5334  Y317.6879   
N3630  X316.8593  Y315.0013   
N3635  X317.2461  Y297.1523   
N3640  X317.3267  Y165.7712   
N3645  X317.0674  Y58.3133   
N3650  X316.6092  Y13.2661   
N3655 G0  Z0.1000 
N3660 G1  Z-2.0000  F100.00 
N3665  X271.7827  Y12.7661   F300.00 
N3670  X164.8515  Y12.4108   
N3675  X41.8389  Y12.3879   
N3680  X19.3690  Y12.6480   
N3685  X13.3246  Y13.1345   
N3690  X13.1402  Y166.4262   
N3695  X13.3248  Y318.7423   
N3700  X164.0418  Y318.9299   
N3705  X276.9603  Y318.8873   
N3710  X316.1016  Y318.3952   
N3715  X316.5334  Y317.6879   
N3720  X316.8593  Y315.0013   
N3725  X317.2461  Y297.1523   
N3730  X317.3267  Y165.7712   
N3735  X317.0674  Y58.3133   
N3740  X316.6092  Y13.2661   
N3745 G0  Z5.0000 
N3750  X483.5733  Y127.3522 
N3755  Z0.1000 
N3760 G1  Z-0.7000  F100.00 
N3765  X483.5534  Y47.3952   F300.00 
N3770  X447.8213  Y47.2076   
N3775  X412.0891  Y47.0200   
N3780  X411.6277  Y49.9203   
N3785  X411.1829  Y140.1954   
N3790  X411.1913  Y228.4678   
N3795  X409.4700  Y228.9123   
N3800  X403.5298  Y229.2182   
N3805  X374.2775  Y229.5530   
N3810  X337.3720  Y229.7406   
N3815  X337.1831  Y256.3349   
N3820  X336.9941  Y282.9291   
N3825  X447.7194  Y282.7460   
N3830  X558.4444  Y282.5627   
N3835  X558.6452  Y257.5988   
N3840  X558.4516  Y231.0069   
N3845  X558.0568  Y229.3788   
N3850  X520.9853   
N3855  X483.9135   
N3860  X483.7534  Y218.3440   
N3865  X483.5733  Y127.3522   
N3870 G0  Z0.1000 
N3875 G1  Z-1.4000  F100.00 
N3880  X483.5534  Y47.3952   F300.00 
N3885  X447.8213  Y47.2076   
N3890  X412.0891  Y47.0200   
N3895  X411.6277  Y49.9203   
N3900  X411.1829  Y140.1954   
N3905  X411.1913  Y228.4678   
N3910  X409.4700  Y228.9123   
N3915  X403.5298  Y229.2182   
N3920  X374.2775  Y229.5530   
N3925  X337.3720  Y229.7406   
N3930  X337.1831  Y256.3349   
N3935  X336.9941  Y282.9291   
N3940  X447.7194  Y282.7460   
N3945  X558.4444  Y282.5627   
N3950  X558.6452  Y257.5988   
N3955  X558.4516  Y231.0069   
N3960  X558.0568  Y229.3788   
N3965  X520.9853   
N3970  X483.9135   
N3975  X483.7534  Y218.3440   
N3980  X483.5733  Y127.3522   
N3985 G0  Z0.1000 
N3990 G1  Z-2.0000  F100.00 
N3995  X483.5534  Y47.3952   F300.00 
N4000  X447.8213  Y47.2076   
N4005  X412.0891  Y47.0200   
N4010  X411.6277  Y49.9203   
N4015  X411.1829  Y140.1954   
N4020  X411.1913  Y228.4678   
N4025  X409.4700  Y228.9123   
N4030  X403.5298  Y229.2182   
N4035  X374.2775  Y229.5530   
N4040  X337.3720  Y229.7406   
N4045  X337.1831  Y256.3349   
N4050  X336.9941  Y282.9291   
N4055  X447.7194  Y282.7460   
N4060  X558.4444  Y282.5627   
N4065  X558.6452  Y257.5988   
N4070  X558.4516  Y231.0069   
N4075  X558.0568  Y229.3788   
N4080  X520.9853   
N4085  X483.9135   
N4090  X483.7534  Y218.3440   
N4095  X483.5733  Y127.3522   
N4100 G0  Z5.0000 
N4105  X736.9789  Y48.1704 
N4110  Z0.1000 
N4115 G1  Z-0.7000  F100.00 
N4120  X735.1767  Y47.5691   F300.00 
N4125  X729.6937  Y47.2251   
N4130  X698.2308  Y47.0335   
N4135  X668.3047  Y47.2243   
N4140  X661.7995  Y47.5025   
N4145  X659.4240  Y47.9378   
N4150  X656.6399  Y53.7842   
N4155  X651.6181  Y66.5705   
N4160  X642.6728  Y90.4489   
N4165  X616.0321  Y160.9992   
N4170  X600.1792  Y202.9675   
N4175  X590.8428  Y227.5697   
N4180  X575.4503  Y267.9067   
N4185  X570.3260  Y282.5466   
N4190  X607.4649  Y282.7501   
N4195  X644.6038  Y282.5627   
N4200  X647.0014  Y274.9652   
N4205  X653.4782  Y253.9808   
N4210  X661.4292  Y228.2934   
N4215  X668.9920  Y204.0529   
N4220  X676.8907  Y178.7273   
N4225  X684.4524  Y154.4868   
N4230  X691.4109  Y132.4517   
N4235  X696.0249  Y119.1878   
N4240  X698.8031  Y113.3829   
N4245  X699.6629  Y112.8676   
N4250  X700.2543  Y113.7247   
N4255  X704.3106  Y127.3522   
N4260  X710.8163  Y148.6981   
N4265  X717.4972  Y170.4060   
N4270  X745.6336  Y261.9403   
N4275  X749.9215  Y275.7918   
N4280  X751.5889  Y280.4323   
N4285  X752.9312  Y282.4851   
N4290  X789.3741  Y282.9245   
N4295  X817.4354  Y282.7412   
N4300  X822.8920  Y282.4638   
N4305  X824.2785  Y282.0202   
N4310  X805.0550  Y231.1877   
N4315  X781.3003  Y167.1499   
N4320  X747.1487  Y74.8918   
N4325  X740.2358  Y56.4403   
N4330  X738.1067  Y50.1605   
N4335  X736.9789  Y48.1704   
N4340 G0  Z0.1000 
N4345 G1  Z-1.4000  F100.00 
N4350  X735.1767  Y47.5691   F300.00 
N4355  X729.6937  Y47.2251   
N4360  X698.2308  Y47.0335   
N4365  X668.3047  Y47.2243   
N4370  X661.7995  Y47.5025   
N4375  X659.4240  Y47.9378   
N4380  X656.6399  Y53.7842   
N4385  X651.6181  Y66.5705   
N4390  X642.6728  Y90.4489   
N4395  X616.0321  Y160.9992   
N4400  X600.1792  Y202.9675   
N4405  X590.8428  Y227.5697   
N4410  X575.4503  Y267.9067   
N4415  X570.3260  Y282.5466   
N4420  X607.4649  Y282.7501   
N4425  X644.6038  Y282.5627   
N4430  X647.0014  Y274.9652   
N4435  X653.4782  Y253.9808   
N4440  X661.4292  Y228.2934   
N4445  X668.9920  Y204.0529   
N4450  X676.8907  Y178.7273   
N4455  X684.4524  Y154.4868   
N4460  X691.4109  Y132.4517   
N4465  X696.0249  Y119.1878   
N4470  X698.8031  Y113.3829   
N4475  X699.6629  Y112.8676   
N4480  X700.2543  Y113.7247   
N4485  X704.3106  Y127.3522   
N4490  X710.8163  Y148.6981   
N4495  X717.4972  Y170.4060   
N4500  X745.6336  Y261.9403   
N4505  X749.9215  Y275.7918   
N4510  X751.5889  Y280.4323   
N4515  X752.9312  Y282.4851   
N4520  X789.3741  Y282.9245   
N4525  X817.4354  Y282.7412   
N4530  X822.8920  Y282.4638   
N4535  X824.2785  Y282.0202   
N4540  X805.0550  Y231.1877   
N4545  X781.3003  Y167.1499   
N4550  X747.1487  Y74.8918   
N4555  X740.2358  Y56.4403   
N4560  X738.1067  Y50.1605   
N4565  X736.9789  Y48.1704   
N4570 G0  Z0.1000 
N4575 G1  Z-2.0000  F100.00 
N4580  X735.1767  Y47.5691   F300.00 
N4585  X729.6937  Y47.2251   
N4590  X698.2308  Y47.0335   
N4595  X668.3047  Y47.2243   
N4600  X661.7995  Y47.5025   
N4605  X659.4240  Y47.9378   
N4610  X656.6399  Y53.7842   
N4615  X651.6181  Y66.5705   
N4620  X642.6728  Y90.4489   
N4625  X616.0321  Y160.9992   
N4630  X600.1792  Y202.9675   
N4635  X590.8428  Y227.5697   
N4640  X575.4503  Y267.9067   
N4645  X570.3260  Y282.5466   
N4650  X607.4649  Y282.7501   
N4655  X644.6038  Y282.5627   
N4660  X647.0014  Y274.9652   
N4665  X653.4782  Y253.9808   
N4670  X661.4292  Y228.2934   
N4675  X668.9920  Y204.0529   
N4680  X676.8907  Y178.7273   
N4685  X684.4524  Y154.4868   
N4690  X691.4109  Y132.4517   
N4695  X696.0249  Y119.1878   
N4700  X698.8031  Y113.3829   
N4705  X699.6629  Y112.8676   
N4710  X700.2543  Y113.7247   
N4715  X704.3106  Y127.3522   
N4720  X710.8163  Y148.6981   
N4725  X717.4972  Y170.4060   
N4730  X745.6336  Y261.9403   
N4735  X749.9215  Y275.7918   
N4740  X751.5889  Y280.4323   
N4745  X752.9312  Y282.4851   
N4750  X789.3741  Y282.9245   
N4755  X817.4354  Y282.7412   
N4760  X822.8920  Y282.4638   
N4765  X824.2785  Y282.0202   
N4770  X805.0550  Y231.1877   
N4775  X781.3003  Y167.1499   
N4780  X747.1487  Y74.8918   
N4785  X740.2358  Y56.4403   
N4790  X738.1067  Y50.1605   
N4795  X736.9789  Y48.1704   
N4800 G0  Z5.0000 
N4805  X898.4757  Y47.9378 
N4810  Z0.1000 
N4815 G1  Z-0.7000  F100.00 
N4820  X896.5414  Y47.5044   F300.00 
N4825  X890.7988  Y47.2421   
N4830  X863.5007  Y47.1319   
N4835  X827.5286  Y47.5513   
N4840  X826.4467  Y48.0243   
N4845  X826.2300  Y48.7190   
N4850  X828.7761  Y54.9928   
N4855  X850.6961  Y113.2422   
N4860  X870.6161  Y166.4262   
N4865  X888.2783  Y213.8214   
N4870  X904.0875  Y256.1517   
N4875  X909.8862  Y271.7088   
N4880  X914.0172  Y282.0202   
N4885  X916.1983  Y282.4584   
N4890  X922.7698  Y282.7363   
N4895  X954.1267  Y282.9245   
N4900  X993.5403   
N4905  X998.6106  Y269.3573   
N4910  X1006.5985  Y247.8303   
N4915  X1014.1112  Y227.5697   
N4920  X1036.6174  Y167.5116   
N4925  X1041.8754  Y153.4016   
N4930  X1061.4334  Y100.9411   
N4935  X1078.6242  Y54.6502   
N4940  X1080.4994  Y48.8214   
N4945  X1080.5590  Y47.9753   
N4950  X1080.3388  Y47.6467   
N4955  X1069.1455  Y47.2591   
N4960  X1043.1099  Y47.2076   
N4965  X1006.5044  Y47.3952   
N4970  X1002.6238  Y60.7818   
N4975  X997.0389  Y80.6805   
N4980  X995.3343  Y87.1929   
N4985  X952.9785   
N4990  X910.6226   
N4995  X907.9668  Y78.5096   
N5000  X902.2323  Y59.3346   
N5005  X898.4757  Y47.9378   
N5010 G0  Z0.1000 
N5015 G1  Z-1.4000  F100.00 
N5020  X896.5414  Y47.5044   F300.00 
N5025  X890.7988  Y47.2421   
N5030  X863.5007  Y47.1319   
N5035  X827.5286  Y47.5513   
N5040  X826.4467  Y48.0243   
N5045  X826.2300  Y48.7190   
N5050  X828.7761  Y54.9928   
N5055  X850.6961  Y113.2422   
N5060  X870.6161  Y166.4262   
N5065  X888.2783  Y213.8214   
N5070  X904.0875  Y256.1517   
N5075  X909.8862  Y271.7088   
N5080  X914.0172  Y282.0202   
N5085  X916.1983  Y282.4584   
N5090  X922.7698  Y282.7363   
N5095  X954.1267  Y282.9245   
N5100  X993.5403   
N5105  X998.6106  Y269.3573   
N5110  X1006.5985  Y247.8303   
N5115  X1014.1112  Y227.5697   
N5120  X1036.6174  Y167.5116   
N5125  X1041.8754  Y153.4016   
N5130  X1061.4334  Y100.9411   
N5135  X1078.6242  Y54.6502   
N5140  X1080.4994  Y48.8214   
N5145  X1080.5590  Y47.9753   
N5150  X1080.3388  Y47.6467   
N5155  X1069.1455  Y47.2591   
N5160  X1043.1099  Y47.2076   
N5165  X1006.5044  Y47.3952   
N5170  X1002.6238  Y60.7818   
N5175  X997.0389  Y80.6805   
N5180  X995.3343  Y87.1929   
N5185  X952.9785   
N5190  X910.6226   
N5195  X907.9668  Y78.5096   
N5200  X902.2323  Y59.3346   
N5205  X898.4757  Y47.9378   
N5210 G0  Z0.1000 
N5215 G1  Z-2.0000  F100.00 
N5220  X896.5414  Y47.5044   F300.00 
N5225  X890.7988  Y47.2421   
N5230  X863.5007  Y47.1319   
N5235  X827.5286  Y47.5513   
N5240  X826.4467  Y48.0243   
N5245  X826.2300  Y48.7190   
N5250  X828.7761  Y54.9928   
N5255  X850.6961  Y113.2422   
N5260  X870.6161  Y166.4262   
N5265  X888.2783  Y213.8214   
N5270  X904.0875  Y256.1517   
N5275  X909.8862  Y271.7088   
N5280  X914.0172  Y282.0202   
N5285  X916.1983  Y282.4584   
N5290  X922.7698  Y282.7363   
N5295  X954.1267  Y282.9245   
N5300  X993.5403   
N5305  X998.6106  Y269.3573   
N5310  X1006.5985  Y247.8303   
N5315  X1014.1112  Y227.5697   
N5320  X1036.6174  Y167.5116   
N5325  X1041.8754  Y153.4016   
N5330  X1061.4334  Y100.9411   
N5335  X1078.6242  Y54.6502   
N5340  X1080.4994  Y48.8214   
N5345  X1080.5590  Y47.9753   
N5350  X1080.3388  Y47.6467   
N5355  X1069.1455  Y47.2591   
N5360  X1043.1099  Y47.2076   
N5365  X1006.5044  Y47.3952   
N5370  X1002.6238  Y60.7818   
N5375  X997.0389  Y80.6805   
N5380  X995.3343  Y87.1929   
N5385  X952.9785   
N5390  X910.6226   
N5395  X907.9668  Y78.5096   
N5400  X902.2323  Y59.3346   
N5405  X898.4757  Y47.9378   
N5410 G0  Z5.0000 
N5415  X927.0312  Y139.3105 
N5420  Z0.1000 
N5425 G1  Z-0.7000  F100.00 
N5430  X927.1787  Y141.5194   F300.00 
N5435  X928.1245  Y145.2800   
N5440  X935.1046  Y168.2351   
N5445  X944.4361  Y198.6259   
N5450  X950.0714  Y216.7157   
N5455  X951.7367  Y221.2648   
N5460  X952.4248  Y222.2206   
N5465  X953.1262  Y222.5047   
N5470  X953.7822  Y222.3007   
N5475  X954.3440  Y221.6295   
N5480  X955.3879  Y218.5249   
N5485  X973.5979  Y159.5520   
N5490  X977.9955  Y145.3116   
N5495  X979.3459  Y139.3609   
N5500  X978.5653  Y138.7434   
N5505  X975.1017  Y138.3951   
N5510  X953.3995  Y138.2062   
N5515  X931.8795  Y138.3975   
N5520  X928.1288  Y138.7320   
N5525  X927.0312  Y139.3105   
N5530 G0  Z0.1000 
N5535 G1  Z-1.4000  F100.00 
N5540  X927.1787  Y141.5194   F300.00 
N5545  X928.1245  Y145.2800   
N5550  X935.1046  Y168.2351   
N5555  X944.4361  Y198.6259   
N5560  X950.0714  Y216.7157   
N5565  X951.7367  Y221.2648   
N5570  X952.4248  Y222.2206   
N5575  X953.1262  Y222.5047   
N5580  X953.7822  Y222.3007   
N5585  X954.3440  Y221.6295   
N5590  X955.3879  Y218.5249   
N5595  X973.5979  Y159.5520   
N5600  X977.9955  Y145.3116   
N5605  X979.3459  Y139.3609   
N5610  X978.5653  Y138.7434   
N5615  X975.1017  Y138.3951   
N5620  X953.3995  Y138.2062   
N5625  X931.8795  Y138.3975   
N5630  X928.1288  Y138.7320   
N5635  X927.0312  Y139.3105   
N5640 G0  Z0.1000 
N5645 G1  Z-2.0000  F100.00 
N5650  X927.1787  Y141.5194   F300.00 
N5655  X928.1245  Y145.2800   
N5660  X935.1046  Y168.2351   
N5665  X944.4361  Y198.6259   
N5670  X950.0714  Y216.7157   
N5675  X951.7367  Y221.2648   
N5680  X952.4248  Y222.2206   
N5685  X953.1262  Y222.5047   
N5690  X953.7822  Y222.3007   
N5695  X954.3440  Y221.6295   
N5700  X955.3879  Y218.5249   
N5705  X973.5979  Y159.5520   
N5710  X977.9955  Y145.3116   
N5715  X979.3459  Y139.3609   
N5720  X978.5653  Y138.7434   
N5725  X975.1017  Y138.3951   
N5730  X953.3995  Y138.2062   
N5735  X931.8795  Y138.3975   
N5740  X928.1288  Y138.7320   
N5745  X927.0312  Y139.3105   
N5750 G0  Z5.0000 
N5755  X1099.8272  Y20.0795 
N5760  Z0.1000 
N5765 G1  Z-0.7000  F100.00 
N5770  X1099.5588  Y0.0000   F300.00 
N5775  X550.1182   
N5780  X84.1584  Y0.1814   
N5785  X14.6329  Y0.5396   
N5790  X3.0625  Y0.8240   
N5795  X0.2221  Y1.1930   
N5800  X0.0000  Y53.3540   
N5805  X0.2321  Y166.4100   
N5810  X0.7226  Y279.2603   
N5815  X1.2763  Y330.8035   
N5820  X162.9647  Y331.1758   
N5825  X550.8629  Y331.2248   
N5830  X1099.8499  Y331.0434   
N5835  X1099.9728  Y185.6014   
N5840  X1099.8272  Y20.0795   
N5845 G0  Z0.1000 
N5850 G1  Z-1.4000  F100.00 
N5855  X1099.5588  Y0.0000   F300.00 
N5860  X550.1182   
N5865  X84.1584  Y0.1814   
N5870  X14.6329  Y0.5396   
N5875  X3.0625  Y0.8240   
N5880  X0.2221  Y1.1930   
N5885  X0.0000  Y53.3540   
N5890  X0.2321  Y166.4100   
N5895  X0.7226  Y279.2603   
N5900  X1.2763  Y330.8035   
N5905  X162.9647  Y331.1758   
N5910  X550.8629  Y331.2248   
N5915  X1099.8499  Y331.0434   
N5920  X1099.9728  Y185.6014   
N5925  X1099.8272  Y20.0795   
N5930 G0  Z0.1000 
N5935 G1  Z-2.0000  F100.00 
N5940  X1099.5588  Y0.0000   F300.00 
N5945  X550.1182   
N5950  X84.1584  Y0.1814   
N5955  X14.6329  Y0.5396   
N5960  X3.0625  Y0.8240   
N5965  X0.2221  Y1.1930   
N5970  X0.0000  Y53.3540   
N5975  X0.2321  Y166.4100   
N5980  X0.7226  Y279.2603   
N5985  X1.2763  Y330.8035   
N5990  X162.9647  Y331.1758   
N5995  X550.8629  Y331.2248   
N6000  X1099.8499  Y331.0434   
N6005  X1099.9728  Y185.6014   
N6010  X1099.8272  Y20.0795   
N6015 G0  Z5.0000 
N6020 M5
N6025 M30

