N5 (File Name = nike on Friday, November 10, 2023)
N10 (Default Mill Post)
N15  G91.1
N20 G0  Z3.0000 
N25 M3 
N30  X14.5209  Y31.2131 
N35  Z0.1000 
N40 G1  Z-0.7000  F60.00 
N45  X9.6043  Y30.0923   
N50  X8.1237  Y29.9831   
N55  X7.1274  Y30.2889   
N60  X6.4897  Y31.0951   
N65  X6.0850  Y32.4873   
N70  X5.4715  Y37.3715   
N75  X5.3308  Y40.5396   
N80  X5.6113  Y41.2321   
N85  X6.1700  Y41.5993   
N90  X6.8559  Y42.0964   
N95  X7.0108  Y43.9026   
N100  X5.4511  Y57.6050   
N105  X3.9297  Y68.2521   
N110  X3.3186  Y69.5928   
N115  X2.4336  Y69.7881   
N120  X1.7732  Y69.8954   
N125  X1.3641  Y70.2858   
N130  X1.0811  Y72.3262   
N135  X0.4630  Y77.9103   
N140  X0.0000  Y81.0841   
N145  X4.8485  Y82.2049   
N150  X11.2631  Y83.6135   
N155  X12.3667  Y83.5738   
N160  X13.7464  Y82.4430   
N165  X19.7236  Y74.2673   
N170  X24.5750  Y67.5673   
N175  X26.1064  Y65.6804   
N180  X26.7345  Y65.1672   
N185  X26.5116  Y70.1776   
N190  X25.9003  Y73.6907   
N195  X25.4566  Y74.3486   
N200  X24.8228  Y74.5261   
N205  X24.2118  Y74.6782   
N210  X23.7655  Y75.2001   
N215  X23.1665  Y77.7411   
N220  X22.3578  Y83.4675   
N225  X22.3110  Y85.6169   
N230  X22.7369  Y86.0678   
N235  X23.5604  Y86.3378   
N240  X38.1051  Y89.4165   
N245  X38.6339  Y87.0820   
N250  X39.3419  Y81.3793   
N255  X39.4180  Y78.3048   
N260  X39.1320  Y77.4840   
N265  X38.5926  Y76.9184   
N270  X38.0126  Y76.1661   
N275  X37.8603  Y74.4361   
N280  X38.9418  Y64.3119   
N285  X40.8226  Y50.8224   
N290  X41.4796  Y49.0776   
N295  X42.3571  Y48.8061   
N300  X42.9653  Y48.6444   
N305  X43.4033  Y48.0784   
N310  X43.9897  Y45.2529   
N315  X44.4726  Y40.7033   
N320  X44.4476  Y39.2975   
N325  X44.1618  Y38.3177   
N330  X43.5524  Y37.6489   
N335  X42.5572  Y37.1759   
N340  X39.1590  Y36.3573   
N345  X32.5598  Y34.8834   
N350  X31.6419  Y35.0922   
N355  X30.3089  Y36.3792   
N360  X25.1383  Y43.6819   
N365  X20.6622  Y50.1403   
N370  X18.4544  Y52.8415   
N375  X18.1605  Y52.2383   
N380  X18.2854  Y50.7522   
N385  X18.7083  Y46.6910   
N390  X18.9876  Y45.1744   
N395  X19.3788  Y44.8454   
N400  X19.9747  Y44.7452   
N405  X20.6221  Y44.5917   
N410  X21.0808  Y44.0399   
N415  X21.6994  Y41.1918   
N420  X22.5499  Y35.1002   
N425  X22.6399  Y32.9911   
N430  X22.2711  Y32.6436   
N435  X21.5451  Y32.5621   
N440  X14.5209  Y31.2131   
N445 G0  Z0.1000 
N450 G1  Z-1.4000  
N455  X9.6043  Y30.0923   
N460  X8.1237  Y29.9831   
N465  X7.1274  Y30.2889   
N470  X6.4897  Y31.0951   
N475  X6.0850  Y32.4873   
N480  X5.4715  Y37.3715   
N485  X5.3308  Y40.5396   
N490  X5.6113  Y41.2321   
N495  X6.1700  Y41.5993   
N500  X6.8559  Y42.0964   
N505  X7.0108  Y43.9026   
N510  X5.4511  Y57.6050   
N515  X3.9297  Y68.2521   
N520  X3.3186  Y69.5928   
N525  X2.4336  Y69.7881   
N530  X1.7732  Y69.8954   
N535  X1.3641  Y70.2858   
N540  X1.0811  Y72.3262   
N545  X0.4630  Y77.9103   
N550  X0.0000  Y81.0841   
N555  X4.8485  Y82.2049   
N560  X11.2631  Y83.6135   
N565  X12.3667  Y83.5738   
N570  X13.7464  Y82.4430   
N575  X19.7236  Y74.2673   
N580  X24.5750  Y67.5673   
N585  X26.1064  Y65.6804   
N590  X26.7345  Y65.1672   
N595  X26.5116  Y70.1776   
N600  X25.9003  Y73.6907   
N605  X25.4566  Y74.3486   
N610  X24.8228  Y74.5261   
N615  X24.2118  Y74.6782   
N620  X23.7655  Y75.2001   
N625  X23.1665  Y77.7411   
N630  X22.3578  Y83.4675   
N635  X22.3110  Y85.6169   
N640  X22.7369  Y86.0678   
N645  X23.5604  Y86.3378   
N650  X38.1051  Y89.4165   
N655  X38.6339  Y87.0820   
N660  X39.3419  Y81.3793   
N665  X39.4180  Y78.3048   
N670  X39.1320  Y77.4840   
N675  X38.5926  Y76.9184   
N680  X38.0126  Y76.1661   
N685  X37.8603  Y74.4361   
N690  X38.9418  Y64.3119   
N695  X40.8226  Y50.8224   
N700  X41.4796  Y49.0776   
N705  X42.3571  Y48.8061   
N710  X42.9653  Y48.6444   
N715  X43.4033  Y48.0784   
N720  X43.9897  Y45.2529   
N725  X44.4726  Y40.7033   
N730  X44.4476  Y39.2975   
N735  X44.1618  Y38.3177   
N740  X43.5524  Y37.6489   
N745  X42.5572  Y37.1759   
N750  X39.1590  Y36.3573   
N755  X32.5598  Y34.8834   
N760  X31.6419  Y35.0922   
N765  X30.3089  Y36.3792   
N770  X25.1383  Y43.6819   
N775  X20.6622  Y50.1403   
N780  X18.4544  Y52.8415   
N785  X18.1605  Y52.2383   
N790  X18.2854  Y50.7522   
N795  X18.7083  Y46.6910   
N800  X18.9876  Y45.1744   
N805  X19.3788  Y44.8454   
N810  X19.9747  Y44.7452   
N815  X20.6221  Y44.5917   
N820  X21.0808  Y44.0399   
N825  X21.6994  Y41.1918   
N830  X22.5499  Y35.1002   
N835  X22.6399  Y32.9911   
N840  X22.2711  Y32.6436   
N845  X21.5451  Y32.5621   
N850  X14.5209  Y31.2131   
N855 G0  Z3.0000 
N860  X44.6990  Y2.3750 
N865  Z0.1000 
N870 G1  Z-0.7000  
N875  X43.3485  Y4.0540   
N880  X42.5722  Y5.8678   
N885  X42.3892  Y7.8772   
N890  X42.8178  Y10.1427   
N895  X43.8767  Y12.7249   
N900  X45.5842  Y15.6844   
N905  X51.0204  Y22.9779   
N910  X51.8812  Y23.7651   
N915  X52.1934  Y23.4516   
N920  X51.9505  Y22.1782   
N925  X51.1466  Y20.0851   
N930  X50.4181  Y18.0711   
N935  X50.0975  Y16.2707   
N940  X50.1752  Y14.7007   
N945  X50.6420  Y13.3786   
N950  X51.4881  Y12.3212   
N955  X52.7041  Y11.5458   
N960  X54.2808  Y11.0696   
N965  X56.2086  Y10.9095   
N970  X58.8697  Y11.0707   
N975  X63.2428  Y11.9496   
N980  X87.4074  Y18.2960   
N985  X105.1744  Y23.0637   
N990  X107.2898  Y23.4393   
N995  X107.3614  Y23.2316   
N1000  X106.8052  Y22.7795   
N1005  X98.7446  Y18.8209   
N1010  X79.1695  Y10.4168   
N1015  X60.6847  Y2.7862   
N1020  X54.8374  Y0.7419   
N1025  X50.5352  Y0.0000   
N1030  X48.8174  Y0.1138   
N1035  X47.3111  Y0.5483   
N1040  X45.9578  Y1.3027   
N1045  X44.6990  Y2.3750   
N1050 G0  Z0.1000 
N1055 G1  Z-1.4000  
N1060  X43.3485  Y4.0540   
N1065  X42.5722  Y5.8678   
N1070  X42.3892  Y7.8772   
N1075  X42.8178  Y10.1427   
N1080  X43.8767  Y12.7249   
N1085  X45.5842  Y15.6844   
N1090  X51.0204  Y22.9779   
N1095  X51.8812  Y23.7651   
N1100  X52.1934  Y23.4516   
N1105  X51.9505  Y22.1782   
N1110  X51.1466  Y20.0851   
N1115  X50.4181  Y18.0711   
N1120  X50.0975  Y16.2707   
N1125  X50.1752  Y14.7007   
N1130  X50.6420  Y13.3786   
N1135  X51.4881  Y12.3212   
N1140  X52.7041  Y11.5458   
N1145  X54.2808  Y11.0696   
N1150  X56.2086  Y10.9095   
N1155  X58.8697  Y11.0707   
N1160  X63.2428  Y11.9496   
N1165  X87.4074  Y18.2960   
N1170  X105.1744  Y23.0637   
N1175  X107.2898  Y23.4393   
N1180  X107.3614  Y23.2316   
N1185  X106.8052  Y22.7795   
N1190  X98.7446  Y18.8209   
N1195  X79.1695  Y10.4168   
N1200  X60.6847  Y2.7862   
N1205  X54.8374  Y0.7419   
N1210  X50.5352  Y0.0000   
N1215  X48.8174  Y0.1138   
N1220  X47.3111  Y0.5483   
N1225  X45.9578  Y1.3027   
N1230  X44.6990  Y2.3750   
N1235 G0  Z3.0000 
N1240  X62.1953  Y38.4042 
N1245  Z0.1000 
N1250 G1  Z-0.7000  
N1255  X54.1742  Y37.6099   
N1260  X48.0145  Y37.1723   
N1265  X47.6279  Y42.8128   
N1270  X47.4687  Y46.1055   
N1275  X47.6365  Y48.0410   
N1280  X48.2528  Y49.0780   
N1285  X49.4383  Y49.6756   
N1290  X49.6326  Y53.7582   
N1295  X49.1745  Y63.9001   
N1300  X48.2463  Y75.6552   
N1305  X47.7672  Y77.5024   
N1310  X47.0924  Y77.9103   
N1315  X46.4558  Y78.1051   
N1320  X46.0564  Y78.8949   
N1325  X45.6492  Y83.4942   
N1330  X45.7671  Y89.5228   
N1335  X48.3527  Y89.9787   
N1340  X54.0732  Y90.4501   
N1345  X62.0260  Y90.9324   
N1350  Y85.1707   
N1355  X61.8148  Y80.5039   
N1360  X61.4973  Y79.4669   
N1365  X60.9910  Y79.0116   
N1370  X60.4651  Y78.3892   
N1375  X60.2066  Y76.5744   
N1380  X60.3494  Y66.5869   
N1385  X60.6913  Y57.6192   
N1390  X61.0876  Y52.6836   
N1395  X61.7110  Y50.5929   
N1400  X62.1617  Y50.2433   
N1405  X62.7336  Y50.1599   
N1410  X63.4498  Y50.0012   
N1415  X63.8481  Y49.2618   
N1420  X64.0565  Y44.4605   
N1425  X64.0266  Y41.1682   
N1430  X63.8215  Y39.4359   
N1435  X63.2685  Y38.7020   
N1440  X62.1953  Y38.4042   
N1445 G0  Z0.1000 
N1450 G1  Z-1.4000  
N1455  X54.1742  Y37.6099   
N1460  X48.0145  Y37.1723   
N1465  X47.6279  Y42.8128   
N1470  X47.4687  Y46.1055   
N1475  X47.6365  Y48.0410   
N1480  X48.2528  Y49.0780   
N1485  X49.4383  Y49.6756   
N1490  X49.6326  Y53.7582   
N1495  X49.1745  Y63.9001   
N1500  X48.2463  Y75.6552   
N1505  X47.7672  Y77.5024   
N1510  X47.0924  Y77.9103   
N1515  X46.4558  Y78.1051   
N1520  X46.0564  Y78.8949   
N1525  X45.6492  Y83.4942   
N1530  X45.7671  Y89.5228   
N1535  X48.3527  Y89.9787   
N1540  X54.0732  Y90.4501   
N1545  X62.0260  Y90.9324   
N1550  Y85.1707   
N1555  X61.8148  Y80.5039   
N1560  X61.4973  Y79.4669   
N1565  X60.9910  Y79.0116   
N1570  X60.4651  Y78.3892   
N1575  X60.2066  Y76.5744   
N1580  X60.3494  Y66.5869   
N1585  X60.6913  Y57.6192   
N1590  X61.0876  Y52.6836   
N1595  X61.7110  Y50.5929   
N1600  X62.1617  Y50.2433   
N1605  X62.7336  Y50.1599   
N1610  X63.4498  Y50.0012   
N1615  X63.8481  Y49.2618   
N1620  X64.0565  Y44.4605   
N1625  X64.0266  Y41.1682   
N1630  X63.8215  Y39.4359   
N1635  X63.2685  Y38.7020   
N1640  X62.1953  Y38.4042   
N1645 G0  Z3.0000 
N1650  X85.5995  Y52.1245 
N1655  Z0.1000 
N1660 G1  Z-0.7000  
N1665  X86.2689  Y50.4878   
N1670  X85.6924  Y50.5634   
N1675  X84.8232  Y51.1871   
N1680  X84.0310  Y52.0324   
N1685  X83.6849  Y52.7726   
N1690  X83.8480  Y53.4042   
N1695  X84.2795  Y53.4871   
N1700  X85.5995  Y52.1245   
N1705 G0  Z0.1000 
N1710 G1  Z-1.4000  
N1715  X86.2689  Y50.4878   
N1720  X85.6924  Y50.5634   
N1725  X84.8232  Y51.1871   
N1730  X84.0310  Y52.0324   
N1735  X83.6849  Y52.7726   
N1740  X83.8480  Y53.4042   
N1745  X84.2795  Y53.4871   
N1750  X85.5995  Y52.1245   
N1755 G0  Z3.0000 
N1760  X96.2063  Y36.7358 
N1765  Z0.1000 
N1770 G1  Z-0.7000  
N1775  X86.6332  Y37.6046   
N1780  X86.3046  Y38.0863   
N1785  X86.1098  Y39.2691   
N1790  X86.1123  Y43.8504   
N1795  X86.1534  Y47.9071   
N1800  X86.0147  Y48.4972   
N1805  X85.7695  Y48.1294   
N1810  X85.3288  Y45.7034   
N1815  X85.1060  Y42.2470   
N1820  X84.9092  Y39.2018   
N1825  X84.5308  Y37.7648   
N1830  X75.6521  Y38.1387   
N1835  X66.8665  Y39.0226   
N1840  X67.1161  Y45.7143   
N1845  X67.6924  Y50.6697   
N1850  X68.0495  Y51.8225   
N1855  X68.4733  Y52.1903   
N1860  X68.7785  Y52.3348   
N1865  X69.0391  Y52.8622   
N1870  X69.4827  Y55.6321   
N1875  X70.4573  Y71.9880   
N1880  X70.5628  Y77.9337   
N1885  X70.3077  Y78.9924   
N1890  X69.8033  Y79.2639   
N1895  X69.1423  Y79.5782   
N1900  X68.8459  Y80.7928   
N1905  X69.2356  Y87.5551   
N1910  X69.6671  Y92.1239   
N1915  X74.4762  Y92.1179   
N1920  X82.8388  Y91.6853   
N1925  X86.3923  Y91.2584   
N1930  Y85.1977   
N1935  X86.1753  Y80.0515   
N1940  X85.7676  Y79.1486   
N1945  X85.0385  Y78.7833   
N1950  X84.3889  Y78.4951   
N1955  X83.9721  Y77.9851   
N1960  X83.6849  Y75.9831   
N1965  Y73.5369   
N1970  X85.7679  Y75.6199   
N1975  X86.9348  Y76.9220   
N1980  X87.5839  Y78.3002   
N1985  X87.8995  Y80.4239   
N1990  X88.0659  Y83.9625   
N1995  X88.3876  Y88.5520   
N2000  X88.8594  Y90.7966   
N2005  X92.1688  Y90.9779   
N2010  X98.9593  Y90.8016   
N2015  X105.7580  Y90.4125   
N2020  X109.0920  Y89.9549   
N2025  X108.8806  Y83.2851   
N2030  X108.3894  Y76.8950   
N2035  X106.2425  Y76.5566   
N2040  X104.3179  Y75.6278   
N2045  X101.6802  Y73.4463   
N2050  X98.5416  Y70.2114   
N2055  X95.1146  Y66.1221   
N2060  X93.8516  Y64.5162   
N2065  X98.9549  Y56.9997   
N2070  X103.3905  Y50.9402   
N2075  X104.6748  Y49.7946   
N2080  X105.7162  Y49.4830   
N2085  X106.6709  Y49.3721   
N2090  X107.1636  Y48.6231   
N2095  X107.3743  Y42.7146   
N2100  X107.1778  Y37.0846   
N2105  X106.8202  Y36.2011   
N2110  X106.1897  Y36.0438   
N2115  X96.2063  Y36.7358   
N2120 G0  Z0.1000 
N2125 G1  Z-1.4000  
N2130  X86.6332  Y37.6046   
N2135  X86.3046  Y38.0863   
N2140  X86.1098  Y39.2691   
N2145  X86.1123  Y43.8504   
N2150  X86.1534  Y47.9071   
N2155  X86.0147  Y48.4972   
N2160  X85.7695  Y48.1294   
N2165  X85.3288  Y45.7034   
N2170  X85.1060  Y42.2470   
N2175  X84.9092  Y39.2018   
N2180  X84.5308  Y37.7648   
N2185  X75.6521  Y38.1387   
N2190  X66.8665  Y39.0226   
N2195  X67.1161  Y45.7143   
N2200  X67.6924  Y50.6697   
N2205  X68.0495  Y51.8225   
N2210  X68.4733  Y52.1903   
N2215  X68.7785  Y52.3348   
N2220  X69.0391  Y52.8622   
N2225  X69.4827  Y55.6321   
N2230  X70.4573  Y71.9880   
N2235  X70.5628  Y77.9337   
N2240  X70.3077  Y78.9924   
N2245  X69.8033  Y79.2639   
N2250  X69.1423  Y79.5782   
N2255  X68.8459  Y80.7928   
N2260  X69.2356  Y87.5551   
N2265  X69.6671  Y92.1239   
N2270  X74.4762  Y92.1179   
N2275  X82.8388  Y91.6853   
N2280  X86.3923  Y91.2584   
N2285  Y85.1977   
N2290  X86.1753  Y80.0515   
N2295  X85.7676  Y79.1486   
N2300  X85.0385  Y78.7833   
N2305  X84.3889  Y78.4951   
N2310  X83.9721  Y77.9851   
N2315  X83.6849  Y75.9831   
N2320  Y73.5369   
N2325  X85.7679  Y75.6199   
N2330  X86.9348  Y76.9220   
N2335  X87.5839  Y78.3002   
N2340  X87.8995  Y80.4239   
N2345  X88.0659  Y83.9625   
N2350  X88.3876  Y88.5520   
N2355  X88.8594  Y90.7966   
N2360  X92.1688  Y90.9779   
N2365  X98.9593  Y90.8016   
N2370  X105.7580  Y90.4125   
N2375  X109.0920  Y89.9549   
N2380  X108.8806  Y83.2851   
N2385  X108.3894  Y76.8950   
N2390  X106.2425  Y76.5566   
N2395  X104.3179  Y75.6278   
N2400  X101.6802  Y73.4463   
N2405  X98.5416  Y70.2114   
N2410  X95.1146  Y66.1221   
N2415  X93.8516  Y64.5162   
N2420  X98.9549  Y56.9997   
N2425  X103.3905  Y50.9402   
N2430  X104.6748  Y49.7946   
N2435  X105.7162  Y49.4830   
N2440  X106.6709  Y49.3721   
N2445  X107.1636  Y48.6231   
N2450  X107.3743  Y42.7146   
N2455  X107.1778  Y37.0846   
N2460  X106.8202  Y36.2011   
N2465  X106.1897  Y36.0438   
N2470  X96.2063  Y36.7358   
N2475 G0  Z3.0000 
N2480  X133.7709  Y30.2657 
N2485  Z0.1000 
N2490 G1  Z-0.7000  
N2495  X119.2189  Y33.6753   
N2500  X110.8648  Y35.6566   
N2505  X111.5161  Y42.0889   
N2510  X112.4534  Y47.0717   
N2515  X112.9480  Y48.1849   
N2520  X113.5368  Y48.6286   
N2525  X114.3238  Y49.0467   
N2530  X114.9355  Y50.7278   
N2535  X116.9110  Y63.5227   
N2540  X118.0787  Y73.0538   
N2545  X117.9150  Y74.6483   
N2550  X117.2934  Y75.3808   
N2555  X116.6662  Y76.0040   
N2560  X116.4421  Y77.0088   
N2565  X117.1628  Y82.2717   
N2570  X118.5152  Y88.6000   
N2575  X119.1618  Y88.6656   
N2580  X121.5122  Y88.2297   
N2585  X136.4783  Y84.7488   
N2590  X147.4768  Y82.2832   
N2595  X149.4948  Y81.6199   
N2600  X149.8929  Y81.1025   
N2605  X150.0004  Y80.3730   
N2610  X149.0553  Y72.7925   
N2615  X147.8093  Y66.6800   
N2620  X144.1799  Y66.9549   
N2625  X138.4126  Y68.1652   
N2630  X137.5320  Y68.7534   
N2635  X136.9750  Y69.7265   
N2640  X136.1325  Y70.7348   
N2645  X134.2368  Y71.2555   
N2650  X132.2148  Y71.2190   
N2655  X131.7378  Y70.8397   
N2660  X131.4533  Y70.1550   
N2665  X131.1724  Y68.6022   
N2670  X131.5843  Y67.6447   
N2675  X133.0058  Y67.0067   
N2680  X135.7532  Y66.4131   
N2685  X141.3070  Y64.9941   
N2690  X141.5911  Y64.0881   
N2695  X141.5902  Y62.1517   
N2700  X140.9519  Y56.5740   
N2705  X139.8310  Y51.0338   
N2710  X139.2267  Y49.1446   
N2715  X138.6660  Y48.3046   
N2720  X136.6268  Y48.3524   
N2725  X133.0419  Y48.9726   
N2730  X128.3563  Y50.0008   
N2735  Y47.7307   
N2740  X128.4294  Y46.5184   
N2745  X128.7346  Y45.7467   
N2750  X129.4006  Y45.2477   
N2755  X130.5559  Y44.8530   
N2760  X132.4160  Y44.5839   
N2765  X133.4682  Y45.1189   
N2770  X134.0313  Y45.5167   
N2775  X135.0073  Y45.6389   
N2780  X139.1497  Y45.0457   
N2785  X144.4347  Y43.7826   
N2790  X144.0289  Y38.0854   
N2795  X142.8626  Y30.0240   
N2800  X142.4399  Y28.9897   
N2805  X141.2681  Y28.6723   
N2810  X138.6204  Y29.0913   
N2815  X133.7709  Y30.2657   
N2820 G0  Z0.1000 
N2825 G1  Z-1.4000  
N2830  X119.2189  Y33.6753   
N2835  X110.8648  Y35.6566   
N2840  X111.5161  Y42.0889   
N2845  X112.4534  Y47.0717   
N2850  X112.9480  Y48.1849   
N2855  X113.5368  Y48.6286   
N2860  X114.3238  Y49.0467   
N2865  X114.9355  Y50.7278   
N2870  X116.9110  Y63.5227   
N2875  X118.0787  Y73.0538   
N2880  X117.9150  Y74.6483   
N2885  X117.2934  Y75.3808   
N2890  X116.6662  Y76.0040   
N2895  X116.4421  Y77.0088   
N2900  X117.1628  Y82.2717   
N2905  X118.5152  Y88.6000   
N2910  X119.1618  Y88.6656   
N2915  X121.5122  Y88.2297   
N2920  X136.4783  Y84.7488   
N2925  X147.4768  Y82.2832   
N2930  X149.4948  Y81.6199   
N2935  X149.8929  Y81.1025   
N2940  X150.0004  Y80.3730   
N2945  X149.0553  Y72.7925   
N2950  X147.8093  Y66.6800   
N2955  X144.1799  Y66.9549   
N2960  X138.4126  Y68.1652   
N2965  X137.5320  Y68.7534   
N2970  X136.9750  Y69.7265   
N2975  X136.1325  Y70.7348   
N2980  X134.2368  Y71.2555   
N2985  X132.2148  Y71.2190   
N2990  X131.7378  Y70.8397   
N2995  X131.4533  Y70.1550   
N3000  X131.1724  Y68.6022   
N3005  X131.5843  Y67.6447   
N3010  X133.0058  Y67.0067   
N3015  X135.7532  Y66.4131   
N3020  X141.3070  Y64.9941   
N3025  X141.5911  Y64.0881   
N3030  X141.5902  Y62.1517   
N3035  X140.9519  Y56.5740   
N3040  X139.8310  Y51.0338   
N3045  X139.2267  Y49.1446   
N3050  X138.6660  Y48.3046   
N3055  X136.6268  Y48.3524   
N3060  X133.0419  Y48.9726   
N3065  X128.3563  Y50.0008   
N3070  Y47.7307   
N3075  X128.4294  Y46.5184   
N3080  X128.7346  Y45.7467   
N3085  X129.4006  Y45.2477   
N3090  X130.5559  Y44.8530   
N3095  X132.4160  Y44.5839   
N3100  X133.4682  Y45.1189   
N3105  X134.0313  Y45.5167   
N3110  X135.0073  Y45.6389   
N3115  X139.1497  Y45.0457   
N3120  X144.4347  Y43.7826   
N3125  X144.0289  Y38.0854   
N3130  X142.8626  Y30.0240   
N3135  X142.4399  Y28.9897   
N3140  X141.2681  Y28.6723   
N3145  X138.6204  Y29.0913   
N3150  X133.7709  Y30.2657   
N3155 G0  Z3.0000 
N3160 M5
N3165 M30

