N5 (File Name = porche on Tuesday, November 07, 2023)
N10 (Default Mill Post)
N15  G91.1
N20 G0  Z5.0000 
N25 M3 
N30  X46.9167  Y141.0827 
N35  Z0.1000 
N40 G1  Z-1.0000  F100.00 
N45  X39.4565  Y155.0389   F300.00 
N50  X33.5822  Y169.8958   
N55  X30.2001  Y182.9214   
N60  X29.7275  Y187.8929   
N65  X30.2185  Y191.3814   
N70  X32.5183  Y192.9306   
N75  X40.0844  Y193.8182   
N80  X83.9354  Y194.3165   
N85  X136.5261   
N90  X146.3407  Y185.1021   
N95  X154.3134  Y178.3957   
N100  X162.4765  Y173.1682   
N105  X171.2089  Y169.2128   
N110  X180.8881  Y166.3244   
N115  X191.1270  Y163.7424   
N120  X196.1904  Y161.0360   
N125  X197.3161  Y159.0373   
N130  X197.7893  Y156.2900   
N135  X197.6367  Y147.5908   
N140  X197.0927  Y134.1707   
N145  X124.4920  Y133.6865   
N150  X51.8914  Y133.2023   
N155  X46.9167  Y141.0827   
N160 G0  Z0.1000 
N165 G1  Z-2.0000  F100.00 
N170  X39.4565  Y155.0389   F300.00 
N175  X33.5822  Y169.8958   
N180  X30.2001  Y182.9214   
N185  X29.7275  Y187.8929   
N190  X30.2185  Y191.3814   
N195  X32.5183  Y192.9306   
N200  X40.0844  Y193.8182   
N205  X83.9354  Y194.3165   
N210  X136.5261   
N215  X146.3407  Y185.1021   
N220  X154.3134  Y178.3957   
N225  X162.4765  Y173.1682   
N230  X171.2089  Y169.2128   
N235  X180.8881  Y166.3244   
N240  X191.1270  Y163.7424   
N245  X196.1904  Y161.0360   
N250  X197.3161  Y159.0373   
N255  X197.7893  Y156.2900   
N260  X197.6367  Y147.5908   
N265  X197.0927  Y134.1707   
N270  X124.4920  Y133.6865   
N275  X51.8914  Y133.2023   
N280  X46.9167  Y141.0827   
N285 G0  Z0.1000 
N290 G1  Z-3.0000  F100.00 
N295  X39.4565  Y155.0389   F300.00 
N300  X33.5822  Y169.8958   
N305  X30.2001  Y182.9214   
N310  X29.7275  Y187.8929   
N315  X30.2185  Y191.3814   
N320  X32.5183  Y192.9306   
N325  X40.0844  Y193.8182   
N330  X83.9354  Y194.3165   
N335  X136.5261   
N340  X146.3407  Y185.1021   
N345  X154.3134  Y178.3957   
N350  X162.4765  Y173.1682   
N355  X171.2089  Y169.2128   
N360  X180.8881  Y166.3244   
N365  X191.1270  Y163.7424   
N370  X196.1904  Y161.0360   
N375  X197.3161  Y159.0373   
N380  X197.7893  Y156.2900   
N385  X197.6367  Y147.5908   
N390  X197.0927  Y134.1707   
N395  X124.4920  Y133.6865   
N400  X51.8914  Y133.2023   
N405  X46.9167  Y141.0827   
N410 G0  Z0.1000 
N415 G1  Z-4.0000  F100.00 
N420  X39.4565  Y155.0389   F300.00 
N425  X33.5822  Y169.8958   
N430  X30.2001  Y182.9214   
N435  X29.7275  Y187.8929   
N440  X30.2185  Y191.3814   
N445  X32.5183  Y192.9306   
N450  X40.0844  Y193.8182   
N455  X83.9354  Y194.3165   
N460  X136.5261   
N465  X146.3407  Y185.1021   
N470  X154.3134  Y178.3957   
N475  X162.4765  Y173.1682   
N480  X171.2089  Y169.2128   
N485  X180.8881  Y166.3244   
N490  X191.1270  Y163.7424   
N495  X196.1904  Y161.0360   
N500  X197.3161  Y159.0373   
N505  X197.7893  Y156.2900   
N510  X197.6367  Y147.5908   
N515  X197.0927  Y134.1707   
N520  X124.4920  Y133.6865   
N525  X51.8914  Y133.2023   
N530  X46.9167  Y141.0827   
N535 G0  Z0.1000 
N540 G1  Z-5.0000  F100.00 
N545  X39.4565  Y155.0389   F300.00 
N550  X33.5822  Y169.8958   
N555  X30.2001  Y182.9214   
N560  X29.7275  Y187.8929   
N565  X30.2185  Y191.3814   
N570  X32.5183  Y192.9306   
N575  X40.0844  Y193.8182   
N580  X83.9354  Y194.3165   
N585  X136.5261   
N590  X146.3407  Y185.1021   
N595  X154.3134  Y178.3957   
N600  X162.4765  Y173.1682   
N605  X171.2089  Y169.2128   
N610  X180.8881  Y166.3244   
N615  X191.1270  Y163.7424   
N620  X196.1904  Y161.0360   
N625  X197.3161  Y159.0373   
N630  X197.7893  Y156.2900   
N635  X197.6367  Y147.5908   
N640  X197.0927  Y134.1707   
N645  X124.4920  Y133.6865   
N650  X51.8914  Y133.2023   
N655  X46.9167  Y141.0827   
N660 G0  Z0.1000 
N665 G1  Z-6.0000  F100.00 
N670  X39.4565  Y155.0389   F300.00 
N675  X33.5822  Y169.8958   
N680  X30.2001  Y182.9214   
N685  X29.7275  Y187.8929   
N690  X30.2185  Y191.3814   
N695  X32.5183  Y192.9306   
N700  X40.0844  Y193.8182   
N705  X83.9354  Y194.3165   
N710  X136.5261   
N715  X146.3407  Y185.1021   
N720  X154.3134  Y178.3957   
N725  X162.4765  Y173.1682   
N730  X171.2089  Y169.2128   
N735  X180.8881  Y166.3244   
N740  X191.1270  Y163.7424   
N745  X196.1904  Y161.0360   
N750  X197.3161  Y159.0373   
N755  X197.7893  Y156.2900   
N760  X197.6367  Y147.5908   
N765  X197.0927  Y134.1707   
N770  X124.4920  Y133.6865   
N775  X51.8914  Y133.2023   
N780  X46.9167  Y141.0827   
N785 G0  Z0.1000 
N790 G1  Z-7.0000  F100.00 
N795  X39.4565  Y155.0389   F300.00 
N800  X33.5822  Y169.8958   
N805  X30.2001  Y182.9214   
N810  X29.7275  Y187.8929   
N815  X30.2185  Y191.3814   
N820  X32.5183  Y192.9306   
N825  X40.0844  Y193.8182   
N830  X83.9354  Y194.3165   
N835  X136.5261   
N840  X146.3407  Y185.1021   
N845  X154.3134  Y178.3957   
N850  X162.4765  Y173.1682   
N855  X171.2089  Y169.2128   
N860  X180.8881  Y166.3244   
N865  X191.1270  Y163.7424   
N870  X196.1904  Y161.0360   
N875  X197.3161  Y159.0373   
N880  X197.7893  Y156.2900   
N885  X197.6367  Y147.5908   
N890  X197.0927  Y134.1707   
N895  X124.4920  Y133.6865   
N900  X51.8914  Y133.2023   
N905  X46.9167  Y141.0827   
N910 G0  Z0.1000 
N915 G1  Z-8.0000  F100.00 
N920  X39.4565  Y155.0389   F300.00 
N925  X33.5822  Y169.8958   
N930  X30.2001  Y182.9214   
N935  X29.7275  Y187.8929   
N940  X30.2185  Y191.3814   
N945  X32.5183  Y192.9306   
N950  X40.0844  Y193.8182   
N955  X83.9354  Y194.3165   
N960  X136.5261   
N965  X146.3407  Y185.1021   
N970  X154.3134  Y178.3957   
N975  X162.4765  Y173.1682   
N980  X171.2089  Y169.2128   
N985  X180.8881  Y166.3244   
N990  X191.1270  Y163.7424   
N995  X196.1904  Y161.0360   
N1000  X197.3161  Y159.0373   
N1005  X197.7893  Y156.2900   
N1010  X197.6367  Y147.5908   
N1015  X197.0927  Y134.1707   
N1020  X124.4920  Y133.6865   
N1025  X51.8914  Y133.2023   
N1030  X46.9167  Y141.0827   
N1035 G0  Z0.1000 
N1040 G1  Z-9.0000  F100.00 
N1045  X39.4565  Y155.0389   F300.00 
N1050  X33.5822  Y169.8958   
N1055  X30.2001  Y182.9214   
N1060  X29.7275  Y187.8929   
N1065  X30.2185  Y191.3814   
N1070  X32.5183  Y192.9306   
N1075  X40.0844  Y193.8182   
N1080  X83.9354  Y194.3165   
N1085  X136.5261   
N1090  X146.3407  Y185.1021   
N1095  X154.3134  Y178.3957   
N1100  X162.4765  Y173.1682   
N1105  X171.2089  Y169.2128   
N1110  X180.8881  Y166.3244   
N1115  X191.1270  Y163.7424   
N1120  X196.1904  Y161.0360   
N1125  X197.3161  Y159.0373   
N1130  X197.7893  Y156.2900   
N1135  X197.6367  Y147.5908   
N1140  X197.0927  Y134.1707   
N1145  X124.4920  Y133.6865   
N1150  X51.8914  Y133.2023   
N1155  X46.9167  Y141.0827   
N1160 G0  Z0.1000 
N1165 G1  Z-10.0000  F100.00 
N1170  X39.4565  Y155.0389   F300.00 
N1175  X33.5822  Y169.8958   
N1180  X30.2001  Y182.9214   
N1185  X29.7275  Y187.8929   
N1190  X30.2185  Y191.3814   
N1195  X32.5183  Y192.9306   
N1200  X40.0844  Y193.8182   
N1205  X83.9354  Y194.3165   
N1210  X136.5261   
N1215  X146.3407  Y185.1021   
N1220  X154.3134  Y178.3957   
N1225  X162.4765  Y173.1682   
N1230  X171.2089  Y169.2128   
N1235  X180.8881  Y166.3244   
N1240  X191.1270  Y163.7424   
N1245  X196.1904  Y161.0360   
N1250  X197.3161  Y159.0373   
N1255  X197.7893  Y156.2900   
N1260  X197.6367  Y147.5908   
N1265  X197.0927  Y134.1707   
N1270  X124.4920  Y133.6865   
N1275  X51.8914  Y133.2023   
N1280  X46.9167  Y141.0827   
N1285 G0  Z0.1000 
N1290 G1  Z-11.0000  F100.00 
N1295  X39.4565  Y155.0389   F300.00 
N1300  X33.5822  Y169.8958   
N1305  X30.2001  Y182.9214   
N1310  X29.7275  Y187.8929   
N1315  X30.2185  Y191.3814   
N1320  X32.5183  Y192.9306   
N1325  X40.0844  Y193.8182   
N1330  X83.9354  Y194.3165   
N1335  X136.5261   
N1340  X146.3407  Y185.1021   
N1345  X154.3134  Y178.3957   
N1350  X162.4765  Y173.1682   
N1355  X171.2089  Y169.2128   
N1360  X180.8881  Y166.3244   
N1365  X191.1270  Y163.7424   
N1370  X196.1904  Y161.0360   
N1375  X197.3161  Y159.0373   
N1380  X197.7893  Y156.2900   
N1385  X197.6367  Y147.5908   
N1390  X197.0927  Y134.1707   
N1395  X124.4920  Y133.6865   
N1400  X51.8914  Y133.2023   
N1405  X46.9167  Y141.0827   
N1410 G0  Z0.1000 
N1415 G1  Z-12.0000  F100.00 
N1420  X39.4565  Y155.0389   F300.00 
N1425  X33.5822  Y169.8958   
N1430  X30.2001  Y182.9214   
N1435  X29.7275  Y187.8929   
N1440  X30.2185  Y191.3814   
N1445  X32.5183  Y192.9306   
N1450  X40.0844  Y193.8182   
N1455  X83.9354  Y194.3165   
N1460  X136.5261   
N1465  X146.3407  Y185.1021   
N1470  X154.3134  Y178.3957   
N1475  X162.4765  Y173.1682   
N1480  X171.2089  Y169.2128   
N1485  X180.8881  Y166.3244   
N1490  X191.1270  Y163.7424   
N1495  X196.1904  Y161.0360   
N1500  X197.3161  Y159.0373   
N1505  X197.7893  Y156.2900   
N1510  X197.6367  Y147.5908   
N1515  X197.0927  Y134.1707   
N1520  X124.4920  Y133.6865   
N1525  X51.8914  Y133.2023   
N1530  X46.9167  Y141.0827   
N1535 G0  Z0.1000 
N1540 G1  Z-13.0000  F100.00 
N1545  X39.4565  Y155.0389   F300.00 
N1550  X33.5822  Y169.8958   
N1555  X30.2001  Y182.9214   
N1560  X29.7275  Y187.8929   
N1565  X30.2185  Y191.3814   
N1570  X32.5183  Y192.9306   
N1575  X40.0844  Y193.8182   
N1580  X83.9354  Y194.3165   
N1585  X136.5261   
N1590  X146.3407  Y185.1021   
N1595  X154.3134  Y178.3957   
N1600  X162.4765  Y173.1682   
N1605  X171.2089  Y169.2128   
N1610  X180.8881  Y166.3244   
N1615  X191.1270  Y163.7424   
N1620  X196.1904  Y161.0360   
N1625  X197.3161  Y159.0373   
N1630  X197.7893  Y156.2900   
N1635  X197.6367  Y147.5908   
N1640  X197.0927  Y134.1707   
N1645  X124.4920  Y133.6865   
N1650  X51.8914  Y133.2023   
N1655  X46.9167  Y141.0827   
N1660 G0  Z0.1000 
N1665 G1  Z-14.0000  F100.00 
N1670  X39.4565  Y155.0389   F300.00 
N1675  X33.5822  Y169.8958   
N1680  X30.2001  Y182.9214   
N1685  X29.7275  Y187.8929   
N1690  X30.2185  Y191.3814   
N1695  X32.5183  Y192.9306   
N1700  X40.0844  Y193.8182   
N1705  X83.9354  Y194.3165   
N1710  X136.5261   
N1715  X146.3407  Y185.1021   
N1720  X154.3134  Y178.3957   
N1725  X162.4765  Y173.1682   
N1730  X171.2089  Y169.2128   
N1735  X180.8881  Y166.3244   
N1740  X191.1270  Y163.7424   
N1745  X196.1904  Y161.0360   
N1750  X197.3161  Y159.0373   
N1755  X197.7893  Y156.2900   
N1760  X197.6367  Y147.5908   
N1765  X197.0927  Y134.1707   
N1770  X124.4920  Y133.6865   
N1775  X51.8914  Y133.2023   
N1780  X46.9167  Y141.0827   
N1785 G0  Z0.1000 
N1790 G1  Z-15.0000  F100.00 
N1795  X39.4565  Y155.0389   F300.00 
N1800  X33.5822  Y169.8958   
N1805  X30.2001  Y182.9214   
N1810  X29.7275  Y187.8929   
N1815  X30.2185  Y191.3814   
N1820  X32.5183  Y192.9306   
N1825  X40.0844  Y193.8182   
N1830  X83.9354  Y194.3165   
N1835  X136.5261   
N1840  X146.3407  Y185.1021   
N1845  X154.3134  Y178.3957   
N1850  X162.4765  Y173.1682   
N1855  X171.2089  Y169.2128   
N1860  X180.8881  Y166.3244   
N1865  X191.1270  Y163.7424   
N1870  X196.1904  Y161.0360   
N1875  X197.3161  Y159.0373   
N1880  X197.7893  Y156.2900   
N1885  X197.6367  Y147.5908   
N1890  X197.0927  Y134.1707   
N1895  X124.4920  Y133.6865   
N1900  X51.8914  Y133.2023   
N1905  X46.9167  Y141.0827   
N1910 G0  Z0.1000 
N1915 G1  Z-16.0000  F100.00 
N1920  X39.4565  Y155.0389   F300.00 
N1925  X33.5822  Y169.8958   
N1930  X30.2001  Y182.9214   
N1935  X29.7275  Y187.8929   
N1940  X30.2185  Y191.3814   
N1945  X32.5183  Y192.9306   
N1950  X40.0844  Y193.8182   
N1955  X83.9354  Y194.3165   
N1960  X136.5261   
N1965  X146.3407  Y185.1021   
N1970  X154.3134  Y178.3957   
N1975  X162.4765  Y173.1682   
N1980  X171.2089  Y169.2128   
N1985  X180.8881  Y166.3244   
N1990  X191.1270  Y163.7424   
N1995  X196.1904  Y161.0360   
N2000  X197.3161  Y159.0373   
N2005  X197.7893  Y156.2900   
N2010  X197.6367  Y147.5908   
N2015  X197.0927  Y134.1707   
N2020  X124.4920  Y133.6865   
N2025  X51.8914  Y133.2023   
N2030  X46.9167  Y141.0827   
N2035 G0  Z0.1000 
N2040 G1  Z-17.0000  F100.00 
N2045  X39.4565  Y155.0389   F300.00 
N2050  X33.5822  Y169.8958   
N2055  X30.2001  Y182.9214   
N2060  X29.7275  Y187.8929   
N2065  X30.2185  Y191.3814   
N2070  X32.5183  Y192.9306   
N2075  X40.0844  Y193.8182   
N2080  X83.9354  Y194.3165   
N2085  X136.5261   
N2090  X146.3407  Y185.1021   
N2095  X154.3134  Y178.3957   
N2100  X162.4765  Y173.1682   
N2105  X171.2089  Y169.2128   
N2110  X180.8881  Y166.3244   
N2115  X191.1270  Y163.7424   
N2120  X196.1904  Y161.0360   
N2125  X197.3161  Y159.0373   
N2130  X197.7893  Y156.2900   
N2135  X197.6367  Y147.5908   
N2140  X197.0927  Y134.1707   
N2145  X124.4920  Y133.6865   
N2150  X51.8914  Y133.2023   
N2155  X46.9167  Y141.0827   
N2160 G0  Z0.1000 
N2165 G1  Z-18.0000  F100.00 
N2170  X39.4565  Y155.0389   F300.00 
N2175  X33.5822  Y169.8958   
N2180  X30.2001  Y182.9214   
N2185  X29.7275  Y187.8929   
N2190  X30.2185  Y191.3814   
N2195  X32.5183  Y192.9306   
N2200  X40.0844  Y193.8182   
N2205  X83.9354  Y194.3165   
N2210  X136.5261   
N2215  X146.3407  Y185.1021   
N2220  X154.3134  Y178.3957   
N2225  X162.4765  Y173.1682   
N2230  X171.2089  Y169.2128   
N2235  X180.8881  Y166.3244   
N2240  X191.1270  Y163.7424   
N2245  X196.1904  Y161.0360   
N2250  X197.3161  Y159.0373   
N2255  X197.7893  Y156.2900   
N2260  X197.6367  Y147.5908   
N2265  X197.0927  Y134.1707   
N2270  X124.4920  Y133.6865   
N2275  X51.8914  Y133.2023   
N2280  X46.9167  Y141.0827   
N2285 G0  Z0.1000 
N2290 G1  Z-19.0000  F100.00 
N2295  X39.4565  Y155.0389   F300.00 
N2300  X33.5822  Y169.8958   
N2305  X30.2001  Y182.9214   
N2310  X29.7275  Y187.8929   
N2315  X30.2185  Y191.3814   
N2320  X32.5183  Y192.9306   
N2325  X40.0844  Y193.8182   
N2330  X83.9354  Y194.3165   
N2335  X136.5261   
N2340  X146.3407  Y185.1021   
N2345  X154.3134  Y178.3957   
N2350  X162.4765  Y173.1682   
N2355  X171.2089  Y169.2128   
N2360  X180.8881  Y166.3244   
N2365  X191.1270  Y163.7424   
N2370  X196.1904  Y161.0360   
N2375  X197.3161  Y159.0373   
N2380  X197.7893  Y156.2900   
N2385  X197.6367  Y147.5908   
N2390  X197.0927  Y134.1707   
N2395  X124.4920  Y133.6865   
N2400  X51.8914  Y133.2023   
N2405  X46.9167  Y141.0827   
N2410 G0  Z0.1000 
N2415 G1  Z-20.0000  F100.00 
N2420  X39.4565  Y155.0389   F300.00 
N2425  X33.5822  Y169.8958   
N2430  X30.2001  Y182.9214   
N2435  X29.7275  Y187.8929   
N2440  X30.2185  Y191.3814   
N2445  X32.5183  Y192.9306   
N2450  X40.0844  Y193.8182   
N2455  X83.9354  Y194.3165   
N2460  X136.5261   
N2465  X146.3407  Y185.1021   
N2470  X154.3134  Y178.3957   
N2475  X162.4765  Y173.1682   
N2480  X171.2089  Y169.2128   
N2485  X180.8881  Y166.3244   
N2490  X191.1270  Y163.7424   
N2495  X196.1904  Y161.0360   
N2500  X197.3161  Y159.0373   
N2505  X197.7893  Y156.2900   
N2510  X197.6367  Y147.5908   
N2515  X197.0927  Y134.1707   
N2520  X124.4920  Y133.6865   
N2525  X51.8914  Y133.2023   
N2530  X46.9167  Y141.0827   
N2535 G0  Z0.1000 
N2540 G1  Z-21.0000  F100.00 
N2545  X39.4565  Y155.0389   F300.00 
N2550  X33.5822  Y169.8958   
N2555  X30.2001  Y182.9214   
N2560  X29.7275  Y187.8929   
N2565  X30.2185  Y191.3814   
N2570  X32.5183  Y192.9306   
N2575  X40.0844  Y193.8182   
N2580  X83.9354  Y194.3165   
N2585  X136.5261   
N2590  X146.3407  Y185.1021   
N2595  X154.3134  Y178.3957   
N2600  X162.4765  Y173.1682   
N2605  X171.2089  Y169.2128   
N2610  X180.8881  Y166.3244   
N2615  X191.1270  Y163.7424   
N2620  X196.1904  Y161.0360   
N2625  X197.3161  Y159.0373   
N2630  X197.7893  Y156.2900   
N2635  X197.6367  Y147.5908   
N2640  X197.0927  Y134.1707   
N2645  X124.4920  Y133.6865   
N2650  X51.8914  Y133.2023   
N2655  X46.9167  Y141.0827   
N2660 G0  Z0.1000 
N2665 G1  Z-22.0000  F100.00 
N2670  X39.4565  Y155.0389   F300.00 
N2675  X33.5822  Y169.8958   
N2680  X30.2001  Y182.9214   
N2685  X29.7275  Y187.8929   
N2690  X30.2185  Y191.3814   
N2695  X32.5183  Y192.9306   
N2700  X40.0844  Y193.8182   
N2705  X83.9354  Y194.3165   
N2710  X136.5261   
N2715  X146.3407  Y185.1021   
N2720  X154.3134  Y178.3957   
N2725  X162.4765  Y173.1682   
N2730  X171.2089  Y169.2128   
N2735  X180.8881  Y166.3244   
N2740  X191.1270  Y163.7424   
N2745  X196.1904  Y161.0360   
N2750  X197.3161  Y159.0373   
N2755  X197.7893  Y156.2900   
N2760  X197.6367  Y147.5908   
N2765  X197.0927  Y134.1707   
N2770  X124.4920  Y133.6865   
N2775  X51.8914  Y133.2023   
N2780  X46.9167  Y141.0827   
N2785 G0  Z5.0000 
N2790  X23.3411  Y255.8499 
N2795  Z0.1000 
N2800 G1  Z-1.0000  F100.00 
N2805  X11.5357  Y408.6399   F300.00 
N2810  X10.9183  Y424.6729   
N2815  X11.2378  Y429.0700   
N2820  X11.9753  Y431.0210   
N2825  X16.3541  Y432.8607   
N2830  X25.0224  Y435.3200   
N2835  X51.5520  Y441.3386   
N2840  X84.2156  Y447.5566   
N2845  X115.6648  Y452.4563   
N2850  X164.9516  Y457.0648   
N2855  X186.3826  Y458.2105   
N2860  X196.3053  Y457.9466   
N2865  X197.0748  Y453.2190   
N2870  X197.6162  Y441.6497   
N2875  X198.0238  Y407.1081   
N2880  X197.5459  Y372.5664   
N2885  X196.9809  Y360.9966   
N2890  X196.2014  Y356.2680   
N2895  X184.8514  Y355.4753   
N2900  X160.1138  Y355.1453   
N2905  X130.6943  Y354.6339   
N2910  X126.5914  Y353.5537   
N2915  X125.8434  Y351.5320   
N2920  X125.5611  Y349.7463   
N2925  X124.5513  Y348.6399   
N2930  X119.3657  Y347.9191   
N2935  X115.1166  Y348.3891   
N2940  X113.1619  Y349.9188   
N2945  X113.4310  Y352.6892   
N2950  X115.8536  Y356.8802   
N2955  X117.6724  Y360.1441   
N2960  X117.8827  Y362.0484   
N2965  X115.5572  Y360.2905   
N2970  X111.2808  Y354.7493   
N2975  X107.3631  Y349.5674   
N2980  X103.8924  Y346.3401   
N2985  X100.3163  Y344.6845   
N2990  X96.0818  Y344.2176   
N2995  X93.4688  Y344.7957   
N3000  X92.7790  Y346.7991   
N3005  X94.0516  Y350.6333   
N3010  X97.3277  Y356.7028   
N3015  X100.7575  Y363.2550   
N3020  X100.2638  Y363.7292   
N3025  X98.3942  Y362.8904   
N3030  X94.3407  Y358.5793   
N3035  X89.8324  Y351.0173   
N3040  X84.5844  Y342.6438   
N3045  X81.6871  Y339.9621   
N3050  X78.3166  Y337.9535   
N3055  X73.1431  Y336.1557   
N3060  X70.0899  Y336.3089   
N3065  X69.4531  Y339.5125   
N3070  X70.6124  Y344.9935   
N3075  X73.1903  Y351.5388   
N3080  X76.8094  Y357.9335   
N3085  X80.0089  Y363.2245   
N3090  X79.5252  Y363.5508   
N3095  X77.7275  Y362.7246   
N3100  X74.3827  Y359.8457   
N3105  X71.0972  Y354.8432   
N3110  X67.8966  Y347.7670   
N3115  X64.8084  Y338.6659   
N3120  X61.4825  Y330.2079   
N3125  X59.6417  Y329.0433   
N3130  X56.9783  Y329.0575   
N3135  X54.4939  Y329.0748   
N3140  X52.5623  Y328.3147   
N3145  X49.2312  Y323.6841   
N3150  X46.9901  Y318.7267   
N3155  X46.7536  Y315.9999   
N3160  X48.8341  Y314.8463   
N3165  X53.5439  Y314.6076   
N3170  X59.5924  Y315.3945   
N3175  X61.1210  Y316.5822   
N3180  X62.0506  Y318.4802   
N3185  X64.8315  Y321.8858   
N3190  X70.6597  Y325.7667   
N3195  X88.0231  Y333.6607   
N3200  X107.2713  Y339.5713   
N3205  X115.4554  Y340.9735   
N3210  X121.5349  Y340.9085   
N3215  X125.7809  Y340.0969   
N3220  X125.7406  Y293.1157   
N3225  X125.6996  Y246.1340   
N3230  X75.0924   
N3235  X24.4847   
N3240  X23.3411  Y255.8499   
N3245 G0  Z0.1000 
N3250 G1  Z-2.0000  F100.00 
N3255  X11.5357  Y408.6399   F300.00 
N3260  X10.9183  Y424.6729   
N3265  X11.2378  Y429.0700   
N3270  X11.9753  Y431.0210   
N3275  X16.3541  Y432.8607   
N3280  X25.0224  Y435.3200   
N3285  X51.5520  Y441.3386   
N3290  X84.2156  Y447.5566   
N3295  X115.6648  Y452.4563   
N3300  X164.9516  Y457.0648   
N3305  X186.3826  Y458.2105   
N3310  X196.3053  Y457.9466   
N3315  X197.0748  Y453.2190   
N3320  X197.6162  Y441.6497   
N3325  X198.0238  Y407.1081   
N3330  X197.5459  Y372.5664   
N3335  X196.9809  Y360.9966   
N3340  X196.2014  Y356.2680   
N3345  X184.8514  Y355.4753   
N3350  X160.1138  Y355.1453   
N3355  X130.6943  Y354.6339   
N3360  X126.5914  Y353.5537   
N3365  X125.8434  Y351.5320   
N3370  X125.5611  Y349.7463   
N3375  X124.5513  Y348.6399   
N3380  X119.3657  Y347.9191   
N3385  X115.1166  Y348.3891   
N3390  X113.1619  Y349.9188   
N3395  X113.4310  Y352.6892   
N3400  X115.8536  Y356.8802   
N3405  X117.6724  Y360.1441   
N3410  X117.8827  Y362.0484   
N3415  X115.5572  Y360.2905   
N3420  X111.2808  Y354.7493   
N3425  X107.3631  Y349.5674   
N3430  X103.8924  Y346.3401   
N3435  X100.3163  Y344.6845   
N3440  X96.0818  Y344.2176   
N3445  X93.4688  Y344.7957   
N3450  X92.7790  Y346.7991   
N3455  X94.0516  Y350.6333   
N3460  X97.3277  Y356.7028   
N3465  X100.7575  Y363.2550   
N3470  X100.2638  Y363.7292   
N3475  X98.3942  Y362.8904   
N3480  X94.3407  Y358.5793   
N3485  X89.8324  Y351.0173   
N3490  X84.5844  Y342.6438   
N3495  X81.6871  Y339.9621   
N3500  X78.3166  Y337.9535   
N3505  X73.1431  Y336.1557   
N3510  X70.0899  Y336.3089   
N3515  X69.4531  Y339.5125   
N3520  X70.6124  Y344.9935   
N3525  X73.1903  Y351.5388   
N3530  X76.8094  Y357.9335   
N3535  X80.0089  Y363.2245   
N3540  X79.5252  Y363.5508   
N3545  X77.7275  Y362.7246   
N3550  X74.3827  Y359.8457   
N3555  X71.0972  Y354.8432   
N3560  X67.8966  Y347.7670   
N3565  X64.8084  Y338.6659   
N3570  X61.4825  Y330.2079   
N3575  X59.6417  Y329.0433   
N3580  X56.9783  Y329.0575   
N3585  X54.4939  Y329.0748   
N3590  X52.5623  Y328.3147   
N3595  X49.2312  Y323.6841   
N3600  X46.9901  Y318.7267   
N3605  X46.7536  Y315.9999   
N3610  X48.8341  Y314.8463   
N3615  X53.5439  Y314.6076   
N3620  X59.5924  Y315.3945   
N3625  X61.1210  Y316.5822   
N3630  X62.0506  Y318.4802   
N3635  X64.8315  Y321.8858   
N3640  X70.6597  Y325.7667   
N3645  X88.0231  Y333.6607   
N3650  X107.2713  Y339.5713   
N3655  X115.4554  Y340.9735   
N3660  X121.5349  Y340.9085   
N3665  X125.7809  Y340.0969   
N3670  X125.7406  Y293.1157   
N3675  X125.6996  Y246.1340   
N3680  X75.0924   
N3685  X24.4847   
N3690  X23.3411  Y255.8499   
N3695 G0  Z0.1000 
N3700 G1  Z-3.0000  F100.00 
N3705  X11.5357  Y408.6399   F300.00 
N3710  X10.9183  Y424.6729   
N3715  X11.2378  Y429.0700   
N3720  X11.9753  Y431.0210   
N3725  X16.3541  Y432.8607   
N3730  X25.0224  Y435.3200   
N3735  X51.5520  Y441.3386   
N3740  X84.2156  Y447.5566   
N3745  X115.6648  Y452.4563   
N3750  X164.9516  Y457.0648   
N3755  X186.3826  Y458.2105   
N3760  X196.3053  Y457.9466   
N3765  X197.0748  Y453.2190   
N3770  X197.6162  Y441.6497   
N3775  X198.0238  Y407.1081   
N3780  X197.5459  Y372.5664   
N3785  X196.9809  Y360.9966   
N3790  X196.2014  Y356.2680   
N3795  X184.8514  Y355.4753   
N3800  X160.1138  Y355.1453   
N3805  X130.6943  Y354.6339   
N3810  X126.5914  Y353.5537   
N3815  X125.8434  Y351.5320   
N3820  X125.5611  Y349.7463   
N3825  X124.5513  Y348.6399   
N3830  X119.3657  Y347.9191   
N3835  X115.1166  Y348.3891   
N3840  X113.1619  Y349.9188   
N3845  X113.4310  Y352.6892   
N3850  X115.8536  Y356.8802   
N3855  X117.6724  Y360.1441   
N3860  X117.8827  Y362.0484   
N3865  X115.5572  Y360.2905   
N3870  X111.2808  Y354.7493   
N3875  X107.3631  Y349.5674   
N3880  X103.8924  Y346.3401   
N3885  X100.3163  Y344.6845   
N3890  X96.0818  Y344.2176   
N3895  X93.4688  Y344.7957   
N3900  X92.7790  Y346.7991   
N3905  X94.0516  Y350.6333   
N3910  X97.3277  Y356.7028   
N3915  X100.7575  Y363.2550   
N3920  X100.2638  Y363.7292   
N3925  X98.3942  Y362.8904   
N3930  X94.3407  Y358.5793   
N3935  X89.8324  Y351.0173   
N3940  X84.5844  Y342.6438   
N3945  X81.6871  Y339.9621   
N3950  X78.3166  Y337.9535   
N3955  X73.1431  Y336.1557   
N3960  X70.0899  Y336.3089   
N3965  X69.4531  Y339.5125   
N3970  X70.6124  Y344.9935   
N3975  X73.1903  Y351.5388   
N3980  X76.8094  Y357.9335   
N3985  X80.0089  Y363.2245   
N3990  X79.5252  Y363.5508   
N3995  X77.7275  Y362.7246   
N4000  X74.3827  Y359.8457   
N4005  X71.0972  Y354.8432   
N4010  X67.8966  Y347.7670   
N4015  X64.8084  Y338.6659   
N4020  X61.4825  Y330.2079   
N4025  X59.6417  Y329.0433   
N4030  X56.9783  Y329.0575   
N4035  X54.4939  Y329.0748   
N4040  X52.5623  Y328.3147   
N4045  X49.2312  Y323.6841   
N4050  X46.9901  Y318.7267   
N4055  X46.7536  Y315.9999   
N4060  X48.8341  Y314.8463   
N4065  X53.5439  Y314.6076   
N4070  X59.5924  Y315.3945   
N4075  X61.1210  Y316.5822   
N4080  X62.0506  Y318.4802   
N4085  X64.8315  Y321.8858   
N4090  X70.6597  Y325.7667   
N4095  X88.0231  Y333.6607   
N4100  X107.2713  Y339.5713   
N4105  X115.4554  Y340.9735   
N4110  X121.5349  Y340.9085   
N4115  X125.7809  Y340.0969   
N4120  X125.7406  Y293.1157   
N4125  X125.6996  Y246.1340   
N4130  X75.0924   
N4135  X24.4847   
N4140  X23.3411  Y255.8499   
N4145 G0  Z0.1000 
N4150 G1  Z-4.0000  F100.00 
N4155  X11.5357  Y408.6399   F300.00 
N4160  X10.9183  Y424.6729   
N4165  X11.2378  Y429.0700   
N4170  X11.9753  Y431.0210   
N4175  X16.3541  Y432.8607   
N4180  X25.0224  Y435.3200   
N4185  X51.5520  Y441.3386   
N4190  X84.2156  Y447.5566   
N4195  X115.6648  Y452.4563   
N4200  X164.9516  Y457.0648   
N4205  X186.3826  Y458.2105   
N4210  X196.3053  Y457.9466   
N4215  X197.0748  Y453.2190   
N4220  X197.6162  Y441.6497   
N4225  X198.0238  Y407.1081   
N4230  X197.5459  Y372.5664   
N4235  X196.9809  Y360.9966   
N4240  X196.2014  Y356.2680   
N4245  X184.8514  Y355.4753   
N4250  X160.1138  Y355.1453   
N4255  X130.6943  Y354.6339   
N4260  X126.5914  Y353.5537   
N4265  X125.8434  Y351.5320   
N4270  X125.5611  Y349.7463   
N4275  X124.5513  Y348.6399   
N4280  X119.3657  Y347.9191   
N4285  X115.1166  Y348.3891   
N4290  X113.1619  Y349.9188   
N4295  X113.4310  Y352.6892   
N4300  X115.8536  Y356.8802   
N4305  X117.6724  Y360.1441   
N4310  X117.8827  Y362.0484   
N4315  X115.5572  Y360.2905   
N4320  X111.2808  Y354.7493   
N4325  X107.3631  Y349.5674   
N4330  X103.8924  Y346.3401   
N4335  X100.3163  Y344.6845   
N4340  X96.0818  Y344.2176   
N4345  X93.4688  Y344.7957   
N4350  X92.7790  Y346.7991   
N4355  X94.0516  Y350.6333   
N4360  X97.3277  Y356.7028   
N4365  X100.7575  Y363.2550   
N4370  X100.2638  Y363.7292   
N4375  X98.3942  Y362.8904   
N4380  X94.3407  Y358.5793   
N4385  X89.8324  Y351.0173   
N4390  X84.5844  Y342.6438   
N4395  X81.6871  Y339.9621   
N4400  X78.3166  Y337.9535   
N4405  X73.1431  Y336.1557   
N4410  X70.0899  Y336.3089   
N4415  X69.4531  Y339.5125   
N4420  X70.6124  Y344.9935   
N4425  X73.1903  Y351.5388   
N4430  X76.8094  Y357.9335   
N4435  X80.0089  Y363.2245   
N4440  X79.5252  Y363.5508   
N4445  X77.7275  Y362.7246   
N4450  X74.3827  Y359.8457   
N4455  X71.0972  Y354.8432   
N4460  X67.8966  Y347.7670   
N4465  X64.8084  Y338.6659   
N4470  X61.4825  Y330.2079   
N4475  X59.6417  Y329.0433   
N4480  X56.9783  Y329.0575   
N4485  X54.4939  Y329.0748   
N4490  X52.5623  Y328.3147   
N4495  X49.2312  Y323.6841   
N4500  X46.9901  Y318.7267   
N4505  X46.7536  Y315.9999   
N4510  X48.8341  Y314.8463   
N4515  X53.5439  Y314.6076   
N4520  X59.5924  Y315.3945   
N4525  X61.1210  Y316.5822   
N4530  X62.0506  Y318.4802   
N4535  X64.8315  Y321.8858   
N4540  X70.6597  Y325.7667   
N4545  X88.0231  Y333.6607   
N4550  X107.2713  Y339.5713   
N4555  X115.4554  Y340.9735   
N4560  X121.5349  Y340.9085   
N4565  X125.7809  Y340.0969   
N4570  X125.7406  Y293.1157   
N4575  X125.6996  Y246.1340   
N4580  X75.0924   
N4585  X24.4847   
N4590  X23.3411  Y255.8499   
N4595 G0  Z0.1000 
N4600 G1  Z-5.0000  F100.00 
N4605  X11.5357  Y408.6399   F300.00 
N4610  X10.9183  Y424.6729   
N4615  X11.2378  Y429.0700   
N4620  X11.9753  Y431.0210   
N4625  X16.3541  Y432.8607   
N4630  X25.0224  Y435.3200   
N4635  X51.5520  Y441.3386   
N4640  X84.2156  Y447.5566   
N4645  X115.6648  Y452.4563   
N4650  X164.9516  Y457.0648   
N4655  X186.3826  Y458.2105   
N4660  X196.3053  Y457.9466   
N4665  X197.0748  Y453.2190   
N4670  X197.6162  Y441.6497   
N4675  X198.0238  Y407.1081   
N4680  X197.5459  Y372.5664   
N4685  X196.9809  Y360.9966   
N4690  X196.2014  Y356.2680   
N4695  X184.8514  Y355.4753   
N4700  X160.1138  Y355.1453   
N4705  X130.6943  Y354.6339   
N4710  X126.5914  Y353.5537   
N4715  X125.8434  Y351.5320   
N4720  X125.5611  Y349.7463   
N4725  X124.5513  Y348.6399   
N4730  X119.3657  Y347.9191   
N4735  X115.1166  Y348.3891   
N4740  X113.1619  Y349.9188   
N4745  X113.4310  Y352.6892   
N4750  X115.8536  Y356.8802   
N4755  X117.6724  Y360.1441   
N4760  X117.8827  Y362.0484   
N4765  X115.5572  Y360.2905   
N4770  X111.2808  Y354.7493   
N4775  X107.3631  Y349.5674   
N4780  X103.8924  Y346.3401   
N4785  X100.3163  Y344.6845   
N4790  X96.0818  Y344.2176   
N4795  X93.4688  Y344.7957   
N4800  X92.7790  Y346.7991   
N4805  X94.0516  Y350.6333   
N4810  X97.3277  Y356.7028   
N4815  X100.7575  Y363.2550   
N4820  X100.2638  Y363.7292   
N4825  X98.3942  Y362.8904   
N4830  X94.3407  Y358.5793   
N4835  X89.8324  Y351.0173   
N4840  X84.5844  Y342.6438   
N4845  X81.6871  Y339.9621   
N4850  X78.3166  Y337.9535   
N4855  X73.1431  Y336.1557   
N4860  X70.0899  Y336.3089   
N4865  X69.4531  Y339.5125   
N4870  X70.6124  Y344.9935   
N4875  X73.1903  Y351.5388   
N4880  X76.8094  Y357.9335   
N4885  X80.0089  Y363.2245   
N4890  X79.5252  Y363.5508   
N4895  X77.7275  Y362.7246   
N4900  X74.3827  Y359.8457   
N4905  X71.0972  Y354.8432   
N4910  X67.8966  Y347.7670   
N4915  X64.8084  Y338.6659   
N4920  X61.4825  Y330.2079   
N4925  X59.6417  Y329.0433   
N4930  X56.9783  Y329.0575   
N4935  X54.4939  Y329.0748   
N4940  X52.5623  Y328.3147   
N4945  X49.2312  Y323.6841   
N4950  X46.9901  Y318.7267   
N4955  X46.7536  Y315.9999   
N4960  X48.8341  Y314.8463   
N4965  X53.5439  Y314.6076   
N4970  X59.5924  Y315.3945   
N4975  X61.1210  Y316.5822   
N4980  X62.0506  Y318.4802   
N4985  X64.8315  Y321.8858   
N4990  X70.6597  Y325.7667   
N4995  X88.0231  Y333.6607   
N5000  X107.2713  Y339.5713   
N5005  X115.4554  Y340.9735   
N5010  X121.5349  Y340.9085   
N5015  X125.7809  Y340.0969   
N5020  X125.7406  Y293.1157   
N5025  X125.6996  Y246.1340   
N5030  X75.0924   
N5035  X24.4847   
N5040  X23.3411  Y255.8499   
N5045 G0  Z0.1000 
N5050 G1  Z-6.0000  F100.00 
N5055  X11.5357  Y408.6399   F300.00 
N5060  X10.9183  Y424.6729   
N5065  X11.2378  Y429.0700   
N5070  X11.9753  Y431.0210   
N5075  X16.3541  Y432.8607   
N5080  X25.0224  Y435.3200   
N5085  X51.5520  Y441.3386   
N5090  X84.2156  Y447.5566   
N5095  X115.6648  Y452.4563   
N5100  X164.9516  Y457.0648   
N5105  X186.3826  Y458.2105   
N5110  X196.3053  Y457.9466   
N5115  X197.0748  Y453.2190   
N5120  X197.6162  Y441.6497   
N5125  X198.0238  Y407.1081   
N5130  X197.5459  Y372.5664   
N5135  X196.9809  Y360.9966   
N5140  X196.2014  Y356.2680   
N5145  X184.8514  Y355.4753   
N5150  X160.1138  Y355.1453   
N5155  X130.6943  Y354.6339   
N5160  X126.5914  Y353.5537   
N5165  X125.8434  Y351.5320   
N5170  X125.5611  Y349.7463   
N5175  X124.5513  Y348.6399   
N5180  X119.3657  Y347.9191   
N5185  X115.1166  Y348.3891   
N5190  X113.1619  Y349.9188   
N5195  X113.4310  Y352.6892   
N5200  X115.8536  Y356.8802   
N5205  X117.6724  Y360.1441   
N5210  X117.8827  Y362.0484   
N5215  X115.5572  Y360.2905   
N5220  X111.2808  Y354.7493   
N5225  X107.3631  Y349.5674   
N5230  X103.8924  Y346.3401   
N5235  X100.3163  Y344.6845   
N5240  X96.0818  Y344.2176   
N5245  X93.4688  Y344.7957   
N5250  X92.7790  Y346.7991   
N5255  X94.0516  Y350.6333   
N5260  X97.3277  Y356.7028   
N5265  X100.7575  Y363.2550   
N5270  X100.2638  Y363.7292   
N5275  X98.3942  Y362.8904   
N5280  X94.3407  Y358.5793   
N5285  X89.8324  Y351.0173   
N5290  X84.5844  Y342.6438   
N5295  X81.6871  Y339.9621   
N5300  X78.3166  Y337.9535   
N5305  X73.1431  Y336.1557   
N5310  X70.0899  Y336.3089   
N5315  X69.4531  Y339.5125   
N5320  X70.6124  Y344.9935   
N5325  X73.1903  Y351.5388   
N5330  X76.8094  Y357.9335   
N5335  X80.0089  Y363.2245   
N5340  X79.5252  Y363.5508   
N5345  X77.7275  Y362.7246   
N5350  X74.3827  Y359.8457   
N5355  X71.0972  Y354.8432   
N5360  X67.8966  Y347.7670   
N5365  X64.8084  Y338.6659   
N5370  X61.4825  Y330.2079   
N5375  X59.6417  Y329.0433   
N5380  X56.9783  Y329.0575   
N5385  X54.4939  Y329.0748   
N5390  X52.5623  Y328.3147   
N5395  X49.2312  Y323.6841   
N5400  X46.9901  Y318.7267   
N5405  X46.7536  Y315.9999   
N5410  X48.8341  Y314.8463   
N5415  X53.5439  Y314.6076   
N5420  X59.5924  Y315.3945   
N5425  X61.1210  Y316.5822   
N5430  X62.0506  Y318.4802   
N5435  X64.8315  Y321.8858   
N5440  X70.6597  Y325.7667   
N5445  X88.0231  Y333.6607   
N5450  X107.2713  Y339.5713   
N5455  X115.4554  Y340.9735   
N5460  X121.5349  Y340.9085   
N5465  X125.7809  Y340.0969   
N5470  X125.7406  Y293.1157   
N5475  X125.6996  Y246.1340   
N5480  X75.0924   
N5485  X24.4847   
N5490  X23.3411  Y255.8499   
N5495 G0  Z0.1000 
N5500 G1  Z-7.0000  F100.00 
N5505  X11.5357  Y408.6399   F300.00 
N5510  X10.9183  Y424.6729   
N5515  X11.2378  Y429.0700   
N5520  X11.9753  Y431.0210   
N5525  X16.3541  Y432.8607   
N5530  X25.0224  Y435.3200   
N5535  X51.5520  Y441.3386   
N5540  X84.2156  Y447.5566   
N5545  X115.6648  Y452.4563   
N5550  X164.9516  Y457.0648   
N5555  X186.3826  Y458.2105   
N5560  X196.3053  Y457.9466   
N5565  X197.0748  Y453.2190   
N5570  X197.6162  Y441.6497   
N5575  X198.0238  Y407.1081   
N5580  X197.5459  Y372.5664   
N5585  X196.9809  Y360.9966   
N5590  X196.2014  Y356.2680   
N5595  X184.8514  Y355.4753   
N5600  X160.1138  Y355.1453   
N5605  X130.6943  Y354.6339   
N5610  X126.5914  Y353.5537   
N5615  X125.8434  Y351.5320   
N5620  X125.5611  Y349.7463   
N5625  X124.5513  Y348.6399   
N5630  X119.3657  Y347.9191   
N5635  X115.1166  Y348.3891   
N5640  X113.1619  Y349.9188   
N5645  X113.4310  Y352.6892   
N5650  X115.8536  Y356.8802   
N5655  X117.6724  Y360.1441   
N5660  X117.8827  Y362.0484   
N5665  X115.5572  Y360.2905   
N5670  X111.2808  Y354.7493   
N5675  X107.3631  Y349.5674   
N5680  X103.8924  Y346.3401   
N5685  X100.3163  Y344.6845   
N5690  X96.0818  Y344.2176   
N5695  X93.4688  Y344.7957   
N5700  X92.7790  Y346.7991   
N5705  X94.0516  Y350.6333   
N5710  X97.3277  Y356.7028   
N5715  X100.7575  Y363.2550   
N5720  X100.2638  Y363.7292   
N5725  X98.3942  Y362.8904   
N5730  X94.3407  Y358.5793   
N5735  X89.8324  Y351.0173   
N5740  X84.5844  Y342.6438   
N5745  X81.6871  Y339.9621   
N5750  X78.3166  Y337.9535   
N5755  X73.1431  Y336.1557   
N5760  X70.0899  Y336.3089   
N5765  X69.4531  Y339.5125   
N5770  X70.6124  Y344.9935   
N5775  X73.1903  Y351.5388   
N5780  X76.8094  Y357.9335   
N5785  X80.0089  Y363.2245   
N5790  X79.5252  Y363.5508   
N5795  X77.7275  Y362.7246   
N5800  X74.3827  Y359.8457   
N5805  X71.0972  Y354.8432   
N5810  X67.8966  Y347.7670   
N5815  X64.8084  Y338.6659   
N5820  X61.4825  Y330.2079   
N5825  X59.6417  Y329.0433   
N5830  X56.9783  Y329.0575   
N5835  X54.4939  Y329.0748   
N5840  X52.5623  Y328.3147   
N5845  X49.2312  Y323.6841   
N5850  X46.9901  Y318.7267   
N5855  X46.7536  Y315.9999   
N5860  X48.8341  Y314.8463   
N5865  X53.5439  Y314.6076   
N5870  X59.5924  Y315.3945   
N5875  X61.1210  Y316.5822   
N5880  X62.0506  Y318.4802   
N5885  X64.8315  Y321.8858   
N5890  X70.6597  Y325.7667   
N5895  X88.0231  Y333.6607   
N5900  X107.2713  Y339.5713   
N5905  X115.4554  Y340.9735   
N5910  X121.5349  Y340.9085   
N5915  X125.7809  Y340.0969   
N5920  X125.7406  Y293.1157   
N5925  X125.6996  Y246.1340   
N5930  X75.0924   
N5935  X24.4847   
N5940  X23.3411  Y255.8499   
N5945 G0  Z0.1000 
N5950 G1  Z-8.0000  F100.00 
N5955  X11.5357  Y408.6399   F300.00 
N5960  X10.9183  Y424.6729   
N5965  X11.2378  Y429.0700   
N5970  X11.9753  Y431.0210   
N5975  X16.3541  Y432.8607   
N5980  X25.0224  Y435.3200   
N5985  X51.5520  Y441.3386   
N5990  X84.2156  Y447.5566   
N5995  X115.6648  Y452.4563   
N6000  X164.9516  Y457.0648   
N6005  X186.3826  Y458.2105   
N6010  X196.3053  Y457.9466   
N6015  X197.0748  Y453.2190   
N6020  X197.6162  Y441.6497   
N6025  X198.0238  Y407.1081   
N6030  X197.5459  Y372.5664   
N6035  X196.9809  Y360.9966   
N6040  X196.2014  Y356.2680   
N6045  X184.8514  Y355.4753   
N6050  X160.1138  Y355.1453   
N6055  X130.6943  Y354.6339   
N6060  X126.5914  Y353.5537   
N6065  X125.8434  Y351.5320   
N6070  X125.5611  Y349.7463   
N6075  X124.5513  Y348.6399   
N6080  X119.3657  Y347.9191   
N6085  X115.1166  Y348.3891   
N6090  X113.1619  Y349.9188   
N6095  X113.4310  Y352.6892   
N6100  X115.8536  Y356.8802   
N6105  X117.6724  Y360.1441   
N6110  X117.8827  Y362.0484   
N6115  X115.5572  Y360.2905   
N6120  X111.2808  Y354.7493   
N6125  X107.3631  Y349.5674   
N6130  X103.8924  Y346.3401   
N6135  X100.3163  Y344.6845   
N6140  X96.0818  Y344.2176   
N6145  X93.4688  Y344.7957   
N6150  X92.7790  Y346.7991   
N6155  X94.0516  Y350.6333   
N6160  X97.3277  Y356.7028   
N6165  X100.7575  Y363.2550   
N6170  X100.2638  Y363.7292   
N6175  X98.3942  Y362.8904   
N6180  X94.3407  Y358.5793   
N6185  X89.8324  Y351.0173   
N6190  X84.5844  Y342.6438   
N6195  X81.6871  Y339.9621   
N6200  X78.3166  Y337.9535   
N6205  X73.1431  Y336.1557   
N6210  X70.0899  Y336.3089   
N6215  X69.4531  Y339.5125   
N6220  X70.6124  Y344.9935   
N6225  X73.1903  Y351.5388   
N6230  X76.8094  Y357.9335   
N6235  X80.0089  Y363.2245   
N6240  X79.5252  Y363.5508   
N6245  X77.7275  Y362.7246   
N6250  X74.3827  Y359.8457   
N6255  X71.0972  Y354.8432   
N6260  X67.8966  Y347.7670   
N6265  X64.8084  Y338.6659   
N6270  X61.4825  Y330.2079   
N6275  X59.6417  Y329.0433   
N6280  X56.9783  Y329.0575   
N6285  X54.4939  Y329.0748   
N6290  X52.5623  Y328.3147   
N6295  X49.2312  Y323.6841   
N6300  X46.9901  Y318.7267   
N6305  X46.7536  Y315.9999   
N6310  X48.8341  Y314.8463   
N6315  X53.5439  Y314.6076   
N6320  X59.5924  Y315.3945   
N6325  X61.1210  Y316.5822   
N6330  X62.0506  Y318.4802   
N6335  X64.8315  Y321.8858   
N6340  X70.6597  Y325.7667   
N6345  X88.0231  Y333.6607   
N6350  X107.2713  Y339.5713   
N6355  X115.4554  Y340.9735   
N6360  X121.5349  Y340.9085   
N6365  X125.7809  Y340.0969   
N6370  X125.7406  Y293.1157   
N6375  X125.6996  Y246.1340   
N6380  X75.0924   
N6385  X24.4847   
N6390  X23.3411  Y255.8499   
N6395 G0  Z0.1000 
N6400 G1  Z-9.0000  F100.00 
N6405  X11.5357  Y408.6399   F300.00 
N6410  X10.9183  Y424.6729   
N6415  X11.2378  Y429.0700   
N6420  X11.9753  Y431.0210   
N6425  X16.3541  Y432.8607   
N6430  X25.0224  Y435.3200   
N6435  X51.5520  Y441.3386   
N6440  X84.2156  Y447.5566   
N6445  X115.6648  Y452.4563   
N6450  X164.9516  Y457.0648   
N6455  X186.3826  Y458.2105   
N6460  X196.3053  Y457.9466   
N6465  X197.0748  Y453.2190   
N6470  X197.6162  Y441.6497   
N6475  X198.0238  Y407.1081   
N6480  X197.5459  Y372.5664   
N6485  X196.9809  Y360.9966   
N6490  X196.2014  Y356.2680   
N6495  X184.8514  Y355.4753   
N6500  X160.1138  Y355.1453   
N6505  X130.6943  Y354.6339   
N6510  X126.5914  Y353.5537   
N6515  X125.8434  Y351.5320   
N6520  X125.5611  Y349.7463   
N6525  X124.5513  Y348.6399   
N6530  X119.3657  Y347.9191   
N6535  X115.1166  Y348.3891   
N6540  X113.1619  Y349.9188   
N6545  X113.4310  Y352.6892   
N6550  X115.8536  Y356.8802   
N6555  X117.6724  Y360.1441   
N6560  X117.8827  Y362.0484   
N6565  X115.5572  Y360.2905   
N6570  X111.2808  Y354.7493   
N6575  X107.3631  Y349.5674   
N6580  X103.8924  Y346.3401   
N6585  X100.3163  Y344.6845   
N6590  X96.0818  Y344.2176   
N6595  X93.4688  Y344.7957   
N6600  X92.7790  Y346.7991   
N6605  X94.0516  Y350.6333   
N6610  X97.3277  Y356.7028   
N6615  X100.7575  Y363.2550   
N6620  X100.2638  Y363.7292   
N6625  X98.3942  Y362.8904   
N6630  X94.3407  Y358.5793   
N6635  X89.8324  Y351.0173   
N6640  X84.5844  Y342.6438   
N6645  X81.6871  Y339.9621   
N6650  X78.3166  Y337.9535   
N6655  X73.1431  Y336.1557   
N6660  X70.0899  Y336.3089   
N6665  X69.4531  Y339.5125   
N6670  X70.6124  Y344.9935   
N6675  X73.1903  Y351.5388   
N6680  X76.8094  Y357.9335   
N6685  X80.0089  Y363.2245   
N6690  X79.5252  Y363.5508   
N6695  X77.7275  Y362.7246   
N6700  X74.3827  Y359.8457   
N6705  X71.0972  Y354.8432   
N6710  X67.8966  Y347.7670   
N6715  X64.8084  Y338.6659   
N6720  X61.4825  Y330.2079   
N6725  X59.6417  Y329.0433   
N6730  X56.9783  Y329.0575   
N6735  X54.4939  Y329.0748   
N6740  X52.5623  Y328.3147   
N6745  X49.2312  Y323.6841   
N6750  X46.9901  Y318.7267   
N6755  X46.7536  Y315.9999   
N6760  X48.8341  Y314.8463   
N6765  X53.5439  Y314.6076   
N6770  X59.5924  Y315.3945   
N6775  X61.1210  Y316.5822   
N6780  X62.0506  Y318.4802   
N6785  X64.8315  Y321.8858   
N6790  X70.6597  Y325.7667   
N6795  X88.0231  Y333.6607   
N6800  X107.2713  Y339.5713   
N6805  X115.4554  Y340.9735   
N6810  X121.5349  Y340.9085   
N6815  X125.7809  Y340.0969   
N6820  X125.7406  Y293.1157   
N6825  X125.6996  Y246.1340   
N6830  X75.0924   
N6835  X24.4847   
N6840  X23.3411  Y255.8499   
N6845 G0  Z0.1000 
N6850 G1  Z-10.0000  F100.00 
N6855  X11.5357  Y408.6399   F300.00 
N6860  X10.9183  Y424.6729   
N6865  X11.2378  Y429.0700   
N6870  X11.9753  Y431.0210   
N6875  X16.3541  Y432.8607   
N6880  X25.0224  Y435.3200   
N6885  X51.5520  Y441.3386   
N6890  X84.2156  Y447.5566   
N6895  X115.6648  Y452.4563   
N6900  X164.9516  Y457.0648   
N6905  X186.3826  Y458.2105   
N6910  X196.3053  Y457.9466   
N6915  X197.0748  Y453.2190   
N6920  X197.6162  Y441.6497   
N6925  X198.0238  Y407.1081   
N6930  X197.5459  Y372.5664   
N6935  X196.9809  Y360.9966   
N6940  X196.2014  Y356.2680   
N6945  X184.8514  Y355.4753   
N6950  X160.1138  Y355.1453   
N6955  X130.6943  Y354.6339   
N6960  X126.5914  Y353.5537   
N6965  X125.8434  Y351.5320   
N6970  X125.5611  Y349.7463   
N6975  X124.5513  Y348.6399   
N6980  X119.3657  Y347.9191   
N6985  X115.1166  Y348.3891   
N6990  X113.1619  Y349.9188   
N6995  X113.4310  Y352.6892   
N7000  X115.8536  Y356.8802   
N7005  X117.6724  Y360.1441   
N7010  X117.8827  Y362.0484   
N7015  X115.5572  Y360.2905   
N7020  X111.2808  Y354.7493   
N7025  X107.3631  Y349.5674   
N7030  X103.8924  Y346.3401   
N7035  X100.3163  Y344.6845   
N7040  X96.0818  Y344.2176   
N7045  X93.4688  Y344.7957   
N7050  X92.7790  Y346.7991   
N7055  X94.0516  Y350.6333   
N7060  X97.3277  Y356.7028   
N7065  X100.7575  Y363.2550   
N7070  X100.2638  Y363.7292   
N7075  X98.3942  Y362.8904   
N7080  X94.3407  Y358.5793   
N7085  X89.8324  Y351.0173   
N7090  X84.5844  Y342.6438   
N7095  X81.6871  Y339.9621   
N7100  X78.3166  Y337.9535   
N7105  X73.1431  Y336.1557   
N7110  X70.0899  Y336.3089   
N7115  X69.4531  Y339.5125   
N7120  X70.6124  Y344.9935   
N7125  X73.1903  Y351.5388   
N7130  X76.8094  Y357.9335   
N7135  X80.0089  Y363.2245   
N7140  X79.5252  Y363.5508   
N7145  X77.7275  Y362.7246   
N7150  X74.3827  Y359.8457   
N7155  X71.0972  Y354.8432   
N7160  X67.8966  Y347.7670   
N7165  X64.8084  Y338.6659   
N7170  X61.4825  Y330.2079   
N7175  X59.6417  Y329.0433   
N7180  X56.9783  Y329.0575   
N7185  X54.4939  Y329.0748   
N7190  X52.5623  Y328.3147   
N7195  X49.2312  Y323.6841   
N7200  X46.9901  Y318.7267   
N7205  X46.7536  Y315.9999   
N7210  X48.8341  Y314.8463   
N7215  X53.5439  Y314.6076   
N7220  X59.5924  Y315.3945   
N7225  X61.1210  Y316.5822   
N7230  X62.0506  Y318.4802   
N7235  X64.8315  Y321.8858   
N7240  X70.6597  Y325.7667   
N7245  X88.0231  Y333.6607   
N7250  X107.2713  Y339.5713   
N7255  X115.4554  Y340.9735   
N7260  X121.5349  Y340.9085   
N7265  X125.7809  Y340.0969   
N7270  X125.7406  Y293.1157   
N7275  X125.6996  Y246.1340   
N7280  X75.0924   
N7285  X24.4847   
N7290  X23.3411  Y255.8499   
N7295 G0  Z0.1000 
N7300 G1  Z-11.0000  F100.00 
N7305  X11.5357  Y408.6399   F300.00 
N7310  X10.9183  Y424.6729   
N7315  X11.2378  Y429.0700   
N7320  X11.9753  Y431.0210   
N7325  X16.3541  Y432.8607   
N7330  X25.0224  Y435.3200   
N7335  X51.5520  Y441.3386   
N7340  X84.2156  Y447.5566   
N7345  X115.6648  Y452.4563   
N7350  X164.9516  Y457.0648   
N7355  X186.3826  Y458.2105   
N7360  X196.3053  Y457.9466   
N7365  X197.0748  Y453.2190   
N7370  X197.6162  Y441.6497   
N7375  X198.0238  Y407.1081   
N7380  X197.5459  Y372.5664   
N7385  X196.9809  Y360.9966   
N7390  X196.2014  Y356.2680   
N7395  X184.8514  Y355.4753   
N7400  X160.1138  Y355.1453   
N7405  X130.6943  Y354.6339   
N7410  X126.5914  Y353.5537   
N7415  X125.8434  Y351.5320   
N7420  X125.5611  Y349.7463   
N7425  X124.5513  Y348.6399   
N7430  X119.3657  Y347.9191   
N7435  X115.1166  Y348.3891   
N7440  X113.1619  Y349.9188   
N7445  X113.4310  Y352.6892   
N7450  X115.8536  Y356.8802   
N7455  X117.6724  Y360.1441   
N7460  X117.8827  Y362.0484   
N7465  X115.5572  Y360.2905   
N7470  X111.2808  Y354.7493   
N7475  X107.3631  Y349.5674   
N7480  X103.8924  Y346.3401   
N7485  X100.3163  Y344.6845   
N7490  X96.0818  Y344.2176   
N7495  X93.4688  Y344.7957   
N7500  X92.7790  Y346.7991   
N7505  X94.0516  Y350.6333   
N7510  X97.3277  Y356.7028   
N7515  X100.7575  Y363.2550   
N7520  X100.2638  Y363.7292   
N7525  X98.3942  Y362.8904   
N7530  X94.3407  Y358.5793   
N7535  X89.8324  Y351.0173   
N7540  X84.5844  Y342.6438   
N7545  X81.6871  Y339.9621   
N7550  X78.3166  Y337.9535   
N7555  X73.1431  Y336.1557   
N7560  X70.0899  Y336.3089   
N7565  X69.4531  Y339.5125   
N7570  X70.6124  Y344.9935   
N7575  X73.1903  Y351.5388   
N7580  X76.8094  Y357.9335   
N7585  X80.0089  Y363.2245   
N7590  X79.5252  Y363.5508   
N7595  X77.7275  Y362.7246   
N7600  X74.3827  Y359.8457   
N7605  X71.0972  Y354.8432   
N7610  X67.8966  Y347.7670   
N7615  X64.8084  Y338.6659   
N7620  X61.4825  Y330.2079   
N7625  X59.6417  Y329.0433   
N7630  X56.9783  Y329.0575   
N7635  X54.4939  Y329.0748   
N7640  X52.5623  Y328.3147   
N7645  X49.2312  Y323.6841   
N7650  X46.9901  Y318.7267   
N7655  X46.7536  Y315.9999   
N7660  X48.8341  Y314.8463   
N7665  X53.5439  Y314.6076   
N7670  X59.5924  Y315.3945   
N7675  X61.1210  Y316.5822   
N7680  X62.0506  Y318.4802   
N7685  X64.8315  Y321.8858   
N7690  X70.6597  Y325.7667   
N7695  X88.0231  Y333.6607   
N7700  X107.2713  Y339.5713   
N7705  X115.4554  Y340.9735   
N7710  X121.5349  Y340.9085   
N7715  X125.7809  Y340.0969   
N7720  X125.7406  Y293.1157   
N7725  X125.6996  Y246.1340   
N7730  X75.0924   
N7735  X24.4847   
N7740  X23.3411  Y255.8499   
N7745 G0  Z0.1000 
N7750 G1  Z-12.0000  F100.00 
N7755  X11.5357  Y408.6399   F300.00 
N7760  X10.9183  Y424.6729   
N7765  X11.2378  Y429.0700   
N7770  X11.9753  Y431.0210   
N7775  X16.3541  Y432.8607   
N7780  X25.0224  Y435.3200   
N7785  X51.5520  Y441.3386   
N7790  X84.2156  Y447.5566   
N7795  X115.6648  Y452.4563   
N7800  X164.9516  Y457.0648   
N7805  X186.3826  Y458.2105   
N7810  X196.3053  Y457.9466   
N7815  X197.0748  Y453.2190   
N7820  X197.6162  Y441.6497   
N7825  X198.0238  Y407.1081   
N7830  X197.5459  Y372.5664   
N7835  X196.9809  Y360.9966   
N7840  X196.2014  Y356.2680   
N7845  X184.8514  Y355.4753   
N7850  X160.1138  Y355.1453   
N7855  X130.6943  Y354.6339   
N7860  X126.5914  Y353.5537   
N7865  X125.8434  Y351.5320   
N7870  X125.5611  Y349.7463   
N7875  X124.5513  Y348.6399   
N7880  X119.3657  Y347.9191   
N7885  X115.1166  Y348.3891   
N7890  X113.1619  Y349.9188   
N7895  X113.4310  Y352.6892   
N7900  X115.8536  Y356.8802   
N7905  X117.6724  Y360.1441   
N7910  X117.8827  Y362.0484   
N7915  X115.5572  Y360.2905   
N7920  X111.2808  Y354.7493   
N7925  X107.3631  Y349.5674   
N7930  X103.8924  Y346.3401   
N7935  X100.3163  Y344.6845   
N7940  X96.0818  Y344.2176   
N7945  X93.4688  Y344.7957   
N7950  X92.7790  Y346.7991   
N7955  X94.0516  Y350.6333   
N7960  X97.3277  Y356.7028   
N7965  X100.7575  Y363.2550   
N7970  X100.2638  Y363.7292   
N7975  X98.3942  Y362.8904   
N7980  X94.3407  Y358.5793   
N7985  X89.8324  Y351.0173   
N7990  X84.5844  Y342.6438   
N7995  X81.6871  Y339.9621   
N8000  X78.3166  Y337.9535   
N8005  X73.1431  Y336.1557   
N8010  X70.0899  Y336.3089   
N8015  X69.4531  Y339.5125   
N8020  X70.6124  Y344.9935   
N8025  X73.1903  Y351.5388   
N8030  X76.8094  Y357.9335   
N8035  X80.0089  Y363.2245   
N8040  X79.5252  Y363.5508   
N8045  X77.7275  Y362.7246   
N8050  X74.3827  Y359.8457   
N8055  X71.0972  Y354.8432   
N8060  X67.8966  Y347.7670   
N8065  X64.8084  Y338.6659   
N8070  X61.4825  Y330.2079   
N8075  X59.6417  Y329.0433   
N8080  X56.9783  Y329.0575   
N8085  X54.4939  Y329.0748   
N8090  X52.5623  Y328.3147   
N8095  X49.2312  Y323.6841   
N8100  X46.9901  Y318.7267   
N8105  X46.7536  Y315.9999   
N8110  X48.8341  Y314.8463   
N8115  X53.5439  Y314.6076   
N8120  X59.5924  Y315.3945   
N8125  X61.1210  Y316.5822   
N8130  X62.0506  Y318.4802   
N8135  X64.8315  Y321.8858   
N8140  X70.6597  Y325.7667   
N8145  X88.0231  Y333.6607   
N8150  X107.2713  Y339.5713   
N8155  X115.4554  Y340.9735   
N8160  X121.5349  Y340.9085   
N8165  X125.7809  Y340.0969   
N8170  X125.7406  Y293.1157   
N8175  X125.6996  Y246.1340   
N8180  X75.0924   
N8185  X24.4847   
N8190  X23.3411  Y255.8499   
N8195 G0  Z0.1000 
N8200 G1  Z-13.0000  F100.00 
N8205  X11.5357  Y408.6399   F300.00 
N8210  X10.9183  Y424.6729   
N8215  X11.2378  Y429.0700   
N8220  X11.9753  Y431.0210   
N8225  X16.3541  Y432.8607   
N8230  X25.0224  Y435.3200   
N8235  X51.5520  Y441.3386   
N8240  X84.2156  Y447.5566   
N8245  X115.6648  Y452.4563   
N8250  X164.9516  Y457.0648   
N8255  X186.3826  Y458.2105   
N8260  X196.3053  Y457.9466   
N8265  X197.0748  Y453.2190   
N8270  X197.6162  Y441.6497   
N8275  X198.0238  Y407.1081   
N8280  X197.5459  Y372.5664   
N8285  X196.9809  Y360.9966   
N8290  X196.2014  Y356.2680   
N8295  X184.8514  Y355.4753   
N8300  X160.1138  Y355.1453   
N8305  X130.6943  Y354.6339   
N8310  X126.5914  Y353.5537   
N8315  X125.8434  Y351.5320   
N8320  X125.5611  Y349.7463   
N8325  X124.5513  Y348.6399   
N8330  X119.3657  Y347.9191   
N8335  X115.1166  Y348.3891   
N8340  X113.1619  Y349.9188   
N8345  X113.4310  Y352.6892   
N8350  X115.8536  Y356.8802   
N8355  X117.6724  Y360.1441   
N8360  X117.8827  Y362.0484   
N8365  X115.5572  Y360.2905   
N8370  X111.2808  Y354.7493   
N8375  X107.3631  Y349.5674   
N8380  X103.8924  Y346.3401   
N8385  X100.3163  Y344.6845   
N8390  X96.0818  Y344.2176   
N8395  X93.4688  Y344.7957   
N8400  X92.7790  Y346.7991   
N8405  X94.0516  Y350.6333   
N8410  X97.3277  Y356.7028   
N8415  X100.7575  Y363.2550   
N8420  X100.2638  Y363.7292   
N8425  X98.3942  Y362.8904   
N8430  X94.3407  Y358.5793   
N8435  X89.8324  Y351.0173   
N8440  X84.5844  Y342.6438   
N8445  X81.6871  Y339.9621   
N8450  X78.3166  Y337.9535   
N8455  X73.1431  Y336.1557   
N8460  X70.0899  Y336.3089   
N8465  X69.4531  Y339.5125   
N8470  X70.6124  Y344.9935   
N8475  X73.1903  Y351.5388   
N8480  X76.8094  Y357.9335   
N8485  X80.0089  Y363.2245   
N8490  X79.5252  Y363.5508   
N8495  X77.7275  Y362.7246   
N8500  X74.3827  Y359.8457   
N8505  X71.0972  Y354.8432   
N8510  X67.8966  Y347.7670   
N8515  X64.8084  Y338.6659   
N8520  X61.4825  Y330.2079   
N8525  X59.6417  Y329.0433   
N8530  X56.9783  Y329.0575   
N8535  X54.4939  Y329.0748   
N8540  X52.5623  Y328.3147   
N8545  X49.2312  Y323.6841   
N8550  X46.9901  Y318.7267   
N8555  X46.7536  Y315.9999   
N8560  X48.8341  Y314.8463   
N8565  X53.5439  Y314.6076   
N8570  X59.5924  Y315.3945   
N8575  X61.1210  Y316.5822   
N8580  X62.0506  Y318.4802   
N8585  X64.8315  Y321.8858   
N8590  X70.6597  Y325.7667   
N8595  X88.0231  Y333.6607   
N8600  X107.2713  Y339.5713   
N8605  X115.4554  Y340.9735   
N8610  X121.5349  Y340.9085   
N8615  X125.7809  Y340.0969   
N8620  X125.7406  Y293.1157   
N8625  X125.6996  Y246.1340   
N8630  X75.0924   
N8635  X24.4847   
N8640  X23.3411  Y255.8499   
N8645 G0  Z0.1000 
N8650 G1  Z-14.0000  F100.00 
N8655  X11.5357  Y408.6399   F300.00 
N8660  X10.9183  Y424.6729   
N8665  X11.2378  Y429.0700   
N8670  X11.9753  Y431.0210   
N8675  X16.3541  Y432.8607   
N8680  X25.0224  Y435.3200   
N8685  X51.5520  Y441.3386   
N8690  X84.2156  Y447.5566   
N8695  X115.6648  Y452.4563   
N8700  X164.9516  Y457.0648   
N8705  X186.3826  Y458.2105   
N8710  X196.3053  Y457.9466   
N8715  X197.0748  Y453.2190   
N8720  X197.6162  Y441.6497   
N8725  X198.0238  Y407.1081   
N8730  X197.5459  Y372.5664   
N8735  X196.9809  Y360.9966   
N8740  X196.2014  Y356.2680   
N8745  X184.8514  Y355.4753   
N8750  X160.1138  Y355.1453   
N8755  X130.6943  Y354.6339   
N8760  X126.5914  Y353.5537   
N8765  X125.8434  Y351.5320   
N8770  X125.5611  Y349.7463   
N8775  X124.5513  Y348.6399   
N8780  X119.3657  Y347.9191   
N8785  X115.1166  Y348.3891   
N8790  X113.1619  Y349.9188   
N8795  X113.4310  Y352.6892   
N8800  X115.8536  Y356.8802   
N8805  X117.6724  Y360.1441   
N8810  X117.8827  Y362.0484   
N8815  X115.5572  Y360.2905   
N8820  X111.2808  Y354.7493   
N8825  X107.3631  Y349.5674   
N8830  X103.8924  Y346.3401   
N8835  X100.3163  Y344.6845   
N8840  X96.0818  Y344.2176   
N8845  X93.4688  Y344.7957   
N8850  X92.7790  Y346.7991   
N8855  X94.0516  Y350.6333   
N8860  X97.3277  Y356.7028   
N8865  X100.7575  Y363.2550   
N8870  X100.2638  Y363.7292   
N8875  X98.3942  Y362.8904   
N8880  X94.3407  Y358.5793   
N8885  X89.8324  Y351.0173   
N8890  X84.5844  Y342.6438   
N8895  X81.6871  Y339.9621   
N8900  X78.3166  Y337.9535   
N8905  X73.1431  Y336.1557   
N8910  X70.0899  Y336.3089   
N8915  X69.4531  Y339.5125   
N8920  X70.6124  Y344.9935   
N8925  X73.1903  Y351.5388   
N8930  X76.8094  Y357.9335   
N8935  X80.0089  Y363.2245   
N8940  X79.5252  Y363.5508   
N8945  X77.7275  Y362.7246   
N8950  X74.3827  Y359.8457   
N8955  X71.0972  Y354.8432   
N8960  X67.8966  Y347.7670   
N8965  X64.8084  Y338.6659   
N8970  X61.4825  Y330.2079   
N8975  X59.6417  Y329.0433   
N8980  X56.9783  Y329.0575   
N8985  X54.4939  Y329.0748   
N8990  X52.5623  Y328.3147   
N8995  X49.2312  Y323.6841   
N9000  X46.9901  Y318.7267   
N9005  X46.7536  Y315.9999   
N9010  X48.8341  Y314.8463   
N9015  X53.5439  Y314.6076   
N9020  X59.5924  Y315.3945   
N9025  X61.1210  Y316.5822   
N9030  X62.0506  Y318.4802   
N9035  X64.8315  Y321.8858   
N9040  X70.6597  Y325.7667   
N9045  X88.0231  Y333.6607   
N9050  X107.2713  Y339.5713   
N9055  X115.4554  Y340.9735   
N9060  X121.5349  Y340.9085   
N9065  X125.7809  Y340.0969   
N9070  X125.7406  Y293.1157   
N9075  X125.6996  Y246.1340   
N9080  X75.0924   
N9085  X24.4847   
N9090  X23.3411  Y255.8499   
N9095 G0  Z0.1000 
N9100 G1  Z-15.0000  F100.00 
N9105  X11.5357  Y408.6399   F300.00 
N9110  X10.9183  Y424.6729   
N9115  X11.2378  Y429.0700   
N9120  X11.9753  Y431.0210   
N9125  X16.3541  Y432.8607   
N9130  X25.0224  Y435.3200   
N9135  X51.5520  Y441.3386   
N9140  X84.2156  Y447.5566   
N9145  X115.6648  Y452.4563   
N9150  X164.9516  Y457.0648   
N9155  X186.3826  Y458.2105   
N9160  X196.3053  Y457.9466   
N9165  X197.0748  Y453.2190   
N9170  X197.6162  Y441.6497   
N9175  X198.0238  Y407.1081   
N9180  X197.5459  Y372.5664   
N9185  X196.9809  Y360.9966   
N9190  X196.2014  Y356.2680   
N9195  X184.8514  Y355.4753   
N9200  X160.1138  Y355.1453   
N9205  X130.6943  Y354.6339   
N9210  X126.5914  Y353.5537   
N9215  X125.8434  Y351.5320   
N9220  X125.5611  Y349.7463   
N9225  X124.5513  Y348.6399   
N9230  X119.3657  Y347.9191   
N9235  X115.1166  Y348.3891   
N9240  X113.1619  Y349.9188   
N9245  X113.4310  Y352.6892   
N9250  X115.8536  Y356.8802   
N9255  X117.6724  Y360.1441   
N9260  X117.8827  Y362.0484   
N9265  X115.5572  Y360.2905   
N9270  X111.2808  Y354.7493   
N9275  X107.3631  Y349.5674   
N9280  X103.8924  Y346.3401   
N9285  X100.3163  Y344.6845   
N9290  X96.0818  Y344.2176   
N9295  X93.4688  Y344.7957   
N9300  X92.7790  Y346.7991   
N9305  X94.0516  Y350.6333   
N9310  X97.3277  Y356.7028   
N9315  X100.7575  Y363.2550   
N9320  X100.2638  Y363.7292   
N9325  X98.3942  Y362.8904   
N9330  X94.3407  Y358.5793   
N9335  X89.8324  Y351.0173   
N9340  X84.5844  Y342.6438   
N9345  X81.6871  Y339.9621   
N9350  X78.3166  Y337.9535   
N9355  X73.1431  Y336.1557   
N9360  X70.0899  Y336.3089   
N9365  X69.4531  Y339.5125   
N9370  X70.6124  Y344.9935   
N9375  X73.1903  Y351.5388   
N9380  X76.8094  Y357.9335   
N9385  X80.0089  Y363.2245   
N9390  X79.5252  Y363.5508   
N9395  X77.7275  Y362.7246   
N9400  X74.3827  Y359.8457   
N9405  X71.0972  Y354.8432   
N9410  X67.8966  Y347.7670   
N9415  X64.8084  Y338.6659   
N9420  X61.4825  Y330.2079   
N9425  X59.6417  Y329.0433   
N9430  X56.9783  Y329.0575   
N9435  X54.4939  Y329.0748   
N9440  X52.5623  Y328.3147   
N9445  X49.2312  Y323.6841   
N9450  X46.9901  Y318.7267   
N9455  X46.7536  Y315.9999   
N9460  X48.8341  Y314.8463   
N9465  X53.5439  Y314.6076   
N9470  X59.5924  Y315.3945   
N9475  X61.1210  Y316.5822   
N9480  X62.0506  Y318.4802   
N9485  X64.8315  Y321.8858   
N9490  X70.6597  Y325.7667   
N9495  X88.0231  Y333.6607   
N9500  X107.2713  Y339.5713   
N9505  X115.4554  Y340.9735   
N9510  X121.5349  Y340.9085   
N9515  X125.7809  Y340.0969   
N9520  X125.7406  Y293.1157   
N9525  X125.6996  Y246.1340   
N9530  X75.0924   
N9535  X24.4847   
N9540  X23.3411  Y255.8499   
N9545 G0  Z0.1000 
N9550 G1  Z-16.0000  F100.00 
N9555  X11.5357  Y408.6399   F300.00 
N9560  X10.9183  Y424.6729   
N9565  X11.2378  Y429.0700   
N9570  X11.9753  Y431.0210   
N9575  X16.3541  Y432.8607   
N9580  X25.0224  Y435.3200   
N9585  X51.5520  Y441.3386   
N9590  X84.2156  Y447.5566   
N9595  X115.6648  Y452.4563   
N9600  X164.9516  Y457.0648   
N9605  X186.3826  Y458.2105   
N9610  X196.3053  Y457.9466   
N9615  X197.0748  Y453.2190   
N9620  X197.6162  Y441.6497   
N9625  X198.0238  Y407.1081   
N9630  X197.5459  Y372.5664   
N9635  X196.9809  Y360.9966   
N9640  X196.2014  Y356.2680   
N9645  X184.8514  Y355.4753   
N9650  X160.1138  Y355.1453   
N9655  X130.6943  Y354.6339   
N9660  X126.5914  Y353.5537   
N9665  X125.8434  Y351.5320   
N9670  X125.5611  Y349.7463   
N9675  X124.5513  Y348.6399   
N9680  X119.3657  Y347.9191   
N9685  X115.1166  Y348.3891   
N9690  X113.1619  Y349.9188   
N9695  X113.4310  Y352.6892   
N9700  X115.8536  Y356.8802   
N9705  X117.6724  Y360.1441   
N9710  X117.8827  Y362.0484   
N9715  X115.5572  Y360.2905   
N9720  X111.2808  Y354.7493   
N9725  X107.3631  Y349.5674   
N9730  X103.8924  Y346.3401   
N9735  X100.3163  Y344.6845   
N9740  X96.0818  Y344.2176   
N9745  X93.4688  Y344.7957   
N9750  X92.7790  Y346.7991   
N9755  X94.0516  Y350.6333   
N9760  X97.3277  Y356.7028   
N9765  X100.7575  Y363.2550   
N9770  X100.2638  Y363.7292   
N9775  X98.3942  Y362.8904   
N9780  X94.3407  Y358.5793   
N9785  X89.8324  Y351.0173   
N9790  X84.5844  Y342.6438   
N9795  X81.6871  Y339.9621   
N9800  X78.3166  Y337.9535   
N9805  X73.1431  Y336.1557   
N9810  X70.0899  Y336.3089   
N9815  X69.4531  Y339.5125   
N9820  X70.6124  Y344.9935   
N9825  X73.1903  Y351.5388   
N9830  X76.8094  Y357.9335   
N9835  X80.0089  Y363.2245   
N9840  X79.5252  Y363.5508   
N9845  X77.7275  Y362.7246   
N9850  X74.3827  Y359.8457   
N9855  X71.0972  Y354.8432   
N9860  X67.8966  Y347.7670   
N9865  X64.8084  Y338.6659   
N9870  X61.4825  Y330.2079   
N9875  X59.6417  Y329.0433   
N9880  X56.9783  Y329.0575   
N9885  X54.4939  Y329.0748   
N9890  X52.5623  Y328.3147   
N9895  X49.2312  Y323.6841   
N9900  X46.9901  Y318.7267   
N9905  X46.7536  Y315.9999   
N9910  X48.8341  Y314.8463   
N9915  X53.5439  Y314.6076   
N9920  X59.5924  Y315.3945   
N9925  X61.1210  Y316.5822   
N9930  X62.0506  Y318.4802   
N9935  X64.8315  Y321.8858   
N9940  X70.6597  Y325.7667   
N9945  X88.0231  Y333.6607   
N9950  X107.2713  Y339.5713   
N9955  X115.4554  Y340.9735   
N9960  X121.5349  Y340.9085   
N9965  X125.7809  Y340.0969   
N9970  X125.7406  Y293.1157   
N9975  X125.6996  Y246.1340   
N9980  X75.0924   
N9985  X24.4847   
N9990  X23.3411  Y255.8499   
N9995 G0  Z0.1000 
N10000 G1  Z-17.0000  F100.00 
N10005  X11.5357  Y408.6399   F300.00 
N10010  X10.9183  Y424.6729   
N10015  X11.2378  Y429.0700   
N10020  X11.9753  Y431.0210   
N10025  X16.3541  Y432.8607   
N10030  X25.0224  Y435.3200   
N10035  X51.5520  Y441.3386   
N10040  X84.2156  Y447.5566   
N10045  X115.6648  Y452.4563   
N10050  X164.9516  Y457.0648   
N10055  X186.3826  Y458.2105   
N10060  X196.3053  Y457.9466   
N10065  X197.0748  Y453.2190   
N10070  X197.6162  Y441.6497   
N10075  X198.0238  Y407.1081   
N10080  X197.5459  Y372.5664   
N10085  X196.9809  Y360.9966   
N10090  X196.2014  Y356.2680   
N10095  X184.8514  Y355.4753   
N10100  X160.1138  Y355.1453   
N10105  X130.6943  Y354.6339   
N10110  X126.5914  Y353.5537   
N10115  X125.8434  Y351.5320   
N10120  X125.5611  Y349.7463   
N10125  X124.5513  Y348.6399   
N10130  X119.3657  Y347.9191   
N10135  X115.1166  Y348.3891   
N10140  X113.1619  Y349.9188   
N10145  X113.4310  Y352.6892   
N10150  X115.8536  Y356.8802   
N10155  X117.6724  Y360.1441   
N10160  X117.8827  Y362.0484   
N10165  X115.5572  Y360.2905   
N10170  X111.2808  Y354.7493   
N10175  X107.3631  Y349.5674   
N10180  X103.8924  Y346.3401   
N10185  X100.3163  Y344.6845   
N10190  X96.0818  Y344.2176   
N10195  X93.4688  Y344.7957   
N10200  X92.7790  Y346.7991   
N10205  X94.0516  Y350.6333   
N10210  X97.3277  Y356.7028   
N10215  X100.7575  Y363.2550   
N10220  X100.2638  Y363.7292   
N10225  X98.3942  Y362.8904   
N10230  X94.3407  Y358.5793   
N10235  X89.8324  Y351.0173   
N10240  X84.5844  Y342.6438   
N10245  X81.6871  Y339.9621   
N10250  X78.3166  Y337.9535   
N10255  X73.1431  Y336.1557   
N10260  X70.0899  Y336.3089   
N10265  X69.4531  Y339.5125   
N10270  X70.6124  Y344.9935   
N10275  X73.1903  Y351.5388   
N10280  X76.8094  Y357.9335   
N10285  X80.0089  Y363.2245   
N10290  X79.5252  Y363.5508   
N10295  X77.7275  Y362.7246   
N10300  X74.3827  Y359.8457   
N10305  X71.0972  Y354.8432   
N10310  X67.8966  Y347.7670   
N10315  X64.8084  Y338.6659   
N10320  X61.4825  Y330.2079   
N10325  X59.6417  Y329.0433   
N10330  X56.9783  Y329.0575   
N10335  X54.4939  Y329.0748   
N10340  X52.5623  Y328.3147   
N10345  X49.2312  Y323.6841   
N10350  X46.9901  Y318.7267   
N10355  X46.7536  Y315.9999   
N10360  X48.8341  Y314.8463   
N10365  X53.5439  Y314.6076   
N10370  X59.5924  Y315.3945   
N10375  X61.1210  Y316.5822   
N10380  X62.0506  Y318.4802   
N10385  X64.8315  Y321.8858   
N10390  X70.6597  Y325.7667   
N10395  X88.0231  Y333.6607   
N10400  X107.2713  Y339.5713   
N10405  X115.4554  Y340.9735   
N10410  X121.5349  Y340.9085   
N10415  X125.7809  Y340.0969   
N10420  X125.7406  Y293.1157   
N10425  X125.6996  Y246.1340   
N10430  X75.0924   
N10435  X24.4847   
N10440  X23.3411  Y255.8499   
N10445 G0  Z0.1000 
N10450 G1  Z-18.0000  F100.00 
N10455  X11.5357  Y408.6399   F300.00 
N10460  X10.9183  Y424.6729   
N10465  X11.2378  Y429.0700   
N10470  X11.9753  Y431.0210   
N10475  X16.3541  Y432.8607   
N10480  X25.0224  Y435.3200   
N10485  X51.5520  Y441.3386   
N10490  X84.2156  Y447.5566   
N10495  X115.6648  Y452.4563   
N10500  X164.9516  Y457.0648   
N10505  X186.3826  Y458.2105   
N10510  X196.3053  Y457.9466   
N10515  X197.0748  Y453.2190   
N10520  X197.6162  Y441.6497   
N10525  X198.0238  Y407.1081   
N10530  X197.5459  Y372.5664   
N10535  X196.9809  Y360.9966   
N10540  X196.2014  Y356.2680   
N10545  X184.8514  Y355.4753   
N10550  X160.1138  Y355.1453   
N10555  X130.6943  Y354.6339   
N10560  X126.5914  Y353.5537   
N10565  X125.8434  Y351.5320   
N10570  X125.5611  Y349.7463   
N10575  X124.5513  Y348.6399   
N10580  X119.3657  Y347.9191   
N10585  X115.1166  Y348.3891   
N10590  X113.1619  Y349.9188   
N10595  X113.4310  Y352.6892   
N10600  X115.8536  Y356.8802   
N10605  X117.6724  Y360.1441   
N10610  X117.8827  Y362.0484   
N10615  X115.5572  Y360.2905   
N10620  X111.2808  Y354.7493   
N10625  X107.3631  Y349.5674   
N10630  X103.8924  Y346.3401   
N10635  X100.3163  Y344.6845   
N10640  X96.0818  Y344.2176   
N10645  X93.4688  Y344.7957   
N10650  X92.7790  Y346.7991   
N10655  X94.0516  Y350.6333   
N10660  X97.3277  Y356.7028   
N10665  X100.7575  Y363.2550   
N10670  X100.2638  Y363.7292   
N10675  X98.3942  Y362.8904   
N10680  X94.3407  Y358.5793   
N10685  X89.8324  Y351.0173   
N10690  X84.5844  Y342.6438   
N10695  X81.6871  Y339.9621   
N10700  X78.3166  Y337.9535   
N10705  X73.1431  Y336.1557   
N10710  X70.0899  Y336.3089   
N10715  X69.4531  Y339.5125   
N10720  X70.6124  Y344.9935   
N10725  X73.1903  Y351.5388   
N10730  X76.8094  Y357.9335   
N10735  X80.0089  Y363.2245   
N10740  X79.5252  Y363.5508   
N10745  X77.7275  Y362.7246   
N10750  X74.3827  Y359.8457   
N10755  X71.0972  Y354.8432   
N10760  X67.8966  Y347.7670   
N10765  X64.8084  Y338.6659   
N10770  X61.4825  Y330.2079   
N10775  X59.6417  Y329.0433   
N10780  X56.9783  Y329.0575   
N10785  X54.4939  Y329.0748   
N10790  X52.5623  Y328.3147   
N10795  X49.2312  Y323.6841   
N10800  X46.9901  Y318.7267   
N10805  X46.7536  Y315.9999   
N10810  X48.8341  Y314.8463   
N10815  X53.5439  Y314.6076   
N10820  X59.5924  Y315.3945   
N10825  X61.1210  Y316.5822   
N10830  X62.0506  Y318.4802   
N10835  X64.8315  Y321.8858   
N10840  X70.6597  Y325.7667   
N10845  X88.0231  Y333.6607   
N10850  X107.2713  Y339.5713   
N10855  X115.4554  Y340.9735   
N10860  X121.5349  Y340.9085   
N10865  X125.7809  Y340.0969   
N10870  X125.7406  Y293.1157   
N10875  X125.6996  Y246.1340   
N10880  X75.0924   
N10885  X24.4847   
N10890  X23.3411  Y255.8499   
N10895 G0  Z0.1000 
N10900 G1  Z-19.0000  F100.00 
N10905  X11.5357  Y408.6399   F300.00 
N10910  X10.9183  Y424.6729   
N10915  X11.2378  Y429.0700   
N10920  X11.9753  Y431.0210   
N10925  X16.3541  Y432.8607   
N10930  X25.0224  Y435.3200   
N10935  X51.5520  Y441.3386   
N10940  X84.2156  Y447.5566   
N10945  X115.6648  Y452.4563   
N10950  X164.9516  Y457.0648   
N10955  X186.3826  Y458.2105   
N10960  X196.3053  Y457.9466   
N10965  X197.0748  Y453.2190   
N10970  X197.6162  Y441.6497   
N10975  X198.0238  Y407.1081   
N10980  X197.5459  Y372.5664   
N10985  X196.9809  Y360.9966   
N10990  X196.2014  Y356.2680   
N10995  X184.8514  Y355.4753   
N11000  X160.1138  Y355.1453   
N11005  X130.6943  Y354.6339   
N11010  X126.5914  Y353.5537   
N11015  X125.8434  Y351.5320   
N11020  X125.5611  Y349.7463   
N11025  X124.5513  Y348.6399   
N11030  X119.3657  Y347.9191   
N11035  X115.1166  Y348.3891   
N11040  X113.1619  Y349.9188   
N11045  X113.4310  Y352.6892   
N11050  X115.8536  Y356.8802   
N11055  X117.6724  Y360.1441   
N11060  X117.8827  Y362.0484   
N11065  X115.5572  Y360.2905   
N11070  X111.2808  Y354.7493   
N11075  X107.3631  Y349.5674   
N11080  X103.8924  Y346.3401   
N11085  X100.3163  Y344.6845   
N11090  X96.0818  Y344.2176   
N11095  X93.4688  Y344.7957   
N11100  X92.7790  Y346.7991   
N11105  X94.0516  Y350.6333   
N11110  X97.3277  Y356.7028   
N11115  X100.7575  Y363.2550   
N11120  X100.2638  Y363.7292   
N11125  X98.3942  Y362.8904   
N11130  X94.3407  Y358.5793   
N11135  X89.8324  Y351.0173   
N11140  X84.5844  Y342.6438   
N11145  X81.6871  Y339.9621   
N11150  X78.3166  Y337.9535   
N11155  X73.1431  Y336.1557   
N11160  X70.0899  Y336.3089   
N11165  X69.4531  Y339.5125   
N11170  X70.6124  Y344.9935   
N11175  X73.1903  Y351.5388   
N11180  X76.8094  Y357.9335   
N11185  X80.0089  Y363.2245   
N11190  X79.5252  Y363.5508   
N11195  X77.7275  Y362.7246   
N11200  X74.3827  Y359.8457   
N11205  X71.0972  Y354.8432   
N11210  X67.8966  Y347.7670   
N11215  X64.8084  Y338.6659   
N11220  X61.4825  Y330.2079   
N11225  X59.6417  Y329.0433   
N11230  X56.9783  Y329.0575   
N11235  X54.4939  Y329.0748   
N11240  X52.5623  Y328.3147   
N11245  X49.2312  Y323.6841   
N11250  X46.9901  Y318.7267   
N11255  X46.7536  Y315.9999   
N11260  X48.8341  Y314.8463   
N11265  X53.5439  Y314.6076   
N11270  X59.5924  Y315.3945   
N11275  X61.1210  Y316.5822   
N11280  X62.0506  Y318.4802   
N11285  X64.8315  Y321.8858   
N11290  X70.6597  Y325.7667   
N11295  X88.0231  Y333.6607   
N11300  X107.2713  Y339.5713   
N11305  X115.4554  Y340.9735   
N11310  X121.5349  Y340.9085   
N11315  X125.7809  Y340.0969   
N11320  X125.7406  Y293.1157   
N11325  X125.6996  Y246.1340   
N11330  X75.0924   
N11335  X24.4847   
N11340  X23.3411  Y255.8499   
N11345 G0  Z0.1000 
N11350 G1  Z-20.0000  F100.00 
N11355  X11.5357  Y408.6399   F300.00 
N11360  X10.9183  Y424.6729   
N11365  X11.2378  Y429.0700   
N11370  X11.9753  Y431.0210   
N11375  X16.3541  Y432.8607   
N11380  X25.0224  Y435.3200   
N11385  X51.5520  Y441.3386   
N11390  X84.2156  Y447.5566   
N11395  X115.6648  Y452.4563   
N11400  X164.9516  Y457.0648   
N11405  X186.3826  Y458.2105   
N11410  X196.3053  Y457.9466   
N11415  X197.0748  Y453.2190   
N11420  X197.6162  Y441.6497   
N11425  X198.0238  Y407.1081   
N11430  X197.5459  Y372.5664   
N11435  X196.9809  Y360.9966   
N11440  X196.2014  Y356.2680   
N11445  X184.8514  Y355.4753   
N11450  X160.1138  Y355.1453   
N11455  X130.6943  Y354.6339   
N11460  X126.5914  Y353.5537   
N11465  X125.8434  Y351.5320   
N11470  X125.5611  Y349.7463   
N11475  X124.5513  Y348.6399   
N11480  X119.3657  Y347.9191   
N11485  X115.1166  Y348.3891   
N11490  X113.1619  Y349.9188   
N11495  X113.4310  Y352.6892   
N11500  X115.8536  Y356.8802   
N11505  X117.6724  Y360.1441   
N11510  X117.8827  Y362.0484   
N11515  X115.5572  Y360.2905   
N11520  X111.2808  Y354.7493   
N11525  X107.3631  Y349.5674   
N11530  X103.8924  Y346.3401   
N11535  X100.3163  Y344.6845   
N11540  X96.0818  Y344.2176   
N11545  X93.4688  Y344.7957   
N11550  X92.7790  Y346.7991   
N11555  X94.0516  Y350.6333   
N11560  X97.3277  Y356.7028   
N11565  X100.7575  Y363.2550   
N11570  X100.2638  Y363.7292   
N11575  X98.3942  Y362.8904   
N11580  X94.3407  Y358.5793   
N11585  X89.8324  Y351.0173   
N11590  X84.5844  Y342.6438   
N11595  X81.6871  Y339.9621   
N11600  X78.3166  Y337.9535   
N11605  X73.1431  Y336.1557   
N11610  X70.0899  Y336.3089   
N11615  X69.4531  Y339.5125   
N11620  X70.6124  Y344.9935   
N11625  X73.1903  Y351.5388   
N11630  X76.8094  Y357.9335   
N11635  X80.0089  Y363.2245   
N11640  X79.5252  Y363.5508   
N11645  X77.7275  Y362.7246   
N11650  X74.3827  Y359.8457   
N11655  X71.0972  Y354.8432   
N11660  X67.8966  Y347.7670   
N11665  X64.8084  Y338.6659   
N11670  X61.4825  Y330.2079   
N11675  X59.6417  Y329.0433   
N11680  X56.9783  Y329.0575   
N11685  X54.4939  Y329.0748   
N11690  X52.5623  Y328.3147   
N11695  X49.2312  Y323.6841   
N11700  X46.9901  Y318.7267   
N11705  X46.7536  Y315.9999   
N11710  X48.8341  Y314.8463   
N11715  X53.5439  Y314.6076   
N11720  X59.5924  Y315.3945   
N11725  X61.1210  Y316.5822   
N11730  X62.0506  Y318.4802   
N11735  X64.8315  Y321.8858   
N11740  X70.6597  Y325.7667   
N11745  X88.0231  Y333.6607   
N11750  X107.2713  Y339.5713   
N11755  X115.4554  Y340.9735   
N11760  X121.5349  Y340.9085   
N11765  X125.7809  Y340.0969   
N11770  X125.7406  Y293.1157   
N11775  X125.6996  Y246.1340   
N11780  X75.0924   
N11785  X24.4847   
N11790  X23.3411  Y255.8499   
N11795 G0  Z0.1000 
N11800 G1  Z-21.0000  F100.00 
N11805  X11.5357  Y408.6399   F300.00 
N11810  X10.9183  Y424.6729   
N11815  X11.2378  Y429.0700   
N11820  X11.9753  Y431.0210   
N11825  X16.3541  Y432.8607   
N11830  X25.0224  Y435.3200   
N11835  X51.5520  Y441.3386   
N11840  X84.2156  Y447.5566   
N11845  X115.6648  Y452.4563   
N11850  X164.9516  Y457.0648   
N11855  X186.3826  Y458.2105   
N11860  X196.3053  Y457.9466   
N11865  X197.0748  Y453.2190   
N11870  X197.6162  Y441.6497   
N11875  X198.0238  Y407.1081   
N11880  X197.5459  Y372.5664   
N11885  X196.9809  Y360.9966   
N11890  X196.2014  Y356.2680   
N11895  X184.8514  Y355.4753   
N11900  X160.1138  Y355.1453   
N11905  X130.6943  Y354.6339   
N11910  X126.5914  Y353.5537   
N11915  X125.8434  Y351.5320   
N11920  X125.5611  Y349.7463   
N11925  X124.5513  Y348.6399   
N11930  X119.3657  Y347.9191   
N11935  X115.1166  Y348.3891   
N11940  X113.1619  Y349.9188   
N11945  X113.4310  Y352.6892   
N11950  X115.8536  Y356.8802   
N11955  X117.6724  Y360.1441   
N11960  X117.8827  Y362.0484   
N11965  X115.5572  Y360.2905   
N11970  X111.2808  Y354.7493   
N11975  X107.3631  Y349.5674   
N11980  X103.8924  Y346.3401   
N11985  X100.3163  Y344.6845   
N11990  X96.0818  Y344.2176   
N11995  X93.4688  Y344.7957   
N12000  X92.7790  Y346.7991   
N12005  X94.0516  Y350.6333   
N12010  X97.3277  Y356.7028   
N12015  X100.7575  Y363.2550   
N12020  X100.2638  Y363.7292   
N12025  X98.3942  Y362.8904   
N12030  X94.3407  Y358.5793   
N12035  X89.8324  Y351.0173   
N12040  X84.5844  Y342.6438   
N12045  X81.6871  Y339.9621   
N12050  X78.3166  Y337.9535   
N12055  X73.1431  Y336.1557   
N12060  X70.0899  Y336.3089   
N12065  X69.4531  Y339.5125   
N12070  X70.6124  Y344.9935   
N12075  X73.1903  Y351.5388   
N12080  X76.8094  Y357.9335   
N12085  X80.0089  Y363.2245   
N12090  X79.5252  Y363.5508   
N12095  X77.7275  Y362.7246   
N12100  X74.3827  Y359.8457   
N12105  X71.0972  Y354.8432   
N12110  X67.8966  Y347.7670   
N12115  X64.8084  Y338.6659   
N12120  X61.4825  Y330.2079   
N12125  X59.6417  Y329.0433   
N12130  X56.9783  Y329.0575   
N12135  X54.4939  Y329.0748   
N12140  X52.5623  Y328.3147   
N12145  X49.2312  Y323.6841   
N12150  X46.9901  Y318.7267   
N12155  X46.7536  Y315.9999   
N12160  X48.8341  Y314.8463   
N12165  X53.5439  Y314.6076   
N12170  X59.5924  Y315.3945   
N12175  X61.1210  Y316.5822   
N12180  X62.0506  Y318.4802   
N12185  X64.8315  Y321.8858   
N12190  X70.6597  Y325.7667   
N12195  X88.0231  Y333.6607   
N12200  X107.2713  Y339.5713   
N12205  X115.4554  Y340.9735   
N12210  X121.5349  Y340.9085   
N12215  X125.7809  Y340.0969   
N12220  X125.7406  Y293.1157   
N12225  X125.6996  Y246.1340   
N12230  X75.0924   
N12235  X24.4847   
N12240  X23.3411  Y255.8499   
N12245 G0  Z0.1000 
N12250 G1  Z-22.0000  F100.00 
N12255  X11.5357  Y408.6399   F300.00 
N12260  X10.9183  Y424.6729   
N12265  X11.2378  Y429.0700   
N12270  X11.9753  Y431.0210   
N12275  X16.3541  Y432.8607   
N12280  X25.0224  Y435.3200   
N12285  X51.5520  Y441.3386   
N12290  X84.2156  Y447.5566   
N12295  X115.6648  Y452.4563   
N12300  X164.9516  Y457.0648   
N12305  X186.3826  Y458.2105   
N12310  X196.3053  Y457.9466   
N12315  X197.0748  Y453.2190   
N12320  X197.6162  Y441.6497   
N12325  X198.0238  Y407.1081   
N12330  X197.5459  Y372.5664   
N12335  X196.9809  Y360.9966   
N12340  X196.2014  Y356.2680   
N12345  X184.8514  Y355.4753   
N12350  X160.1138  Y355.1453   
N12355  X130.6943  Y354.6339   
N12360  X126.5914  Y353.5537   
N12365  X125.8434  Y351.5320   
N12370  X125.5611  Y349.7463   
N12375  X124.5513  Y348.6399   
N12380  X119.3657  Y347.9191   
N12385  X115.1166  Y348.3891   
N12390  X113.1619  Y349.9188   
N12395  X113.4310  Y352.6892   
N12400  X115.8536  Y356.8802   
N12405  X117.6724  Y360.1441   
N12410  X117.8827  Y362.0484   
N12415  X115.5572  Y360.2905   
N12420  X111.2808  Y354.7493   
N12425  X107.3631  Y349.5674   
N12430  X103.8924  Y346.3401   
N12435  X100.3163  Y344.6845   
N12440  X96.0818  Y344.2176   
N12445  X93.4688  Y344.7957   
N12450  X92.7790  Y346.7991   
N12455  X94.0516  Y350.6333   
N12460  X97.3277  Y356.7028   
N12465  X100.7575  Y363.2550   
N12470  X100.2638  Y363.7292   
N12475  X98.3942  Y362.8904   
N12480  X94.3407  Y358.5793   
N12485  X89.8324  Y351.0173   
N12490  X84.5844  Y342.6438   
N12495  X81.6871  Y339.9621   
N12500  X78.3166  Y337.9535   
N12505  X73.1431  Y336.1557   
N12510  X70.0899  Y336.3089   
N12515  X69.4531  Y339.5125   
N12520  X70.6124  Y344.9935   
N12525  X73.1903  Y351.5388   
N12530  X76.8094  Y357.9335   
N12535  X80.0089  Y363.2245   
N12540  X79.5252  Y363.5508   
N12545  X77.7275  Y362.7246   
N12550  X74.3827  Y359.8457   
N12555  X71.0972  Y354.8432   
N12560  X67.8966  Y347.7670   
N12565  X64.8084  Y338.6659   
N12570  X61.4825  Y330.2079   
N12575  X59.6417  Y329.0433   
N12580  X56.9783  Y329.0575   
N12585  X54.4939  Y329.0748   
N12590  X52.5623  Y328.3147   
N12595  X49.2312  Y323.6841   
N12600  X46.9901  Y318.7267   
N12605  X46.7536  Y315.9999   
N12610  X48.8341  Y314.8463   
N12615  X53.5439  Y314.6076   
N12620  X59.5924  Y315.3945   
N12625  X61.1210  Y316.5822   
N12630  X62.0506  Y318.4802   
N12635  X64.8315  Y321.8858   
N12640  X70.6597  Y325.7667   
N12645  X88.0231  Y333.6607   
N12650  X107.2713  Y339.5713   
N12655  X115.4554  Y340.9735   
N12660  X121.5349  Y340.9085   
N12665  X125.7809  Y340.0969   
N12670  X125.7406  Y293.1157   
N12675  X125.6996  Y246.1340   
N12680  X75.0924   
N12685  X24.4847   
N12690  X23.3411  Y255.8499   
N12695 G0  Z5.0000 
N12700  X65.2139  Y267.2912 
N12705  Z0.1000 
N12710 G1  Z-1.0000  F100.00 
N12715  X60.3924  Y262.6706   F300.00 
N12720  X55.9816  Y260.9395   
N12725  X53.2611  Y261.0397   
N12730  X52.1075  Y261.7363   
N12735  X53.6225  Y267.2959   
N12740  X55.9087  Y270.7225   
N12745  X58.9613  Y272.0429   
N12750  X60.7769  Y272.4511   
N12755  X62.0485  Y273.9409   
N12760  X63.7419  Y281.7589   
N12765  X65.4437  Y289.9797   
N12770  X67.7844  Y296.1012   
N12775  X69.5066  Y298.5536   
N12780  X69.2648  Y297.0265   
N12785  X67.0148  Y287.4171   
N12790  X67.3269  Y280.2806   
N12795  X68.0876  Y278.8180   
N12800  X69.1478  Y278.3669   
N12805  X73.8707  Y280.5738   
N12810  X78.4745  Y284.8566   
N12815  X81.2495  Y291.5325   
N12820  X83.5908  Y297.7636   
N12825  X86.4787  Y301.8575   
N12830  X88.8325  Y303.5036   
N12835  X87.6978  Y301.6534   
N12840  X85.6939  Y297.9084   
N12845  X84.4564  Y293.6414   
N12850  X84.1862  Y289.9173   
N12855  X85.0843  Y287.8011   
N12860  X87.8751  Y287.5031   
N12865  X91.2928  Y289.2553   
N12870  X94.8794  Y292.7165   
N12875  X98.1775  Y297.5464   
N12880  X100.5351  Y301.3203   
N12885  X100.9841  Y301.6219   
N12890  X100.8314  Y300.7280   
N12895  X99.7219  Y296.7826   
N12900  X99.6522  Y294.5090   
N12905  X100.7958  Y293.3523   
N12910  X103.3253  Y292.7579   
N12915  X107.4570  Y293.2747   
N12920  X111.3274  Y295.4381   
N12925  X113.8261  Y297.2652   
N12930  X114.6570  Y296.9746   
N12935  X114.6491  Y292.3944   
N12940  X115.3400  Y291.2880   
N12945  X116.3803  Y291.3452   
N12950  X118.0999  Y291.3877   
N12955  X119.9307  Y290.0663   
N12960  X120.3687  Y288.9814   
N12965  X119.2671  Y288.3729   
N12970  X111.3500  Y288.3697   
N12975  X105.3183  Y288.4358   
N12980  X100.0446  Y287.5635   
N12985  X85.5706  Y281.3040   
N12990  X73.0707  Y274.0002   
N12995  X65.2139  Y267.2912   
N13000 G0  Z0.1000 
N13005 G1  Z-2.0000  F100.00 
N13010  X60.3924  Y262.6706   F300.00 
N13015  X55.9816  Y260.9395   
N13020  X53.2611  Y261.0397   
N13025  X52.1075  Y261.7363   
N13030  X53.6225  Y267.2959   
N13035  X55.9087  Y270.7225   
N13040  X58.9613  Y272.0429   
N13045  X60.7769  Y272.4511   
N13050  X62.0485  Y273.9409   
N13055  X63.7419  Y281.7589   
N13060  X65.4437  Y289.9797   
N13065  X67.7844  Y296.1012   
N13070  X69.5066  Y298.5536   
N13075  X69.2648  Y297.0265   
N13080  X67.0148  Y287.4171   
N13085  X67.3269  Y280.2806   
N13090  X68.0876  Y278.8180   
N13095  X69.1478  Y278.3669   
N13100  X73.8707  Y280.5738   
N13105  X78.4745  Y284.8566   
N13110  X81.2495  Y291.5325   
N13115  X83.5908  Y297.7636   
N13120  X86.4787  Y301.8575   
N13125  X88.8325  Y303.5036   
N13130  X87.6978  Y301.6534   
N13135  X85.6939  Y297.9084   
N13140  X84.4564  Y293.6414   
N13145  X84.1862  Y289.9173   
N13150  X85.0843  Y287.8011   
N13155  X87.8751  Y287.5031   
N13160  X91.2928  Y289.2553   
N13165  X94.8794  Y292.7165   
N13170  X98.1775  Y297.5464   
N13175  X100.5351  Y301.3203   
N13180  X100.9841  Y301.6219   
N13185  X100.8314  Y300.7280   
N13190  X99.7219  Y296.7826   
N13195  X99.6522  Y294.5090   
N13200  X100.7958  Y293.3523   
N13205  X103.3253  Y292.7579   
N13210  X107.4570  Y293.2747   
N13215  X111.3274  Y295.4381   
N13220  X113.8261  Y297.2652   
N13225  X114.6570  Y296.9746   
N13230  X114.6491  Y292.3944   
N13235  X115.3400  Y291.2880   
N13240  X116.3803  Y291.3452   
N13245  X118.0999  Y291.3877   
N13250  X119.9307  Y290.0663   
N13255  X120.3687  Y288.9814   
N13260  X119.2671  Y288.3729   
N13265  X111.3500  Y288.3697   
N13270  X105.3183  Y288.4358   
N13275  X100.0446  Y287.5635   
N13280  X85.5706  Y281.3040   
N13285  X73.0707  Y274.0002   
N13290  X65.2139  Y267.2912   
N13295 G0  Z0.1000 
N13300 G1  Z-3.0000  F100.00 
N13305  X60.3924  Y262.6706   F300.00 
N13310  X55.9816  Y260.9395   
N13315  X53.2611  Y261.0397   
N13320  X52.1075  Y261.7363   
N13325  X53.6225  Y267.2959   
N13330  X55.9087  Y270.7225   
N13335  X58.9613  Y272.0429   
N13340  X60.7769  Y272.4511   
N13345  X62.0485  Y273.9409   
N13350  X63.7419  Y281.7589   
N13355  X65.4437  Y289.9797   
N13360  X67.7844  Y296.1012   
N13365  X69.5066  Y298.5536   
N13370  X69.2648  Y297.0265   
N13375  X67.0148  Y287.4171   
N13380  X67.3269  Y280.2806   
N13385  X68.0876  Y278.8180   
N13390  X69.1478  Y278.3669   
N13395  X73.8707  Y280.5738   
N13400  X78.4745  Y284.8566   
N13405  X81.2495  Y291.5325   
N13410  X83.5908  Y297.7636   
N13415  X86.4787  Y301.8575   
N13420  X88.8325  Y303.5036   
N13425  X87.6978  Y301.6534   
N13430  X85.6939  Y297.9084   
N13435  X84.4564  Y293.6414   
N13440  X84.1862  Y289.9173   
N13445  X85.0843  Y287.8011   
N13450  X87.8751  Y287.5031   
N13455  X91.2928  Y289.2553   
N13460  X94.8794  Y292.7165   
N13465  X98.1775  Y297.5464   
N13470  X100.5351  Y301.3203   
N13475  X100.9841  Y301.6219   
N13480  X100.8314  Y300.7280   
N13485  X99.7219  Y296.7826   
N13490  X99.6522  Y294.5090   
N13495  X100.7958  Y293.3523   
N13500  X103.3253  Y292.7579   
N13505  X107.4570  Y293.2747   
N13510  X111.3274  Y295.4381   
N13515  X113.8261  Y297.2652   
N13520  X114.6570  Y296.9746   
N13525  X114.6491  Y292.3944   
N13530  X115.3400  Y291.2880   
N13535  X116.3803  Y291.3452   
N13540  X118.0999  Y291.3877   
N13545  X119.9307  Y290.0663   
N13550  X120.3687  Y288.9814   
N13555  X119.2671  Y288.3729   
N13560  X111.3500  Y288.3697   
N13565  X105.3183  Y288.4358   
N13570  X100.0446  Y287.5635   
N13575  X85.5706  Y281.3040   
N13580  X73.0707  Y274.0002   
N13585  X65.2139  Y267.2912   
N13590 G0  Z0.1000 
N13595 G1  Z-4.0000  F100.00 
N13600  X60.3924  Y262.6706   F300.00 
N13605  X55.9816  Y260.9395   
N13610  X53.2611  Y261.0397   
N13615  X52.1075  Y261.7363   
N13620  X53.6225  Y267.2959   
N13625  X55.9087  Y270.7225   
N13630  X58.9613  Y272.0429   
N13635  X60.7769  Y272.4511   
N13640  X62.0485  Y273.9409   
N13645  X63.7419  Y281.7589   
N13650  X65.4437  Y289.9797   
N13655  X67.7844  Y296.1012   
N13660  X69.5066  Y298.5536   
N13665  X69.2648  Y297.0265   
N13670  X67.0148  Y287.4171   
N13675  X67.3269  Y280.2806   
N13680  X68.0876  Y278.8180   
N13685  X69.1478  Y278.3669   
N13690  X73.8707  Y280.5738   
N13695  X78.4745  Y284.8566   
N13700  X81.2495  Y291.5325   
N13705  X83.5908  Y297.7636   
N13710  X86.4787  Y301.8575   
N13715  X88.8325  Y303.5036   
N13720  X87.6978  Y301.6534   
N13725  X85.6939  Y297.9084   
N13730  X84.4564  Y293.6414   
N13735  X84.1862  Y289.9173   
N13740  X85.0843  Y287.8011   
N13745  X87.8751  Y287.5031   
N13750  X91.2928  Y289.2553   
N13755  X94.8794  Y292.7165   
N13760  X98.1775  Y297.5464   
N13765  X100.5351  Y301.3203   
N13770  X100.9841  Y301.6219   
N13775  X100.8314  Y300.7280   
N13780  X99.7219  Y296.7826   
N13785  X99.6522  Y294.5090   
N13790  X100.7958  Y293.3523   
N13795  X103.3253  Y292.7579   
N13800  X107.4570  Y293.2747   
N13805  X111.3274  Y295.4381   
N13810  X113.8261  Y297.2652   
N13815  X114.6570  Y296.9746   
N13820  X114.6491  Y292.3944   
N13825  X115.3400  Y291.2880   
N13830  X116.3803  Y291.3452   
N13835  X118.0999  Y291.3877   
N13840  X119.9307  Y290.0663   
N13845  X120.3687  Y288.9814   
N13850  X119.2671  Y288.3729   
N13855  X111.3500  Y288.3697   
N13860  X105.3183  Y288.4358   
N13865  X100.0446  Y287.5635   
N13870  X85.5706  Y281.3040   
N13875  X73.0707  Y274.0002   
N13880  X65.2139  Y267.2912   
N13885 G0  Z0.1000 
N13890 G1  Z-5.0000  F100.00 
N13895  X60.3924  Y262.6706   F300.00 
N13900  X55.9816  Y260.9395   
N13905  X53.2611  Y261.0397   
N13910  X52.1075  Y261.7363   
N13915  X53.6225  Y267.2959   
N13920  X55.9087  Y270.7225   
N13925  X58.9613  Y272.0429   
N13930  X60.7769  Y272.4511   
N13935  X62.0485  Y273.9409   
N13940  X63.7419  Y281.7589   
N13945  X65.4437  Y289.9797   
N13950  X67.7844  Y296.1012   
N13955  X69.5066  Y298.5536   
N13960  X69.2648  Y297.0265   
N13965  X67.0148  Y287.4171   
N13970  X67.3269  Y280.2806   
N13975  X68.0876  Y278.8180   
N13980  X69.1478  Y278.3669   
N13985  X73.8707  Y280.5738   
N13990  X78.4745  Y284.8566   
N13995  X81.2495  Y291.5325   
N14000  X83.5908  Y297.7636   
N14005  X86.4787  Y301.8575   
N14010  X88.8325  Y303.5036   
N14015  X87.6978  Y301.6534   
N14020  X85.6939  Y297.9084   
N14025  X84.4564  Y293.6414   
N14030  X84.1862  Y289.9173   
N14035  X85.0843  Y287.8011   
N14040  X87.8751  Y287.5031   
N14045  X91.2928  Y289.2553   
N14050  X94.8794  Y292.7165   
N14055  X98.1775  Y297.5464   
N14060  X100.5351  Y301.3203   
N14065  X100.9841  Y301.6219   
N14070  X100.8314  Y300.7280   
N14075  X99.7219  Y296.7826   
N14080  X99.6522  Y294.5090   
N14085  X100.7958  Y293.3523   
N14090  X103.3253  Y292.7579   
N14095  X107.4570  Y293.2747   
N14100  X111.3274  Y295.4381   
N14105  X113.8261  Y297.2652   
N14110  X114.6570  Y296.9746   
N14115  X114.6491  Y292.3944   
N14120  X115.3400  Y291.2880   
N14125  X116.3803  Y291.3452   
N14130  X118.0999  Y291.3877   
N14135  X119.9307  Y290.0663   
N14140  X120.3687  Y288.9814   
N14145  X119.2671  Y288.3729   
N14150  X111.3500  Y288.3697   
N14155  X105.3183  Y288.4358   
N14160  X100.0446  Y287.5635   
N14165  X85.5706  Y281.3040   
N14170  X73.0707  Y274.0002   
N14175  X65.2139  Y267.2912   
N14180 G0  Z0.1000 
N14185 G1  Z-6.0000  F100.00 
N14190  X60.3924  Y262.6706   F300.00 
N14195  X55.9816  Y260.9395   
N14200  X53.2611  Y261.0397   
N14205  X52.1075  Y261.7363   
N14210  X53.6225  Y267.2959   
N14215  X55.9087  Y270.7225   
N14220  X58.9613  Y272.0429   
N14225  X60.7769  Y272.4511   
N14230  X62.0485  Y273.9409   
N14235  X63.7419  Y281.7589   
N14240  X65.4437  Y289.9797   
N14245  X67.7844  Y296.1012   
N14250  X69.5066  Y298.5536   
N14255  X69.2648  Y297.0265   
N14260  X67.0148  Y287.4171   
N14265  X67.3269  Y280.2806   
N14270  X68.0876  Y278.8180   
N14275  X69.1478  Y278.3669   
N14280  X73.8707  Y280.5738   
N14285  X78.4745  Y284.8566   
N14290  X81.2495  Y291.5325   
N14295  X83.5908  Y297.7636   
N14300  X86.4787  Y301.8575   
N14305  X88.8325  Y303.5036   
N14310  X87.6978  Y301.6534   
N14315  X85.6939  Y297.9084   
N14320  X84.4564  Y293.6414   
N14325  X84.1862  Y289.9173   
N14330  X85.0843  Y287.8011   
N14335  X87.8751  Y287.5031   
N14340  X91.2928  Y289.2553   
N14345  X94.8794  Y292.7165   
N14350  X98.1775  Y297.5464   
N14355  X100.5351  Y301.3203   
N14360  X100.9841  Y301.6219   
N14365  X100.8314  Y300.7280   
N14370  X99.7219  Y296.7826   
N14375  X99.6522  Y294.5090   
N14380  X100.7958  Y293.3523   
N14385  X103.3253  Y292.7579   
N14390  X107.4570  Y293.2747   
N14395  X111.3274  Y295.4381   
N14400  X113.8261  Y297.2652   
N14405  X114.6570  Y296.9746   
N14410  X114.6491  Y292.3944   
N14415  X115.3400  Y291.2880   
N14420  X116.3803  Y291.3452   
N14425  X118.0999  Y291.3877   
N14430  X119.9307  Y290.0663   
N14435  X120.3687  Y288.9814   
N14440  X119.2671  Y288.3729   
N14445  X111.3500  Y288.3697   
N14450  X105.3183  Y288.4358   
N14455  X100.0446  Y287.5635   
N14460  X85.5706  Y281.3040   
N14465  X73.0707  Y274.0002   
N14470  X65.2139  Y267.2912   
N14475 G0  Z0.1000 
N14480 G1  Z-7.0000  F100.00 
N14485  X60.3924  Y262.6706   F300.00 
N14490  X55.9816  Y260.9395   
N14495  X53.2611  Y261.0397   
N14500  X52.1075  Y261.7363   
N14505  X53.6225  Y267.2959   
N14510  X55.9087  Y270.7225   
N14515  X58.9613  Y272.0429   
N14520  X60.7769  Y272.4511   
N14525  X62.0485  Y273.9409   
N14530  X63.7419  Y281.7589   
N14535  X65.4437  Y289.9797   
N14540  X67.7844  Y296.1012   
N14545  X69.5066  Y298.5536   
N14550  X69.2648  Y297.0265   
N14555  X67.0148  Y287.4171   
N14560  X67.3269  Y280.2806   
N14565  X68.0876  Y278.8180   
N14570  X69.1478  Y278.3669   
N14575  X73.8707  Y280.5738   
N14580  X78.4745  Y284.8566   
N14585  X81.2495  Y291.5325   
N14590  X83.5908  Y297.7636   
N14595  X86.4787  Y301.8575   
N14600  X88.8325  Y303.5036   
N14605  X87.6978  Y301.6534   
N14610  X85.6939  Y297.9084   
N14615  X84.4564  Y293.6414   
N14620  X84.1862  Y289.9173   
N14625  X85.0843  Y287.8011   
N14630  X87.8751  Y287.5031   
N14635  X91.2928  Y289.2553   
N14640  X94.8794  Y292.7165   
N14645  X98.1775  Y297.5464   
N14650  X100.5351  Y301.3203   
N14655  X100.9841  Y301.6219   
N14660  X100.8314  Y300.7280   
N14665  X99.7219  Y296.7826   
N14670  X99.6522  Y294.5090   
N14675  X100.7958  Y293.3523   
N14680  X103.3253  Y292.7579   
N14685  X107.4570  Y293.2747   
N14690  X111.3274  Y295.4381   
N14695  X113.8261  Y297.2652   
N14700  X114.6570  Y296.9746   
N14705  X114.6491  Y292.3944   
N14710  X115.3400  Y291.2880   
N14715  X116.3803  Y291.3452   
N14720  X118.0999  Y291.3877   
N14725  X119.9307  Y290.0663   
N14730  X120.3687  Y288.9814   
N14735  X119.2671  Y288.3729   
N14740  X111.3500  Y288.3697   
N14745  X105.3183  Y288.4358   
N14750  X100.0446  Y287.5635   
N14755  X85.5706  Y281.3040   
N14760  X73.0707  Y274.0002   
N14765  X65.2139  Y267.2912   
N14770 G0  Z0.1000 
N14775 G1  Z-8.0000  F100.00 
N14780  X60.3924  Y262.6706   F300.00 
N14785  X55.9816  Y260.9395   
N14790  X53.2611  Y261.0397   
N14795  X52.1075  Y261.7363   
N14800  X53.6225  Y267.2959   
N14805  X55.9087  Y270.7225   
N14810  X58.9613  Y272.0429   
N14815  X60.7769  Y272.4511   
N14820  X62.0485  Y273.9409   
N14825  X63.7419  Y281.7589   
N14830  X65.4437  Y289.9797   
N14835  X67.7844  Y296.1012   
N14840  X69.5066  Y298.5536   
N14845  X69.2648  Y297.0265   
N14850  X67.0148  Y287.4171   
N14855  X67.3269  Y280.2806   
N14860  X68.0876  Y278.8180   
N14865  X69.1478  Y278.3669   
N14870  X73.8707  Y280.5738   
N14875  X78.4745  Y284.8566   
N14880  X81.2495  Y291.5325   
N14885  X83.5908  Y297.7636   
N14890  X86.4787  Y301.8575   
N14895  X88.8325  Y303.5036   
N14900  X87.6978  Y301.6534   
N14905  X85.6939  Y297.9084   
N14910  X84.4564  Y293.6414   
N14915  X84.1862  Y289.9173   
N14920  X85.0843  Y287.8011   
N14925  X87.8751  Y287.5031   
N14930  X91.2928  Y289.2553   
N14935  X94.8794  Y292.7165   
N14940  X98.1775  Y297.5464   
N14945  X100.5351  Y301.3203   
N14950  X100.9841  Y301.6219   
N14955  X100.8314  Y300.7280   
N14960  X99.7219  Y296.7826   
N14965  X99.6522  Y294.5090   
N14970  X100.7958  Y293.3523   
N14975  X103.3253  Y292.7579   
N14980  X107.4570  Y293.2747   
N14985  X111.3274  Y295.4381   
N14990  X113.8261  Y297.2652   
N14995  X114.6570  Y296.9746   
N15000  X114.6491  Y292.3944   
N15005  X115.3400  Y291.2880   
N15010  X116.3803  Y291.3452   
N15015  X118.0999  Y291.3877   
N15020  X119.9307  Y290.0663   
N15025  X120.3687  Y288.9814   
N15030  X119.2671  Y288.3729   
N15035  X111.3500  Y288.3697   
N15040  X105.3183  Y288.4358   
N15045  X100.0446  Y287.5635   
N15050  X85.5706  Y281.3040   
N15055  X73.0707  Y274.0002   
N15060  X65.2139  Y267.2912   
N15065 G0  Z0.1000 
N15070 G1  Z-9.0000  F100.00 
N15075  X60.3924  Y262.6706   F300.00 
N15080  X55.9816  Y260.9395   
N15085  X53.2611  Y261.0397   
N15090  X52.1075  Y261.7363   
N15095  X53.6225  Y267.2959   
N15100  X55.9087  Y270.7225   
N15105  X58.9613  Y272.0429   
N15110  X60.7769  Y272.4511   
N15115  X62.0485  Y273.9409   
N15120  X63.7419  Y281.7589   
N15125  X65.4437  Y289.9797   
N15130  X67.7844  Y296.1012   
N15135  X69.5066  Y298.5536   
N15140  X69.2648  Y297.0265   
N15145  X67.0148  Y287.4171   
N15150  X67.3269  Y280.2806   
N15155  X68.0876  Y278.8180   
N15160  X69.1478  Y278.3669   
N15165  X73.8707  Y280.5738   
N15170  X78.4745  Y284.8566   
N15175  X81.2495  Y291.5325   
N15180  X83.5908  Y297.7636   
N15185  X86.4787  Y301.8575   
N15190  X88.8325  Y303.5036   
N15195  X87.6978  Y301.6534   
N15200  X85.6939  Y297.9084   
N15205  X84.4564  Y293.6414   
N15210  X84.1862  Y289.9173   
N15215  X85.0843  Y287.8011   
N15220  X87.8751  Y287.5031   
N15225  X91.2928  Y289.2553   
N15230  X94.8794  Y292.7165   
N15235  X98.1775  Y297.5464   
N15240  X100.5351  Y301.3203   
N15245  X100.9841  Y301.6219   
N15250  X100.8314  Y300.7280   
N15255  X99.7219  Y296.7826   
N15260  X99.6522  Y294.5090   
N15265  X100.7958  Y293.3523   
N15270  X103.3253  Y292.7579   
N15275  X107.4570  Y293.2747   
N15280  X111.3274  Y295.4381   
N15285  X113.8261  Y297.2652   
N15290  X114.6570  Y296.9746   
N15295  X114.6491  Y292.3944   
N15300  X115.3400  Y291.2880   
N15305  X116.3803  Y291.3452   
N15310  X118.0999  Y291.3877   
N15315  X119.9307  Y290.0663   
N15320  X120.3687  Y288.9814   
N15325  X119.2671  Y288.3729   
N15330  X111.3500  Y288.3697   
N15335  X105.3183  Y288.4358   
N15340  X100.0446  Y287.5635   
N15345  X85.5706  Y281.3040   
N15350  X73.0707  Y274.0002   
N15355  X65.2139  Y267.2912   
N15360 G0  Z0.1000 
N15365 G1  Z-10.0000  F100.00 
N15370  X60.3924  Y262.6706   F300.00 
N15375  X55.9816  Y260.9395   
N15380  X53.2611  Y261.0397   
N15385  X52.1075  Y261.7363   
N15390  X53.6225  Y267.2959   
N15395  X55.9087  Y270.7225   
N15400  X58.9613  Y272.0429   
N15405  X60.7769  Y272.4511   
N15410  X62.0485  Y273.9409   
N15415  X63.7419  Y281.7589   
N15420  X65.4437  Y289.9797   
N15425  X67.7844  Y296.1012   
N15430  X69.5066  Y298.5536   
N15435  X69.2648  Y297.0265   
N15440  X67.0148  Y287.4171   
N15445  X67.3269  Y280.2806   
N15450  X68.0876  Y278.8180   
N15455  X69.1478  Y278.3669   
N15460  X73.8707  Y280.5738   
N15465  X78.4745  Y284.8566   
N15470  X81.2495  Y291.5325   
N15475  X83.5908  Y297.7636   
N15480  X86.4787  Y301.8575   
N15485  X88.8325  Y303.5036   
N15490  X87.6978  Y301.6534   
N15495  X85.6939  Y297.9084   
N15500  X84.4564  Y293.6414   
N15505  X84.1862  Y289.9173   
N15510  X85.0843  Y287.8011   
N15515  X87.8751  Y287.5031   
N15520  X91.2928  Y289.2553   
N15525  X94.8794  Y292.7165   
N15530  X98.1775  Y297.5464   
N15535  X100.5351  Y301.3203   
N15540  X100.9841  Y301.6219   
N15545  X100.8314  Y300.7280   
N15550  X99.7219  Y296.7826   
N15555  X99.6522  Y294.5090   
N15560  X100.7958  Y293.3523   
N15565  X103.3253  Y292.7579   
N15570  X107.4570  Y293.2747   
N15575  X111.3274  Y295.4381   
N15580  X113.8261  Y297.2652   
N15585  X114.6570  Y296.9746   
N15590  X114.6491  Y292.3944   
N15595  X115.3400  Y291.2880   
N15600  X116.3803  Y291.3452   
N15605  X118.0999  Y291.3877   
N15610  X119.9307  Y290.0663   
N15615  X120.3687  Y288.9814   
N15620  X119.2671  Y288.3729   
N15625  X111.3500  Y288.3697   
N15630  X105.3183  Y288.4358   
N15635  X100.0446  Y287.5635   
N15640  X85.5706  Y281.3040   
N15645  X73.0707  Y274.0002   
N15650  X65.2139  Y267.2912   
N15655 G0  Z0.1000 
N15660 G1  Z-11.0000  F100.00 
N15665  X60.3924  Y262.6706   F300.00 
N15670  X55.9816  Y260.9395   
N15675  X53.2611  Y261.0397   
N15680  X52.1075  Y261.7363   
N15685  X53.6225  Y267.2959   
N15690  X55.9087  Y270.7225   
N15695  X58.9613  Y272.0429   
N15700  X60.7769  Y272.4511   
N15705  X62.0485  Y273.9409   
N15710  X63.7419  Y281.7589   
N15715  X65.4437  Y289.9797   
N15720  X67.7844  Y296.1012   
N15725  X69.5066  Y298.5536   
N15730  X69.2648  Y297.0265   
N15735  X67.0148  Y287.4171   
N15740  X67.3269  Y280.2806   
N15745  X68.0876  Y278.8180   
N15750  X69.1478  Y278.3669   
N15755  X73.8707  Y280.5738   
N15760  X78.4745  Y284.8566   
N15765  X81.2495  Y291.5325   
N15770  X83.5908  Y297.7636   
N15775  X86.4787  Y301.8575   
N15780  X88.8325  Y303.5036   
N15785  X87.6978  Y301.6534   
N15790  X85.6939  Y297.9084   
N15795  X84.4564  Y293.6414   
N15800  X84.1862  Y289.9173   
N15805  X85.0843  Y287.8011   
N15810  X87.8751  Y287.5031   
N15815  X91.2928  Y289.2553   
N15820  X94.8794  Y292.7165   
N15825  X98.1775  Y297.5464   
N15830  X100.5351  Y301.3203   
N15835  X100.9841  Y301.6219   
N15840  X100.8314  Y300.7280   
N15845  X99.7219  Y296.7826   
N15850  X99.6522  Y294.5090   
N15855  X100.7958  Y293.3523   
N15860  X103.3253  Y292.7579   
N15865  X107.4570  Y293.2747   
N15870  X111.3274  Y295.4381   
N15875  X113.8261  Y297.2652   
N15880  X114.6570  Y296.9746   
N15885  X114.6491  Y292.3944   
N15890  X115.3400  Y291.2880   
N15895  X116.3803  Y291.3452   
N15900  X118.0999  Y291.3877   
N15905  X119.9307  Y290.0663   
N15910  X120.3687  Y288.9814   
N15915  X119.2671  Y288.3729   
N15920  X111.3500  Y288.3697   
N15925  X105.3183  Y288.4358   
N15930  X100.0446  Y287.5635   
N15935  X85.5706  Y281.3040   
N15940  X73.0707  Y274.0002   
N15945  X65.2139  Y267.2912   
N15950 G0  Z0.1000 
N15955 G1  Z-12.0000  F100.00 
N15960  X60.3924  Y262.6706   F300.00 
N15965  X55.9816  Y260.9395   
N15970  X53.2611  Y261.0397   
N15975  X52.1075  Y261.7363   
N15980  X53.6225  Y267.2959   
N15985  X55.9087  Y270.7225   
N15990  X58.9613  Y272.0429   
N15995  X60.7769  Y272.4511   
N16000  X62.0485  Y273.9409   
N16005  X63.7419  Y281.7589   
N16010  X65.4437  Y289.9797   
N16015  X67.7844  Y296.1012   
N16020  X69.5066  Y298.5536   
N16025  X69.2648  Y297.0265   
N16030  X67.0148  Y287.4171   
N16035  X67.3269  Y280.2806   
N16040  X68.0876  Y278.8180   
N16045  X69.1478  Y278.3669   
N16050  X73.8707  Y280.5738   
N16055  X78.4745  Y284.8566   
N16060  X81.2495  Y291.5325   
N16065  X83.5908  Y297.7636   
N16070  X86.4787  Y301.8575   
N16075  X88.8325  Y303.5036   
N16080  X87.6978  Y301.6534   
N16085  X85.6939  Y297.9084   
N16090  X84.4564  Y293.6414   
N16095  X84.1862  Y289.9173   
N16100  X85.0843  Y287.8011   
N16105  X87.8751  Y287.5031   
N16110  X91.2928  Y289.2553   
N16115  X94.8794  Y292.7165   
N16120  X98.1775  Y297.5464   
N16125  X100.5351  Y301.3203   
N16130  X100.9841  Y301.6219   
N16135  X100.8314  Y300.7280   
N16140  X99.7219  Y296.7826   
N16145  X99.6522  Y294.5090   
N16150  X100.7958  Y293.3523   
N16155  X103.3253  Y292.7579   
N16160  X107.4570  Y293.2747   
N16165  X111.3274  Y295.4381   
N16170  X113.8261  Y297.2652   
N16175  X114.6570  Y296.9746   
N16180  X114.6491  Y292.3944   
N16185  X115.3400  Y291.2880   
N16190  X116.3803  Y291.3452   
N16195  X118.0999  Y291.3877   
N16200  X119.9307  Y290.0663   
N16205  X120.3687  Y288.9814   
N16210  X119.2671  Y288.3729   
N16215  X111.3500  Y288.3697   
N16220  X105.3183  Y288.4358   
N16225  X100.0446  Y287.5635   
N16230  X85.5706  Y281.3040   
N16235  X73.0707  Y274.0002   
N16240  X65.2139  Y267.2912   
N16245 G0  Z0.1000 
N16250 G1  Z-13.0000  F100.00 
N16255  X60.3924  Y262.6706   F300.00 
N16260  X55.9816  Y260.9395   
N16265  X53.2611  Y261.0397   
N16270  X52.1075  Y261.7363   
N16275  X53.6225  Y267.2959   
N16280  X55.9087  Y270.7225   
N16285  X58.9613  Y272.0429   
N16290  X60.7769  Y272.4511   
N16295  X62.0485  Y273.9409   
N16300  X63.7419  Y281.7589   
N16305  X65.4437  Y289.9797   
N16310  X67.7844  Y296.1012   
N16315  X69.5066  Y298.5536   
N16320  X69.2648  Y297.0265   
N16325  X67.0148  Y287.4171   
N16330  X67.3269  Y280.2806   
N16335  X68.0876  Y278.8180   
N16340  X69.1478  Y278.3669   
N16345  X73.8707  Y280.5738   
N16350  X78.4745  Y284.8566   
N16355  X81.2495  Y291.5325   
N16360  X83.5908  Y297.7636   
N16365  X86.4787  Y301.8575   
N16370  X88.8325  Y303.5036   
N16375  X87.6978  Y301.6534   
N16380  X85.6939  Y297.9084   
N16385  X84.4564  Y293.6414   
N16390  X84.1862  Y289.9173   
N16395  X85.0843  Y287.8011   
N16400  X87.8751  Y287.5031   
N16405  X91.2928  Y289.2553   
N16410  X94.8794  Y292.7165   
N16415  X98.1775  Y297.5464   
N16420  X100.5351  Y301.3203   
N16425  X100.9841  Y301.6219   
N16430  X100.8314  Y300.7280   
