N5 (File Name = porche on Tuesday, November 07, 2023)
N10 (Default Mill Post)
N15  G91.1
N20 G0  Z5.0000 
N25 M3 
N30  X46.9167  Y141.0827 
N35  Z0.1000 
N40 G1  Z-1.0000  F100.00 
N45  X39.4565  Y155.0389   F300.00 
N50  X33.5822  Y169.8958   
N55  X30.2001  Y182.9214   
N60  X29.7275  Y187.8929   
N65  X30.2185  Y191.3814   
N70  X32.5183  Y192.9306   
N75  X40.0844  Y193.8182   
N80  X83.9354  Y194.3165   
N85  X136.5261   
N90  X146.3407  Y185.1021   
N95  X154.3134  Y178.3957   
N100  X162.4765  Y173.1682   
N105  X171.2089  Y169.2128   
N110  X180.8881  Y166.3244   
N115  X191.1270  Y163.7424   
N120  X196.1904  Y161.0360   
N125  X197.3161  Y159.0373   
N130  X197.7893  Y156.2900   
N135  X197.6367  Y147.5908   
N140  X197.0927  Y134.1707   
N145  X124.4920  Y133.6865   
N150  X51.8914  Y133.2023   
N155  X46.9167  Y141.0827   
N160 G0  Z0.1000 
N165 G1  Z-2.0000  F100.00 
N170  X39.4565  Y155.0389   F300.00 
N175  X33.5822  Y169.8958   
N180  X30.2001  Y182.9214   
N185  X29.7275  Y187.8929   
N190  X30.2185  Y191.3814   
N195  X32.5183  Y192.9306   
N200  X40.0844  Y193.8182   
N205  X83.9354  Y194.3165   
N210  X136.5261   
N215  X146.3407  Y185.1021   
N220  X154.3134  Y178.3957   
N225  X162.4765  Y173.1682   
N230  X171.2089  Y169.2128   
N235  X180.8881  Y166.3244   
N240  X191.1270  Y163.7424   
N245  X196.1904  Y161.0360   
N250  X197.3161  Y159.0373   
N255  X197.7893  Y156.2900   
N260  X197.6367  Y147.5908   
N265  X197.0927  Y134.1707   
N270  X124.4920  Y133.6865   
N275  X51.8914  Y133.2023   
N280  X46.9167  Y141.0827   
N285 G0  Z0.1000 
N290 G1  Z-3.0000  F100.00 
N295  X39.4565  Y155.0389   F300.00 
N300  X33.5822  Y169.8958   
N305  X30.2001  Y182.9214   
N310  X29.7275  Y187.8929   
N315  X30.2185  Y191.3814   
N320  X32.5183  Y192.9306   
N325  X40.0844  Y193.8182   
N330  X83.9354  Y194.3165   
N335  X136.5261   
N340  X146.3407  Y185.1021   
N345  X154.3134  Y178.3957   
N350  X162.4765  Y173.1682   
N355  X171.2089  Y169.2128   
N360  X180.8881  Y166.3244   
N365  X191.1270  Y163.7424   
N370  X196.1904  Y161.0360   
N375  X197.3161  Y159.0373   
N380  X197.7893  Y156.2900   
N385  X197.6367  Y147.5908   
N390  X197.0927  Y134.1707   
N395  X124.4920  Y133.6865   
N400  X51.8914  Y133.2023   
N405  X46.9167  Y141.0827   
N410 G0  Z5.0000 
N415  X23.3411  Y255.8499 
N420  Z0.1000 
N425 G1  Z-1.0000  F100.00 
N430  X11.5357  Y408.6399   F300.00 
N435  X10.9183  Y424.6729   
N440  X11.2378  Y429.0700   
N445  X11.9753  Y431.0210   
N450  X16.3541  Y432.8607   
N455  X25.0224  Y435.3200   
N460  X51.5520  Y441.3386   
N465  X84.2156  Y447.5566   
N470  X115.6648  Y452.4563   
N475  X164.9516  Y457.0648   
N480  X186.3826  Y458.2105   
N485  X196.3053  Y457.9466   
N490  X197.0748  Y453.2190   
N495  X197.6162  Y441.6497   
N500  X198.0238  Y407.1081   
N505  X197.5459  Y372.5664   
N510  X196.9809  Y360.9966   
N515  X196.2014  Y356.2680   
N520  X184.8514  Y355.4753   
N525  X160.1138  Y355.1453   
N530  X130.6943  Y354.6339   
N535  X126.5914  Y353.5537   
N540  X125.8434  Y351.5320   
N545  X125.5611  Y349.7463   
N550  X124.5513  Y348.6399   
N555  X119.3657  Y347.9191   
N560  X115.1166  Y348.3891   
N565  X113.1619  Y349.9188   
N570  X113.4310  Y352.6892   
N575  X115.8536  Y356.8802   
N580  X117.6724  Y360.1441   
N585  X117.8827  Y362.0484   
N590  X115.5572  Y360.2905   
N595  X111.2808  Y354.7493   
N600  X107.3631  Y349.5674   
N605  X103.8924  Y346.3401   
N610  X100.3163  Y344.6845   
N615  X96.0818  Y344.2176   
N620  X93.4688  Y344.7957   
N625  X92.7790  Y346.7991   
N630  X94.0516  Y350.6333   
N635  X97.3277  Y356.7028   
N640  X100.7575  Y363.2550   
N645  X100.2638  Y363.7292   
N650  X98.3942  Y362.8904   
N655  X94.3407  Y358.5793   
N660  X89.8324  Y351.0173   
N665  X84.5844  Y342.6438   
N670  X81.6871  Y339.9621   
N675  X78.3166  Y337.9535   
N680  X73.1431  Y336.1557   
N685  X70.0899  Y336.3089   
N690  X69.4531  Y339.5125   
N695  X70.6124  Y344.9935   
N700  X73.1903  Y351.5388   
N705  X76.8094  Y357.9335   
N710  X80.0089  Y363.2245   
N715  X79.5252  Y363.5508   
N720  X77.7275  Y362.7246   
N725  X74.3827  Y359.8457   
N730  X71.0972  Y354.8432   
N735  X67.8966  Y347.7670   
N740  X64.8084  Y338.6659   
N745  X61.4825  Y330.2079   
N750  X59.6417  Y329.0433   
N755  X56.9783  Y329.0575   
N760  X54.4939  Y329.0748   
N765  X52.5623  Y328.3147   
N770  X49.2312  Y323.6841   
N775  X46.9901  Y318.7267   
N780  X46.7536  Y315.9999   
N785  X48.8341  Y314.8463   
N790  X53.5439  Y314.6076   
N795  X59.5924  Y315.3945   
N800  X61.1210  Y316.5822   
N805  X62.0506  Y318.4802   
N810  X64.8315  Y321.8858   
N815  X70.6597  Y325.7667   
N820  X88.0231  Y333.6607   
N825  X107.2713  Y339.5713   
N830  X115.4554  Y340.9735   
N835  X121.5349  Y340.9085   
N840  X125.7809  Y340.0969   
N845  X125.7406  Y293.1157   
N850  X125.6996  Y246.1340   
N855  X75.0924   
N860  X24.4847   
N865  X23.3411  Y255.8499   
N870 G0  Z0.1000 
N875 G1  Z-2.0000  F100.00 
N880  X11.5357  Y408.6399   F300.00 
N885  X10.9183  Y424.6729   
N890  X11.2378  Y429.0700   
N895  X11.9753  Y431.0210   
N900  X16.3541  Y432.8607   
N905  X25.0224  Y435.3200   
N910  X51.5520  Y441.3386   
N915  X84.2156  Y447.5566   
N920  X115.6648  Y452.4563   
N925  X164.9516  Y457.0648   
N930  X186.3826  Y458.2105   
N935  X196.3053  Y457.9466   
N940  X197.0748  Y453.2190   
N945  X197.6162  Y441.6497   
N950  X198.0238  Y407.1081   
N955  X197.5459  Y372.5664   
N960  X196.9809  Y360.9966   
N965  X196.2014  Y356.2680   
N970  X184.8514  Y355.4753   
N975  X160.1138  Y355.1453   
N980  X130.6943  Y354.6339   
N985  X126.5914  Y353.5537   
N990  X125.8434  Y351.5320   
N995  X125.5611  Y349.7463   
N1000  X124.5513  Y348.6399   
N1005  X119.3657  Y347.9191   
N1010  X115.1166  Y348.3891   
N1015  X113.1619  Y349.9188   
N1020  X113.4310  Y352.6892   
N1025  X115.8536  Y356.8802   
N1030  X117.6724  Y360.1441   
N1035  X117.8827  Y362.0484   
N1040  X115.5572  Y360.2905   
N1045  X111.2808  Y354.7493   
N1050  X107.3631  Y349.5674   
N1055  X103.8924  Y346.3401   
N1060  X100.3163  Y344.6845   
N1065  X96.0818  Y344.2176   
N1070  X93.4688  Y344.7957   
N1075  X92.7790  Y346.7991   
N1080  X94.0516  Y350.6333   
N1085  X97.3277  Y356.7028   
N1090  X100.7575  Y363.2550   
N1095  X100.2638  Y363.7292   
N1100  X98.3942  Y362.8904   
N1105  X94.3407  Y358.5793   
N1110  X89.8324  Y351.0173   
N1115  X84.5844  Y342.6438   
N1120  X81.6871  Y339.9621   
N1125  X78.3166  Y337.9535   
N1130  X73.1431  Y336.1557   
N1135  X70.0899  Y336.3089   
N1140  X69.4531  Y339.5125   
N1145  X70.6124  Y344.9935   
N1150  X73.1903  Y351.5388   
N1155  X76.8094  Y357.9335   
N1160  X80.0089  Y363.2245   
N1165  X79.5252  Y363.5508   
N1170  X77.7275  Y362.7246   
N1175  X74.3827  Y359.8457   
N1180  X71.0972  Y354.8432   
N1185  X67.8966  Y347.7670   
N1190  X64.8084  Y338.6659   
N1195  X61.4825  Y330.2079   
N1200  X59.6417  Y329.0433   
N1205  X56.9783  Y329.0575   
N1210  X54.4939  Y329.0748   
N1215  X52.5623  Y328.3147   
N1220  X49.2312  Y323.6841   
N1225  X46.9901  Y318.7267   
N1230  X46.7536  Y315.9999   
N1235  X48.8341  Y314.8463   
N1240  X53.5439  Y314.6076   
N1245  X59.5924  Y315.3945   
N1250  X61.1210  Y316.5822   
N1255  X62.0506  Y318.4802   
N1260  X64.8315  Y321.8858   
N1265  X70.6597  Y325.7667   
N1270  X88.0231  Y333.6607   
N1275  X107.2713  Y339.5713   
N1280  X115.4554  Y340.9735   
N1285  X121.5349  Y340.9085   
N1290  X125.7809  Y340.0969   
N1295  X125.7406  Y293.1157   
N1300  X125.6996  Y246.1340   
N1305  X75.0924   
N1310  X24.4847   
N1315  X23.3411  Y255.8499   
N1320 G0  Z0.1000 
N1325 G1  Z-3.0000  F100.00 
N1330  X11.5357  Y408.6399   F300.00 
N1335  X10.9183  Y424.6729   
N1340  X11.2378  Y429.0700   
N1345  X11.9753  Y431.0210   
N1350  X16.3541  Y432.8607   
N1355  X25.0224  Y435.3200   
N1360  X51.5520  Y441.3386   
N1365  X84.2156  Y447.5566   
N1370  X115.6648  Y452.4563   
N1375  X164.9516  Y457.0648   
N1380  X186.3826  Y458.2105   
N1385  X196.3053  Y457.9466   
N1390  X197.0748  Y453.2190   
N1395  X197.6162  Y441.6497   
N1400  X198.0238  Y407.1081   
N1405  X197.5459  Y372.5664   
N1410  X196.9809  Y360.9966   
N1415  X196.2014  Y356.2680   
N1420  X184.8514  Y355.4753   
N1425  X160.1138  Y355.1453   
N1430  X130.6943  Y354.6339   
N1435  X126.5914  Y353.5537   
N1440  X125.8434  Y351.5320   
N1445  X125.5611  Y349.7463   
N1450  X124.5513  Y348.6399   
N1455  X119.3657  Y347.9191   
N1460  X115.1166  Y348.3891   
N1465  X113.1619  Y349.9188   
N1470  X113.4310  Y352.6892   
N1475  X115.8536  Y356.8802   
N1480  X117.6724  Y360.1441   
N1485  X117.8827  Y362.0484   
N1490  X115.5572  Y360.2905   
N1495  X111.2808  Y354.7493   
N1500  X107.3631  Y349.5674   
N1505  X103.8924  Y346.3401   
N1510  X100.3163  Y344.6845   
N1515  X96.0818  Y344.2176   
N1520  X93.4688  Y344.7957   
N1525  X92.7790  Y346.7991   
N1530  X94.0516  Y350.6333   
N1535  X97.3277  Y356.7028   
N1540  X100.7575  Y363.2550   
N1545  X100.2638  Y363.7292   
N1550  X98.3942  Y362.8904   
N1555  X94.3407  Y358.5793   
N1560  X89.8324  Y351.0173   
N1565  X84.5844  Y342.6438   
N1570  X81.6871  Y339.9621   
N1575  X78.3166  Y337.9535   
N1580  X73.1431  Y336.1557   
N1585  X70.0899  Y336.3089   
N1590  X69.4531  Y339.5125   
N1595  X70.6124  Y344.9935   
N1600  X73.1903  Y351.5388   
N1605  X76.8094  Y357.9335   
N1610  X80.0089  Y363.2245   
N1615  X79.5252  Y363.5508   
N1620  X77.7275  Y362.7246   
N1625  X74.3827  Y359.8457   
N1630  X71.0972  Y354.8432   
N1635  X67.8966  Y347.7670   
N1640  X64.8084  Y338.6659   
N1645  X61.4825  Y330.2079   
N1650  X59.6417  Y329.0433   
N1655  X56.9783  Y329.0575   
N1660  X54.4939  Y329.0748   
N1665  X52.5623  Y328.3147   
N1670  X49.2312  Y323.6841   
N1675  X46.9901  Y318.7267   
N1680  X46.7536  Y315.9999   
N1685  X48.8341  Y314.8463   
N1690  X53.5439  Y314.6076   
N1695  X59.5924  Y315.3945   
N1700  X61.1210  Y316.5822   
N1705  X62.0506  Y318.4802   
N1710  X64.8315  Y321.8858   
N1715  X70.6597  Y325.7667   
N1720  X88.0231  Y333.6607   
N1725  X107.2713  Y339.5713   
N1730  X115.4554  Y340.9735   
N1735  X121.5349  Y340.9085   
N1740  X125.7809  Y340.0969   
N1745  X125.7406  Y293.1157   
N1750  X125.6996  Y246.1340   
N1755  X75.0924   
N1760  X24.4847   
N1765  X23.3411  Y255.8499   
N1770 G0  Z5.0000 
N1775  X65.2139  Y267.2912 
N1780  Z0.1000 
N1785 G1  Z-1.0000  F100.00 
N1790  X60.3924  Y262.6706   F300.00 
N1795  X55.9816  Y260.9395   
N1800  X53.2611  Y261.0397   
N1805  X52.1075  Y261.7363   
N1810  X53.6225  Y267.2959   
N1815  X55.9087  Y270.7225   
N1820  X58.9613  Y272.0429   
N1825  X60.7769  Y272.4511   
N1830  X62.0485  Y273.9409   
N1835  X63.7419  Y281.7589   
N1840  X65.4437  Y289.9797   
N1845  X67.7844  Y296.1012   
N1850  X69.5066  Y298.5536   
N1855  X69.2648  Y297.0265   
N1860  X67.0148  Y287.4171   
N1865  X67.3269  Y280.2806   
N1870  X68.0876  Y278.8180   
N1875  X69.1478  Y278.3669   
N1880  X73.8707  Y280.5738   
N1885  X78.4745  Y284.8566   
N1890  X81.2495  Y291.5325   
N1895  X83.5908  Y297.7636   
N1900  X86.4787  Y301.8575   
N1905  X88.8325  Y303.5036   
N1910  X87.6978  Y301.6534   
N1915  X85.6939  Y297.9084   
N1920  X84.4564  Y293.6414   
N1925  X84.1862  Y289.9173   
N1930  X85.0843  Y287.8011   
N1935  X87.8751  Y287.5031   
N1940  X91.2928  Y289.2553   
N1945  X94.8794  Y292.7165   
N1950  X98.1775  Y297.5464   
N1955  X100.5351  Y301.3203   
N1960  X100.9841  Y301.6219   
N1965  X100.8314  Y300.7280   
N1970  X99.7219  Y296.7826   
N1975  X99.6522  Y294.5090   
N1980  X100.7958  Y293.3523   
N1985  X103.3253  Y292.7579   
N1990  X107.4570  Y293.2747   
N1995  X111.3274  Y295.4381   
N2000  X113.8261  Y297.2652   
N2005  X114.6570  Y296.9746   
N2010  X114.6491  Y292.3944   
N2015  X115.3400  Y291.2880   
N2020  X116.3803  Y291.3452   
N2025  X118.0999  Y291.3877   
N2030  X119.9307  Y290.0663   
N2035  X120.3687  Y288.9814   
N2040  X119.2671  Y288.3729   
N2045  X111.3500  Y288.3697   
N2050  X105.3183  Y288.4358   
N2055  X100.0446  Y287.5635   
N2060  X85.5706  Y281.3040   
N2065  X73.0707  Y274.0002   
N2070  X65.2139  Y267.2912   
N2075 G0  Z0.1000 
N2080 G1  Z-2.0000  F100.00 
N2085  X60.3924  Y262.6706   F300.00 
N2090  X55.9816  Y260.9395   
N2095  X53.2611  Y261.0397   
N2100  X52.1075  Y261.7363   
N2105  X53.6225  Y267.2959   
N2110  X55.9087  Y270.7225   
N2115  X58.9613  Y272.0429   
N2120  X60.7769  Y272.4511   
N2125  X62.0485  Y273.9409   
N2130  X63.7419  Y281.7589   
N2135  X65.4437  Y289.9797   
N2140  X67.7844  Y296.1012   
N2145  X69.5066  Y298.5536   
N2150  X69.2648  Y297.0265   
N2155  X67.0148  Y287.4171   
N2160  X67.3269  Y280.2806   
N2165  X68.0876  Y278.8180   
N2170  X69.1478  Y278.3669   
N2175  X73.8707  Y280.5738   
N2180  X78.4745  Y284.8566   
N2185  X81.2495  Y291.5325   
N2190  X83.5908  Y297.7636   
N2195  X86.4787  Y301.8575   
N2200  X88.8325  Y303.5036   
N2205  X87.6978  Y301.6534   
N2210  X85.6939  Y297.9084   
N2215  X84.4564  Y293.6414   
N2220  X84.1862  Y289.9173   
N2225  X85.0843  Y287.8011   
N2230  X87.8751  Y287.5031   
N2235  X91.2928  Y289.2553   
N2240  X94.8794  Y292.7165   
N2245  X98.1775  Y297.5464   
N2250  X100.5351  Y301.3203   
N2255  X100.9841  Y301.6219   
N2260  X100.8314  Y300.7280   
N2265  X99.7219  Y296.7826   
N2270  X99.6522  Y294.5090   
N2275  X100.7958  Y293.3523   
N2280  X103.3253  Y292.7579   
N2285  X107.4570  Y293.2747   
N2290  X111.3274  Y295.4381   
N2295  X113.8261  Y297.2652   
N2300  X114.6570  Y296.9746   
N2305  X114.6491  Y292.3944   
N2310  X115.3400  Y291.2880   
N2315  X116.3803  Y291.3452   
N2320  X118.0999  Y291.3877   
N2325  X119.9307  Y290.0663   
N2330  X120.3687  Y288.9814   
N2335  X119.2671  Y288.3729   
N2340  X111.3500  Y288.3697   
N2345  X105.3183  Y288.4358   
N2350  X100.0446  Y287.5635   
N2355  X85.5706  Y281.3040   
N2360  X73.0707  Y274.0002   
N2365  X65.2139  Y267.2912   
N2370 G0  Z0.1000 
N2375 G1  Z-3.0000  F100.00 
N2380  X60.3924  Y262.6706   F300.00 
N2385  X55.9816  Y260.9395   
N2390  X53.2611  Y261.0397   
N2395  X52.1075  Y261.7363   
N2400  X53.6225  Y267.2959   
N2405  X55.9087  Y270.7225   
N2410  X58.9613  Y272.0429   
N2415  X60.7769  Y272.4511   
N2420  X62.0485  Y273.9409   
N2425  X63.7419  Y281.7589   
N2430  X65.4437  Y289.9797   
N2435  X67.7844  Y296.1012   
N2440  X69.5066  Y298.5536   
N2445  X69.2648  Y297.0265   
N2450  X67.0148  Y287.4171   
N2455  X67.3269  Y280.2806   
N2460  X68.0876  Y278.8180   
N2465  X69.1478  Y278.3669   
N2470  X73.8707  Y280.5738   
N2475  X78.4745  Y284.8566   
N2480  X81.2495  Y291.5325   
N2485  X83.5908  Y297.7636   
N2490  X86.4787  Y301.8575   
N2495  X88.8325  Y303.5036   
N2500  X87.6978  Y301.6534   
N2505  X85.6939  Y297.9084   
N2510  X84.4564  Y293.6414   
N2515  X84.1862  Y289.9173   
N2520  X85.0843  Y287.8011   
N2525  X87.8751  Y287.5031   
N2530  X91.2928  Y289.2553   
N2535  X94.8794  Y292.7165   
N2540  X98.1775  Y297.5464   
N2545  X100.5351  Y301.3203   
N2550  X100.9841  Y301.6219   
N2555  X100.8314  Y300.7280   
N2560  X99.7219  Y296.7826   
N2565  X99.6522  Y294.5090   
N2570  X100.7958  Y293.3523   
N2575  X103.3253  Y292.7579   
N2580  X107.4570  Y293.2747   
N2585  X111.3274  Y295.4381   
N2590  X113.8261  Y297.2652   
N2595  X114.6570  Y296.9746   
N2600  X114.6491  Y292.3944   
N2605  X115.3400  Y291.2880   
N2610  X116.3803  Y291.3452   
N2615  X118.0999  Y291.3877   
N2620  X119.9307  Y290.0663   
N2625  X120.3687  Y288.9814   
N2630  X119.2671  Y288.3729   
N2635  X111.3500  Y288.3697   
N2640  X105.3183  Y288.4358   
N2645  X100.0446  Y287.5635   
N2650  X85.5706  Y281.3040   
N2655  X73.0707  Y274.0002   
N2660  X65.2139  Y267.2912   
N2665 G0  Z5.0000 
N2670  X122.0831  Y297.4892 
N2675  Z0.1000 
N2680 G1  Z-1.0000  F100.00 
N2685  X121.7390  Y292.8156   F300.00 
N2690  X120.7832  Y292.8162   
N2695  X118.9036  Y293.9257   
N2700  X117.6241  Y295.8305   
N2705  X119.3075  Y298.9864   
N2710  X121.6498  Y301.3560   
N2715  X122.0831  Y297.4892   
N2720 G0  Z0.1000 
N2725 G1  Z-2.0000  F100.00 
N2730  X121.7390  Y292.8156   F300.00 
N2735  X120.7832  Y292.8162   
N2740  X118.9036  Y293.9257   
N2745  X117.6241  Y295.8305   
N2750  X119.3075  Y298.9864   
N2755  X121.6498  Y301.3560   
N2760  X122.0831  Y297.4892   
N2765 G0  Z0.1000 
N2770 G1  Z-3.0000  F100.00 
N2775  X121.7390  Y292.8156   F300.00 
N2780  X120.7832  Y292.8162   
N2785  X118.9036  Y293.9257   
N2790  X117.6241  Y295.8305   
N2795  X119.3075  Y298.9864   
N2800  X121.6498  Y301.3560   
N2805  X122.0831  Y297.4892   
N2810 G0  Z5.0000 
N2815  X60.2324  Y372.1447 
N2820  Z0.1000 
N2825 G1  Z-1.0000  F100.00 
N2830  X58.4892  Y369.2862   F300.00 
N2835  X56.5057  Y367.6767   
N2840  X53.5800  Y366.9864   
N2845  X49.0077  Y366.8862   
N2850  X42.8448  Y367.3053   
N2855  X39.8772  Y368.1331   
N2860  X40.4443  Y371.2266   
N2865  X42.7793  Y377.0921   
N2870  X44.8734  Y381.2285   
N2875  X46.7966  Y383.5996   
N2880  X49.1315  Y384.6771   
N2885  X52.4585  Y384.9316   
N2890  X56.0079  Y385.1592   
N2895  X58.1718  Y386.6632   
N2900  X59.7959  Y390.6774   
N2905  X61.7275  Y398.4355   
N2910  X64.5749  Y408.4799   
N2915  X67.8657  Y416.3860   
N2920  X71.5667  Y422.0883   
N2925  X75.6433  Y425.5212   
N2930  X77.5417  Y426.3962   
N2935  X78.0899  Y425.9959   
N2940  X74.9246  Y419.6248   
N2945  X71.4743  Y412.0990   
N2950  X68.9096  Y404.1001   
N2955  X67.6800  Y397.3780   
N2960  X68.2376  Y393.6807   
N2965  X71.6537  Y393.7373   
N2970  X77.8607  Y395.8808   
N2975  X82.2337  Y398.0893   
N2980  X85.1803  Y400.4919   
N2985  X87.3274  Y403.7921   
N2990  X89.3041  Y408.6923   
N2995  X92.6394  Y415.8079   
N3000  X97.0906  Y422.4759   
N3005  X101.6624  Y427.4160   
N3010  X105.3587  Y429.3470   
N3015  X105.8853  Y428.9494   
N3020  X105.7579  Y427.8624   
N3025  X103.7445  Y424.2580   
N3030  X100.0718  Y418.3170   
N3035  X97.2154  Y412.1342   
N3040  X95.7020  Y407.0666   
N3045  X96.0598  Y404.4704   
N3050  X100.1201  Y403.6830   
N3055  X105.1063  Y405.1697   
N3060  X110.2059  Y408.5397   
N3065  X114.6056  Y413.4016   
N3070  X123.8919  Y424.6483   
N3075  X126.0028  Y426.4513   
N3080  X126.6355  Y426.5252   
N3085  X123.2766  Y420.0969   
N3090  X120.1159  Y413.2148   
N3095  X119.9328  Y411.0745   
N3100  X120.6127  Y409.5280   
N3105  X123.6354  Y407.6028   
N3110  X127.7854  Y407.3258   
N3115  X132.5791  Y408.6414   
N3120  X137.5333  Y411.4931   
N3125  X146.3984  Y417.4063   
N3130  X146.9655  Y417.4231   
N3135  X146.9256  Y416.8738   
N3140  X145.1283  Y414.1119   
N3145  X142.0742  Y411.0163   
N3150  X139.7230  Y410.2304   
N3155  X139.5918  Y410.0070   
N3160  X140.6022  Y408.7621   
N3165  X145.3146  Y404.0256   
N3170  X156.0115  Y393.0522   
N3175  X157.5328  Y391.0441   
N3180  X157.2689  Y390.4843   
N3185  X149.4945  Y393.9776   
N3190  X142.3653  Y396.8004   
N3195  X134.7063  Y398.4623   
N3200  X126.4781  Y398.9575   
N3205  X117.6430  Y398.2803   
N3210  X108.1626  Y396.4264   
N3215  X97.9976  Y393.3900   
N3220  X87.1097  Y389.1655   
N3225  X75.4612  Y383.7476   
N3230  X65.4295  Y377.7384   
N3235  X62.2284  Y374.8909   
N3240  X60.2324  Y372.1447   
N3245 G0  Z0.1000 
N3250 G1  Z-2.0000  F100.00 
N3255  X58.4892  Y369.2862   F300.00 
N3260  X56.5057  Y367.6767   
N3265  X53.5800  Y366.9864   
N3270  X49.0077  Y366.8862   
N3275  X42.8448  Y367.3053   
N3280  X39.8772  Y368.1331   
N3285  X40.4443  Y371.2266   
N3290  X42.7793  Y377.0921   
N3295  X44.8734  Y381.2285   
N3300  X46.7966  Y383.5996   
N3305  X49.1315  Y384.6771   
N3310  X52.4585  Y384.9316   
N3315  X56.0079  Y385.1592   
N3320  X58.1718  Y386.6632   
N3325  X59.7959  Y390.6774   
N3330  X61.7275  Y398.4355   
N3335  X64.5749  Y408.4799   
N3340  X67.8657  Y416.3860   
N3345  X71.5667  Y422.0883   
N3350  X75.6433  Y425.5212   
N3355  X77.5417  Y426.3962   
N3360  X78.0899  Y425.9959   
N3365  X74.9246  Y419.6248   
N3370  X71.4743  Y412.0990   
N3375  X68.9096  Y404.1001   
N3380  X67.6800  Y397.3780   
N3385  X68.2376  Y393.6807   
N3390  X71.6537  Y393.7373   
N3395  X77.8607  Y395.8808   
N3400  X82.2337  Y398.0893   
N3405  X85.1803  Y400.4919   
N3410  X87.3274  Y403.7921   
N3415  X89.3041  Y408.6923   
N3420  X92.6394  Y415.8079   
N3425  X97.0906  Y422.4759   
N3430  X101.6624  Y427.4160   
N3435  X105.3587  Y429.3470   
N3440  X105.8853  Y428.9494   
N3445  X105.7579  Y427.8624   
N3450  X103.7445  Y424.2580   
N3455  X100.0718  Y418.3170   
N3460  X97.2154  Y412.1342   
N3465  X95.7020  Y407.0666   
N3470  X96.0598  Y404.4704   
N3475  X100.1201  Y403.6830   
N3480  X105.1063  Y405.1697   
N3485  X110.2059  Y408.5397   
N3490  X114.6056  Y413.4016   
N3495  X123.8919  Y424.6483   
N3500  X126.0028  Y426.4513   
N3505  X126.6355  Y426.5252   
N3510  X123.2766  Y420.0969   
N3515  X120.1159  Y413.2148   
N3520  X119.9328  Y411.0745   
N3525  X120.6127  Y409.5280   
N3530  X123.6354  Y407.6028   
N3535  X127.7854  Y407.3258   
N3540  X132.5791  Y408.6414   
N3545  X137.5333  Y411.4931   
N3550  X146.3984  Y417.4063   
N3555  X146.9655  Y417.4231   
N3560  X146.9256  Y416.8738   
N3565  X145.1283  Y414.1119   
N3570  X142.0742  Y411.0163   
N3575  X139.7230  Y410.2304   
N3580  X139.5918  Y410.0070   
N3585  X140.6022  Y408.7621   
N3590  X145.3146  Y404.0256   
N3595  X156.0115  Y393.0522   
N3600  X157.5328  Y391.0441   
N3605  X157.2689  Y390.4843   
N3610  X149.4945  Y393.9776   
N3615  X142.3653  Y396.8004   
N3620  X134.7063  Y398.4623   
N3625  X126.4781  Y398.9575   
N3630  X117.6430  Y398.2803   
N3635  X108.1626  Y396.4264   
N3640  X97.9976  Y393.3900   
N3645  X87.1097  Y389.1655   
N3650  X75.4612  Y383.7476   
N3655  X65.4295  Y377.7384   
N3660  X62.2284  Y374.8909   
N3665  X60.2324  Y372.1447   
N3670 G0  Z0.1000 
N3675 G1  Z-3.0000  F100.00 
N3680  X58.4892  Y369.2862   F300.00 
N3685  X56.5057  Y367.6767   
N3690  X53.5800  Y366.9864   
N3695  X49.0077  Y366.8862   
N3700  X42.8448  Y367.3053   
N3705  X39.8772  Y368.1331   
N3710  X40.4443  Y371.2266   
N3715  X42.7793  Y377.0921   
N3720  X44.8734  Y381.2285   
N3725  X46.7966  Y383.5996   
N3730  X49.1315  Y384.6771   
N3735  X52.4585  Y384.9316   
N3740  X56.0079  Y385.1592   
N3745  X58.1718  Y386.6632   
N3750  X59.7959  Y390.6774   
N3755  X61.7275  Y398.4355   
N3760  X64.5749  Y408.4799   
N3765  X67.8657  Y416.3860   
N3770  X71.5667  Y422.0883   
N3775  X75.6433  Y425.5212   
N3780  X77.5417  Y426.3962   
N3785  X78.0899  Y425.9959   
N3790  X74.9246  Y419.6248   
N3795  X71.4743  Y412.0990   
N3800  X68.9096  Y404.1001   
N3805  X67.6800  Y397.3780   
N3810  X68.2376  Y393.6807   
N3815  X71.6537  Y393.7373   
N3820  X77.8607  Y395.8808   
N3825  X82.2337  Y398.0893   
N3830  X85.1803  Y400.4919   
N3835  X87.3274  Y403.7921   
N3840  X89.3041  Y408.6923   
N3845  X92.6394  Y415.8079   
N3850  X97.0906  Y422.4759   
N3855  X101.6624  Y427.4160   
N3860  X105.3587  Y429.3470   
N3865  X105.8853  Y428.9494   
N3870  X105.7579  Y427.8624   
N3875  X103.7445  Y424.2580   
N3880  X100.0718  Y418.3170   
N3885  X97.2154  Y412.1342   
N3890  X95.7020  Y407.0666   
N3895  X96.0598  Y404.4704   
N3900  X100.1201  Y403.6830   
N3905  X105.1063  Y405.1697   
N3910  X110.2059  Y408.5397   
N3915  X114.6056  Y413.4016   
N3920  X123.8919  Y424.6483   
N3925  X126.0028  Y426.4513   
N3930  X126.6355  Y426.5252   
N3935  X123.2766  Y420.0969   
N3940  X120.1159  Y413.2148   
N3945  X119.9328  Y411.0745   
N3950  X120.6127  Y409.5280   
N3955  X123.6354  Y407.6028   
N3960  X127.7854  Y407.3258   
N3965  X132.5791  Y408.6414   
N3970  X137.5333  Y411.4931   
N3975  X146.3984  Y417.4063   
N3980  X146.9655  Y417.4231   
N3985  X146.9256  Y416.8738   
N3990  X145.1283  Y414.1119   
N3995  X142.0742  Y411.0163   
N4000  X139.7230  Y410.2304   
N4005  X139.5918  Y410.0070   
N4010  X140.6022  Y408.7621   
N4015  X145.3146  Y404.0256   
N4020  X156.0115  Y393.0522   
N4025  X157.5328  Y391.0441   
N4030  X157.2689  Y390.4843   
N4035  X149.4945  Y393.9776   
N4040  X142.3653  Y396.8004   
N4045  X134.7063  Y398.4623   
N4050  X126.4781  Y398.9575   
N4055  X117.6430  Y398.2803   
N4060  X108.1626  Y396.4264   
N4065  X97.9976  Y393.3900   
N4070  X87.1097  Y389.1655   
N4075  X75.4612  Y383.7476   
N4080  X65.4295  Y377.7384   
N4085  X62.2284  Y374.8909   
N4090  X60.2324  Y372.1447   
N4095 G0  Z5.0000 
N4100  X39.1182  Y365.0601 
N4105  Z0.1000 
N4110 G1  Z-1.0000  F100.00 
N4115  X37.7453  Y367.4176   F300.00 
N4120  X37.3167  Y370.5200   
N4125  X38.8260  Y377.7552   
N4130  X42.7074  Y384.3577   
N4135  X45.2454  Y386.6695   
N4140  X48.0241  Y387.9201   
N4145  X55.8788  Y390.2776   
N4150  X57.1027  Y391.7816   
N4155  X57.3697  Y394.0573   
N4160  X58.5925  Y400.4059   
N4165  X61.6456  Y408.9452   
N4170  X65.6089  Y417.4383   
N4175  X69.5601  Y423.6489   
N4180  X73.8812  Y427.5718   
N4185  X78.9277  Y430.5572   
N4190  X83.3983  Y432.0009   
N4195  X85.0114  Y431.9553   
N4200  X85.9934  Y431.2969   
N4205  X85.8093  Y429.5091   
N4210  X84.0393  Y427.3599   
N4215  X80.6861  Y423.1532   
N4220  X76.8808  Y416.3828   
N4225  X73.4704  Y408.7422   
N4230  X71.3028  Y401.9235   
N4235  X69.9745  Y395.7816   
N4240  X77.2191  Y399.4779   
N4245  X80.8949  Y401.6518   
N4250  X83.4885  Y404.0382   
N4255  X85.3555  Y407.0677   
N4260  X86.8511  Y411.1715   
N4265  X90.2914  Y418.3196   
N4270  X95.7450  Y425.2264   
N4275  X102.0585  Y430.6795   
N4280  X108.0760  Y433.4656   
N4285  X112.8886  Y433.5951   
N4290  X110.6061  Y428.5129   
N4295  X107.3086  Y423.7953   
N4300  X101.8733  Y414.7634   
N4305  X97.7626  Y406.6574   
N4310  X103.0085  Y407.9742   
N4315  X108.3997  Y409.6030   
N4320  X113.2905  Y417.7856   
N4325  X119.4114  Y424.6682   
N4330  X125.8602  Y429.4152   
N4335  X131.7324  Y431.1909   
N4340  X132.9746  Y430.7639   
N4345  X132.8986  Y429.2389   
N4350  X128.2911  Y421.4818   
N4355  X121.7364  Y411.7659   
N4360  X126.5322  Y411.1836   
N4365  X131.6647  Y411.9941   
N4370  X137.3765  Y415.2035   
N4375  X142.7766  Y418.6585   
N4380  X147.8935  Y420.8114   
N4385  X152.0026  Y421.4441   
N4390  X154.3779  Y420.3367   
N4395  X154.0931  Y418.3910   
N4400  X151.7523  Y416.3928   
N4405  X149.4358  Y414.3542   
N4410  X149.2102  Y412.3125   
N4415  X149.5527  Y411.2004   
N4420  X148.5308  Y411.4695   
N4425  X146.8737  Y411.5750   
N4430  X145.6183  Y410.1423   
N4435  X146.4876  Y407.1931   
N4440  X150.0385  Y403.6295   
N4445  X154.7624  Y399.4821   
N4450  X158.3008  Y395.0918   
N4455  X160.2916  Y391.0136   
N4460  X160.3724  Y387.8026   
N4465  X159.5063  Y386.6296   
N4470  X157.9137  Y386.5158   
N4475  X150.8789  Y389.8176   
N4480  X141.8266  Y393.5789   
N4485  X131.6653  Y395.4543   
N4490  X120.6798  Y395.4186   
N4495  X109.1572  Y393.4472   
N4500  X95.4560  Y388.8508   
N4505  X80.2817  Y382.2514   
N4510  X67.9869  Y375.7276   
N4515  X64.2785  Y373.1440   
N4520  X62.9214  Y371.3583   
N4525  X62.0653  Y368.7904   
N4530  X60.0058  Y366.3091   
N4535  X55.5394  Y364.4122   
N4540  X49.1761  Y363.4884   
N4545  X43.0064  Y363.6626   
N4550  X39.1182  Y365.0601   
N4555 G0  Z0.1000 
N4560 G1  Z-2.0000  F100.00 
N4565  X37.7453  Y367.4176   F300.00 
N4570  X37.3167  Y370.5200   
N4575  X38.8260  Y377.7552   
N4580  X42.7074  Y384.3577   
N4585  X45.2454  Y386.6695   
N4590  X48.0241  Y387.9201   
N4595  X55.8788  Y390.2776   
N4600  X57.1027  Y391.7816   
N4605  X57.3697  Y394.0573   
N4610  X58.5925  Y400.4059   
N4615  X61.6456  Y408.9452   
N4620  X65.6089  Y417.4383   
N4625  X69.5601  Y423.6489   
N4630  X73.8812  Y427.5718   
N4635  X78.9277  Y430.5572   
N4640  X83.3983  Y432.0009   
N4645  X85.0114  Y431.9553   
N4650  X85.9934  Y431.2969   
N4655  X85.8093  Y429.5091   
N4660  X84.0393  Y427.3599   
N4665  X80.6861  Y423.1532   
N4670  X76.8808  Y416.3828   
N4675  X73.4704  Y408.7422   
N4680  X71.3028  Y401.9235   
N4685  X69.9745  Y395.7816   
N4690  X77.2191  Y399.4779   
N4695  X80.8949  Y401.6518   
N4700  X83.4885  Y404.0382   
N4705  X85.3555  Y407.0677   
N4710  X86.8511  Y411.1715   
N4715  X90.2914  Y418.3196   
N4720  X95.7450  Y425.2264   
N4725  X102.0585  Y430.6795   
N4730  X108.0760  Y433.4656   
N4735  X112.8886  Y433.5951   
N4740  X110.6061  Y428.5129   
N4745  X107.3086  Y423.7953   
N4750  X101.8733  Y414.7634   
N4755  X97.7626  Y406.6574   
N4760  X103.0085  Y407.9742   
N4765  X108.3997  Y409.6030   
N4770  X113.2905  Y417.7856   
N4775  X119.4114  Y424.6682   
N4780  X125.8602  Y429.4152   
N4785  X131.7324  Y431.1909   
N4790  X132.9746  Y430.7639   
N4795  X132.8986  Y429.2389   
N4800  X128.2911  Y421.4818   
N4805  X121.7364  Y411.7659   
N4810  X126.5322  Y411.1836   
N4815  X131.6647  Y411.9941   
N4820  X137.3765  Y415.2035   
N4825  X142.7766  Y418.6585   
N4830  X147.8935  Y420.8114   
N4835  X152.0026  Y421.4441   
N4840  X154.3779  Y420.3367   
N4845  X154.0931  Y418.3910   
N4850  X151.7523  Y416.3928   
N4855  X149.4358  Y414.3542   
N4860  X149.2102  Y412.3125   
N4865  X149.5527  Y411.2004   
N4870  X148.5308  Y411.4695   
N4875  X146.8737  Y411.5750   
N4880  X145.6183  Y410.1423   
N4885  X146.4876  Y407.1931   
N4890  X150.0385  Y403.6295   
N4895  X154.7624  Y399.4821   
N4900  X158.3008  Y395.0918   
N4905  X160.2916  Y391.0136   
N4910  X160.3724  Y387.8026   
N4915  X159.5063  Y386.6296   
N4920  X157.9137  Y386.5158   
N4925  X150.8789  Y389.8176   
N4930  X141.8266  Y393.5789   
N4935  X131.6653  Y395.4543   
N4940  X120.6798  Y395.4186   
N4945  X109.1572  Y393.4472   
N4950  X95.4560  Y388.8508   
N4955  X80.2817  Y382.2514   
N4960  X67.9869  Y375.7276   
N4965  X64.2785  Y373.1440   
N4970  X62.9214  Y371.3583   
N4975  X62.0653  Y368.7904   
N4980  X60.0058  Y366.3091   
N4985  X55.5394  Y364.4122   
N4990  X49.1761  Y363.4884   
N4995  X43.0064  Y363.6626   
N5000  X39.1182  Y365.0601   
N5005 G0  Z0.1000 
N5010 G1  Z-3.0000  F100.00 
N5015  X37.7453  Y367.4176   F300.00 
N5020  X37.3167  Y370.5200   
N5025  X38.8260  Y377.7552   
N5030  X42.7074  Y384.3577   
N5035  X45.2454  Y386.6695   
N5040  X48.0241  Y387.9201   
N5045  X55.8788  Y390.2776   
N5050  X57.1027  Y391.7816   
N5055  X57.3697  Y394.0573   
N5060  X58.5925  Y400.4059   
N5065  X61.6456  Y408.9452   
N5070  X65.6089  Y417.4383   
N5075  X69.5601  Y423.6489   
N5080  X73.8812  Y427.5718   
N5085  X78.9277  Y430.5572   
N5090  X83.3983  Y432.0009   
N5095  X85.0114  Y431.9553   
N5100  X85.9934  Y431.2969   
N5105  X85.8093  Y429.5091   
N5110  X84.0393  Y427.3599   
N5115  X80.6861  Y423.1532   
N5120  X76.8808  Y416.3828   
N5125  X73.4704  Y408.7422   
N5130  X71.3028  Y401.9235   
N5135  X69.9745  Y395.7816   
N5140  X77.2191  Y399.4779   
N5145  X80.8949  Y401.6518   
N5150  X83.4885  Y404.0382   
N5155  X85.3555  Y407.0677   
N5160  X86.8511  Y411.1715   
N5165  X90.2914  Y418.3196   
N5170  X95.7450  Y425.2264   
N5175  X102.0585  Y430.6795   
N5180  X108.0760  Y433.4656   
N5185  X112.8886  Y433.5951   
N5190  X110.6061  Y428.5129   
N5195  X107.3086  Y423.7953   
N5200  X101.8733  Y414.7634   
N5205  X97.7626  Y406.6574   
N5210  X103.0085  Y407.9742   
N5215  X108.3997  Y409.6030   
N5220  X113.2905  Y417.7856   
N5225  X119.4114  Y424.6682   
N5230  X125.8602  Y429.4152   
N5235  X131.7324  Y431.1909   
N5240  X132.9746  Y430.7639   
N5245  X132.8986  Y429.2389   
N5250  X128.2911  Y421.4818   
N5255  X121.7364  Y411.7659   
N5260  X126.5322  Y411.1836   
N5265  X131.6647  Y411.9941   
N5270  X137.3765  Y415.2035   
N5275  X142.7766  Y418.6585   
N5280  X147.8935  Y420.8114   
N5285  X152.0026  Y421.4441   
N5290  X154.3779  Y420.3367   
N5295  X154.0931  Y418.3910   
N5300  X151.7523  Y416.3928   
N5305  X149.4358  Y414.3542   
N5310  X149.2102  Y412.3125   
N5315  X149.5527  Y411.2004   
N5320  X148.5308  Y411.4695   
N5325  X146.8737  Y411.5750   
N5330  X145.6183  Y410.1423   
N5335  X146.4876  Y407.1931   
N5340  X150.0385  Y403.6295   
N5345  X154.7624  Y399.4821   
N5350  X158.3008  Y395.0918   
N5355  X160.2916  Y391.0136   
N5360  X160.3724  Y387.8026   
N5365  X159.5063  Y386.6296   
N5370  X157.9137  Y386.5158   
N5375  X150.8789  Y389.8176   
N5380  X141.8266  Y393.5789   
N5385  X131.6653  Y395.4543   
N5390  X120.6798  Y395.4186   
N5395  X109.1572  Y393.4472   
N5400  X95.4560  Y388.8508   
N5405  X80.2817  Y382.2514   
N5410  X67.9869  Y375.7276   
N5415  X64.2785  Y373.1440   
N5420  X62.9214  Y371.3583   
N5425  X62.0653  Y368.7904   
N5430  X60.0058  Y366.3091   
N5435  X55.5394  Y364.4122   
N5440  X49.1761  Y363.4884   
N5445  X43.0064  Y363.6626   
N5450  X39.1182  Y365.0601   
N5455 G0  Z5.0000 
N5460  X17.7589  Y445.7882 
N5465  Z0.1000 
N5470 G1  Z-1.0000  F100.00 
N5475  X15.8012  Y464.6850   F300.00 
N5480  X14.5028  Y482.4423   
N5485  X33.2307  Y486.4303   
N5490  X55.4848  Y490.4177   
N5495  X58.5789  Y489.3239   
N5500  X61.5890  Y486.5640   
N5505  X63.8688  Y482.9192   
N5510  X64.7722  Y479.1726   
N5515  X63.3715  Y475.0577   
N5520  X59.7151  Y470.9543   
N5525  X54.6235  Y467.5644   
N5530  X48.9175  Y465.5909   
N5535  X34.6995  Y462.4743   
N5540  X30.8721  Y461.3019   
N5545  X28.7911  Y459.8766   
N5550  X27.9297  Y457.5185   
N5555  X27.7597  Y453.5495   
N5560  X26.9351  Y447.5325   
N5565  X25.5187  Y446.2545   
N5570  X23.0888  Y445.5411   
N5575  X19.5966  Y445.2458   
N5580  X17.7589  Y445.7882   
N5585 G0  Z0.1000 
N5590 G1  Z-2.0000  F100.00 
N5595  X15.8012  Y464.6850   F300.00 
N5600  X14.5028  Y482.4423   
N5605  X33.2307  Y486.4303   
N5610  X55.4848  Y490.4177   
N5615  X58.5789  Y489.3239   
N5620  X61.5890  Y486.5640   
N5625  X63.8688  Y482.9192   
N5630  X64.7722  Y479.1726   
N5635  X63.3715  Y475.0577   
N5640  X59.7151  Y470.9543   
N5645  X54.6235  Y467.5644   
N5650  X48.9175  Y465.5909   
N5655  X34.6995  Y462.4743   
N5660  X30.8721  Y461.3019   
N5665  X28.7911  Y459.8766   
N5670  X27.9297  Y457.5185   
N5675  X27.7597  Y453.5495   
N5680  X26.9351  Y447.5325   
N5685  X25.5187  Y446.2545   
N5690  X23.0888  Y445.5411   
N5695  X19.5966  Y445.2458   
N5700  X17.7589  Y445.7882   
N5705 G0  Z0.1000 
N5710 G1  Z-3.0000  F100.00 
N5715  X15.8012  Y464.6850   F300.00 
N5720  X14.5028  Y482.4423   
N5725  X33.2307  Y486.4303   
N5730  X55.4848  Y490.4177   
N5735  X58.5789  Y489.3239   
N5740  X61.5890  Y486.5640   
N5745  X63.8688  Y482.9192   
N5750  X64.7722  Y479.1726   
N5755  X63.3715  Y475.0577   
N5760  X59.7151  Y470.9543   
N5765  X54.6235  Y467.5644   
N5770  X48.9175  Y465.5909   
N5775  X34.6995  Y462.4743   
N5780  X30.8721  Y461.3019   
N5785  X28.7911  Y459.8766   
N5790  X27.9297  Y457.5185   
N5795  X27.7597  Y453.5495   
N5800  X26.9351  Y447.5325   
N5805  X25.5187  Y446.2545   
N5810  X23.0888  Y445.5411   
N5815  X19.5966  Y445.2458   
N5820  X17.7589  Y445.7882   
N5825 G0  Z5.0000 
N5830  X23.4413  Y469.4441 
N5835  Z0.1000 
N5840 G1  Z-1.0000  F100.00 
N5845  X22.2867  Y471.6951   F300.00 
N5850  X22.3428  Y474.3563   
N5855  X23.4497  Y476.7338   
N5860  X25.4463  Y478.1323   
N5865  X42.1125  Y481.7793   
N5870  X48.7911  Y482.5793   
N5875  X52.5692  Y482.4130   
N5880  X54.5752  Y480.3408   
N5885  X55.1113  Y476.7359   
N5890  X54.5380  Y473.7069   
N5895  X53.6902  Y472.8235   
N5900  X41.5905  Y470.8683   
N5905  X28.5440  Y468.3875   
N5910  X25.2942  Y468.4972   
N5915  X23.4413  Y469.4441   
N5920 G0  Z0.1000 
N5925 G1  Z-2.0000  F100.00 
N5930  X22.2867  Y471.6951   F300.00 
N5935  X22.3428  Y474.3563   
N5940  X23.4497  Y476.7338   
N5945  X25.4463  Y478.1323   
N5950  X42.1125  Y481.7793   
N5955  X48.7911  Y482.5793   
N5960  X52.5692  Y482.4130   
N5965  X54.5752  Y480.3408   
N5970  X55.1113  Y476.7359   
N5975  X54.5380  Y473.7069   
N5980  X53.6902  Y472.8235   
N5985  X41.5905  Y470.8683   
N5990  X28.5440  Y468.3875   
N5995  X25.2942  Y468.4972   
N6000  X23.4413  Y469.4441   
N6005 G0  Z0.1000 
N6010 G1  Z-3.0000  F100.00 
N6015  X22.2867  Y471.6951   F300.00 
N6020  X22.3428  Y474.3563   
N6025  X23.4497  Y476.7338   
N6030  X25.4463  Y478.1323   
N6035  X42.1125  Y481.7793   
N6040  X48.7911  Y482.5793   
N6045  X52.5692  Y482.4130   
N6050  X54.5752  Y480.3408   
N6055  X55.1113  Y476.7359   
N6060  X54.5380  Y473.7069   
N6065  X53.6902  Y472.8235   
N6070  X41.5905  Y470.8683   
N6075  X28.5440  Y468.3875   
N6080  X25.2942  Y468.4972   
N6085  X23.4413  Y469.4441   
N6090 G0  Z5.0000 
N6095  X69.5040  Y463.0703 
N6100  Z0.1000 
N6105 G1  Z-1.0000  F100.00 
N6110  X67.1926  Y469.6833   F300.00 
N6115  X66.5044  Y478.7015   
N6120  X67.4056  Y487.3174   
N6125  X68.4412  Y490.5966   
N6130  X69.8617  Y492.7222   
N6135  X75.2976  Y495.0650   
N6140  X84.9264  Y497.3139   
N6145  X96.2722  Y499.0042   
N6150  X106.8585  Y499.6709   
N6155  X112.9065  Y499.0582   
N6160  X114.9382  Y498.1024   
N6165  X116.4170  Y496.5459   
N6170  X118.0438  Y491.1248   
N6175  X118.4409  Y481.7850   
N6180  X118.0453  Y472.3844   
N6185  X117.1446  Y469.3522   
N6190  X115.4145  Y467.1259   
N6195  X112.5838  Y465.4740   
N6200  X108.3819  Y464.1672   
N6205  X94.7808  Y461.6660   
N6210  X82.4000  Y459.7470   
N6215  X75.4922  Y459.2623   
N6220  X71.9092  Y460.3298   
N6225  X69.5040  Y463.0703   
N6230 G0  Z0.1000 
N6235 G1  Z-2.0000  F100.00 
N6240  X67.1926  Y469.6833   F300.00 
N6245  X66.5044  Y478.7015   
N6250  X67.4056  Y487.3174   
N6255  X68.4412  Y490.5966   
N6260  X69.8617  Y492.7222   
N6265  X75.2976  Y495.0650   
N6270  X84.9264  Y497.3139   
N6275  X96.2722  Y499.0042   
N6280  X106.8585  Y499.6709   
N6285  X112.9065  Y499.0582   
N6290  X114.9382  Y498.1024   
N6295  X116.4170  Y496.5459   
N6300  X118.0438  Y491.1248   
N6305  X118.4409  Y481.7850   
N6310  X118.0453  Y472.3844   
N6315  X117.1446  Y469.3522   
N6320  X115.4145  Y467.1259   
N6325  X112.5838  Y465.4740   
N6330  X108.3819  Y464.1672   
N6335  X94.7808  Y461.6660   
N6340  X82.4000  Y459.7470   
N6345  X75.4922  Y459.2623   
N6350  X71.9092  Y460.3298   
N6355  X69.5040  Y463.0703   
N6360 G0  Z0.1000 
N6365 G1  Z-3.0000  F100.00 
N6370  X67.1926  Y469.6833   F300.00 
N6375  X66.5044  Y478.7015   
N6380  X67.4056  Y487.3174   
N6385  X68.4412  Y490.5966   
N6390  X69.8617  Y492.7222   
N6395  X75.2976  Y495.0650   
N6400  X84.9264  Y497.3139   
N6405  X96.2722  Y499.0042   
N6410  X106.8585  Y499.6709   
N6415  X112.9065  Y499.0582   
N6420  X114.9382  Y498.1024   
N6425  X116.4170  Y496.5459   
N6430  X118.0438  Y491.1248   
N6435  X118.4409  Y481.7850   
N6440  X118.0453  Y472.3844   
N6445  X117.1446  Y469.3522   
N6450  X115.4145  Y467.1259   
N6455  X112.5838  Y465.4740   
N6460  X108.3819  Y464.1672   
N6465  X94.7808  Y461.6660   
N6470  X82.4000  Y459.7470   
N6475  X75.4922  Y459.2623   
N6480  X71.9092  Y460.3298   
N6485  X69.5040  Y463.0703   
N6490 G0  Z5.0000 
N6495  X104.4611  Y473.7242 
N6500  Z0.1000 
N6505 G1  Z-1.0000  F100.00 
N6510  X89.2181  Y470.8830   F300.00 
N6515  X78.1566  Y469.6313   
N6520  X77.4158  Y477.3974   
N6525  X77.4478  Y483.1820   
N6530  X78.2242  Y485.1188   
N6535  X79.7015  Y486.5425   
N6540  X85.3434  Y488.2244   
N6545  X95.5383  Y488.9709   
N6550  X108.2623  Y489.4928   
N6555  X108.4522  Y482.4035   
N6560  X107.7870  Y476.3907   
N6565  X106.5379  Y474.8159   
N6570  X104.4611  Y473.7242   
N6575 G0  Z0.1000 
N6580 G1  Z-2.0000  F100.00 
N6585  X89.2181  Y470.8830   F300.00 
N6590  X78.1566  Y469.6313   
N6595  X77.4158  Y477.3974   
N6600  X77.4478  Y483.1820   
N6605  X78.2242  Y485.1188   
N6610  X79.7015  Y486.5425   
N6615  X85.3434  Y488.2244   
N6620  X95.5383  Y488.9709   
N6625  X108.2623  Y489.4928   
N6630  X108.4522  Y482.4035   
N6635  X107.7870  Y476.3907   
N6640  X106.5379  Y474.8159   
N6645  X104.4611  Y473.7242   
N6650 G0  Z0.1000 
N6655 G1  Z-3.0000  F100.00 
N6660  X89.2181  Y470.8830   F300.00 
N6665  X78.1566  Y469.6313   
N6670  X77.4158  Y477.3974   
N6675  X77.4478  Y483.1820   
N6680  X78.2242  Y485.1188   
N6685  X79.7015  Y486.5425   
N6690  X85.3434  Y488.2244   
N6695  X95.5383  Y488.9709   
N6700  X108.2623  Y489.4928   
N6705  X108.4522  Y482.4035   
N6710  X107.7870  Y476.3907   
N6715  X106.5379  Y474.8159   
N6720  X104.4611  Y473.7242   
N6725 G0  Z5.0000 
N6730  X121.4347  Y484.1939 
N6735  Z0.1000 
N6740 G1  Z-1.0000  F100.00 
N6745  X120.8823  Y497.1230   F300.00 
N6750  X121.3151  Y503.1631   
N6755  X128.4291  Y504.2364   
N6760  X143.9412  Y505.2232   
N6765  X158.7708  Y505.4000   
N6770  X163.7067  Y504.8812   
N6775  X167.2650  Y503.8320   
N6780  X169.6498  Y502.1585   
N6785  X171.0672  Y499.7664   
N6790  X171.8216  Y492.4505   
N6795  X173.0538  Y477.9261   
N6800  X173.7426  Y473.4850   
N6805  X173.5889  Y471.1385   
N6810  X172.2990  Y470.2194   
N6815  X169.5769  Y470.0610   
N6820  X163.3369  Y469.5983   
N6825  X162.0883  Y470.9024   
N6830  X161.0108  Y474.6873   
N6835  X160.2365  Y477.8873   
N6840  X158.4608  Y479.5980   
N6845  X154.3695  Y480.3776   
N6850  X146.6502  Y480.7831   
N6855  X133.2459  Y481.3271   
N6860  Y473.8433   
N6865  X133.1147  Y469.7226   
N6870  X132.4569  Y467.4784   
N6875  X130.8737  Y466.5452   
N6880  X127.9669  Y466.3595   
N6885  X122.6885   
N6890  X121.4347  Y484.1939   
N6895 G0  Z0.1000 
N6900 G1  Z-2.0000  F100.00 
N6905  X120.8823  Y497.1230   F300.00 
N6910  X121.3151  Y503.1631   
N6915  X128.4291  Y504.2364   
N6920  X143.9412  Y505.2232   
N6925  X158.7708  Y505.4000   
N6930  X163.7067  Y504.8812   
N6935  X167.2650  Y503.8320   
N6940  X169.6498  Y502.1585   
N6945  X171.0672  Y499.7664   
N6950  X171.8216  Y492.4505   
N6955  X173.0538  Y477.9261   
N6960  X173.7426  Y473.4850   
N6965  X173.5889  Y471.1385   
N6970  X172.2990  Y470.2194   
N6975  X169.5769  Y470.0610   
N6980  X163.3369  Y469.5983   
N6985  X162.0883  Y470.9024   
N6990  X161.0108  Y474.6873   
N6995  X160.2365  Y477.8873   
N7000  X158.4608  Y479.5980   
N7005  X154.3695  Y480.3776   
N7010  X146.6502  Y480.7831   
N7015  X133.2459  Y481.3271   
N7020  Y473.8433   
N7025  X133.1147  Y469.7226   
N7030  X132.4569  Y467.4784   
N7035  X130.8737  Y466.5452   
N7040  X127.9669  Y466.3595   
N7045  X122.6885   
N7050  X121.4347  Y484.1939   
N7055 G0  Z0.1000 
N7060 G1  Z-3.0000  F100.00 
N7065  X120.8823  Y497.1230   F300.00 
N7070  X121.3151  Y503.1631   
N7075  X128.4291  Y504.2364   
N7080  X143.9412  Y505.2232   
N7085  X158.7708  Y505.4000   
N7090  X163.7067  Y504.8812   
N7095  X167.2650  Y503.8320   
N7100  X169.6498  Y502.1585   
N7105  X171.0672  Y499.7664   
N7110  X171.8216  Y492.4505   
N7115  X173.0538  Y477.9261   
N7120  X173.7426  Y473.4850   
N7125  X173.5889  Y471.1385   
N7130  X172.2990  Y470.2194   
N7135  X169.5769  Y470.0610   
N7140  X163.3369  Y469.5983   
N7145  X162.0883  Y470.9024   
N7150  X161.0108  Y474.6873   
N7155  X160.2365  Y477.8873   
N7160  X158.4608  Y479.5980   
N7165  X154.3695  Y480.3776   
N7170  X146.6502  Y480.7831   
N7175  X133.2459  Y481.3271   
N7180  Y473.8433   
N7185  X133.1147  Y469.7226   
N7190  X132.4569  Y467.4784   
N7195  X130.8737  Y466.5452   
N7200  X127.9669  Y466.3595   
N7205  X122.6885   
N7210  X121.4347  Y484.1939   
N7215 G0  Z5.0000 
N7220  X129.5444  Y492.2684 
N7225  Z0.1000 
N7230 G1  Z-1.0000  F100.00 
N7235  X129.7206  Y495.3677   F300.00 
N7240  X130.6691  Y497.0380   
N7245  X133.0219  Y497.7320   
N7250  X137.4095  Y497.9010   
N7255  X153.2133  Y499.5167   
N7260  X158.5316  Y500.3120   
N7265  X160.1694  Y500.0691   
N7270  X160.0236  Y498.7146   
N7275  X161.0533  Y496.8371   
N7280  X162.2646  Y494.6548   
N7285  X162.1481  Y492.6881   
N7290  X160.7590  Y490.9606   
N7295  X158.1539  Y489.4944   
N7300  X149.5186  Y487.4422   
N7305  X136.6887  Y486.7167   
N7310  X132.7444  Y486.8515   
N7315  X130.6025  Y487.5387   
N7320  X129.7180  Y489.2033   
N7325  X129.5444  Y492.2684   
N7330 G0  Z0.1000 
N7335 G1  Z-2.0000  F100.00 
N7340  X129.7206  Y495.3677   F300.00 
N7345  X130.6691  Y497.0380   
N7350  X133.0219  Y497.7320   
N7355  X137.4095  Y497.9010   
N7360  X153.2133  Y499.5167   
N7365  X158.5316  Y500.3120   
N7370  X160.1694  Y500.0691   
N7375  X160.0236  Y498.7146   
N7380  X161.0533  Y496.8371   
N7385  X162.2646  Y494.6548   
N7390  X162.1481  Y492.6881   
N7395  X160.7590  Y490.9606   
N7400  X158.1539  Y489.4944   
N7405  X149.5186  Y487.4422   
N7410  X136.6887  Y486.7167   
N7415  X132.7444  Y486.8515   
N7420  X130.6025  Y487.5387   
N7425  X129.7180  Y489.2033   
N7430  X129.5444  Y492.2684   
N7435 G0  Z0.1000 
N7440 G1  Z-3.0000  F100.00 
N7445  X129.7206  Y495.3677   F300.00 
N7450  X130.6691  Y497.0380   
N7455  X133.0219  Y497.7320   
N7460  X137.4095  Y497.9010   
N7465  X153.2133  Y499.5167   
N7470  X158.5316  Y500.3120   
N7475  X160.1694  Y500.0691   
N7480  X160.0236  Y498.7146   
N7485  X161.0533  Y496.8371   
N7490  X162.2646  Y494.6548   
N7495  X162.1481  Y492.6881   
N7500  X160.7590  Y490.9606   
N7505  X158.1539  Y489.4944   
N7510  X149.5186  Y487.4422   
N7515  X136.6887  Y486.7167   
N7520  X132.7444  Y486.8515   
N7525  X130.6025  Y487.5387   
N7530  X129.7180  Y489.2033   
N7535  X129.5444  Y492.2684   
N7540 G0  Z5.0000 
N7545  X177.6608  Y475.6127 
N7550  Z0.1000 
N7555 G1  Z-1.0000  F100.00 
N7560  Y481.1650   F300.00 
N7565  X196.6300  Y481.5453   
N7570  X215.5991  Y481.9256   
N7575  X199.0027  Y482.5483   
N7580  X187.4061  Y483.4679   
N7585  X180.3199  Y485.5101   
N7590  X178.1655  Y487.1149   
N7595  X176.7769  Y489.1954   
N7600  X175.8106  Y495.0446   
N7605  X176.8173  Y501.4278   
N7610  X178.3748  Y503.5503   
N7615  X180.9001  Y505.0658   
N7620  X189.6503  Y506.6002   
N7625  X204.6599  Y506.6721   
N7630  X226.6056  Y506.1486   
N7635  X226.6087  Y501.5217   
N7640  X226.2772  Y498.8510   
N7645  X224.1075  Y497.3601   
N7650  X207.2256  Y495.8692   
N7655  X190.2405  Y494.3505   
N7660  X206.5699  Y494.0400   
N7665  X219.0997  Y493.6450   
N7670  X222.4492  Y492.7657   
N7675  X224.6137  Y491.3179   
N7680  X226.6832  Y487.3111   
N7685  X227.5514  Y481.6938   
N7690  X227.1496  Y476.1294   
N7695  X225.4074  Y472.2816   
N7700  X223.0195  Y471.3074   
N7705  X218.0721  Y470.6139   
N7710  X200.4238  Y470.0610   
N7715  X177.6613   
N7720  X177.6608  Y475.6127   
N7725 G0  Z0.1000 
N7730 G1  Z-2.0000  F100.00 
N7735  Y481.1650   F300.00 
N7740  X196.6300  Y481.5453   
N7745  X215.5991  Y481.9256   
N7750  X199.0027  Y482.5483   
N7755  X187.4061  Y483.4679   
N7760  X180.3199  Y485.5101   
N7765  X178.1655  Y487.1149   
N7770  X176.7769  Y489.1954   
N7775  X175.8106  Y495.0446   
N7780  X176.8173  Y501.4278   
N7785  X178.3748  Y503.5503   
N7790  X180.9001  Y505.0658   
N7795  X189.6503  Y506.6002   
N7800  X204.6599  Y506.6721   
N7805  X226.6056  Y506.1486   
N7810  X226.6087  Y501.5217   
N7815  X226.2772  Y498.8510   
N7820  X224.1075  Y497.3601   
N7825  X207.2256  Y495.8692   
N7830  X190.2405  Y494.3505   
N7835  X206.5699  Y494.0400   
N7840  X219.0997  Y493.6450   
N7845  X222.4492  Y492.7657   
N7850  X224.6137  Y491.3179   
N7855  X226.6832  Y487.3111   
N7860  X227.5514  Y481.6938   
N7865  X227.1496  Y476.1294   
N7870  X225.4074  Y472.2816   
N7875  X223.0195  Y471.3074   
N7880  X218.0721  Y470.6139   
N7885  X200.4238  Y470.0610   
N7890  X177.6613   
N7895  X177.6608  Y475.6127   
N7900 G0  Z0.1000 
N7905 G1  Z-3.0000  F100.00 
N7910  Y481.1650   F300.00 
N7915  X196.6300  Y481.5453   
N7920  X215.5991  Y481.9256   
N7925  X199.0027  Y482.5483   
N7930  X187.4061  Y483.4679   
N7935  X180.3199  Y485.5101   
N7940  X178.1655  Y487.1149   
N7945  X176.7769  Y489.1954   
N7950  X175.8106  Y495.0446   
N7955  X176.8173  Y501.4278   
N7960  X178.3748  Y503.5503   
N7965  X180.9001  Y505.0658   
N7970  X189.6503  Y506.6002   
N7975  X204.6599  Y506.6721   
N7980  X226.6056  Y506.1486   
N7985  X226.6087  Y501.5217   
N7990  X226.2772  Y498.8510   
N7995  X224.1075  Y497.3601   
N8000  X207.2256  Y495.8692   
N8005  X190.2405  Y494.3505   
N8010  X206.5699  Y494.0400   
N8015  X219.0997  Y493.6450   
N8020  X222.4492  Y492.7657   
N8025  X224.6137  Y491.3179   
N8030  X226.6832  Y487.3111   
N8035  X227.5514  Y481.6938   
N8040  X227.1496  Y476.1294   
N8045  X225.4074  Y472.2816   
N8050  X223.0195  Y471.3074   
N8055  X218.0721  Y470.6139   
N8060  X200.4238  Y470.0610   
N8065  X177.6613   
N8070  X177.6608  Y475.6127   
N8075 G0  Z5.0000 
N8080  X255.3877  Y467.6521 
N8085  Z0.1000 
N8090 G1  Z-1.0000  F100.00 
N8095  X242.1749  Y468.8964   F300.00 
N8100  X237.8281  Y470.0924   
N8105  X234.7357  Y471.8865   
N8110  X232.7071  Y474.4387   
N8115  X231.5530  Y477.9099   
N8120  X231.1107  Y488.2532   
N8125  X231.8814  Y498.4004   
N8130  X232.9762  Y501.4944   
N8135  X234.9486  Y503.5177   
N8140  X238.1020  Y504.6577   
N8145  X242.7393  Y505.1015   
N8150  X257.6776  Y504.6493   
N8155  X280.8907  Y502.5446   
N8160  X281.0659  Y500.6776   
N8165  X280.1012  Y497.5757   
N8170  X278.6953  Y495.4039   
N8175  X276.0408  Y494.2551   
N8180  X261.5191  Y493.9634   
N8185  X244.7139  Y494.3327   
N8190  X243.8363  Y487.2859   
N8195  X243.3652  Y479.7244   
N8200  X261.1461  Y477.8737   
N8205  X271.1280  Y477.0207   
N8210  X276.3593  Y476.0549   
N8215  X278.4744  Y474.3925   
N8220  X279.1060  Y471.4490   
N8225  X279.2650  Y468.6787   
N8230  X278.6606  Y467.1946   
N8235  X276.8912  Y466.6553   
N8240  X273.5543  Y466.7162   
N8245  X255.3877  Y467.6521   
N8250 G0  Z0.1000 
N8255 G1  Z-2.0000  F100.00 
N8260  X242.1749  Y468.8964   F300.00 
N8265  X237.8281  Y470.0924   
N8270  X234.7357  Y471.8865   
N8275  X232.7071  Y474.4387   
N8280  X231.5530  Y477.9099   
N8285  X231.1107  Y488.2532   
N8290  X231.8814  Y498.4004   
N8295  X232.9762  Y501.4944   
N8300  X234.9486  Y503.5177   
N8305  X238.1020  Y504.6577   
N8310  X242.7393  Y505.1015   
N8315  X257.6776  Y504.6493   
N8320  X280.8907  Y502.5446   
N8325  X281.0659  Y500.6776   
N8330  X280.1012  Y497.5757   
N8335  X278.6953  Y495.4039   
N8340  X276.0408  Y494.2551   
N8345  X261.5191  Y493.9634   
N8350  X244.7139  Y494.3327   
N8355  X243.8363  Y487.2859   
N8360  X243.3652  Y479.7244   
N8365  X261.1461  Y477.8737   
N8370  X271.1280  Y477.0207   
N8375  X276.3593  Y476.0549   
N8380  X278.4744  Y474.3925   
N8385  X279.1060  Y471.4490   
N8390  X279.2650  Y468.6787   
N8395  X278.6606  Y467.1946   
N8400  X276.8912  Y466.6553   
N8405  X273.5543  Y466.7162   
N8410  X255.3877  Y467.6521   
N8415 G0  Z0.1000 
N8420 G1  Z-3.0000  F100.00 
N8425  X242.1749  Y468.8964   F300.00 
N8430  X237.8281  Y470.0924   
N8435  X234.7357  Y471.8865   
N8440  X232.7071  Y474.4387   
N8445  X231.5530  Y477.9099   
N8450  X231.1107  Y488.2532   
N8455  X231.8814  Y498.4004   
N8460  X232.9762  Y501.4944   
N8465  X234.9486  Y503.5177   
N8470  X238.1020  Y504.6577   
N8475  X242.7393  Y505.1015   
N8480  X257.6776  Y504.6493   
N8485  X280.8907  Y502.5446   
N8490  X281.0659  Y500.6776   
N8495  X280.1012  Y497.5757   
N8500  X278.6953  Y495.4039   
N8505  X276.0408  Y494.2551   
N8510  X261.5191  Y493.9634   
N8515  X244.7139  Y494.3327   
N8520  X243.8363  Y487.2859   
N8525  X243.3652  Y479.7244   
N8530  X261.1461  Y477.8737   
N8535  X271.1280  Y477.0207   
N8540  X276.3593  Y476.0549   
N8545  X278.4744  Y474.3925   
N8550  X279.1060  Y471.4490   
N8555  X279.2650  Y468.6787   
N8560  X278.6606  Y467.1946   
N8565  X276.8912  Y466.6553   
N8570  X273.5543  Y466.7162   
N8575  X255.3877  Y467.6521   
N8580 G0  Z5.0000 
N8585  X323.0352  Y459.5807 
N8590  Z0.1000 
N8595 G1  Z-1.0000  F100.00 
N8600  X320.6336  Y462.7991   F300.00 
N8605  X320.4830  Y467.7234   
N8610  X320.7674  Y470.9863   
N8615  X319.8556  Y472.9079   
N8620  X316.9300  Y474.1627   
N8625  X311.1758  Y475.4270   
N8630  X301.8664  Y477.1157   
N8635  X296.8256  Y477.1282   
N8640  X295.4643  Y476.3812   
N8645  X294.6407  Y475.0645   
N8650  X293.9000  Y470.5237   
N8655  X292.6619  Y464.8256   
N8660  X291.1894  Y464.0927   
N8665  X288.6992  Y464.2275   
N8670  X283.6374  Y465.2793   
N8675  X284.3792  Y483.6048   
N8680  X285.5558  Y501.5217   
N8685  X290.8290   
N8690  X293.6655  Y501.3375   
N8695  X295.2545  Y500.5024   
N8700  X295.9485  Y498.5897   
N8705  X296.1017  Y495.1757   
N8710  X296.2905  Y491.5104   
N8715  X297.4924  Y489.3858   
N8720  X300.6593  Y488.0471   
N8725  X306.7430  Y486.7387   
N8730  X319.6972  Y483.8897   
N8735  X320.7133  Y483.9542   
N8740  X321.4357  Y484.9147   
N8745  X322.0107  Y489.5505   
N8750  X322.1602  Y493.0543   
N8755  X322.8815  Y494.9832   
N8760  X324.5843  Y495.8005   
N8765  X327.6768  Y495.9699   
N8770  X333.3434   
N8775  X332.9557  Y479.8577   
N8780  X332.2979  Y465.9660   
N8785  X330.7981  Y458.7178   
N8790  X329.5574  Y457.2279   
N8795  X327.8971  Y456.9703   
N8800  X323.0352  Y459.5807   
N8805 G0  Z0.1000 
N8810 G1  Z-2.0000  F100.00 
N8815  X320.6336  Y462.7991   F300.00 
N8820  X320.4830  Y467.7234   
N8825  X320.7674  Y470.9863   
N8830  X319.8556  Y472.9079   
N8835  X316.9300  Y474.1627   
N8840  X311.1758  Y475.4270   
N8845  X301.8664  Y477.1157   
N8850  X296.8256  Y477.1282   
N8855  X295.4643  Y476.3812   
N8860  X294.6407  Y475.0645   
N8865  X293.9000  Y470.5237   
N8870  X292.6619  Y464.8256   
N8875  X291.1894  Y464.0927   
N8880  X288.6992  Y464.2275   
N8885  X283.6374  Y465.2793   
N8890  X284.3792  Y483.6048   
N8895  X285.5558  Y501.5217   
N8900  X290.8290   
N8905  X293.6655  Y501.3375   
N8910  X295.2545  Y500.5024   
N8915  X295.9485  Y498.5897   
N8920  X296.1017  Y495.1757   
N8925  X296.2905  Y491.5104   
N8930  X297.4924  Y489.3858   
N8935  X300.6593  Y488.0471   
N8940  X306.7430  Y486.7387   
N8945  X319.6972  Y483.8897   
N8950  X320.7133  Y483.9542   
N8955  X321.4357  Y484.9147   
N8960  X322.0107  Y489.5505   
N8965  X322.1602  Y493.0543   
N8970  X322.8815  Y494.9832   
N8975  X324.5843  Y495.8005   
N8980  X327.6768  Y495.9699   
N8985  X333.3434   
N8990  X332.9557  Y479.8577   
N8995  X332.2979  Y465.9660   
N9000  X330.7981  Y458.7178   
N9005  X329.5574  Y457.2279   
N9010  X327.8971  Y456.9703   
N9015  X323.0352  Y459.5807   
N9020 G0  Z0.1000 
N9025 G1  Z-3.0000  F100.00 
N9030  X320.6336  Y462.7991   F300.00 
N9035  X320.4830  Y467.7234   
N9040  X320.7674  Y470.9863   
N9045  X319.8556  Y472.9079   
N9050  X316.9300  Y474.1627   
N9055  X311.1758  Y475.4270   
N9060  X301.8664  Y477.1157   
N9065  X296.8256  Y477.1282   
N9070  X295.4643  Y476.3812   
N9075  X294.6407  Y475.0645   
N9080  X293.9000  Y470.5237   
N9085  X292.6619  Y464.8256   
N9090  X291.1894  Y464.0927   
N9095  X288.6992  Y464.2275   
N9100  X283.6374  Y465.2793   
N9105  X284.3792  Y483.6048   
N9110  X285.5558  Y501.5217   
N9115  X290.8290   
N9120  X293.6655  Y501.3375   
N9125  X295.2545  Y500.5024   
N9130  X295.9485  Y498.5897   
N9135  X296.1017  Y495.1757   
N9140  X296.2905  Y491.5104   
N9145  X297.4924  Y489.3858   
N9150  X300.6593  Y488.0471   
N9155  X306.7430  Y486.7387   
N9160  X319.6972  Y483.8897   
N9165  X320.7133  Y483.9542   
N9170  X321.4357  Y484.9147   
N9175  X322.0107  Y489.5505   
N9180  X322.1602  Y493.0543   
N9185  X322.8815  Y494.9832   
N9190  X324.5843  Y495.8005   
N9195  X327.6768  Y495.9699   
N9200  X333.3434   
N9205  X332.9557  Y479.8577   
N9210  X332.2979  Y465.9660   
N9215  X330.7981  Y458.7178   
N9220  X329.5574  Y457.2279   
N9225  X327.8971  Y456.9703   
N9230  X323.0352  Y459.5807   
N9235 G0  Z5.0000 
N9240  X358.3254  Y450.7293 
N9245  Z0.1000 
N9250 G1  Z-1.0000  F100.00 
N9255  X344.9032  Y454.2483   F300.00 
N9260  X338.3018  Y456.7306   
N9265  X337.4037  Y462.9433   
N9270  X337.8685  Y476.3408   
N9275  X339.4832  Y490.8106   
N9280  X340.5796  Y493.1529   
N9285  X342.1617  Y493.3958   
N9290  X359.9485  Y489.5233   
N9295  X378.5866  Y485.0454   
N9300  X380.9043  Y483.0808   
N9305  X381.2306  Y480.1147   
N9310  X381.1010  Y477.1602   
N9315  X379.6510  Y476.0114   
N9320  X366.4256  Y478.3888   
N9325  X352.7642  Y480.9499   
N9330  X350.3721  Y480.7254   
N9335  X349.7699  Y479.5818   
N9340  X354.1145  Y477.5254   
N9345  X364.5596  Y474.8033   
N9350  X375.2550  Y472.1420   
N9355  X380.2008  Y470.2304   
N9360  X380.0618  Y465.0653   
N9365  X379.2481  Y462.9349   
N9370  X377.2935  Y462.1801   
N9375  X364.0046  Y464.6362   
N9380  X349.9236  Y467.1259   
N9385  X347.7402  Y466.7246   
N9390  X348.4222  Y465.2400   
N9395  X363.9983  Y460.9651   
N9400  X376.0434  Y457.6166   
N9405  X378.2577  Y455.8813   
N9410  X379.0740  Y453.5437   
N9415  X379.0577  Y450.1187   
N9420  X378.1491  Y447.8750   
N9425  X371.6888  Y448.1352   
N9430  X358.3254  Y450.7293   
N9435 G0  Z0.1000 
N9440 G1  Z-2.0000  F100.00 
N9445  X344.9032  Y454.2483   F300.00 
N9450  X338.3018  Y456.7306   
N9455  X337.4037  Y462.9433   
N9460  X337.8685  Y476.3408   
N9465  X339.4832  Y490.8106   
N9470  X340.5796  Y493.1529   
N9475  X342.1617  Y493.3958   
N9480  X359.9485  Y489.5233   
N9485  X378.5866  Y485.0454   
N9490  X380.9043  Y483.0808   
N9495  X381.2306  Y480.1147   
N9500  X381.1010  Y477.1602   
N9505  X379.6510  Y476.0114   
N9510  X366.4256  Y478.3888   
N9515  X352.7642  Y480.9499   
N9520  X350.3721  Y480.7254   
N9525  X349.7699  Y479.5818   
N9530  X354.1145  Y477.5254   
N9535  X364.5596  Y474.8033   
N9540  X375.2550  Y472.1420   
N9545  X380.2008  Y470.2304   
N9550  X380.0618  Y465.0653   
N9555  X379.2481  Y462.9349   
N9560  X377.2935  Y462.1801   
N9565  X364.0046  Y464.6362   
N9570  X349.9236  Y467.1259   
N9575  X347.7402  Y466.7246   
N9580  X348.4222  Y465.2400   
N9585  X363.9983  Y460.9651   
N9590  X376.0434  Y457.6166   
N9595  X378.2577  Y455.8813   
N9600  X379.0740  Y453.5437   
N9605  X379.0577  Y450.1187   
N9610  X378.1491  Y447.8750   
N9615  X371.6888  Y448.1352   
N9620  X358.3254  Y450.7293   
N9625 G0  Z0.1000 
N9630 G1  Z-3.0000  F100.00 
N9635  X344.9032  Y454.2483   F300.00 
N9640  X338.3018  Y456.7306   
N9645  X337.4037  Y462.9433   
N9650  X337.8685  Y476.3408   
N9655  X339.4832  Y490.8106   
N9660  X340.5796  Y493.1529   
N9665  X342.1617  Y493.3958   
N9670  X359.9485  Y489.5233   
N9675  X378.5866  Y485.0454   
N9680  X380.9043  Y483.0808   
N9685  X381.2306  Y480.1147   
N9690  X381.1010  Y477.1602   
N9695  X379.6510  Y476.0114   
N9700  X366.4256  Y478.3888   
N9705  X352.7642  Y480.9499   
N9710  X350.3721  Y480.7254   
N9715  X349.7699  Y479.5818   
N9720  X354.1145  Y477.5254   
N9725  X364.5596  Y474.8033   
N9730  X375.2550  Y472.1420   
N9735  X380.2008  Y470.2304   
N9740  X380.0618  Y465.0653   
N9745  X379.2481  Y462.9349   
N9750  X377.2935  Y462.1801   
N9755  X364.0046  Y464.6362   
N9760  X349.9236  Y467.1259   
N9765  X347.7402  Y466.7246   
N9770  X348.4222  Y465.2400   
N9775  X363.9983  Y460.9651   
N9780  X376.0434  Y457.6166   
N9785  X378.2577  Y455.8813   
N9790  X379.0740  Y453.5437   
N9795  X379.0577  Y450.1187   
N9800  X378.1491  Y447.8750   
N9805  X371.6888  Y448.1352   
N9810  X358.3254  Y450.7293   
N9815 G0  Z5.0000 
N9820  X378.4550  Y436.9467 
N9825  Z0.1000 
N9830 G1  Z-1.0000  F100.00 
N9835  X362.4817  Y440.7506   F300.00 
N9840  X336.7637  Y445.8721   
N9845  X286.8747  Y454.2540   
N9850  X254.1922  Y457.7572   
N9855  X222.5332  Y459.8267   
N9860  X191.5194  Y460.4431   
N9865  X160.7711  Y459.5870   
N9870  X129.9089  Y457.2384   
N9875  X98.5542  Y453.3769   
N9880  X66.3276  Y447.9836   
N9885  X32.8504  Y441.0386   
N9890  X10.3586  Y436.9027   
N9895  X7.8841  Y462.6585   
N9900  X6.9896  Y483.0267   
N9905  X7.4581  Y487.5602   
N9910  X8.5708  Y489.6523   
N9915  X12.6715  Y491.4627   
N9920  X20.9558  Y493.8637   
N9925  X47.0138  Y499.8063   
N9930  X80.6242  Y506.2131   
N9935  X115.6648  Y511.8178   
N9940  X145.8974  Y514.5452   
N9945  X183.8184  Y515.8356   
N9950  X222.5033  Y515.5943   
N9955  X255.0294  Y513.7263   
N9960  X283.9228  Y510.2388   
N9965  X315.3578  Y505.4614   
N9970  X345.6345  Y500.0082   
N9975  X371.0525  Y494.4922   
N9980  X391.4092  Y489.4928   
N9985  X390.8883  Y466.3595   
N9990  X390.2902  Y447.1458   
N9995  X388.8214  Y437.7389   
N10000  X387.3845  Y435.8220   
N10005  X385.2778  Y435.2890   
N10010  X378.4550  Y436.9467   
N10015 G0  Z0.1000 
N10020 G1  Z-2.0000  F100.00 
N10025  X362.4817  Y440.7506   F300.00 
N10030  X336.7637  Y445.8721   
N10035  X286.8747  Y454.2540   
N10040  X254.1922  Y457.7572   
N10045  X222.5332  Y459.8267   
N10050  X191.5194  Y460.4431   
N10055  X160.7711  Y459.5870   
N10060  X129.9089  Y457.2384   
N10065  X98.5542  Y453.3769   
N10070  X66.3276  Y447.9836   
N10075  X32.8504  Y441.0386   
N10080  X10.3586  Y436.9027   
N10085  X7.8841  Y462.6585   
N10090  X6.9896  Y483.0267   
N10095  X7.4581  Y487.5602   
N10100  X8.5708  Y489.6523   
N10105  X12.6715  Y491.4627   
N10110  X20.9558  Y493.8637   
N10115  X47.0138  Y499.8063   
N10120  X80.6242  Y506.2131   
N10125  X115.6648  Y511.8178   
N10130  X145.8974  Y514.5452   
N10135  X183.8184  Y515.8356   
N10140  X222.5033  Y515.5943   
N10145  X255.0294  Y513.7263   
N10150  X283.9228  Y510.2388   
N10155  X315.3578  Y505.4614   
N10160  X345.6345  Y500.0082   
N10165  X371.0525  Y494.4922   
N10170  X391.4092  Y489.4928   
N10175  X390.8883  Y466.3595   
N10180  X390.2902  Y447.1458   
N10185  X388.8214  Y437.7389   
N10190  X387.3845  Y435.8220   
N10195  X385.2778  Y435.2890   
N10200  X378.4550  Y436.9467   
N10205 G0  Z0.1000 
N10210 G1  Z-3.0000  F100.00 
N10215  X362.4817  Y440.7506   F300.00 
N10220  X336.7637  Y445.8721   
N10225  X286.8747  Y454.2540   
N10230  X254.1922  Y457.7572   
N10235  X222.5332  Y459.8267   
N10240  X191.5194  Y460.4431   
N10245  X160.7711  Y459.5870   
N10250  X129.9089  Y457.2384   
N10255  X98.5542  Y453.3769   
N10260  X66.3276  Y447.9836   
N10265  X32.8504  Y441.0386   
N10270  X10.3586  Y436.9027   
N10275  X7.8841  Y462.6585   
N10280  X6.9896  Y483.0267   
N10285  X7.4581  Y487.5602   
N10290  X8.5708  Y489.6523   
N10295  X12.6715  Y491.4627   
N10300  X20.9558  Y493.8637   
N10305  X47.0138  Y499.8063   
N10310  X80.6242  Y506.2131   
N10315  X115.6648  Y511.8178   
N10320  X145.8974  Y514.5452   
N10325  X183.8184  Y515.8356   
N10330  X222.5033  Y515.5943   
N10335  X255.0294  Y513.7263   
N10340  X283.9228  Y510.2388   
N10345  X315.3578  Y505.4614   
N10350  X345.6345  Y500.0082   
N10355  X371.0525  Y494.4922   
N10360  X391.4092  Y489.4928   
N10365  X390.8883  Y466.3595   
N10370  X390.2902  Y447.1458   
N10375  X388.8214  Y437.7389   
N10380  X387.3845  Y435.8220   
N10385  X385.2778  Y435.2890   
N10390  X378.4550  Y436.9467   
N10395 G0  Z5.0000 
N10400  X272.9688  Y355.3216 
N10405  Z0.1000 
N10410 G1  Z-1.0000  F100.00 
N10415  X262.6234  Y356.6703   F300.00 
N10420  X236.7721  Y357.1723   
N10425  X201.7190   
N10430  Y386.7482   
N10435  Y416.3246   
N10440  X293.3481  Y416.8214   
N10445  X372.4563  Y416.7668   
N10450  X383.5713  Y415.7837   
N10455  X385.4173  Y414.9433   
N10460  X386.0841  Y413.8291   
N10465  X386.5006  Y402.8573   
N10470  X385.5422  Y383.7680   
N10475  X383.8074  Y364.9767   
N10480  X381.8942  Y354.8982   
N10485  X364.4956  Y353.7321   
N10490  X327.4339  Y353.4651   
N10495  X290.3711  Y354.0206   
N10500  X272.9688  Y355.3216   
N10505 G0  Z0.1000 
N10510 G1  Z-2.0000  F100.00 
N10515  X262.6234  Y356.6703   F300.00 
N10520  X236.7721  Y357.1723   
N10525  X201.7190   
N10530  Y386.7482   
N10535  Y416.3246   
N10540  X293.3481  Y416.8214   
N10545  X372.4563  Y416.7668   
N10550  X383.5713  Y415.7837   
N10555  X385.4173  Y414.9433   
N10560  X386.0841  Y413.8291   
N10565  X386.5006  Y402.8573   
N10570  X385.5422  Y383.7680   
N10575  X383.8074  Y364.9767   
N10580  X381.8942  Y354.8982   
N10585  X364.4956  Y353.7321   
N10590  X327.4339  Y353.4651   
N10595  X290.3711  Y354.0206   
N10600  X272.9688  Y355.3216   
N10605 G0  Z0.1000 
N10610 G1  Z-3.0000  F100.00 
N10615  X262.6234  Y356.6703   F300.00 
N10620  X236.7721  Y357.1723   
N10625  X201.7190   
N10630  Y386.7482   
N10635  Y416.3246   
N10640  X293.3481  Y416.8214   
N10645  X372.4563  Y416.7668   
N10650  X383.5713  Y415.7837   
N10655  X385.4173  Y414.9433   
N10660  X386.0841  Y413.8291   
N10665  X386.5006  Y402.8573   
N10670  X385.5422  Y383.7680   
N10675  X383.8074  Y364.9767   
N10680  X381.8942  Y354.8982   
N10685  X364.4956  Y353.7321   
N10690  X327.4339  Y353.4651   
N10695  X290.3711  Y354.0206   
N10700  X272.9688  Y355.3216   
N10705 G0  Z5.0000 
N10710  X373.1918  Y269.2673 
N10715  Z0.1000 
N10720 G1  Z-1.0000  F100.00 
N10725  X371.0525  Y248.9101   F300.00 
N10730  X323.3987  Y248.4164   
N10735  X275.7444  Y247.9223   
N10740  Y274.7876   
N10745  Y301.6534   
N10750  X325.7116   
N10755  X375.6788   
N10760  X375.5052  Y295.6385   
N10765  X373.1918  Y269.2673   
N10770 G0  Z0.1000 
N10775 G1  Z-2.0000  F100.00 
N10780  X371.0525  Y248.9101   F300.00 
N10785  X323.3987  Y248.4164   
N10790  X275.7444  Y247.9223   
N10795  Y274.7876   
N10800  Y301.6534   
N10805  X325.7116   
N10810  X375.6788   
N10815  X375.5052  Y295.6385   
N10820  X373.1918  Y269.2673   
N10825 G0  Z0.1000 
N10830 G1  Z-3.0000  F100.00 
N10835  X371.0525  Y248.9101   F300.00 
N10840  X323.3987  Y248.4164   
N10845  X275.7444  Y247.9223   
N10850  Y274.7876   
N10855  Y301.6534   
N10860  X325.7116   
N10865  X375.6788   
N10870  X375.5052  Y295.6385   
N10875  X373.1918  Y269.2673   
N10880 G0  Z5.0000 
N10885  X217.0885  Y185.2395 
N10890  Z0.1000 
N10895 G1  Z-1.0000  F100.00 
N10900  X216.0786  Y187.5262   F300.00 
N10905  X216.0382  Y190.5500   
N10910  X216.8199  Y193.1876   
N10915  X218.2772  Y194.3165   
N10920  X220.9169  Y196.6929   
N10925  X225.4085  Y202.4073   
N10930  X229.9267  Y209.7799   
N10935  X229.6267  Y211.6490   
N10940  X227.8898  Y213.5113   
N10945  X224.7826  Y215.7602   
N10950  X222.3606  Y216.3734   
N10955  X220.7868  Y215.3668   
N10960  X220.2255  Y212.7569   
N10965  X219.7791  Y210.8511   
N10970  X218.3789  Y209.0748   
N10975  X212.3603  Y205.5852   
N10980  X205.2826  Y201.7536   
N10985  X199.3106  Y197.3230   
N10990  X194.6072  Y193.8927   
N10995  X190.5799  Y192.4658   
N11000  X188.9699  Y192.7921   
N11005  X188.1295  Y193.6965   
N11010  X188.5508  Y196.7910   
N11015  X191.4292  Y200.8529   
N11020  X196.3525  Y204.9862   
N11025  X207.2047  Y212.5250   
N11030  X209.0974  Y214.4026   
N11035  X209.9950  Y216.1306   
N11040  X209.5548  Y219.3946   
N11045  X207.1092  Y223.6285   
N11050  X202.5489  Y227.3531   
N11055  X195.4140  Y230.4351   
N11060  X186.0705  Y232.7543   
N11065  X174.8852  Y234.1906   
N11070  X161.9304  Y235.4418   
N11075  X159.1464  Y235.0221   
N11080  X158.6691  Y232.2544   
N11085  X160.2250  Y223.5587   
N11090  X161.2348  Y221.5569   
N11095  X162.5626  Y220.6315   
N11100  X164.1269  Y219.0882   
N11105  X164.6452  Y216.4679   
N11110  X164.1190  Y213.6986   
N11115  X162.5505  Y211.7083   
N11120  X159.7760  Y212.2607   
N11125  X156.0361  Y215.7628   
N11130  X153.8003  Y218.9791   
N11135  X152.5492  Y222.3260   
N11140  X152.1788  Y233.1026   
N11145  X153.3104  Y243.3814   
N11150  X154.7588  Y245.2296   
N11155  X157.2862  Y246.1361   
N11160  X160.2580  Y247.3127   
N11165  X159.4853  Y248.7060   
N11170  X157.2516  Y251.1580   
N11175  X155.2640  Y254.9623   
N11180  X153.2857  Y258.4860   
N11185  X152.1909  Y258.2709   
N11190  X150.6271  Y256.9054   
N11195  X147.9071  Y252.7921   
N11200  X145.3350  Y246.8689   
N11205  X142.5180  Y241.2894   
N11210  X140.8482  Y239.7681   
N11215  X138.9823  Y239.0656   
N11220  X136.3588  Y238.8579   
N11225  X135.3468  Y239.7093   
N11230  X137.7788  Y247.1191   
N11235  X139.5404  Y253.5370   
N11240  X144.3504  Y261.8643   
N11245  X148.3572  Y267.1543   
N11250  X151.5561  Y269.6214   
N11255  X154.7514  Y269.5716   
N11260  X158.7483  Y267.3085   
N11265  X161.0874  Y265.8181   
N11270  X162.5579  Y265.5831   
N11275  X163.6464  Y266.7865   
N11280  X164.8388  Y269.6136   
N11285  X171.3112  Y280.7018   
N11290  X175.6537  Y287.7014   
N11295  X174.9481  Y288.0964   
N11300  X172.2601  Y286.0589   
N11305  X170.1927  Y284.3514   
N11310  X168.6667  Y283.8546   
N11315  X164.8577  Y286.6974   
N11320  X161.0061  Y291.4648   
N11325  X172.4390  Y303.5325   
N11330  X181.4483  Y311.4423   
N11335  X183.9695  Y312.7684   
N11340  X185.2747  Y312.4164   
N11345  X188.5397  Y310.9014   
N11350  X194.9355  Y310.6549   
N11355  X201.1273  Y310.4324   
N11360  X204.4165  Y309.1839   
N11365  X206.3354  Y307.7864   
N11370  X209.2317  Y307.2051   
N11375  X211.6285  Y306.8505   
N11380  X212.6667  Y305.8281   
N11385  X212.3304  Y304.1987   
N11390  X210.6030  Y302.0232   
N11395  X209.4530  Y300.2653   
N11400  X211.3017  Y299.8027   
N11405  X214.0401  Y298.9869   
N11410  X216.5250  Y297.0265   
N11415  X217.7342  Y294.7535   
N11420  X215.3636  Y294.1255   
N11425  X213.2348  Y293.6702   
N11430  X216.0624  Y291.9920   
N11435  X218.9833  Y289.9309   
N11440  X220.0576  Y287.5797   
N11445  X219.2734  Y285.1309   
N11450  X216.6189  Y282.7760   
N11455  X214.1922  Y280.4521   
N11460  X215.1711  Y277.9220   
N11465  X216.0120  Y276.4558   
N11470  X215.9003  Y274.9932   
N11475  X212.4254  Y271.1013   
N11480  X205.0827  Y265.9928   
N11485  X203.7534  Y265.2311   
N11490  X203.4717  Y264.3367   
N11495  X205.7988  Y262.2819   
N11500  X211.5582  Y260.0938   
N11505  X220.2444  Y258.0374   
N11510  X230.4435  Y255.6039   
N11515  X236.2108  Y253.3256   
N11520  X238.7981  Y251.8158   
N11525  X239.8530  Y252.5198   
N11530  X239.3048  Y254.9969   
N11535  X237.0837  Y258.8049   
N11540  X234.0144  Y264.8765   
N11545  X233.2201  Y270.9995   
N11550  X234.6795  Y276.7931   
N11555  X238.3711  Y281.8753   
N11560  X242.8742  Y285.3875   
N11565  X246.4120  Y286.8479   
N11570  X249.4095  Y287.9354   
N11575  X252.6121  Y290.5494   
N11580  X257.5260  Y294.2509   
N11585  X258.7236  Y292.5665   
N11590  X259.0509  Y288.7585   
N11595  X258.5489  Y284.6924   
N11600  X257.2595  Y282.2341   
N11605  X256.7627  Y280.1321   
N11610  X258.5164  Y276.3918   
N11615  X260.4836  Y272.0482   
N11620  X259.6883  Y268.6132   
N11625  X258.7016  Y265.5616   
N11630  X259.6673  Y262.5437   
N11635  X260.6420  Y258.2473   
N11640  X259.8368  Y251.4496   
N11645  X258.7231  Y246.8930   
N11650  X257.3943  Y244.4778   
N11655  X255.1265  Y243.5252   
N11660  X251.1973  Y243.3584   
N11665  X245.4200  Y242.5783   
N11670  X244.4930  Y241.1477   
N11675  X244.2832  Y238.6182   
N11680  X243.1968  Y234.1030   
N11685  X240.5833  Y229.9047   
N11690  X238.0537  Y226.7839   
N11695  X237.1016  Y224.0372   
N11700  X237.6749  Y220.8487   
N11705  X239.7208  Y216.4023   
N11710  X241.1991  Y213.1509   
N11715  X241.3340  Y210.6208   
N11720  X239.8530  Y207.7072   
N11725  X236.4825  Y203.3049   
N11730  X222.8731  Y187.6249   
N11735  X219.2351  Y184.9867   
N11740  X217.0890  Y185.2395   
N11745  X217.0885   
N11750 G0  Z0.1000 
N11755 G1  Z-2.0000  F100.00 
N11760  X216.0786  Y187.5262   F300.00 
N11765  X216.0382  Y190.5500   
N11770  X216.8199  Y193.1876   
N11775  X218.2772  Y194.3165   
N11780  X220.9169  Y196.6929   
N11785  X225.4085  Y202.4073   
N11790  X229.9267  Y209.7799   
N11795  X229.6267  Y211.6490   
N11800  X227.8898  Y213.5113   
N11805  X224.7826  Y215.7602   
N11810  X222.3606  Y216.3734   
N11815  X220.7868  Y215.3668   
N11820  X220.2255  Y212.7569   
N11825  X219.7791  Y210.8511   
N11830  X218.3789  Y209.0748   
N11835  X212.3603  Y205.5852   
N11840  X205.2826  Y201.7536   
N11845  X199.3106  Y197.3230   
N11850  X194.6072  Y193.8927   
N11855  X190.5799  Y192.4658   
N11860  X188.9699  Y192.7921   
N11865  X188.1295  Y193.6965   
N11870  X188.5508  Y196.7910   
N11875  X191.4292  Y200.8529   
N11880  X196.3525  Y204.9862   
N11885  X207.2047  Y212.5250   
N11890  X209.0974  Y214.4026   
N11895  X209.9950  Y216.1306   
N11900  X209.5548  Y219.3946   
N11905  X207.1092  Y223.6285   
N11910  X202.5489  Y227.3531   
N11915  X195.4140  Y230.4351   
N11920  X186.0705  Y232.7543   
N11925  X174.8852  Y234.1906   
N11930  X161.9304  Y235.4418   
N11935  X159.1464  Y235.0221   
N11940  X158.6691  Y232.2544   
N11945  X160.2250  Y223.5587   
N11950  X161.2348  Y221.5569   
N11955  X162.5626  Y220.6315   
N11960  X164.1269  Y219.0882   
N11965  X164.6452  Y216.4679   
N11970  X164.1190  Y213.6986   
N11975  X162.5505  Y211.7083   
N11980  X159.7760  Y212.2607   
N11985  X156.0361  Y215.7628   
N11990  X153.8003  Y218.9791   
N11995  X152.5492  Y222.3260   
N12000  X152.1788  Y233.1026   
N12005  X153.3104  Y243.3814   
N12010  X154.7588  Y245.2296   
N12015  X157.2862  Y246.1361   
N12020  X160.2580  Y247.3127   
N12025  X159.4853  Y248.7060   
N12030  X157.2516  Y251.1580   
N12035  X155.2640  Y254.9623   
N12040  X153.2857  Y258.4860   
N12045  X152.1909  Y258.2709   
N12050  X150.6271  Y256.9054   
N12055  X147.9071  Y252.7921   
N12060  X145.3350  Y246.8689   
N12065  X142.5180  Y241.2894   
N12070  X140.8482  Y239.7681   
N12075  X138.9823  Y239.0656   
N12080  X136.3588  Y238.8579   
N12085  X135.3468  Y239.7093   
N12090  X137.7788  Y247.1191   
N12095  X139.5404  Y253.5370   
N12100  X144.3504  Y261.8643   
N12105  X148.3572  Y267.1543   
N12110  X151.5561  Y269.6214   
N12115  X154.7514  Y269.5716   
N12120  X158.7483  Y267.3085   
N12125  X161.0874  Y265.8181   
N12130  X162.5579  Y265.5831   
N12135  X163.6464  Y266.7865   
N12140  X164.8388  Y269.6136   
N12145  X171.3112  Y280.7018   
N12150  X175.6537  Y287.7014   
N12155  X174.9481  Y288.0964   
N12160  X172.2601  Y286.0589   
N12165  X170.1927  Y284.3514   
N12170  X168.6667  Y283.8546   
N12175  X164.8577  Y286.6974   
N12180  X161.0061  Y291.4648   
N12185  X172.4390  Y303.5325   
N12190  X181.4483  Y311.4423   
N12195  X183.9695  Y312.7684   
N12200  X185.2747  Y312.4164   
N12205  X188.5397  Y310.9014   
N12210  X194.9355  Y310.6549   
N12215  X201.1273  Y310.4324   
N12220  X204.4165  Y309.1839   
N12225  X206.3354  Y307.7864   
N12230  X209.2317  Y307.2051   
N12235  X211.6285  Y306.8505   
N12240  X212.6667  Y305.8281   
N12245  X212.3304  Y304.1987   
N12250  X210.6030  Y302.0232   
N12255  X209.4530  Y300.2653   
N12260  X211.3017  Y299.8027   
N12265  X214.0401  Y298.9869   
N12270  X216.5250  Y297.0265   
N12275  X217.7342  Y294.7535   
N12280  X215.3636  Y294.1255   
N12285  X213.2348  Y293.6702   
N12290  X216.0624  Y291.9920   
N12295  X218.9833  Y289.9309   
N12300  X220.0576  Y287.5797   
N12305  X219.2734  Y285.1309   
N12310  X216.6189  Y282.7760   
N12315  X214.1922  Y280.4521   
N12320  X215.1711  Y277.9220   
N12325  X216.0120  Y276.4558   
N12330  X215.9003  Y274.9932   
N12335  X212.4254  Y271.1013   
N12340  X205.0827  Y265.9928   
N12345  X203.7534  Y265.2311   
N12350  X203.4717  Y264.3367   
N12355  X205.7988  Y262.2819   
N12360  X211.5582  Y260.0938   
N12365  X220.2444  Y258.0374   
N12370  X230.4435  Y255.6039   
N12375  X236.2108  Y253.3256   
N12380  X238.7981  Y251.8158   
N12385  X239.8530  Y252.5198   
N12390  X239.3048  Y254.9969   
N12395  X237.0837  Y258.8049   
N12400  X234.0144  Y264.8765   
N12405  X233.2201  Y270.9995   
N12410  X234.6795  Y276.7931   
N12415  X238.3711  Y281.8753   
N12420  X242.8742  Y285.3875   
N12425  X246.4120  Y286.8479   
N12430  X249.4095  Y287.9354   
N12435  X252.6121  Y290.5494   
N12440  X257.5260  Y294.2509   
N12445  X258.7236  Y292.5665   
N12450  X259.0509  Y288.7585   
N12455  X258.5489  Y284.6924   
N12460  X257.2595  Y282.2341   
N12465  X256.7627  Y280.1321   
N12470  X258.5164  Y276.3918   
N12475  X260.4836  Y272.0482   
N12480  X259.6883  Y268.6132   
N12485  X258.7016  Y265.5616   
N12490  X259.6673  Y262.5437   
N12495  X260.6420  Y258.2473   
N12500  X259.8368  Y251.4496   
N12505  X258.7231  Y246.8930   
N12510  X257.3943  Y244.4778   
N12515  X255.1265  Y243.5252   
N12520  X251.1973  Y243.3584   
N12525  X245.4200  Y242.5783   
N12530  X244.4930  Y241.1477   
N12535  X244.2832  Y238.6182   
N12540  X243.1968  Y234.1030   
N12545  X240.5833  Y229.9047   
N12550  X238.0537  Y226.7839   
N12555  X237.1016  Y224.0372   
N12560  X237.6749  Y220.8487   
N12565  X239.7208  Y216.4023   
N12570  X241.1991  Y213.1509   
N12575  X241.3340  Y210.6208   
N12580  X239.8530  Y207.7072   
N12585  X236.4825  Y203.3049   
N12590  X222.8731  Y187.6249   
N12595  X219.2351  Y184.9867   
N12600  X217.0890  Y185.2395   
N12605  X217.0885   
N12610 G0  Z0.1000 
N12615 G1  Z-3.0000  F100.00 
N12620  X216.0786  Y187.5262   F300.00 
N12625  X216.0382  Y190.5500   
N12630  X216.8199  Y193.1876   
N12635  X218.2772  Y194.3165   
N12640  X220.9169  Y196.6929   
N12645  X225.4085  Y202.4073   
N12650  X229.9267  Y209.7799   
N12655  X229.6267  Y211.6490   
N12660  X227.8898  Y213.5113   
N12665  X224.7826  Y215.7602   
N12670  X222.3606  Y216.3734   
N12675  X220.7868  Y215.3668   
N12680  X220.2255  Y212.7569   
N12685  X219.7791  Y210.8511   
N12690  X218.3789  Y209.0748   
N12695  X212.3603  Y205.5852   
N12700  X205.2826  Y201.7536   
N12705  X199.3106  Y197.3230   
N12710  X194.6072  Y193.8927   
N12715  X190.5799  Y192.4658   
N12720  X188.9699  Y192.7921   
N12725  X188.1295  Y193.6965   
N12730  X188.5508  Y196.7910   
N12735  X191.4292  Y200.8529   
N12740  X196.3525  Y204.9862   
N12745  X207.2047  Y212.5250   
N12750  X209.0974  Y214.4026   
N12755  X209.9950  Y216.1306   
N12760  X209.5548  Y219.3946   
N12765  X207.1092  Y223.6285   
N12770  X202.5489  Y227.3531   
N12775  X195.4140  Y230.4351   
N12780  X186.0705  Y232.7543   
N12785  X174.8852  Y234.1906   
N12790  X161.9304  Y235.4418   
N12795  X159.1464  Y235.0221   
N12800  X158.6691  Y232.2544   
N12805  X160.2250  Y223.5587   
N12810  X161.2348  Y221.5569   
N12815  X162.5626  Y220.6315   
N12820  X164.1269  Y219.0882   
N12825  X164.6452  Y216.4679   
N12830  X164.1190  Y213.6986   
N12835  X162.5505  Y211.7083   
N12840  X159.7760  Y212.2607   
N12845  X156.0361  Y215.7628   
N12850  X153.8003  Y218.9791   
N12855  X152.5492  Y222.3260   
N12860  X152.1788  Y233.1026   
N12865  X153.3104  Y243.3814   
N12870  X154.7588  Y245.2296   
N12875  X157.2862  Y246.1361   
N12880  X160.2580  Y247.3127   
N12885  X159.4853  Y248.7060   
N12890  X157.2516  Y251.1580   
N12895  X155.2640  Y254.9623   
N12900  X153.2857  Y258.4860   
N12905  X152.1909  Y258.2709   
N12910  X150.6271  Y256.9054   
N12915  X147.9071  Y252.7921   
N12920  X145.3350  Y246.8689   
N12925  X142.5180  Y241.2894   
N12930  X140.8482  Y239.7681   
N12935  X138.9823  Y239.0656   
N12940  X136.3588  Y238.8579   
N12945  X135.3468  Y239.7093   
N12950  X137.7788  Y247.1191   
N12955  X139.5404  Y253.5370   
N12960  X144.3504  Y261.8643   
N12965  X148.3572  Y267.1543   
N12970  X151.5561  Y269.6214   
N12975  X154.7514  Y269.5716   
N12980  X158.7483  Y267.3085   
N12985  X161.0874  Y265.8181   
N12990  X162.5579  Y265.5831   
N12995  X163.6464  Y266.7865   
N13000  X164.8388  Y269.6136   
N13005  X171.3112  Y280.7018   
N13010  X175.6537  Y287.7014   
N13015  X174.9481  Y288.0964   
N13020  X172.2601  Y286.0589   
N13025  X170.1927  Y284.3514   
N13030  X168.6667  Y283.8546   
N13035  X164.8577  Y286.6974   
N13040  X161.0061  Y291.4648   
N13045  X172.4390  Y303.5325   
N13050  X181.4483  Y311.4423   
N13055  X183.9695  Y312.7684   
N13060  X185.2747  Y312.4164   
N13065  X188.5397  Y310.9014   
N13070  X194.9355  Y310.6549   
N13075  X201.1273  Y310.4324   
N13080  X204.4165  Y309.1839   
N13085  X206.3354  Y307.7864   
N13090  X209.2317  Y307.2051   
N13095  X211.6285  Y306.8505   
N13100  X212.6667  Y305.8281   
N13105  X212.3304  Y304.1987   
N13110  X210.6030  Y302.0232   
N13115  X209.4530  Y300.2653   
N13120  X211.3017  Y299.8027   
N13125  X214.0401  Y298.9869   
N13130  X216.5250  Y297.0265   
N13135  X217.7342  Y294.7535   
N13140  X215.3636  Y294.1255   
N13145  X213.2348  Y293.6702   
N13150  X216.0624  Y291.9920   
N13155  X218.9833  Y289.9309   
N13160  X220.0576  Y287.5797   
N13165  X219.2734  Y285.1309   
N13170  X216.6189  Y282.7760   
N13175  X214.1922  Y280.4521   
N13180  X215.1711  Y277.9220   
N13185  X216.0120  Y276.4558   
N13190  X215.9003  Y274.9932   
N13195  X212.4254  Y271.1013   
N13200  X205.0827  Y265.9928   
N13205  X203.7534  Y265.2311   
N13210  X203.4717  Y264.3367   
N13215  X205.7988  Y262.2819   
N13220  X211.5582  Y260.0938   
N13225  X220.2444  Y258.0374   
N13230  X230.4435  Y255.6039   
N13235  X236.2108  Y253.3256   
N13240  X238.7981  Y251.8158   
N13245  X239.8530  Y252.5198   
N13250  X239.3048  Y254.9969   
N13255  X237.0837  Y258.8049   
N13260  X234.0144  Y264.8765   
N13265  X233.2201  Y270.9995   
N13270  X234.6795  Y276.7931   
N13275  X238.3711  Y281.8753   
N13280  X242.8742  Y285.3875   
N13285  X246.4120  Y286.8479   
N13290  X249.4095  Y287.9354   
N13295  X252.6121  Y290.5494   
N13300  X257.5260  Y294.2509   
N13305  X258.7236  Y292.5665   
N13310  X259.0509  Y288.7585   
N13315  X258.5489  Y284.6924   
N13320  X257.2595  Y282.2341   
N13325  X256.7627  Y280.1321   
N13330  X258.5164  Y276.3918   
N13335  X260.4836  Y272.0482   
N13340  X259.6883  Y268.6132   
N13345  X258.7016  Y265.5616   
N13350  X259.6673  Y262.5437   
N13355  X260.6420  Y258.2473   
N13360  X259.8368  Y251.4496   
N13365  X258.7231  Y246.8930   
N13370  X257.3943  Y244.4778   
N13375  X255.1265  Y243.5252   
N13380  X251.1973  Y243.3584   
N13385  X245.4200  Y242.5783   
N13390  X244.4930  Y241.1477   
N13395  X244.2832  Y238.6182   
N13400  X243.1968  Y234.1030   
N13405  X240.5833  Y229.9047   
N13410  X238.0537  Y226.7839   
N13415  X237.1016  Y224.0372   
N13420  X237.6749  Y220.8487   
N13425  X239.7208  Y216.4023   
N13430  X241.1991  Y213.1509   
N13435  X241.3340  Y210.6208   
N13440  X239.8530  Y207.7072   
N13445  X236.4825  Y203.3049   
N13450  X222.8731  Y187.6249   
N13455  X219.2351  Y184.9867   
N13460  X217.0890  Y185.2395   
N13465  X217.0885   
N13470 G0  Z5.0000 
N13475  X214.9466  Y170.9251 
N13480  Z0.1000 
N13485 G1  Z-1.0000  F100.00 
N13490  X204.1767  Y169.1813   F300.00 
N13495  X193.7883  Y169.0817   
N13500  X183.8457  Y170.5988   
N13505  X174.4136  Y173.7054   
N13510  X165.5548  Y178.3742   
N13515  X157.3345  Y184.5786   
N13520  X149.8156  Y192.2906   
N13525  X143.0630  Y201.4835   
N13530  X136.3499  Y213.0921   
N13535  X134.2777  Y218.8862   
N13540  X132.8823  Y225.9845   
N13545  X131.5882  Y248.0251   
N13550  X131.3951  Y287.0808   
N13555  Y347.9191   
N13560  X199.0116   
N13565  X266.6281   
N13570  X266.0972  Y283.6096   
N13575  X265.5663  Y219.3001   
N13580  X260.6892  Y208.8996   
N13585  X256.8896  Y201.7715   
N13590  X252.4831  Y195.2750   
N13595  X247.4989  Y189.4342   
N13600  X241.9666  Y184.2743   
N13605  X235.9155  Y179.8184   
N13610  X229.3754  Y176.0923   
N13615  X222.3763  Y173.1194   
N13620  X214.9466  Y170.9251   
N13625 G0  Z0.1000 
N13630 G1  Z-2.0000  F100.00 
N13635  X204.1767  Y169.1813   F300.00 
N13640  X193.7883  Y169.0817   
N13645  X183.8457  Y170.5988   
N13650  X174.4136  Y173.7054   
N13655  X165.5548  Y178.3742   
N13660  X157.3345  Y184.5786   
N13665  X149.8156  Y192.2906   
N13670  X143.0630  Y201.4835   
N13675  X136.3499  Y213.0921   
N13680  X134.2777  Y218.8862   
N13685  X132.8823  Y225.9845   
N13690  X131.5882  Y248.0251   
N13695  X131.3951  Y287.0808   
N13700  Y347.9191   
N13705  X199.0116   
N13710  X266.6281   
N13715  X266.0972  Y283.6096   
N13720  X265.5663  Y219.3001   
N13725  X260.6892  Y208.8996   
N13730  X256.8896  Y201.7715   
N13735  X252.4831  Y195.2750   
N13740  X247.4989  Y189.4342   
N13745  X241.9666  Y184.2743   
N13750  X235.9155  Y179.8184   
N13755  X229.3754  Y176.0923   
N13760  X222.3763  Y173.1194   
N13765  X214.9466  Y170.9251   
N13770 G0  Z0.1000 
N13775 G1  Z-3.0000  F100.00 
N13780  X204.1767  Y169.1813   F300.00 
N13785  X193.7883  Y169.0817   
N13790  X183.8457  Y170.5988   
N13795  X174.4136  Y173.7054   
N13800  X165.5548  Y178.3742   
N13805  X157.3345  Y184.5786   
N13810  X149.8156  Y192.2906   
N13815  X143.0630  Y201.4835   
N13820  X136.3499  Y213.0921   
N13825  X134.2777  Y218.8862   
N13830  X132.8823  Y225.9845   
N13835  X131.5882  Y248.0251   
N13840  X131.3951  Y287.0808   
N13845  Y347.9191   
N13850  X199.0116   
N13855  X266.6281   
N13860  X266.0972  Y283.6096   
N13865  X265.5663  Y219.3001   
N13870  X260.6892  Y208.8996   
N13875  X256.8896  Y201.7715   
N13880  X252.4831  Y195.2750   
N13885  X247.4989  Y189.4342   
N13890  X241.9666  Y184.2743   
N13895  X235.9155  Y179.8184   
N13900  X229.3754  Y176.0923   
N13905  X222.3763  Y173.1194   
N13910  X214.9466  Y170.9251   
N13915 G0  Z5.0000 
N13920  X214.6837  Y99.9150 
N13925  Z0.1000 
N13930 G1  Z-1.0000  F100.00 
N13935  X214.0238  Y104.0787   F300.00 
N13940  X215.6679  Y108.3011   
N13945  X218.9523  Y111.5735   
N13950  X223.2146  Y112.8886   
N13955  X226.4818  Y113.6640   
N13960  X227.6280  Y115.8751   
N13965  X228.9605  Y120.9510   
N13970  X232.3194  Y126.8967   
N13975  X236.7490  Y132.3168   
N13980  X241.2946  Y135.8169   
N13985  X247.5766  Y137.9719   
N13990  X242.4755  Y128.3876   
N13995  X239.2823  Y122.2688   
N14000  X238.7960  Y118.9728   
N14005  X239.4774  Y118.5788   
N14010  X240.7270  Y119.1255   
N14015  X244.7879  Y123.3558   
N14020  X249.9792  Y129.5979   
N14025  X254.5085  Y133.9179   
N14030  X258.9402  Y136.7664   
N14035  X263.8378  Y138.5951   
N14040  X268.7249  Y139.6039   
N14045  X271.5997  Y139.5383   
N14050  X272.0571  Y138.5280   
N14055  X269.6933  Y136.7040   
N14060  X261.8014  Y129.9026   
N14065  X258.2677  Y125.4835   
N14070  X258.9187  Y124.7402   
N14075  X261.0963  Y124.3000   
N14080  X265.2773  Y125.2810   
N14085  X269.9288  Y129.4022   
N14090  X275.2408  Y133.8943   
N14095  X281.2967  Y136.2229   
N14100  X287.7738  Y137.3240   
N14105  X282.2221  Y132.5524   
N14110  X278.2619  Y128.3646   
N14115  X278.2310  Y127.1003   
N14120  X279.3363  Y126.0217   
N14125  X282.6129  Y125.3618   
N14130  X287.1097  Y126.9036   
N14135  X291.3048  Y128.5712   
N14140  X295.4223  Y129.4394   
N14145  X298.5568  Y129.4038   
N14150  X299.8027  Y128.3604   
N14155  X296.6714  Y124.8865   
N14160  X295.0971  Y123.4848   
N14165  X294.7776  Y122.0569   
N14170  X298.3941  Y116.8272   
N14175  X304.1164  Y107.8961   
N14180  X305.1084  Y104.4165   
N14185  X304.5796  Y102.2431   
N14190  X303.0656  Y102.4514   
N14195  X300.9898  Y104.5156   
N14200  X298.5295  Y106.6130   
N14205  X296.0964  Y106.4078   
N14210  X294.6281  Y105.8276   
N14215  X294.9507  Y106.9718   
N14220  X295.1307  Y108.2423   
N14225  X294.2661  Y109.5622   
N14230  X290.0511  Y112.0792   
N14235  X283.6049  Y113.9845   
N14240  X276.2255  Y114.7394   
N14245  X261.8895  Y113.0811   
N14250  X246.6019  Y109.0150   
N14255  X234.4393  Y103.9050   
N14260  X230.8039  Y101.3838   
N14265  X229.4787  Y99.1129   
N14270  X228.9458  Y97.6530   
N14275  X227.5189  Y96.6667   
N14280  X223.0189  Y96.0603   
N14285  X218.0506  Y97.1803   
N14290  X214.6837  Y99.9150   
N14295 G0  Z0.1000 
N14300 G1  Z-2.0000  F100.00 
N14305  X214.0238  Y104.0787   F300.00 
N14310  X215.6679  Y108.3011   
N14315  X218.9523  Y111.5735   
N14320  X223.2146  Y112.8886   
N14325  X226.4818  Y113.6640   
N14330  X227.6280  Y115.8751   
N14335  X228.9605  Y120.9510   
N14340  X232.3194  Y126.8967   
N14345  X236.7490  Y132.3168   
N14350  X241.2946  Y135.8169   
N14355  X247.5766  Y137.9719   
N14360  X242.4755  Y128.3876   
N14365  X239.2823  Y122.2688   
N14370  X238.7960  Y118.9728   
N14375  X239.4774  Y118.5788   
N14380  X240.7270  Y119.1255   
N14385  X244.7879  Y123.3558   
N14390  X249.9792  Y129.5979   
N14395  X254.5085  Y133.9179   
N14400  X258.9402  Y136.7664   
N14405  X263.8378  Y138.5951   
N14410  X268.7249  Y139.6039   
N14415  X271.5997  Y139.5383   
N14420  X272.0571  Y138.5280   
N14425  X269.6933  Y136.7040   
N14430  X261.8014  Y129.9026   
N14435  X258.2677  Y125.4835   
N14440  X258.9187  Y124.7402   
N14445  X261.0963  Y124.3000   
N14450  X265.2773  Y125.2810   
N14455  X269.9288  Y129.4022   
N14460  X275.2408  Y133.8943   
N14465  X281.2967  Y136.2229   
N14470  X287.7738  Y137.3240   
N14475  X282.2221  Y132.5524   
N14480  X278.2619  Y128.3646   
N14485  X278.2310  Y127.1003   
N14490  X279.3363  Y126.0217   
N14495  X282.6129  Y125.3618   
N14500  X287.1097  Y126.9036   
N14505  X291.3048  Y128.5712   
N14510  X295.4223  Y129.4394   
N14515  X298.5568  Y129.4038   
N14520  X299.8027  Y128.3604   
N14525  X296.6714  Y124.8865   
N14530  X295.0971  Y123.4848   
N14535  X294.7776  Y122.0569   
N14540  X298.3941  Y116.8272   
N14545  X304.1164  Y107.8961   
N14550  X305.1084  Y104.4165   
N14555  X304.5796  Y102.2431   
N14560  X303.0656  Y102.4514   
N14565  X300.9898  Y104.5156   
N14570  X298.5295  Y106.6130   
N14575  X296.0964  Y106.4078   
N14580  X294.6281  Y105.8276   
N14585  X294.9507  Y106.9718   
N14590  X295.1307  Y108.2423   
N14595  X294.2661  Y109.5622   
N14600  X290.0511  Y112.0792   
N14605  X283.6049  Y113.9845   
N14610  X276.2255  Y114.7394   
N14615  X261.8895  Y113.0811   
N14620  X246.6019  Y109.0150   
N14625  X234.4393  Y103.9050   
N14630  X230.8039  Y101.3838   
N14635  X229.4787  Y99.1129   
N14640  X228.9458  Y97.6530   
N14645  X227.5189  Y96.6667   
N14650  X223.0189  Y96.0603   
N14655  X218.0506  Y97.1803   
N14660  X214.6837  Y99.9150   
N14665 G0  Z0.1000 
N14670 G1  Z-3.0000  F100.00 
N14675  X214.0238  Y104.0787   F300.00 
N14680  X215.6679  Y108.3011   
N14685  X218.9523  Y111.5735   
N14690  X223.2146  Y112.8886   
N14695  X226.4818  Y113.6640   
N14700  X227.6280  Y115.8751   
N14705  X228.9605  Y120.9510   
N14710  X232.3194  Y126.8967   
N14715  X236.7490  Y132.3168   
N14720  X241.2946  Y135.8169   
N14725  X247.5766  Y137.9719   
N14730  X242.4755  Y128.3876   
N14735  X239.2823  Y122.2688   
N14740  X238.7960  Y118.9728   
N14745  X239.4774  Y118.5788   
N14750  X240.7270  Y119.1255   
N14755  X244.7879  Y123.3558   
N14760  X249.9792  Y129.5979   
N14765  X254.5085  Y133.9179   
N14770  X258.9402  Y136.7664   
N14775  X263.8378  Y138.5951   
N14780  X268.7249  Y139.6039   
N14785  X271.5997  Y139.5383   
N14790  X272.0571  Y138.5280   
N14795  X269.6933  Y136.7040   
N14800  X261.8014  Y129.9026   
N14805  X258.2677  Y125.4835   
N14810  X258.9187  Y124.7402   
N14815  X261.0963  Y124.3000   
N14820  X265.2773  Y125.2810   
N14825  X269.9288  Y129.4022   
N14830  X275.2408  Y133.8943   
N14835  X281.2967  Y136.2229   
N14840  X287.7738  Y137.3240   
N14845  X282.2221  Y132.5524   
N14850  X278.2619  Y128.3646   
N14855  X278.2310  Y127.1003   
N14860  X279.3363  Y126.0217   
N14865  X282.6129  Y125.3618   
N14870  X287.1097  Y126.9036   
N14875  X291.3048  Y128.5712   
N14880  X295.4223  Y129.4394   
N14885  X298.5568  Y129.4038   
N14890  X299.8027  Y128.3604   
N14895  X296.6714  Y124.8865   
N14900  X295.0971  Y123.4848   
N14905  X294.7776  Y122.0569   
N14910  X298.3941  Y116.8272   
N14915  X304.1164  Y107.8961   
N14920  X305.1084  Y104.4165   
N14925  X304.5796  Y102.2431   
N14930  X303.0656  Y102.4514   
N14935  X300.9898  Y104.5156   
N14940  X298.5295  Y106.6130   
N14945  X296.0964  Y106.4078   
N14950  X294.6281  Y105.8276   
N14955  X294.9507  Y106.9718   
N14960  X295.1307  Y108.2423   
N14965  X294.2661  Y109.5622   
N14970  X290.0511  Y112.0792   
N14975  X283.6049  Y113.9845   
N14980  X276.2255  Y114.7394   
N14985  X261.8895  Y113.0811   
N14990  X246.6019  Y109.0150   
N14995  X234.4393  Y103.9050   
N15000  X230.8039  Y101.3838   
N15005  X229.4787  Y99.1129   
N15010  X228.9458  Y97.6530   
N15015  X227.5189  Y96.6667   
N15020  X223.0189  Y96.0603   
N15025  X218.0506  Y97.1803   
N15030  X214.6837  Y99.9150   
N15035 G0  Z5.0000 
N15040  X213.7720  Y64.7339 
N15045  Z0.1000 
N15050 G1  Z-1.0000  F100.00 
N15055  X213.5149  Y67.2892   F300.00 
N15060  X214.7650  Y70.3606   
N15065  X216.9174  Y72.9411   
N15070  X219.3652  Y74.0254   
N15075  X221.2799  Y75.0389   
N15080  X222.0763  Y77.4767   
N15085  X223.2067  Y81.4305   
N15090  X225.9593  Y85.7594   
N15095  X229.3744  Y89.2480   
N15100  X232.4941  Y90.6806   
N15105  X233.8328  Y90.5411   
N15110  X234.2614  Y89.9656   
N15115  X232.3598  Y86.5678   
N15120  X229.6214  Y81.3943   
N15125  X229.7400  Y80.0425   
N15130  X230.8668  Y79.5887   
N15135  X232.7758  Y81.2296   
N15140  X235.4166  Y85.1572   
N15145  X238.8925  Y89.4269   
N15150  X243.2088  Y92.4312   
N15155  X247.2529  Y93.6120   
N15160  X248.8241  Y93.3445   
N15165  X249.9094  Y92.4123   
N15170  X251.8294  Y91.2461   
N15175  X255.3106  Y92.4905   
N15180  X258.6176  Y93.7547   
N15185  X260.3986  Y93.5271   
N15190  X260.3157  Y92.1301   
N15195  X258.0311  Y89.8880   
N15200  X255.9307  Y87.6317   
N15205  X255.8840  Y85.8665   
N15210  X257.5275  Y85.5097   
N15215  X259.4900  Y86.6402   
N15220  X262.3532  Y88.1873   
N15225  X266.1628  Y88.8304   
N15230  X269.3555  Y88.3215   
N15235  X268.4663  Y86.2038   
N15240  X267.2833  Y83.8038   
N15245  X268.8943  Y82.0396   
N15250  X273.2568  Y77.0114   
N15255  X275.7444  Y71.2367   
N15260  X274.3123  Y71.5289   
N15265  X270.8684  Y73.8911   
N15270  X264.6263  Y76.8923   
N15275  X256.6095  Y77.7117   
N15280  X247.2555  Y76.3625   
N15285  X237.0035  Y72.8582   
N15290  X229.0748  Y68.6751   
N15295  X225.7772  Y65.4557   
N15300  X224.1479  Y63.7052   
N15305  X220.4311  Y62.9309   
N15310  X216.3866  Y63.2388   
N15315  X213.7720  Y64.7339   
N15320 G0  Z0.1000 
N15325 G1  Z-2.0000  F100.00 
N15330  X213.5149  Y67.2892   F300.00 
N15335  X214.7650  Y70.3606   
N15340  X216.9174  Y72.9411   
N15345  X219.3652  Y74.0254   
N15350  X221.2799  Y75.0389   
N15355  X222.0763  Y77.4767   
N15360  X223.2067  Y81.4305   
N15365  X225.9593  Y85.7594   
N15370  X229.3744  Y89.2480   
N15375  X232.4941  Y90.6806   
N15380  X233.8328  Y90.5411   
N15385  X234.2614  Y89.9656   
N15390  X232.3598  Y86.5678   
N15395  X229.6214  Y81.3943   
N15400  X229.7400  Y80.0425   
N15405  X230.8668  Y79.5887   
N15410  X232.7758  Y81.2296   
N15415  X235.4166  Y85.1572   
N15420  X238.8925  Y89.4269   
N15425  X243.2088  Y92.4312   
N15430  X247.2529  Y93.6120   
N15435  X248.8241  Y93.3445   
N15440  X249.9094  Y92.4123   
N15445  X251.8294  Y91.2461   
N15450  X255.3106  Y92.4905   
N15455  X258.6176  Y93.7547   
N15460  X260.3986  Y93.5271   
N15465  X260.3157  Y92.1301   
N15470  X258.0311  Y89.8880   
N15475  X255.9307  Y87.6317   
N15480  X255.8840  Y85.8665   
N15485  X257.5275  Y85.5097   
N15490  X259.4900  Y86.6402   
N15495  X262.3532  Y88.1873   
N15500  X266.1628  Y88.8304   
N15505  X269.3555  Y88.3215   
N15510  X268.4663  Y86.2038   
N15515  X267.2833  Y83.8038   
N15520  X268.8943  Y82.0396   
N15525  X273.2568  Y77.0114   
N15530  X275.7444  Y71.2367   
N15535  X274.3123  Y71.5289   
N15540  X270.8684  Y73.8911   
N15545  X264.6263  Y76.8923   
N15550  X256.6095  Y77.7117   
N15555  X247.2555  Y76.3625   
N15560  X237.0035  Y72.8582   
N15565  X229.0748  Y68.6751   
N15570  X225.7772  Y65.4557   
N15575  X224.1479  Y63.7052   
N15580  X220.4311  Y62.9309   
N15585  X216.3866  Y63.2388   
N15590  X213.7720  Y64.7339   
N15595 G0  Z0.1000 
N15600 G1  Z-3.0000  F100.00 
N15605  X213.5149  Y67.2892   F300.00 
N15610  X214.7650  Y70.3606   
N15615  X216.9174  Y72.9411   
N15620  X219.3652  Y74.0254   
N15625  X221.2799  Y75.0389   
N15630  X222.0763  Y77.4767   
N15635  X223.2067  Y81.4305   
N15640  X225.9593  Y85.7594   
N15645  X229.3744  Y89.2480   
N15650  X232.4941  Y90.6806   
N15655  X233.8328  Y90.5411   
N15660  X234.2614  Y89.9656   
N15665  X232.3598  Y86.5678   
N15670  X229.6214  Y81.3943   
N15675  X229.7400  Y80.0425   
N15680  X230.8668  Y79.5887   
N15685  X232.7758  Y81.2296   
N15690  X235.4166  Y85.1572   
N15695  X238.8925  Y89.4269   
N15700  X243.2088  Y92.4312   
N15705  X247.2529  Y93.6120   
N15710  X248.8241  Y93.3445   
N15715  X249.9094  Y92.4123   
N15720  X251.8294  Y91.2461   
N15725  X255.3106  Y92.4905   
N15730  X258.6176  Y93.7547   
N15735  X260.3986  Y93.5271   
N15740  X260.3157  Y92.1301   
N15745  X258.0311  Y89.8880   
N15750  X255.9307  Y87.6317   
N15755  X255.8840  Y85.8665   
N15760  X257.5275  Y85.5097   
N15765  X259.4900  Y86.6402   
N15770  X262.3532  Y88.1873   
N15775  X266.1628  Y88.8304   
N15780  X269.3555  Y88.3215   
N15785  X268.4663  Y86.2038   
N15790  X267.2833  Y83.8038   
N15795  X268.8943  Y82.0396   
N15800  X273.2568  Y77.0114   
N15805  X275.7444  Y71.2367   
N15810  X274.3123  Y71.5289   
N15815  X270.8684  Y73.8911   
N15820  X264.6263  Y76.8923   
N15825  X256.6095  Y77.7117   
N15830  X247.2555  Y76.3625   
N15835  X237.0035  Y72.8582   
N15840  X229.0748  Y68.6751   
N15845  X225.7772  Y65.4557   
N15850  X224.1479  Y63.7052   
N15855  X220.4311  Y62.9309   
N15860  X216.3866  Y63.2388   
N15865  X213.7720  Y64.7339   
N15870 G0  Z5.0000 
N15875  X221.3182  Y25.4667 
N15880  Z0.1000 
N15885 G1  Z-1.0000  F100.00 
N15890  X205.1252  Y16.6552   F300.00 
N15895  X204.0267  Y37.5638   
N15900  X203.5698  Y87.8337   
N15905  Y159.0116   
N15910  X211.4350  Y161.0276   
N15915  X226.4770  Y165.8056   
N15920  X232.5943  Y167.6742   
N15925  X233.0523  Y166.7194   
N15930  X232.5166  Y164.3231   
N15935  X231.3547  Y156.8409   
N15940  X231.0436  Y155.3379   
N15945  X230.0715  Y154.3354   
N15950  X225.7473  Y153.6026   
N15955  X222.8317  Y153.3350   
N15960  X220.6599  Y152.3577   
N15965  X217.1194  Y147.2141   
N15970  X215.1139  Y141.5019   
N15975  X215.3793  Y139.6616   
N15980  X216.4506  Y137.9609   
N15985  X220.4075  Y135.7870   
N15990  X226.0091  Y135.0300   
N15995  X231.0137  Y135.7067   
N16000  X232.5917  Y136.5880   
N16005  X233.1803  Y137.8344   
N16010  X234.7330  Y140.2376   
N16015  X238.9938  Y143.1480   
N16020  X253.2437  Y149.5837   
N16025  X271.1412  Y155.3269   
N16030  X287.8987  Y158.5647   
N16035  X297.1115  Y158.5411   
N16040  X305.6545  Y156.6583   
N16045  X313.5516  Y152.9075   
N16050  X320.8282  Y147.2802   
N16055  X324.8062  Y143.9963   
N16060  X326.9329  Y143.1029   
N16065  X327.3484  Y145.8911   
N16070  X325.7657  Y150.4687   
N16075  X322.6459  Y155.8573   
N16080  X318.4503  Y161.0801   
N16085  X311.6804  Y168.1961   
N16090  X315.9202  Y170.4655   
N16095  X320.0770  Y173.7327   
N16100  X320.0623  Y174.8228   
N16105  X318.8841  Y175.4895   
N16110  X313.7274  Y175.3762   
N16115  X305.9944  Y173.0339   
N16120  X298.0526  Y170.4571   
N16125  X293.6198  Y170.6848   
N16130  X292.7857  Y171.8100   
N16135  X292.9080  Y173.5884   
N16140  X296.1274  Y179.0394   
N16145  X298.1366  Y182.0406   
N16150  X298.7367  Y184.0026   
N16155  X298.1308  Y184.9689   
N16160  X296.5229  Y184.9846   
N16165  X291.1139  Y182.3412   
N16170  X284.1368  Y176.4259   
N16175  X277.7117  Y171.3489   
N16180  X271.1286  Y168.4102   
N16185  X264.4411  Y166.9015   
N16190  X267.4648  Y171.8184   
N16195  X271.8677  Y177.3770   
N16200  X278.2058  Y183.8363   
N16205  X283.7088  Y189.4342   
N16210  X283.4103  Y190.0637   
N16215  X281.2967  Y189.6587   
N16220  X274.2210  Y186.8836   
N16225  X267.2650  Y182.6816   
N16230  X261.0475  Y177.4945   
N16235  X256.1882  Y171.7634   
N16240  X249.5375  Y163.1281   
N16245  X247.1737  Y161.4956   
N16250  X244.7926  Y161.0334   
N16255  X243.3022  Y161.5632   
N16260  X242.7640  Y163.0971   
N16265  X244.2559  Y168.5382   
N16270  X248.6871  Y176.0828   
N16275  X255.4753  Y184.4553   
N16280  X262.9827  Y193.8638   
N16285  X268.5833  Y204.0750   
N16290  X272.5093  Y215.6165   
N16295  X274.9911  Y229.0161   
N16300  X276.2213  Y238.7315   
N16305  X323.2660   
N16310  X370.3107   
N16315  X369.1356  Y227.1653   
N16320  X366.2525  Y202.6764   
N16325  X362.9906  Y181.9640   
N16330  X359.4433  Y165.5412   
N16335  X355.7056  Y153.9200   
N16340  X349.0108  Y140.5088   
N16345  X339.9967  Y126.4650   
N16350  X328.9085  Y112.1343   
N16355  X315.9910  Y97.8628   
N16360  X300.9735  Y83.4649   
