N5 (File Name = porche on Friday, November 10, 2023)
N10 (Default Mill Post)
N15  G91.1
N20 G0  Z3.0000 
N25 M3 S4000 
N30  X29.3231  Y88.1770 
N35  Z0.1000 
N40 G1  Z-0.7000  F100.00 
N45  X24.6604  Y96.8997   F300.00 
N50  X20.9889  Y106.1853   
N55  X18.8751  Y114.3263   
N60  X18.5797  Y117.4335   
N65  X18.8866  Y119.6139   
N70  X20.3240  Y120.5821   
N75  X25.0529  Y121.1368   
N80  X52.4599  Y121.4483   
N85  X85.3292   
N90  X91.4633  Y115.6893   
N95  X96.4462  Y111.4978   
N100  X101.5482  Y108.2305   
N105  X107.0059  Y105.7584   
N110  X113.0555  Y103.9532   
N115  X119.4548  Y102.3394   
N120  X122.6194  Y100.6479   
N125  X123.3231  Y99.3987   
N130  X123.6188  Y97.6817   
N135  X123.5234  Y92.2446   
N140  X123.1834  Y83.8570   
N145  X77.8078  Y83.5544   
N150  X32.4322  Y83.2518   
N155  X29.3231  Y88.1770   
N160 G0  Z0.1000 
N165 G1  Z-1.4000  F100.00 
N170  X24.6604  Y96.8997   F300.00 
N175  X20.9889  Y106.1853   
N180  X18.8751  Y114.3263   
N185  X18.5797  Y117.4335   
N190  X18.8866  Y119.6139   
N195  X20.3240  Y120.5821   
N200  X25.0529  Y121.1368   
N205  X52.4599  Y121.4483   
N210  X85.3292   
N215  X91.4633  Y115.6893   
N220  X96.4462  Y111.4978   
N225  X101.5482  Y108.2305   
N230  X107.0059  Y105.7584   
N235  X113.0555  Y103.9532   
N240  X119.4548  Y102.3394   
N245  X122.6194  Y100.6479   
N250  X123.3231  Y99.3987   
N255  X123.6188  Y97.6817   
N260  X123.5234  Y92.2446   
N265  X123.1834  Y83.8570   
N270  X77.8078  Y83.5544   
N275  X32.4322  Y83.2518   
N280  X29.3231  Y88.1770   
N285 G0  Z3.0000 
N290  X14.5882  Y159.9068 
N295  Z0.1000 
N300 G1  Z-0.7000  F100.00 
N305  X7.2099  Y255.4009   F300.00 
N310  X6.8240  Y265.4216   
N315  X7.0236  Y268.1698   
N320  X7.4846  Y269.3891   
N325  X10.2213  Y270.5390   
N330  X15.6391  Y272.0760   
N335  X32.2201  Y275.8377   
N340  X52.6349  Y279.7239   
N345  X72.2907  Y282.7862   
N350  X103.0951  Y285.6666   
N355  X116.4896  Y286.3826   
N360  X122.6912  Y286.2177   
N365  X123.1722  Y283.2630   
N370  X123.5106  Y276.0321   
N375  X123.7654  Y254.4435   
N380  X123.4667  Y232.8549   
N385  X123.1135  Y225.6237   
N390  X122.6263  Y222.6683   
N395  X115.5325  Y222.1729   
N400  X100.0715  Y221.9667   
N405  X81.6842  Y221.6470   
N410  X79.1199  Y220.9719   
N415  X78.6524  Y219.7083   
N420  X78.4760  Y218.5922   
N425  X77.8449  Y217.9008   
N430  X74.6039  Y217.4503   
N435  X71.9481  Y217.7440   
N440  X70.7265  Y218.7001   
N445  X70.8947  Y220.4316   
N450  X72.4088  Y223.0509   
N455  X73.5455  Y225.0910   
N460  X73.6770  Y226.2811   
N465  X72.2235  Y225.1824   
N470  X69.5507  Y221.7191   
N475  X67.1022  Y218.4804   
N480  X64.9330  Y216.4634   
N485  X62.6979  Y215.4286   
N490  X60.0514  Y215.1368   
N495  X58.4182  Y215.4981   
N500  X57.9871  Y216.7503   
N505  X58.7825  Y219.1467   
N510  X60.8300  Y222.9401   
N515  X62.9737  Y227.0352   
N520  X62.6651  Y227.3316   
N525  X61.4966  Y226.8074   
N530  X58.9632  Y224.1129   
N535  X56.1454  Y219.3867   
N540  X52.8654  Y214.1532   
N545  X51.0546  Y212.4771   
N550  X48.9480  Y211.2217   
N555  X45.7146  Y210.0981   
N560  X43.8064  Y210.1939   
N565  X43.4083  Y212.1962   
N570  X44.1329  Y215.6217   
N575  X45.7441  Y219.7126   
N580  X48.0061  Y223.7093   
N585  X50.0057  Y227.0162   
N590  X49.7035  Y227.2201   
N595  X48.5798  Y226.7037   
N600  X46.4893  Y224.9044   
N605  X44.4359  Y221.7778   
N610  X42.4356  Y217.3552   
N615  X40.5054  Y211.6670   
N620  X38.4267  Y206.3807   
N625  X37.2762  Y205.6529   
N630  X35.6116  Y205.6617   
N635  X34.0588  Y205.6725   
N640  X32.8516  Y205.1974   
N645  X30.7696  Y202.3033   
N650  X29.3690  Y199.2050   
N655  X29.2211  Y197.5007   
N660  X30.5214  Y196.7797   
N665  X33.4650  Y196.6305   
N670  X37.2454  Y197.1223   
N675  X38.2008  Y197.8646   
N680  X38.7818  Y199.0509   
N685  X40.5198  Y201.1794   
N690  X44.1624  Y203.6050   
N695  X55.0146  Y208.5388   
N700  X67.0448  Y212.2329   
N705  X72.1599  Y213.1093   
N710  X75.9596  Y213.0686   
N715  X78.6134  Y212.5614   
N720  X78.5881  Y183.1980   
N725  X78.5626  Y153.8343   
N730  X46.9330   
N735  X15.3030   
N740  X14.5882  Y159.9068   
N745 G0  Z0.1000 
N750 G1  Z-1.4000  F100.00 
N755  X7.2099  Y255.4009   F300.00 
N760  X6.8240  Y265.4216   
N765  X7.0236  Y268.1698   
N770  X7.4846  Y269.3891   
N775  X10.2213  Y270.5390   
N780  X15.6391  Y272.0760   
N785  X32.2201  Y275.8377   
N790  X52.6349  Y279.7239   
N795  X72.2907  Y282.7862   
N800  X103.0951  Y285.6666   
N805  X116.4896  Y286.3826   
N810  X122.6912  Y286.2177   
N815  X123.1722  Y283.2630   
N820  X123.5106  Y276.0321   
N825  X123.7654  Y254.4435   
N830  X123.4667  Y232.8549   
N835  X123.1135  Y225.6237   
N840  X122.6263  Y222.6683   
N845  X115.5325  Y222.1729   
N850  X100.0715  Y221.9667   
N855  X81.6842  Y221.6470   
N860  X79.1199  Y220.9719   
N865  X78.6524  Y219.7083   
N870  X78.4760  Y218.5922   
N875  X77.8449  Y217.9008   
N880  X74.6039  Y217.4503   
N885  X71.9481  Y217.7440   
N890  X70.7265  Y218.7001   
N895  X70.8947  Y220.4316   
N900  X72.4088  Y223.0509   
N905  X73.5455  Y225.0910   
N910  X73.6770  Y226.2811   
N915  X72.2235  Y225.1824   
N920  X69.5507  Y221.7191   
N925  X67.1022  Y218.4804   
N930  X64.9330  Y216.4634   
N935  X62.6979  Y215.4286   
N940  X60.0514  Y215.1368   
N945  X58.4182  Y215.4981   
N950  X57.9871  Y216.7503   
N955  X58.7825  Y219.1467   
N960  X60.8300  Y222.9401   
N965  X62.9737  Y227.0352   
N970  X62.6651  Y227.3316   
N975  X61.4966  Y226.8074   
N980  X58.9632  Y224.1129   
N985  X56.1454  Y219.3867   
N990  X52.8654  Y214.1532   
N995  X51.0546  Y212.4771   
N1000  X48.9480  Y211.2217   
N1005  X45.7146  Y210.0981   
N1010  X43.8064  Y210.1939   
N1015  X43.4083  Y212.1962   
N1020  X44.1329  Y215.6217   
N1025  X45.7441  Y219.7126   
N1030  X48.0061  Y223.7093   
N1035  X50.0057  Y227.0162   
N1040  X49.7035  Y227.2201   
N1045  X48.5798  Y226.7037   
N1050  X46.4893  Y224.9044   
N1055  X44.4359  Y221.7778   
N1060  X42.4356  Y217.3552   
N1065  X40.5054  Y211.6670   
N1070  X38.4267  Y206.3807   
N1075  X37.2762  Y205.6529   
N1080  X35.6116  Y205.6617   
N1085  X34.0588  Y205.6725   
N1090  X32.8516  Y205.1974   
N1095  X30.7696  Y202.3033   
N1100  X29.3690  Y199.2050   
N1105  X29.2211  Y197.5007   
N1110  X30.5214  Y196.7797   
N1115  X33.4650  Y196.6305   
N1120  X37.2454  Y197.1223   
N1125  X38.2008  Y197.8646   
N1130  X38.7818  Y199.0509   
N1135  X40.5198  Y201.1794   
N1140  X44.1624  Y203.6050   
N1145  X55.0146  Y208.5388   
N1150  X67.0448  Y212.2329   
N1155  X72.1599  Y213.1093   
N1160  X75.9596  Y213.0686   
N1165  X78.6134  Y212.5614   
N1170  X78.5881  Y183.1980   
N1175  X78.5626  Y153.8343   
N1180  X46.9330   
N1185  X15.3030   
N1190  X14.5882  Y159.9068   
N1195 G0  Z3.0000 
N1200  X40.7588  Y167.0576 
N1205  Z0.1000 
N1210 G1  Z-0.7000  F100.00 
N1215  X37.7454  Y164.1698   F300.00 
N1220  X34.9886  Y163.0878   
N1225  X33.2883  Y163.1504   
N1230  X32.5673  Y163.5858   
N1235  X33.5142  Y167.0606   
N1240  X34.9431  Y169.2022   
N1245  X36.8509  Y170.0275   
N1250  X37.9857  Y170.2826   
N1255  X38.7805  Y171.2137   
N1260  X39.8388  Y176.1000   
N1265  X40.9024  Y181.2380   
N1270  X42.3654  Y185.0639   
N1275  X43.4418  Y186.5967   
N1280  X43.2906  Y185.6423   
N1285  X41.8844  Y179.6364   
N1290  X42.0795  Y175.1760   
N1295  X42.5549  Y174.2619   
N1300  X43.2175  Y173.9800   
N1305  X46.1693  Y175.3593   
N1310  X49.0467  Y178.0360   
N1315  X50.7812  Y182.2085   
N1320  X52.2444  Y186.1029   
N1325  X54.0494  Y188.6616   
N1330  X55.5205  Y189.6905   
N1335  X54.8113  Y188.5341   
N1340  X53.5589  Y186.1934   
N1345  X52.7854  Y183.5265   
N1350  X52.6166  Y181.1990   
N1355  X53.1779  Y179.8764   
N1360  X54.9222  Y179.6901   
N1365  X57.0582  Y180.7852   
N1370  X59.2999  Y182.9485   
N1375  X61.3612  Y185.9672   
N1380  X62.8346  Y188.3259   
N1385  X63.1153  Y188.5144   
N1390  X63.0199  Y187.9557   
N1395  X62.3264  Y185.4898   
N1400  X62.2828  Y184.0688   
N1405  X62.9976  Y183.3459   
N1410  X64.5786  Y182.9744   
N1415  X67.1609  Y183.2974   
N1420  X69.5799  Y184.6495   
N1425  X71.1416  Y185.7915   
N1430  X71.6609  Y185.6098   
N1435  X71.6560  Y182.7472   
N1440  X72.0878  Y182.0557   
N1445  X72.7380  Y182.0915   
N1450  X73.8127  Y182.1180   
N1455  X74.9570  Y181.2921   
N1460  X75.2308  Y180.6141   
N1465  X74.5422  Y180.2337   
N1470  X69.5940  Y180.2318   
N1475  X65.8242  Y180.2731   
N1480  X62.5281  Y179.7278   
N1485  X53.4818  Y175.8157   
N1490  X45.6693  Y171.2508   
N1495  X40.7588  Y167.0576   
N1500 G0  Z0.1000 
N1505 G1  Z-1.4000  F100.00 
N1510  X37.7454  Y164.1698   F300.00 
N1515  X34.9886  Y163.0878   
N1520  X33.2883  Y163.1504   
N1525  X32.5673  Y163.5858   
N1530  X33.5142  Y167.0606   
N1535  X34.9431  Y169.2022   
N1540  X36.8509  Y170.0275   
N1545  X37.9857  Y170.2826   
N1550  X38.7805  Y171.2137   
N1555  X39.8388  Y176.1000   
N1560  X40.9024  Y181.2380   
N1565  X42.3654  Y185.0639   
N1570  X43.4418  Y186.5967   
N1575  X43.2906  Y185.6423   
N1580  X41.8844  Y179.6364   
N1585  X42.0795  Y175.1760   
N1590  X42.5549  Y174.2619   
N1595  X43.2175  Y173.9800   
N1600  X46.1693  Y175.3593   
N1605  X49.0467  Y178.0360   
N1610  X50.7812  Y182.2085   
N1615  X52.2444  Y186.1029   
N1620  X54.0494  Y188.6616   
N1625  X55.5205  Y189.6905   
N1630  X54.8113  Y188.5341   
N1635  X53.5589  Y186.1934   
N1640  X52.7854  Y183.5265   
N1645  X52.6166  Y181.1990   
N1650  X53.1779  Y179.8764   
N1655  X54.9222  Y179.6901   
N1660  X57.0582  Y180.7852   
N1665  X59.2999  Y182.9485   
N1670  X61.3612  Y185.9672   
N1675  X62.8346  Y188.3259   
N1680  X63.1153  Y188.5144   
N1685  X63.0199  Y187.9557   
N1690  X62.3264  Y185.4898   
N1695  X62.2828  Y184.0688   
N1700  X62.9976  Y183.3459   
N1705  X64.5786  Y182.9744   
N1710  X67.1609  Y183.2974   
N1715  X69.5799  Y184.6495   
N1720  X71.1416  Y185.7915   
N1725  X71.6609  Y185.6098   
N1730  X71.6560  Y182.7472   
N1735  X72.0878  Y182.0557   
N1740  X72.7380  Y182.0915   
N1745  X73.8127  Y182.1180   
N1750  X74.9570  Y181.2921   
N1755  X75.2308  Y180.6141   
N1760  X74.5422  Y180.2337   
N1765  X69.5940  Y180.2318   
N1770  X65.8242  Y180.2731   
N1775  X62.5281  Y179.7278   
N1780  X53.4818  Y175.8157   
N1785  X45.6693  Y171.2508   
N1790  X40.7588  Y167.0576   
N1795 G0  Z3.0000 
N1800  X76.3022  Y185.9315 
N1805  Z0.1000 
N1810 G1  Z-0.7000  F100.00 
N1815  X76.0872  Y183.0105   F300.00 
N1820  X75.4898  Y183.0108   
N1825  X74.3150  Y183.7042   
N1830  X73.5153  Y184.8947   
N1835  X74.5675  Y186.8672   
N1840  X76.0314  Y188.3482   
N1845  X76.3022  Y185.9315   
N1850 G0  Z0.1000 
N1855 G1  Z-1.4000  F100.00 
N1860  X76.0872  Y183.0105   F300.00 
N1865  X75.4898  Y183.0108   
N1870  X74.3150  Y183.7042   
N1875  X73.5153  Y184.8947   
N1880  X74.5675  Y186.8672   
N1885  X76.0314  Y188.3482   
N1890  X76.3022  Y185.9315   
N1895 G0  Z3.0000 
N1900  X88.3469  Y153.3163 
N1905  Z0.1000 
N1910 G1  Z-0.7000  F100.00 
N1915  X87.2596  Y151.5874   F300.00 
N1920  X86.8905  Y151.7363   
N1925  X86.7488  Y152.6094   
N1930  X87.8924  Y154.4045   
N1935  X88.5134  Y154.3982   
N1940  X88.3469  Y153.3163   
N1945 G0  Z0.1000 
N1950 G1  Z-1.4000  F100.00 
N1955  X87.2596  Y151.5874   F300.00 
N1960  X86.8905  Y151.7363   
N1965  X86.7488  Y152.6094   
N1970  X87.8924  Y154.4045   
N1975  X88.5134  Y154.3982   
N1980  X88.3469  Y153.3163   
N1985 G0  Z3.0000 
N1990  X99.8771  Y136.6969 
N1995  Z0.1000 
N2000 G1  Z-0.7000  F100.00 
N2005  X97.4935  Y142.2680   F300.00 
N2010  X96.0928  Y146.3162   
N2015  X96.7728  Y142.3057   
N2020  X98.5318  Y136.6929   
N2025  X99.5833  Y134.9893   
N2030  X100.4115  Y134.7254   
N2035  X99.8771  Y136.6969   
N2040 G0  Z0.1000 
N2045 G1  Z-1.4000  F100.00 
N2050  X97.4935  Y142.2680   F300.00 
N2055  X96.0928  Y146.3162   
N2060  X96.7728  Y142.3057   
N2065  X98.5318  Y136.6929   
N2070  X99.5833  Y134.9893   
N2075  X100.4115  Y134.7254   
N2080  X99.8771  Y136.6969   
N2085 G0  Z3.0000 
N2090  X135.6808  Y115.7752 
N2095  Z0.1000 
N2100 G1  Z-0.7000  F100.00 
N2105  X135.0497  Y117.2043   F300.00 
N2110  X135.0244  Y119.0942   
N2115  X135.5129  Y120.7427   
N2120  X136.4238  Y121.4483   
N2125  X138.0736  Y122.9335   
N2130  X140.8808  Y126.5050   
N2135  X143.7048  Y131.1129   
N2140  X143.5172  Y132.2811   
N2145  X142.4316  Y133.4451   
N2150  X140.4897  Y134.8506   
N2155  X138.9759  Y135.2339   
N2160  X137.9923  Y134.6047   
N2165  X137.6415  Y132.9736   
N2170  X137.3624  Y131.7824   
N2175  X136.4874  Y130.6723   
N2180  X132.7257  Y128.4913   
N2185  X128.3021  Y126.0965   
N2190  X124.5696  Y123.3273   
N2195  X121.6299  Y121.1834   
N2200  X119.1129  Y120.2916   
N2205  X118.1066  Y120.4955   
N2210  X117.5814  Y121.0608   
N2215  X117.8447  Y122.9949   
N2220  X119.6437  Y125.5336   
N2225  X122.7208  Y128.1168   
N2230  X129.5034  Y132.8287   
N2235  X130.6864  Y134.0021   
N2240  X131.2473  Y135.0821   
N2245  X130.9723  Y137.1221   
N2250  X129.4437  Y139.7684   
N2255  X126.5936  Y142.0962   
N2260  X122.1342  Y144.0225   
N2265  X116.2945  Y145.4720   
N2270  X109.3037  Y146.3697   
N2275  X101.2069  Y147.1517   
N2280  X99.4669  Y146.8894   
N2285  X99.1685  Y145.1595   
N2290  X100.1410  Y139.7248   
N2295  X100.7722  Y138.4736   
N2300  X101.6020  Y137.8952   
N2305  X102.5797  Y136.9306   
N2310  X102.9036  Y135.2929   
N2315  X102.5748  Y133.5621   
N2320  X101.5945  Y132.3182   
N2325  X99.8603  Y132.6634   
N2330  X97.5230  Y134.8523   
N2335  X96.1256  Y136.8624   
N2340  X95.3436  Y138.9543   
N2345  X95.1121  Y145.6897   
N2350  X95.8194  Y152.1140   
N2355  X96.7246  Y153.2691   
N2360  X98.3043  Y153.8356   
N2365  X100.1617  Y154.5710   
N2370  X99.6787  Y155.4419   
N2375  X98.2826  Y156.9743   
N2380  X97.0403  Y159.3520   
N2385  X95.8039  Y161.5543   
N2390  X95.1197  Y161.4199   
N2395  X94.1423  Y160.5665   
N2400  X92.4423  Y157.9956   
N2405  X90.8347  Y154.2937   
N2410  X89.0741  Y150.8064   
N2415  X88.0305  Y149.8556   
N2420  X86.8642  Y149.4166   
N2425  X85.2246  Y149.2868   
N2430  X84.5921  Y149.8189   
N2435  X86.1121  Y154.4500   
N2440  X87.2131  Y158.4612   
N2445  X90.2193  Y163.6658   
N2450  X92.7236  Y166.9721   
N2455  X94.7230  Y168.5140   
N2460  X96.7200  Y168.4829   
N2465  X99.2181  Y167.0685   
N2470  X100.6800  Y166.1370   
N2475  X101.5990  Y165.9901   
N2480  X102.2794  Y166.7422   
N2485  X103.0246  Y168.5091   
N2490  X107.0699  Y175.4393   
N2495  X109.7840  Y179.8141   
N2500  X109.3430  Y180.0610   
N2505  X107.6630  Y178.7875   
N2510  X106.3709  Y177.7203   
N2515  X105.4171  Y177.4098   
N2520  X103.0364  Y179.1865   
N2525  X100.6292  Y182.1662   
N2530  X107.7748  Y189.7085   
N2535  X113.4056  Y194.6522   
N2540  X114.9814  Y195.4810   
N2545  X115.7971  Y195.2610   
N2550  X117.8378  Y194.3141   
N2555  X121.8352  Y194.1600   
N2560  X125.7050  Y194.0210   
N2565  X127.7608  Y193.2407   
N2570  X128.9601  Y192.3672   
N2575  X130.7703  Y192.0040   
N2580  X132.2683  Y191.7823   
N2585  X132.9172  Y191.1433   
N2590  X132.7070  Y190.1249   
N2595  X131.6273  Y188.7653   
N2600  X130.9087  Y187.6666   
N2605  X132.0641  Y187.3774   
N2610  X133.7756  Y186.8675   
N2615  X135.3287  Y185.6423   
N2620  X136.0844  Y184.2216   
N2625  X134.6028  Y183.8292   
N2630  X133.2723  Y183.5446   
N2635  X135.0395  Y182.4957   
N2640  X136.8651  Y181.2075   
N2645  X137.5365  Y179.7380   
N2650  X137.0464  Y178.2075   
N2655  X135.3874  Y176.7357   
N2660  X133.8706  Y175.2832   
N2665  X134.4824  Y173.7019   
N2670  X135.0080  Y172.7855   
N2675  X134.9382  Y171.8714   
N2680  X132.7664  Y169.4390   
N2685  X128.1772  Y166.2462   
N2690  X127.3463  Y165.7701   
N2695  X127.1703  Y165.2111   
N2700  X128.6247  Y163.9268   
N2705  X132.2244  Y162.5593   
N2710  X137.6533  Y161.2740   
N2715  X144.0277  Y159.7530   
N2720  X147.6323  Y158.3291   
N2725  X149.2494  Y157.3855   
N2730  X149.9087  Y157.8255   
N2735  X149.5661  Y159.3737   
N2740  X148.1779  Y161.7537   
N2745  X146.2595  Y165.5484   
N2750  X145.7631  Y169.3753   
N2755  X146.6753  Y172.9963   
N2760  X148.9825  Y176.1727   
N2765  X151.7969  Y178.3678   
N2770  X154.0081  Y179.2806   
N2775  X155.8815  Y179.9603   
N2780  X157.8832  Y181.5941   
N2785  X160.9543  Y183.9075   
N2790  X161.7029  Y182.8547   
N2795  X161.9075  Y180.4747   
N2800  X161.5937  Y177.9334   
N2805  X160.7878  Y176.3970   
N2810  X160.4773  Y175.0832   
N2815  X161.5734  Y172.7455   
N2820  X162.8029  Y170.0308   
N2825  X162.3058  Y167.8839   
N2830  X161.6891  Y165.9766   
N2835  X162.2927  Y164.0904   
N2840  X162.9019  Y161.4052   
N2845  X162.3986  Y157.1566   
N2850  X161.7025  Y154.3087   
N2855  X160.8720  Y152.7992   
N2860  X159.4547  Y152.2038   
N2865  X156.9989  Y152.0995   
N2870  X153.3881  Y151.6120   
N2875  X152.8087  Y150.7179   
N2880  X152.6776  Y149.1369   
N2885  X151.9986  Y146.3149   
N2890  X150.3651  Y143.6910   
N2895  X148.7841  Y141.7405   
N2900  X148.1890  Y140.0238   
N2905  X148.5474  Y138.0310   
N2910  X149.8261  Y135.2519   
N2915  X150.7500  Y133.2198   
N2920  X150.8343  Y131.6385   
N2925  X149.9087  Y129.8175   
N2930  X147.8022  Y127.0660   
N2935  X139.2962  Y117.2660   
N2940  X137.0224  Y115.6171   
N2945  X135.6811  Y115.7752   
N2950  X135.6808   
N2955 G0  Z0.1000 
N2960 G1  Z-1.4000  F100.00 
N2965  X135.0497  Y117.2043   F300.00 
N2970  X135.0244  Y119.0942   
N2975  X135.5129  Y120.7427   
N2980  X136.4238  Y121.4483   
N2985  X138.0736  Y122.9335   
N2990  X140.8808  Y126.5050   
N2995  X143.7048  Y131.1129   
N3000  X143.5172  Y132.2811   
N3005  X142.4316  Y133.4451   
N3010  X140.4897  Y134.8506   
N3015  X138.9759  Y135.2339   
N3020  X137.9923  Y134.6047   
N3025  X137.6415  Y132.9736   
N3030  X137.3624  Y131.7824   
N3035  X136.4874  Y130.6723   
N3040  X132.7257  Y128.4913   
N3045  X128.3021  Y126.0965   
N3050  X124.5696  Y123.3273   
N3055  X121.6299  Y121.1834   
N3060  X119.1129  Y120.2916   
N3065  X118.1066  Y120.4955   
N3070  X117.5814  Y121.0608   
N3075  X117.8447  Y122.9949   
N3080  X119.6437  Y125.5336   
N3085  X122.7208  Y128.1168   
N3090  X129.5034  Y132.8287   
N3095  X130.6864  Y134.0021   
N3100  X131.2473  Y135.0821   
N3105  X130.9723  Y137.1221   
N3110  X129.4437  Y139.7684   
N3115  X126.5936  Y142.0962   
N3120  X122.1342  Y144.0225   
N3125  X116.2945  Y145.4720   
N3130  X109.3037  Y146.3697   
N3135  X101.2069  Y147.1517   
N3140  X99.4669  Y146.8894   
N3145  X99.1685  Y145.1595   
N3150  X100.1410  Y139.7248   
N3155  X100.7722  Y138.4736   
N3160  X101.6020  Y137.8952   
N3165  X102.5797  Y136.9306   
N3170  X102.9036  Y135.2929   
N3175  X102.5748  Y133.5621   
N3180  X101.5945  Y132.3182   
N3185  X99.8603  Y132.6634   
N3190  X97.5230  Y134.8523   
N3195  X96.1256  Y136.8624   
N3200  X95.3436  Y138.9543   
N3205  X95.1121  Y145.6897   
N3210  X95.8194  Y152.1140   
N3215  X96.7246  Y153.2691   
N3220  X98.3043  Y153.8356   
N3225  X100.1617  Y154.5710   
N3230  X99.6787  Y155.4419   
N3235  X98.2826  Y156.9743   
N3240  X97.0403  Y159.3520   
N3245  X95.8039  Y161.5543   
N3250  X95.1197  Y161.4199   
N3255  X94.1423  Y160.5665   
N3260  X92.4423  Y157.9956   
N3265  X90.8347  Y154.2937   
N3270  X89.0741  Y150.8064   
N3275  X88.0305  Y149.8556   
N3280  X86.8642  Y149.4166   
N3285  X85.2246  Y149.2868   
N3290  X84.5921  Y149.8189   
N3295  X86.1121  Y154.4500   
N3300  X87.2131  Y158.4612   
N3305  X90.2193  Y163.6658   
N3310  X92.7236  Y166.9721   
N3315  X94.7230  Y168.5140   
N3320  X96.7200  Y168.4829   
N3325  X99.2181  Y167.0685   
N3330  X100.6800  Y166.1370   
N3335  X101.5990  Y165.9901   
N3340  X102.2794  Y166.7422   
N3345  X103.0246  Y168.5091   
N3350  X107.0699  Y175.4393   
N3355  X109.7840  Y179.8141   
N3360  X109.3430  Y180.0610   
N3365  X107.6630  Y178.7875   
N3370  X106.3709  Y177.7203   
N3375  X105.4171  Y177.4098   
N3380  X103.0364  Y179.1865   
N3385  X100.6292  Y182.1662   
N3390  X107.7748  Y189.7085   
N3395  X113.4056  Y194.6522   
N3400  X114.9814  Y195.4810   
N3405  X115.7971  Y195.2610   
N3410  X117.8378  Y194.3141   
N3415  X121.8352  Y194.1600   
N3420  X125.7050  Y194.0210   
N3425  X127.7608  Y193.2407   
N3430  X128.9601  Y192.3672   
N3435  X130.7703  Y192.0040   
N3440  X132.2683  Y191.7823   
N3445  X132.9172  Y191.1433   
N3450  X132.7070  Y190.1249   
N3455  X131.6273  Y188.7653   
N3460  X130.9087  Y187.6666   
N3465  X132.0641  Y187.3774   
N3470  X133.7756  Y186.8675   
N3475  X135.3287  Y185.6423   
N3480  X136.0844  Y184.2216   
N3485  X134.6028  Y183.8292   
N3490  X133.2723  Y183.5446   
N3495  X135.0395  Y182.4957   
N3500  X136.8651  Y181.2075   
N3505  X137.5365  Y179.7380   
N3510  X137.0464  Y178.2075   
N3515  X135.3874  Y176.7357   
N3520  X133.8706  Y175.2832   
N3525  X134.4824  Y173.7019   
N3530  X135.0080  Y172.7855   
N3535  X134.9382  Y171.8714   
N3540  X132.7664  Y169.4390   
N3545  X128.1772  Y166.2462   
N3550  X127.3463  Y165.7701   
N3555  X127.1703  Y165.2111   
N3560  X128.6247  Y163.9268   
N3565  X132.2244  Y162.5593   
N3570  X137.6533  Y161.2740   
N3575  X144.0277  Y159.7530   
N3580  X147.6323  Y158.3291   
N3585  X149.2494  Y157.3855   
N3590  X149.9087  Y157.8255   
N3595  X149.5661  Y159.3737   
N3600  X148.1779  Y161.7537   
N3605  X146.2595  Y165.5484   
N3610  X145.7631  Y169.3753   
N3615  X146.6753  Y172.9963   
N3620  X148.9825  Y176.1727   
N3625  X151.7969  Y178.3678   
N3630  X154.0081  Y179.2806   
N3635  X155.8815  Y179.9603   
N3640  X157.8832  Y181.5941   
N3645  X160.9543  Y183.9075   
N3650  X161.7029  Y182.8547   
N3655  X161.9075  Y180.4747   
N3660  X161.5937  Y177.9334   
N3665  X160.7878  Y176.3970   
N3670  X160.4773  Y175.0832   
N3675  X161.5734  Y172.7455   
N3680  X162.8029  Y170.0308   
N3685  X162.3058  Y167.8839   
N3690  X161.6891  Y165.9766   
N3695  X162.2927  Y164.0904   
N3700  X162.9019  Y161.4052   
N3705  X162.3986  Y157.1566   
N3710  X161.7025  Y154.3087   
N3715  X160.8720  Y152.7992   
N3720  X159.4547  Y152.2038   
N3725  X156.9989  Y152.0995   
N3730  X153.3881  Y151.6120   
N3735  X152.8087  Y150.7179   
N3740  X152.6776  Y149.1369   
N3745  X151.9986  Y146.3149   
N3750  X150.3651  Y143.6910   
N3755  X148.7841  Y141.7405   
N3760  X148.1890  Y140.0238   
N3765  X148.5474  Y138.0310   
N3770  X149.8261  Y135.2519   
N3775  X150.7500  Y133.2198   
N3780  X150.8343  Y131.6385   
N3785  X149.9087  Y129.8175   
N3790  X147.8022  Y127.0660   
N3795  X139.2962  Y117.2660   
N3800  X137.0224  Y115.6171   
N3805  X135.6811  Y115.7752   
N3810  X135.6808   
N3815 G0  Z3.0000 
N3820  X134.3421  Y106.8286 
N3825  Z0.1000 
N3830 G1  Z-0.7000  F100.00 
N3835  X127.6109  Y105.7387   F300.00 
N3840  X121.1181  Y105.6764   
N3845  X114.9040  Y106.6246   
N3850  X109.0089  Y108.5663   
N3855  X103.4722  Y111.4843   
N3860  X98.3344  Y115.3620   
N3865  X93.6351  Y120.1821   
N3870  X89.4147  Y125.9277   
N3875  X85.2190  Y133.1831   
N3880  X83.9239  Y136.8044   
N3885  X83.0518  Y141.2408   
N3890  X82.2429  Y155.0163   
N3895  X82.1223  Y179.4262   
N3900  Y217.4503   
N3905  X124.3827   
N3910  X166.6432   
N3915  X166.3114  Y177.2567   
N3920  X165.9796  Y137.0631   
N3925  X162.9314  Y130.5628   
N3930  X160.5566  Y126.1077   
N3935  X157.8025  Y122.0473   
N3940  X154.6874  Y118.3968   
N3945  X151.2297  Y115.1719   
N3950  X147.4477  Y112.3870   
N3955  X143.3602  Y110.0581   
N3960  X138.9857  Y108.2001   
N3965  X134.3421  Y106.8286   
N3970 G0  Z0.1000 
N3975 G1  Z-1.4000  F100.00 
N3980  X127.6109  Y105.7387   F300.00 
N3985  X121.1181  Y105.6764   
N3990  X114.9040  Y106.6246   
N3995  X109.0089  Y108.5663   
N4000  X103.4722  Y111.4843   
N4005  X98.3344  Y115.3620   
N4010  X93.6351  Y120.1821   
N4015  X89.4147  Y125.9277   
N4020  X85.2190  Y133.1831   
N4025  X83.9239  Y136.8044   
N4030  X83.0518  Y141.2408   
N4035  X82.2429  Y155.0163   
N4040  X82.1223  Y179.4262   
N4045  Y217.4503   
N4050  X124.3827   
N4055  X166.6432   
N4060  X166.3114  Y177.2567   
N4065  X165.9796  Y137.0631   
N4070  X162.9314  Y130.5628   
N4075  X160.5566  Y126.1077   
N4080  X157.8025  Y122.0473   
N4085  X154.6874  Y118.3968   
N4090  X151.2297  Y115.1719   
N4095  X147.4477  Y112.3870   
N4100  X143.3602  Y110.0581   
N4105  X138.9857  Y108.2001   
N4110  X134.3421  Y106.8286   
N4115 G0  Z3.0000 
N4120  X134.1778  Y62.4471 
N4125  Z0.1000 
N4130 G1  Z-0.7000  F100.00 
N4135  X133.7654  Y65.0494   F300.00 
N4140  X134.7929  Y67.6884   
N4145  X136.8457  Y69.7337   
N4150  X139.5097  Y70.5557   
N4155  X141.5516  Y71.0402   
N4160  X142.2680  Y72.4222   
N4165  X143.1008  Y75.5947   
N4170  X145.2002  Y79.3108   
N4175  X147.9687  Y82.6983   
N4180  X150.8097  Y84.8859   
N4185  X154.7360  Y86.2328   
N4190  X151.5477  Y80.2426   
N4195  X149.5520  Y76.4183   
N4200  X149.2481  Y74.3583   
N4205  X149.6740  Y74.1121   
N4210  X150.4550  Y74.4537   
N4215  X152.9930  Y77.0976   
N4220  X156.2376  Y80.9990   
N4225  X159.0684  Y83.6990   
N4230  X161.8383  Y85.4793   
N4235  X164.8993  Y86.6223   
N4240  X167.9537  Y87.2528   
N4245  X169.7504  Y87.2118   
N4250  X170.0363  Y86.5803   
N4255  X168.5590  Y85.4403   
N4260  X163.6265  Y81.1895   
N4265  X161.4179  Y78.4275   
N4270  X161.8248  Y77.9629   
N4275  X163.1858  Y77.6878   
N4280  X165.7989  Y78.3009   
N4285  X168.7062  Y80.8767   
N4290  X172.0262  Y83.6842   
N4295  X175.8111  Y85.1396   
N4300  X179.8593  Y85.8278   
N4305  X176.3895  Y82.8455   
N4310  X173.9144  Y80.2281   
N4315  X173.8950  Y79.4380   
N4320  X174.5859  Y78.7639   
N4325  X176.6337  Y78.3514   
N4330  X179.4442  Y79.3150   
N4335  X182.0662  Y80.3573   
N4340  X184.6397  Y80.9000   
N4345  X186.5987  Y80.8777   
N4350  X187.3774  Y80.2255   
N4355  X185.4203  Y78.0544   
N4360  X184.4364  Y77.1783   
N4365  X184.2367  Y76.2858   
N4370  X186.4970  Y73.0173   
N4375  X190.0735  Y67.4353   
N4380  X190.6935  Y65.2606   
N4385  X190.3630  Y63.9022   
N4390  X189.4167  Y64.0324   
N4395  X188.1193  Y65.3225   
N4400  X186.5816  Y66.6333   
N4405  X185.0610  Y66.5052   
N4410  X184.1433  Y66.1425   
N4415  X184.3449  Y66.8576   
N4420  X184.4574  Y67.6517   
N4425  X183.9170  Y68.4766   
N4430  X181.2826  Y70.0498   
N4435  X177.2537  Y71.2406   
N4440  X172.6416  Y71.7124   
N4445  X163.6816  Y70.6760   
N4450  X154.1268  Y68.1347   
N4455  X146.5251  Y64.9409   
N4460  X144.2530  Y63.3651   
N4465  X143.4248  Y61.9458   
N4470  X143.0916  Y61.0333   
N4475  X142.1998  Y60.4169   
N4480  X139.3874  Y60.0379   
N4485  X136.2821  Y60.7379   
N4490  X134.1778  Y62.4471   
N4495 G0  Z0.1000 
N4500 G1  Z-1.4000  F100.00 
N4505  X133.7654  Y65.0494   F300.00 
N4510  X134.7929  Y67.6884   
N4515  X136.8457  Y69.7337   
N4520  X139.5097  Y70.5557   
N4525  X141.5516  Y71.0402   
N4530  X142.2680  Y72.4222   
N4535  X143.1008  Y75.5947   
N4540  X145.2002  Y79.3108   
N4545  X147.9687  Y82.6983   
N4550  X150.8097  Y84.8859   
N4555  X154.7360  Y86.2328   
N4560  X151.5477  Y80.2426   
N4565  X149.5520  Y76.4183   
N4570  X149.2481  Y74.3583   
N4575  X149.6740  Y74.1121   
N4580  X150.4550  Y74.4537   
N4585  X152.9930  Y77.0976   
N4590  X156.2376  Y80.9990   
N4595  X159.0684  Y83.6990   
N4600  X161.8383  Y85.4793   
N4605  X164.8993  Y86.6223   
N4610  X167.9537  Y87.2528   
N4615  X169.7504  Y87.2118   
N4620  X170.0363  Y86.5803   
N4625  X168.5590  Y85.4403   
N4630  X163.6265  Y81.1895   
N4635  X161.4179  Y78.4275   
N4640  X161.8248  Y77.9629   
N4645  X163.1858  Y77.6878   
N4650  X165.7989  Y78.3009   
N4655  X168.7062  Y80.8767   
N4660  X172.0262  Y83.6842   
N4665  X175.8111  Y85.1396   
N4670  X179.8593  Y85.8278   
N4675  X176.3895  Y82.8455   
N4680  X173.9144  Y80.2281   
N4685  X173.8950  Y79.4380   
N4690  X174.5859  Y78.7639   
N4695  X176.6337  Y78.3514   
N4700  X179.4442  Y79.3150   
N4705  X182.0662  Y80.3573   
N4710  X184.6397  Y80.9000   
N4715  X186.5987  Y80.8777   
N4720  X187.3774  Y80.2255   
N4725  X185.4203  Y78.0544   
N4730  X184.4364  Y77.1783   
N4735  X184.2367  Y76.2858   
N4740  X186.4970  Y73.0173   
N4745  X190.0735  Y67.4353   
N4750  X190.6935  Y65.2606   
N4755  X190.3630  Y63.9022   
N4760  X189.4167  Y64.0324   
N4765  X188.1193  Y65.3225   
N4770  X186.5816  Y66.6333   
N4775  X185.0610  Y66.5052   
N4780  X184.1433  Y66.1425   
N4785  X184.3449  Y66.8576   
N4790  X184.4574  Y67.6517   
N4795  X183.9170  Y68.4766   
N4800  X181.2826  Y70.0498   
N4805  X177.2537  Y71.2406   
N4810  X172.6416  Y71.7124   
N4815  X163.6816  Y70.6760   
N4820  X154.1268  Y68.1347   
N4825  X146.5251  Y64.9409   
N4830  X144.2530  Y63.3651   
N4835  X143.4248  Y61.9458   
N4840  X143.0916  Y61.0333   
N4845  X142.1998  Y60.4169   
N4850  X139.3874  Y60.0379   
N4855  X136.2821  Y60.7379   
N4860  X134.1778  Y62.4471   
N4865 G0  Z3.0000 
N4870  X133.6080  Y40.4588 
N4875  Z0.1000 
N4880 G1  Z-0.7000  F100.00 
N4885  X133.4474  Y42.0559   F300.00 
N4890  X134.2287  Y43.9756   
N4895  X135.5739  Y45.5884   
N4900  X137.1038  Y46.2661   
N4905  X138.3005  Y46.8995   
N4910  X138.7982  Y48.4231   
N4915  X139.5048  Y50.8943   
N4920  X141.2251  Y53.5999   
N4925  X143.3595  Y55.7802   
N4930  X145.3094  Y56.6756   
N4935  X146.1461  Y56.5884   
N4940  X146.4140  Y56.2287   
N4945  X145.2254  Y54.1051   
N4950  X143.5139  Y50.8717   
N4955  X143.5880  Y50.0267   
N4960  X144.2923  Y49.7431   
N4965  X145.4854  Y50.7687   
N4970  X147.1359  Y53.2235   
N4975  X149.3084  Y55.8920   
N4980  X152.0061  Y57.7697   
N4985  X154.5337  Y58.5077   
N4990  X155.5156  Y58.3405   
N4995  X156.1940  Y57.7579   
N5000  X157.3940  Y57.0291   
N5005  X159.5697  Y57.8068   
N5010  X161.6366  Y58.5969   
N5015  X162.7497  Y58.4546   
N5020  X162.6979  Y57.5815   
N5025  X161.2701  Y56.1802   
N5030  X159.9573  Y54.7700   
N5035  X159.9281  Y53.6667   
N5040  X160.9553  Y53.4438   
N5045  X162.1819  Y54.1504   
N5050  X163.9714  Y55.1172   
N5055  X166.3524  Y55.5192   
N5060  X168.3478  Y55.2012   
N5065  X167.7921  Y53.8776   
N5070  X167.0527  Y52.3776   
N5075  X168.0596  Y51.2749   
N5080  X170.7862  Y48.1323   
N5085  X172.3409  Y44.5231   
N5090  X171.4458  Y44.7057   
N5095  X169.2934  Y46.1821   
N5100  X165.3921  Y48.0579   
N5105  X160.3815  Y48.5700   
N5110  X154.5353  Y47.7267   
N5115  X148.1277  Y45.5366   
N5120  X143.1723  Y42.9221   
N5125  X141.1113  Y40.9100   
N5130  X140.0929  Y39.8159   
N5135  X137.7700  Y39.3319   
N5140  X135.2421  Y39.5244   
N5145  X133.6080  Y40.4588   
N5150 G0  Z0.1000 
N5155 G1  Z-1.4000  F100.00 
N5160  X133.4474  Y42.0559   F300.00 
N5165  X134.2287  Y43.9756   
N5170  X135.5739  Y45.5884   
N5175  X137.1038  Y46.2661   
N5180  X138.3005  Y46.8995   
N5185  X138.7982  Y48.4231   
N5190  X139.5048  Y50.8943   
N5195  X141.2251  Y53.5999   
N5200  X143.3595  Y55.7802   
N5205  X145.3094  Y56.6756   
N5210  X146.1461  Y56.5884   
N5215  X146.4140  Y56.2287   
N5220  X145.2254  Y54.1051   
N5225  X143.5139  Y50.8717   
N5230  X143.5880  Y50.0267   
N5235  X144.2923  Y49.7431   
N5240  X145.4854  Y50.7687   
N5245  X147.1359  Y53.2235   
N5250  X149.3084  Y55.8920   
N5255  X152.0061  Y57.7697   
N5260  X154.5337  Y58.5077   
N5265  X155.5156  Y58.3405   
N5270  X156.1940  Y57.7579   
N5275  X157.3940  Y57.0291   
N5280  X159.5697  Y57.8068   
N5285  X161.6366  Y58.5969   
N5290  X162.7497  Y58.4546   
N5295  X162.6979  Y57.5815   
N5300  X161.2701  Y56.1802   
N5305  X159.9573  Y54.7700   
N5310  X159.9281  Y53.6667   
N5315  X160.9553  Y53.4438   
N5320  X162.1819  Y54.1504   
N5325  X163.9714  Y55.1172   
N5330  X166.3524  Y55.5192   
N5335  X168.3478  Y55.2012   
N5340  X167.7921  Y53.8776   
N5345  X167.0527  Y52.3776   
N5350  X168.0596  Y51.2749   
N5355  X170.7862  Y48.1323   
N5360  X172.3409  Y44.5231   
N5365  X171.4458  Y44.7057   
N5370  X169.2934  Y46.1821   
N5375  X165.3921  Y48.0579   
N5380  X160.3815  Y48.5700   
N5385  X154.5353  Y47.7267   
N5390  X148.1277  Y45.5366   
N5395  X143.1723  Y42.9221   
N5400  X141.1113  Y40.9100   
N5405  X140.0929  Y39.8159   
N5410  X137.7700  Y39.3319   
N5415  X135.2421  Y39.5244   
N5420  X133.6080  Y40.4588   
N5425 G0  Z3.0000 
N5430  X138.3244  Y15.9168 
N5435  Z0.1000 
N5440 G1  Z-0.7000  F100.00 
N5445  X128.2037  Y10.4095   F300.00 
N5450  X127.5172  Y23.4775   
N5455  X127.2316  Y54.8963   
N5460  Y99.3826   
N5465  X132.1473  Y100.6426   
N5470  X141.5487  Y103.6289   
N5475  X145.3720  Y104.7968   
N5480  X145.6582  Y104.2000   
N5485  X145.3235  Y102.7023   
N5490  X144.5972  Y98.0259   
N5495  X144.4028  Y97.0866   
N5500  X143.7953  Y96.4600   
N5505  X141.0926  Y96.0020   
N5510  X139.2703  Y95.8348   
N5515  X137.9129  Y95.2239   
N5520  X135.7001  Y92.0092   
N5525  X134.4467  Y88.4390   
N5530  X134.6126  Y87.2888   
N5535  X135.2821  Y86.2259   
N5540  X137.7552  Y84.8672   
N5545  X141.2562  Y84.3941   
N5550  X144.3841  Y84.8170   
N5555  X145.3703  Y85.3678   
N5560  X145.7382  Y86.1469   
N5565  X146.7087  Y87.6488   
N5570  X149.3717  Y89.4679   
N5575  X158.2779  Y93.4902   
N5580  X169.4639  Y97.0797   
N5585  X179.9374  Y99.1033   
N5590  X185.6954  Y99.0885   
N5595  X191.0348  Y97.9118   
N5600  X195.9705  Y95.5675   
N5605  X200.5184  Y92.0505   
N5610  X203.0046  Y89.9980   
N5615  X204.3338  Y89.4397   
N5620  X204.5935  Y91.1823   
N5625  X203.6043  Y94.0433   
N5630  X201.6545  Y97.4112   
N5635  X199.0322  Y100.6754   
N5640  X194.8010  Y105.1230   
N5645  X197.4509  Y106.5414   
N5650  X200.0489  Y108.5833   
N5655  X200.0397  Y109.2646   
N5660  X199.3033  Y109.6814   
N5665  X196.0804  Y109.6105   
N5670  X191.2472  Y108.1466   
N5675  X186.2836  Y106.5361   
N5680  X183.5131  Y106.6784   
N5685  X182.9918  Y107.3817   
N5690  X183.0682  Y108.4932   
N5695  X185.0803  Y111.9001   
N5700  X186.3361  Y113.7758   
N5705  X186.7111  Y115.0020   
N5710  X186.3325  Y115.6060   
N5715  X185.3275  Y115.6158   
N5720  X181.9469  Y113.9637   
N5725  X177.5862  Y110.2666   
N5730  X173.5704  Y107.0935   
N5735  X169.4560  Y105.2568   
N5740  X165.2763  Y104.3138   
N5745  X167.1662  Y107.3869   
N5750  X169.9180  Y110.8610   
N5755  X173.8793  Y114.8981   
N5760  X177.3187  Y118.3968   
N5765  X177.1321  Y118.7903   
N5770  X175.8111  Y118.5371   
N5775  X171.3888  Y116.8027   
N5780  X167.0412  Y114.1765   
N5785  X163.1553  Y110.9345   
N5790  X160.1183  Y107.3525   
N5795  X155.9615  Y101.9554   
N5800  X154.4841  Y100.9351   
N5805  X152.9959  Y100.6463   
N5810  X152.0645  Y100.9774   
N5815  X151.7281  Y101.9361   
N5820  X152.6605  Y105.3368   
N5825  X155.4301  Y110.0522   
N5830  X159.6727  Y115.2850   
N5835  X164.3648  Y121.1653   
N5840  X167.8652  Y127.5473   
N5845  X170.3190  Y134.7608   
N5850  X171.8701  Y143.1356   
N5855  X172.6390  Y149.2077   
N5860  X202.0420   
N5865  X231.4451   
N5870  X230.7106  Y141.9789   
N5875  X228.9087  Y126.6732   
N5880  X226.8700  Y113.7279   
N5885  X224.6529  Y103.4636   
N5890  X222.3168  Y96.2003   
N5895  X218.1326  Y87.8183   
N5900  X212.4988  Y79.0409   
N5905  X205.5686  Y70.0842   
N5910  X197.4951  Y61.1645   
N5915  X188.1092  Y52.1658   
N5920  X178.2475  Y43.6523   
N5925  X170.1796  Y37.4824   
N5930  X167.5275  Y35.8572   
N5935  X166.1747  Y35.5146   
N5940  X165.5665  Y35.6998   
N5945  X165.6921  Y35.1644   
N5950  X163.8901  Y33.0103   
N5955  X158.0966  Y28.6401   
N5960  X138.3244  Y15.9168   
N5965 G0  Z0.1000 
N5970 G1  Z-1.4000  F100.00 
N5975  X128.2037  Y10.4095   F300.00 
N5980  X127.5172  Y23.4775   
N5985  X127.2316  Y54.8963   
N5990  Y99.3826   
N5995  X132.1473  Y100.6426   
N6000  X141.5487  Y103.6289   
N6005  X145.3720  Y104.7968   
N6010  X145.6582  Y104.2000   
N6015  X145.3235  Y102.7023   
N6020  X144.5972  Y98.0259   
N6025  X144.4028  Y97.0866   
N6030  X143.7953  Y96.4600   
N6035  X141.0926  Y96.0020   
N6040  X139.2703  Y95.8348   
N6045  X137.9129  Y95.2239   
N6050  X135.7001  Y92.0092   
N6055  X134.4467  Y88.4390   
N6060  X134.6126  Y87.2888   
N6065  X135.2821  Y86.2259   
N6070  X137.7552  Y84.8672   
N6075  X141.2562  Y84.3941   
N6080  X144.3841  Y84.8170   
N6085  X145.3703  Y85.3678   
N6090  X145.7382  Y86.1469   
N6095  X146.7087  Y87.6488   
N6100  X149.3717  Y89.4679   
N6105  X158.2779  Y93.4902   
N6110  X169.4639  Y97.0797   
N6115  X179.9374  Y99.1033   
N6120  X185.6954  Y99.0885   
N6125  X191.0348  Y97.9118   
N6130  X195.9705  Y95.5675   
N6135  X200.5184  Y92.0505   
N6140  X203.0046  Y89.9980   
N6145  X204.3338  Y89.4397   
N6150  X204.5935  Y91.1823   
N6155  X203.6043  Y94.0433   
N6160  X201.6545  Y97.4112   
N6165  X199.0322  Y100.6754   
N6170  X194.8010  Y105.1230   
N6175  X197.4509  Y106.5414   
N6180  X200.0489  Y108.5833   
N6185  X200.0397  Y109.2646   
N6190  X199.3033  Y109.6814   
N6195  X196.0804  Y109.6105   
N6200  X191.2472  Y108.1466   
N6205  X186.2836  Y106.5361   
N6210  X183.5131  Y106.6784   
N6215  X182.9918  Y107.3817   
N6220  X183.0682  Y108.4932   
N6225  X185.0803  Y111.9001   
N6230  X186.3361  Y113.7758   
N6235  X186.7111  Y115.0020   
N6240  X186.3325  Y115.6060   
N6245  X185.3275  Y115.6158   
N6250  X181.9469  Y113.9637   
N6255  X177.5862  Y110.2666   
N6260  X173.5704  Y107.0935   
N6265  X169.4560  Y105.2568   
N6270  X165.2763  Y104.3138   
N6275  X167.1662  Y107.3869   
N6280  X169.9180  Y110.8610   
N6285  X173.8793  Y114.8981   
N6290  X177.3187  Y118.3968   
N6295  X177.1321  Y118.7903   
N6300  X175.8111  Y118.5371   
N6305  X171.3888  Y116.8027   
N6310  X167.0412  Y114.1765   
N6315  X163.1553  Y110.9345   
N6320  X160.1183  Y107.3525   
N6325  X155.9615  Y101.9554   
N6330  X154.4841  Y100.9351   
N6335  X152.9959  Y100.6463   
N6340  X152.0645  Y100.9774   
N6345  X151.7281  Y101.9361   
N6350  X152.6605  Y105.3368   
N6355  X155.4301  Y110.0522   
N6360  X159.6727  Y115.2850   
N6365  X164.3648  Y121.1653   
N6370  X167.8652  Y127.5473   
N6375  X170.3190  Y134.7608   
N6380  X171.8701  Y143.1356   
N6385  X172.6390  Y149.2077   
N6390  X202.0420   
N6395  X231.4451   
N6400  X230.7106  Y141.9789   
N6405  X228.9087  Y126.6732   
N6410  X226.8700  Y113.7279   
N6415  X224.6529  Y103.4636   
N6420  X222.3168  Y96.2003   
N6425  X218.1326  Y87.8183   
N6430  X212.4988  Y79.0409   
N6435  X205.5686  Y70.0842   
N6440  X197.4951  Y61.1645   
N6445  X188.1092  Y52.1658   
N6450  X178.2475  Y43.6523   
N6455  X170.1796  Y37.4824   
N6460  X167.5275  Y35.8572   
N6465  X166.1747  Y35.5146   
N6470  X165.5665  Y35.6998   
N6475  X165.6921  Y35.1644   
N6480  X163.8901  Y33.0103   
N6485  X158.0966  Y28.6401   
N6490  X138.3244  Y15.9168   
N6495 G0  Z3.0000 
N6500  X117.4001  Y9.4545 
N6505  Z0.1000 
N6510 G1  Z-0.7000  F100.00 
N6515  X97.3095  Y21.8768   F300.00 
N6520  X78.5455  Y35.0208   
N6525  X65.0071  Y45.9769   
N6530  X61.4160  Y49.7257   
N6535  X60.6281  Y51.0090   
N6540  X60.5933  Y51.8372   
N6545  X63.5602  Y52.5317   
N6550  X70.5724  Y53.0097   
N6555  X91.3679  Y53.3359   
N6560  X112.2506  Y52.8559   
N6565  X119.3716  Y52.3258   
N6570  X122.4906  Y51.6087   
N6575  X123.0650  Y49.6713   
N6580  X123.4201  Y45.4146   
N6585  X123.4998  Y29.3578   
N6590  X123.1735  Y16.4958   
N6595  X122.3749  Y9.9577   
N6600  X121.6453  Y8.5604   
N6605  X120.6139  Y8.1440   
N6610  X117.4001  Y9.4545   
N6615 G0  Z0.1000 
N6620 G1  Z-1.4000  F100.00 
N6625  X97.3095  Y21.8768   F300.00 
N6630  X78.5455  Y35.0208   
N6635  X65.0071  Y45.9769   
N6640  X61.4160  Y49.7257   
N6645  X60.6281  Y51.0090   
N6650  X60.5933  Y51.8372   
N6655  X63.5602  Y52.5317   
N6660  X70.5724  Y53.0097   
N6665  X91.3679  Y53.3359   
N6670  X112.2506  Y52.8559   
N6675  X119.3716  Y52.3258   
N6680  X122.4906  Y51.6087   
N6685  X123.0650  Y49.6713   
N6690  X123.4201  Y45.4146   
N6695  X123.4998  Y29.3578   
N6700  X123.1735  Y16.4958   
N6705  X122.3749  Y9.9577   
N6710  X121.6453  Y8.5604   
N6715  X120.6139  Y8.1440   
N6720  X117.4001  Y9.4545   
N6725 G0  Z3.0000 
N6730  X112.7551  Y6.6748 
N6735  Z0.1000 
N6740 G1  Z-0.7000  F100.00 
N6745  X93.2420  Y18.7814   F300.00 
N6750  X75.4649  Y31.4595   
N6755  X60.0612  Y44.2205   
N6760  X47.6677  Y56.5763   
N6765  X41.1562  Y63.5051   
N6770  X37.9188  Y66.2183   
N6775  X37.3611  Y66.2688   
N6780  X37.2919  Y66.7963   
N6785  X35.5523  Y70.3137   
N6790  X30.9785  Y77.5521   
N6795  X26.2886  Y84.8137   
N6800  X22.5899  Y91.2954   
N6805  X19.7122  Y97.6292   
N6810  X17.4843  Y104.4476   
N6815  X15.7364  Y112.3824   
N6820  X14.2984  Y122.0657   
N6825  X11.6692  Y149.2077   
N6830  X4.1046  Y246.5825   
N6835  X0.0000  Y308.2427   
N6840  Y311.7293   
N6845  X13.5909  Y314.9162   
N6850  X39.9274  Y320.5441   
N6855  X64.2169  Y324.5041   
N6860  X87.8544  Y326.9834   
N6865  X112.2342  Y328.1700   
N6870  X127.4542  Y328.2831   
N6875  X142.5536  Y327.8805   
N6880  X157.6550  Y326.9490   
N6885  X172.8809  Y325.4739   
N6890  X188.3544  Y323.4415   
N6895  X204.1974  Y320.8375   
N6900  X237.4841  Y313.8595   
N6905  X249.9992  Y310.8981   
N6910  X249.3940  Y306.6811   
N6915  X248.1337  Y291.4758   
N6920  X242.7628  Y213.5896   
N6925  X237.1280  Y139.3762   
N6930  X235.3271  Y122.1168   
N6935  X233.1320  Y109.4007   
N6940  X230.0038  Y98.8738   
N6945  X225.4028  Y88.1816   
N6950  X220.7067  Y79.8318   
N6955  X214.4188  Y71.0222   
N6960  X206.6758  Y61.8864   
N6965  X197.6151  Y52.5572   
N6970  X187.3744  Y43.1680   
N6975  X176.0905  Y33.8516   
N6980  X163.9009  Y24.7414   
N6985  X150.9432  Y15.9705   
N6990  X134.1270  Y5.4981   
N6995  X124.5486  Y0.0000   
N7000  X112.7551  Y6.6748   
N7005 G0  Z0.1000 
N7010 G1  Z-1.4000  F100.00 
N7015  X93.2420  Y18.7814   F300.00 
N7020  X75.4649  Y31.4595   
N7025  X60.0612  Y44.2205   
N7030  X47.6677  Y56.5763   
N7035  X41.1562  Y63.5051   
N7040  X37.9188  Y66.2183   
N7045  X37.3611  Y66.2688   
N7050  X37.2919  Y66.7963   
N7055  X35.5523  Y70.3137   
N7060  X30.9785  Y77.5521   
N7065  X26.2886  Y84.8137   
N7070  X22.5899  Y91.2954   
N7075  X19.7122  Y97.6292   
N7080  X17.4843  Y104.4476   
N7085  X15.7364  Y112.3824   
N7090  X14.2984  Y122.0657   
N7095  X11.6692  Y149.2077   
N7100  X4.1046  Y246.5825   
N7105  X0.0000  Y308.2427   
N7110  Y311.7293   
N7115  X13.5909  Y314.9162   
N7120  X39.9274  Y320.5441   
N7125  X64.2169  Y324.5041   
N7130  X87.8544  Y326.9834   
N7135  X112.2342  Y328.1700   
N7140  X127.4542  Y328.2831   
N7145  X142.5536  Y327.8805   
N7150  X157.6550  Y326.9490   
N7155  X172.8809  Y325.4739   
N7160  X188.3544  Y323.4415   
N7165  X204.1974  Y320.8375   
N7170  X237.4841  Y313.8595   
N7175  X249.9992  Y310.8981   
N7180  X249.3940  Y306.6811   
N7185  X248.1337  Y291.4758   
N7190  X242.7628  Y213.5896   
N7195  X237.1280  Y139.3762   
N7200  X235.3271  Y122.1168   
N7205  X233.1320  Y109.4007   
N7210  X230.0038  Y98.8738   
N7215  X225.4028  Y88.1816   
N7220  X220.7067  Y79.8318   
N7225  X214.4188  Y71.0222   
N7230  X206.6758  Y61.8864   
N7235  X197.6151  Y52.5572   
N7240  X187.3744  Y43.1680   
N7245  X176.0905  Y33.8516   
N7250  X163.9009  Y24.7414   
N7255  X150.9432  Y15.9705   
N7260  X134.1270  Y5.4981   
N7265  X124.5486  Y0.0000   
N7270  X112.7551  Y6.6748   
N7275 G0  Z3.0000 
N7280  X170.7990  Y154.6055 
N7285  Z0.1000 
N7290 G1  Z-0.7000  F100.00 
N7295  X170.2544  Y160.1901   F300.00 
N7300  X170.0278  Y172.5337   
N7305  X170.3429  Y185.9718   
N7310  X170.7891  Y188.8767   
N7315  X171.4737  Y189.7905   
N7320  X206.9407  Y189.8557   
N7325  X226.9611  Y189.4236   
N7330  X236.0930  Y188.8607   
N7335  X236.4556  Y185.7829   
N7340  X236.1966  Y178.8462   
N7345  X234.1582  Y158.7501   
N7350  X233.5018  Y153.8343   
N7355  X202.5358   
N7360  X180.4396  Y154.0609   
N7365  X170.7990  Y154.6055   
N7370 G0  Z0.1000 
N7375 G1  Z-1.4000  F100.00 
N7380  X170.2544  Y160.1901   F300.00 
N7385  X170.0278  Y172.5337   
N7390  X170.3429  Y185.9718   
N7395  X170.7891  Y188.8767   
N7400  X171.4737  Y189.7905   
N7405  X206.9407  Y189.8557   
N7410  X226.9611  Y189.4236   
N7415  X236.0930  Y188.8607   
N7420  X236.4556  Y185.7829   
N7425  X236.1966  Y178.8462   
N7430  X234.1582  Y158.7501   
N7435  X233.5018  Y153.8343   
N7440  X202.5358   
N7445  X180.4396  Y154.0609   
N7450  X170.7990  Y154.6055   
N7455 G0  Z3.0000 
N7460  X238.4464  Y233.0651 
N7465  Z0.1000 
N7470 G1  Z-0.7000  F100.00 
N7475  X237.6920  Y222.6552   F300.00 
N7480  X205.0165  Y222.3480   
N7485  X180.7711  Y222.4168   
N7490  X174.4813  Y222.7182   
N7495  X172.3409  Y223.1906   
N7500  X170.7986  Y223.6919   
N7505  X166.3727  Y224.1162   
N7510  X150.0756  Y224.6542   
N7515  X127.8100  Y224.9683   
N7520  X127.4890  Y241.4507   
N7525  X127.1680  Y257.9330   
N7530  X183.6603   
N7535  X240.1526   
N7540  X239.6769  Y250.7038   
N7545  X238.4464  Y233.0651   
N7550 G0  Z0.1000 
N7555 G1  Z-1.4000  F100.00 
N7560  X237.6920  Y222.6552   F300.00 
N7565  X205.0165  Y222.3480   
N7570  X180.7711  Y222.4168   
N7575  X174.4813  Y222.7182   
N7580  X172.3409  Y223.1906   
N7585  X170.7986  Y223.6919   
N7590  X166.3727  Y224.1162   
N7595  X150.0756  Y224.6542   
N7600  X127.8100  Y224.9683   
N7605  X127.4890  Y241.4507   
N7610  X127.1680  Y257.9330   
N7615  X183.6603   
N7620  X240.1526   
N7625  X239.6769  Y250.7038   
N7630  X238.4464  Y233.0651   
N7635 G0  Z3.0000 
N7640  X223.9542  Y281.7069 
N7645  Z0.1000 
N7650 G1  Z-0.7000  F100.00 
N7655  X215.5653  Y283.9062   F300.00 
N7660  X211.4394  Y285.4577   
N7665  X210.8781  Y289.3407   
N7670  X211.1686  Y297.7142   
N7675  X212.1778  Y306.7578   
N7680  X212.8630  Y308.2217   
N7685  X213.8519  Y308.3735   
N7690  X224.9687  Y305.9532   
N7695  X236.6175  Y303.1545   
N7700  X238.0661  Y301.9266   
N7705  X238.2700  Y300.0729   
N7710  X238.1890  Y298.2263   
N7715  X237.2828  Y297.5083   
N7720  X229.0169  Y298.9942   
N7725  X220.4785  Y300.5948   
N7730  X218.9834  Y300.4545   
N7735  X218.6070  Y299.7397   
N7740  X221.3224  Y298.4545   
N7745  X227.8506  Y296.7532   
N7750  X234.5352  Y295.0899   
N7755  X237.6264  Y293.8951   
N7760  X237.5395  Y290.6669   
N7765  X237.0310  Y289.3354   
N7770  X235.8093  Y288.8636   
N7775  X227.5037  Y290.3987   
N7780  X218.7031  Y291.9548   
N7785  X217.3385  Y291.7040   
N7790  X217.7647  Y290.7761   
N7795  X227.4998  Y288.1043   
N7800  X235.0280  Y286.0115   
N7805  X236.4120  Y284.9269   
N7810  X236.9221  Y283.4659   
N7815  X236.9120  Y281.3252   
N7820  X236.3441  Y279.9229   
N7825  X232.3064  Y280.0856   
N7830  X223.9542  Y281.7069   
N7835 G0  Z0.1000 
N7840 G1  Z-1.4000  F100.00 
N7845  X215.5653  Y283.9062   F300.00 
N7850  X211.4394  Y285.4577   
N7855  X210.8781  Y289.3407   
N7860  X211.1686  Y297.7142   
N7865  X212.1778  Y306.7578   
N7870  X212.8630  Y308.2217   
N7875  X213.8519  Y308.3735   
N7880  X224.9687  Y305.9532   
N7885  X236.6175  Y303.1545   
N7890  X238.0661  Y301.9266   
N7895  X238.2700  Y300.0729   
N7900  X238.1890  Y298.2263   
N7905  X237.2828  Y297.5083   
N7910  X229.0169  Y298.9942   
N7915  X220.4785  Y300.5948   
N7920  X218.9834  Y300.4545   
N7925  X218.6070  Y299.7397   
N7930  X221.3224  Y298.4545   
N7935  X227.8506  Y296.7532   
N7940  X234.5352  Y295.0899   
N7945  X237.6264  Y293.8951   
N7950  X237.5395  Y290.6669   
N7955  X237.0310  Y289.3354   
N7960  X235.8093  Y288.8636   
N7965  X227.5037  Y290.3987   
N7970  X218.7031  Y291.9548   
N7975  X217.3385  Y291.7040   
N7980  X217.7647  Y290.7761   
N7985  X227.4998  Y288.1043   
N7990  X235.0280  Y286.0115   
N7995  X236.4120  Y284.9269   
N8000  X236.9221  Y283.4659   
N8005  X236.9120  Y281.3252   
N8010  X236.3441  Y279.9229   
N8015  X232.3064  Y280.0856   
N8020  X223.9542  Y281.7069   
N8025 G0  Z3.0000 
N8030  X242.2582  Y288.7190 
N8035  Z0.1000 
N8040 G1  Z-0.7000  F100.00 
N8045  X241.2936  Y277.6344   F300.00 
N8050  X240.7113  Y274.9856   
N8055  X240.0412  Y274.1262   
N8060  X238.1736  Y274.5908   
N8065  X235.5038  Y275.6321   
N8070  X229.6018  Y277.0941   
N8075  X210.9348  Y280.7711   
N8080  X187.8390  Y284.6030   
N8085  X165.9796  Y287.5708   
N8090  X146.3917  Y288.9604   
N8095  X122.3657  Y289.5499   
N8100  X99.0377  Y289.3023   
N8105  X81.5439  Y288.1807   
N8110  X51.2658  Y283.7997   
N8115  X24.4801  Y278.5993   
N8120  X13.3971  Y276.3134   
N8125  X8.4115  Y275.7390   
N8130  X7.6951  Y280.3882   
N8135  X6.9233  Y289.9436   
N8140  X6.4187  Y299.5601   
N8145  X6.5040  Y304.3935   
N8150  X9.4000  Y305.7430   
N8155  X16.2627  Y307.5752   
N8160  X38.4037  Y312.0565   
N8165  X65.9570  Y316.5749   
N8170  X91.9538  Y319.8687   
N8175  X107.5541  Y320.6001   
N8180  X127.9165  Y320.4949   
N8185  X149.2025  Y319.6418   
N8190  X167.5737  Y318.1287   
N8195  X190.0026  Y314.9883   
N8200  X213.7296  Y310.8929   
N8205  X233.0166  Y306.9194   
N8210  X239.2018  Y305.3145   
N8215  X242.1258  Y304.1437   
N8220  X242.5622  Y299.2699   
N8225  X242.2582  Y288.7190   
N8230 G0  Z0.1000 
N8235 G1  Z-1.4000  F100.00 
N8240  X241.2936  Y277.6344   F300.00 
N8245  X240.7113  Y274.9856   
N8250  X240.0412  Y274.1262   
N8255  X238.1736  Y274.5908   
N8260  X235.5038  Y275.6321   
N8265  X229.6018  Y277.0941   
N8270  X210.9348  Y280.7711   
N8275  X187.8390  Y284.6030   
N8280  X165.9796  Y287.5708   
N8285  X146.3917  Y288.9604   
N8290  X122.3657  Y289.5499   
N8295  X99.0377  Y289.3023   
N8300  X81.5439  Y288.1807   
N8305  X51.2658  Y283.7997   
N8310  X24.4801  Y278.5993   
N8315  X13.3971  Y276.3134   
N8320  X8.4115  Y275.7390   
N8325  X7.6951  Y280.3882   
N8330  X6.9233  Y289.9436   
N8335  X6.4187  Y299.5601   
N8340  X6.5040  Y304.3935   
N8345  X9.4000  Y305.7430   
N8350  X16.2627  Y307.5752   
N8355  X38.4037  Y312.0565   
N8360  X65.9570  Y316.5749   
N8365  X91.9538  Y319.8687   
N8370  X107.5541  Y320.6001   
N8375  X127.9165  Y320.4949   
N8380  X149.2025  Y319.6418   
N8385  X167.5737  Y318.1287   
N8390  X190.0026  Y314.9883   
N8395  X213.7296  Y310.8929   
N8400  X233.0166  Y306.9194   
N8405  X239.2018  Y305.3145   
N8410  X242.1258  Y304.1437   
N8415  X242.5622  Y299.2699   
N8420  X242.2582  Y288.7190   
N8425 G0  Z3.0000 
N8430  X201.8978  Y287.2390 
N8435  Z0.1000 
N8440 G1  Z-0.7000  F100.00 
N8445  X200.3968  Y289.2505   F300.00 
N8450  X200.3027  Y292.3282   
N8455  X200.4804  Y294.3676   
N8460  X199.9105  Y295.5686   
N8465  X198.0820  Y296.3528   
N8470  X194.4856  Y297.1430   
N8475  X188.6672  Y298.1984   
N8480  X185.5167  Y298.2063   
N8485  X184.6659  Y297.7394   
N8490  X184.1511  Y296.9164   
N8495  X183.6882  Y294.0784   
N8500  X182.9144  Y290.5171   
N8505  X181.9941  Y290.0590   
N8510  X180.4377  Y290.1433   
N8515  X177.2741  Y290.8007   
N8520  X177.7377  Y302.2542   
N8525  X178.4731  Y313.4522   
N8530  X181.7688   
N8535  X183.5416  Y313.3372   
N8540  X184.5347  Y312.8152   
N8545  X184.9685  Y311.6198   
N8550  X185.0643  Y309.4860   
N8555  X185.1823  Y307.1952   
N8560  X185.9334  Y305.8673   
N8565  X187.9128  Y305.0306   
N8570  X191.7151  Y304.2129   
N8575  X199.8115  Y302.4322   
N8580  X200.4466  Y302.4725   
N8585  X200.8981  Y303.0729   
N8590  X201.2574  Y305.9703   
N8595  X201.3509  Y308.1601   
N8600  X201.8017  Y309.3657   
N8605  X202.8660  Y309.8765   
N8610  X204.7987  Y309.9824   
N8615  X208.3404   
N8620  X208.0981  Y299.9122   
N8625  X207.6870  Y291.2299   
N8630  X206.7496  Y286.6997   
N8635  X205.9742  Y285.7685   
N8640  X204.9365  Y285.6076   
N8645  X201.8978  Y287.2390   
N8650 G0  Z0.1000 
N8655 G1  Z-1.4000  F100.00 
N8660  X200.3968  Y289.2505   F300.00 
N8665  X200.3027  Y292.3282   
N8670  X200.4804  Y294.3676   
N8675  X199.9105  Y295.5686   
N8680  X198.0820  Y296.3528   
N8685  X194.4856  Y297.1430   
N8690  X188.6672  Y298.1984   
N8695  X185.5167  Y298.2063   
N8700  X184.6659  Y297.7394   
N8705  X184.1511  Y296.9164   
N8710  X183.6882  Y294.0784   
N8715  X182.9144  Y290.5171   
N8720  X181.9941  Y290.0590   
N8725  X180.4377  Y290.1433   
N8730  X177.2741  Y290.8007   
N8735  X177.7377  Y302.2542   
N8740  X178.4731  Y313.4522   
N8745  X181.7688   
N8750  X183.5416  Y313.3372   
N8755  X184.5347  Y312.8152   
N8760  X184.9685  Y311.6198   
N8765  X185.0643  Y309.4860   
N8770  X185.1823  Y307.1952   
N8775  X185.9334  Y305.8673   
N8780  X187.9128  Y305.0306   
N8785  X191.7151  Y304.2129   
N8790  X199.8115  Y302.4322   
N8795  X200.4466  Y302.4725   
N8800  X200.8981  Y303.0729   
N8805  X201.2574  Y305.9703   
N8810  X201.3509  Y308.1601   
N8815  X201.8017  Y309.3657   
N8820  X202.8660  Y309.8765   
N8825  X204.7987  Y309.9824   
N8830  X208.3404   
N8835  X208.0981  Y299.9122   
N8840  X207.6870  Y291.2299   
N8845  X206.7496  Y286.6997   
N8850  X205.9742  Y285.7685   
N8855  X204.9365  Y285.6076   
N8860  X201.8978  Y287.2390   
N8865 G0  Z3.0000 
N8870  X159.6179  Y292.2836 
N8875  Z0.1000 
N8880 G1  Z-0.7000  F100.00 
N8885  X151.3599  Y293.0614   F300.00 
N8890  X148.6431  Y293.8089   
N8895  X146.7103  Y294.9302   
N8900  X145.4425  Y296.5253   
N8905  X144.7212  Y298.6948   
N8910  X144.4448  Y305.1594   
N8915  X144.9264  Y311.5014   
N8920  X145.6107  Y313.4352   
N8925  X146.8435  Y314.6998   
N8930  X148.8143  Y315.4123   
N8935  X151.7127  Y315.6896   
N8940  X161.0491  Y315.4070   
N8945  X175.5573  Y314.0916   
N8950  X175.6668  Y312.9247   
N8955  X175.0639  Y310.9860   
N8960  X174.1852  Y309.6286   
N8965  X172.5262  Y308.9106   
N8970  X163.4501  Y308.7283   
N8975  X152.9468  Y308.9591   
N8980  X152.3982  Y304.5548   
N8985  X152.1038  Y299.8289   
N8990  X163.2170  Y298.6722   
N8995  X169.4557  Y298.1391   
N9000  X172.7252  Y297.5355   
N9005  X174.0472  Y296.4964   
N9010  X174.4419  Y294.6568   
N9015  X174.5413  Y292.9253   
N9020  X174.1636  Y291.9977   
N9025  X173.0577  Y291.6607   
N9030  X170.9721  Y291.6987   
N9035  X159.6179  Y292.2836   
N9040 G0  Z0.1000 
N9045 G1  Z-1.4000  F100.00 
N9050  X151.3599  Y293.0614   F300.00 
N9055  X148.6431  Y293.8089   
N9060  X146.7103  Y294.9302   
N9065  X145.4425  Y296.5253   
N9070  X144.7212  Y298.6948   
N9075  X144.4448  Y305.1594   
N9080  X144.9264  Y311.5014   
N9085  X145.6107  Y313.4352   
N9090  X146.8435  Y314.6998   
N9095  X148.8143  Y315.4123   
N9100  X151.7127  Y315.6896   
N9105  X161.0491  Y315.4070   
N9110  X175.5573  Y314.0916   
N9115  X175.6668  Y312.9247   
N9120  X175.0639  Y310.9860   
N9125  X174.1852  Y309.6286   
N9130  X172.5262  Y308.9106   
N9135  X163.4501  Y308.7283   
N9140  X152.9468  Y308.9591   
N9145  X152.3982  Y304.5548   
N9150  X152.1038  Y299.8289   
N9155  X163.2170  Y298.6722   
N9160  X169.4557  Y298.1391   
N9165  X172.7252  Y297.5355   
N9170  X174.0472  Y296.4964   
N9175  X174.4419  Y294.6568   
N9180  X174.5413  Y292.9253   
N9185  X174.1636  Y291.9977   
N9190  X173.0577  Y291.6607   
N9195  X170.9721  Y291.6987   
N9200  X159.6179  Y292.2836   
N9205 G0  Z3.0000 
N9210  X111.0384  Y297.2591 
N9215  Z0.1000 
N9220 G1  Z-0.7000  F100.00 
N9225  Y300.7292   F300.00 
N9230  X122.8942  Y300.9670   
N9235  X134.7500  Y301.2047   
N9240  X124.3772  Y301.5938   
N9245  X117.1293  Y302.1686   
N9250  X112.7004  Y303.4450   
N9255  X111.3538  Y304.4480   
N9260  X110.4860  Y305.7483   
N9265  X109.8820  Y309.4040   
N9270  X110.5112  Y313.3936   
N9275  X111.4847  Y314.7201   
N9280  X113.0630  Y315.6673   
N9285  X118.5319  Y316.6264   
N9290  X127.9129  Y316.6713   
N9295  X141.6290  Y316.3441   
N9300  X141.6310  Y313.4522   
N9305  X141.4238  Y311.7831   
N9310  X140.0677  Y310.8513   
N9315  X129.5165  Y309.9194   
N9320  X118.9007  Y308.9703   
N9325  X129.1067  Y308.7762   
N9330  X136.9379  Y308.5293   
N9335  X139.0313  Y307.9798   
N9340  X140.3841  Y307.0748   
N9345  X141.6775  Y304.5706   
N9350  X142.2202  Y301.0597   
N9355  X141.9690  Y297.5820   
N9360  X140.8802  Y295.1771   
N9365  X139.3877  Y294.5682   
N9370  X136.2956  Y294.1348   
N9375  X125.2654  Y293.7892   
N9380  X111.0387   
N9385  X111.0384  Y297.2591   
N9390 G0  Z0.1000 
N9395 G1  Z-1.4000  F100.00 
N9400  Y300.7292   F300.00 
N9405  X122.8942  Y300.9670   
N9410  X134.7500  Y301.2047   
N9415  X124.3772  Y301.5938   
N9420  X117.1293  Y302.1686   
N9425  X112.7004  Y303.4450   
N9430  X111.3538  Y304.4480   
N9435  X110.4860  Y305.7483   
N9440  X109.8820  Y309.4040   
N9445  X110.5112  Y313.3936   
N9450  X111.4847  Y314.7201   
N9455  X113.0630  Y315.6673   
N9460  X118.5319  Y316.6264   
N9465  X127.9129  Y316.6713   
N9470  X141.6290  Y316.3441   
N9475  X141.6310  Y313.4522   
N9480  X141.4238  Y311.7831   
N9485  X140.0677  Y310.8513   
N9490  X129.5165  Y309.9194   
N9495  X118.9007  Y308.9703   
N9500  X129.1067  Y308.7762   
N9505  X136.9379  Y308.5293   
N9510  X139.0313  Y307.9798   
N9515  X140.3841  Y307.0748   
N9520  X141.6775  Y304.5706   
N9525  X142.2202  Y301.0597   
N9530  X141.9690  Y297.5820   
N9535  X140.8802  Y295.1771   
N9540  X139.3877  Y294.5682   
N9545  X136.2956  Y294.1348   
N9550  X125.2654  Y293.7892   
N9555  X111.0387   
N9560  X111.0384  Y297.2591   
N9565 G0  Z3.0000 
N9570  X99.2167  Y308.6263 
N9575  Z0.1000 
N9580 G1  Z-0.7000  F100.00 
N9585  X98.3121  Y307.9919   F300.00 
N9590  X96.2961  Y307.4473   
N9595  X90.4475  Y306.7286   
N9600  X84.7101  Y306.6729   
N9605  X82.8324  Y306.9571   
N9610  X82.1223  Y307.4834   
N9615  X82.6721  Y308.4119   
N9620  X84.4905  Y309.0814   
N9625  X92.9475  Y309.8673   
N9630  X98.1823  Y309.7742   
N9635  X99.1344  Y309.3499   
N9640  X99.2167  Y308.6263   
N9645 G0  Z0.1000 
N9650 G1  Z-1.4000  F100.00 
N9655  X98.3121  Y307.9919   F300.00 
N9660  X96.2961  Y307.4473   
N9665  X90.4475  Y306.7286   
N9670  X84.7101  Y306.6729   
N9675  X82.8324  Y306.9571   
N9680  X82.1223  Y307.4834   
N9685  X82.6721  Y308.4119   
N9690  X84.4905  Y309.0814   
N9695  X92.9475  Y309.8673   
N9700  X98.1823  Y309.7742   
N9705  X99.1344  Y309.3499   
N9710  X99.2167  Y308.6263   
N9715 G0  Z3.0000 
N9720  X75.8970  Y302.6224 
N9725  Z0.1000 
N9730 G1  Z-0.7000  F100.00 
N9735  X75.5517  Y310.7031   F300.00 
N9740  X75.8222  Y314.4781   
N9745  X80.2685  Y315.1490   
N9750  X89.9636  Y315.7657   
N9755  X99.2322  Y315.8762   
N9760  X102.3171  Y315.5519   
N9765  X104.5410  Y314.8962   
N9770  X106.0315  Y313.8503   
N9775  X106.9174  Y312.3552   
N9780  X107.3889  Y307.7827   
N9785  X108.1591  Y298.7050   
N9790  X108.5896  Y295.9292   
N9795  X108.4935  Y294.4627   
N9800  X107.6873  Y293.8882   
N9805  X105.9859  Y293.7892   
N9810  X102.0859  Y293.5000   
N9815  X101.3056  Y294.3151   
N9820  X100.6322  Y296.6807   
N9825  X100.1482  Y298.6807   
N9830  X99.0384  Y299.7499   
N9835  X96.4813  Y300.2371   
N9840  X91.6567  Y300.4906   
N9845  X83.2790  Y300.8306   
N9850  Y296.1532   
N9855  X83.1970  Y293.5777   
N9860  X82.7859  Y292.1751   
N9865  X81.7964  Y291.5918   
N9870  X79.9796  Y291.4758   
N9875  X76.6806   
N9880  X75.8970  Y302.6224   
N9885 G0  Z0.1000 
N9890 G1  Z-1.4000  F100.00 
N9895  X75.5517  Y310.7031   F300.00 
N9900  X75.8222  Y314.4781   
N9905  X80.2685  Y315.1490   
N9910  X89.9636  Y315.7657   
N9915  X99.2322  Y315.8762   
N9920  X102.3171  Y315.5519   
N9925  X104.5410  Y314.8962   
N9930  X106.0315  Y313.8503   
N9935  X106.9174  Y312.3552   
N9940  X107.3889  Y307.7827   
N9945  X108.1591  Y298.7050   
N9950  X108.5896  Y295.9292   
N9955  X108.4935  Y294.4627   
N9960  X107.6873  Y293.8882   
N9965  X105.9859  Y293.7892   
N9970  X102.0859  Y293.5000   
N9975  X101.3056  Y294.3151   
N9980  X100.6322  Y296.6807   
N9985  X100.1482  Y298.6807   
N9990  X99.0384  Y299.7499   
N9995  X96.4813  Y300.2371   
N10000  X91.6567  Y300.4906   
N10005  X83.2790  Y300.8306   
N10010  Y296.1532   
N10015  X83.1970  Y293.5777   
N10020  X82.7859  Y292.1751   
N10025  X81.7964  Y291.5918   
N10030  X79.9796  Y291.4758   
N10035  X76.6806   
N10040  X75.8970  Y302.6224   
N10045 G0  Z3.0000 
N10050  X65.2884  Y296.0787 
N10055  Z0.1000 
N10060 G1  Z-0.7000  F100.00 
N10065  X55.7615  Y294.3030   F300.00 
N10070  X48.8480  Y293.5207   
N10075  X48.3851  Y298.3745   
N10080  X48.4051  Y301.9899   
N10085  X48.8903  Y303.2004   
N10090  X49.8136  Y304.0902   
N10095  X53.3399  Y305.1414   
N10100  X59.7117  Y305.6080   
N10105  X67.6642  Y305.9342   
N10110  X67.7829  Y301.5034   
N10115  X67.3671  Y297.7453   
N10120  X66.5865  Y296.7610   
N10125  X65.2884  Y296.0787   
N10130 G0  Z0.1000 
N10135 G1  Z-1.4000  F100.00 
N10140  X55.7615  Y294.3030   F300.00 
N10145  X48.8480  Y293.5207   
N10150  X48.3851  Y298.3745   
N10155  X48.4051  Y301.9899   
N10160  X48.8903  Y303.2004   
N10165  X49.8136  Y304.0902   
N10170  X53.3399  Y305.1414   
N10175  X59.7117  Y305.6080   
N10180  X67.6642  Y305.9342   
N10185  X67.7829  Y301.5034   
N10190  X67.3671  Y297.7453   
N10195  X66.5865  Y296.7610   
N10200  X65.2884  Y296.0787   
N10205 G0  Z3.0000 
N10210  X43.4402  Y289.4200 
N10215  Z0.1000 
N10220 G1  Z-0.7000  F100.00 
N10225  X41.9956  Y293.5532   F300.00 
N10230  X41.5654  Y299.1896   
N10235  X42.1287  Y304.5745   
N10240  X42.7759  Y306.6240   
N10245  X43.6638  Y307.9526   
N10250  X47.0611  Y309.4168   
N10255  X53.0792  Y310.8224   
N10260  X60.1704  Y311.8788   
N10265  X66.7868  Y312.2955   
N10270  X70.5668  Y311.9126   
N10275  X71.8366  Y311.3152   
N10280  X72.7609  Y310.3424   
N10285  X73.7776  Y306.9542   
N10290  X74.0258  Y301.1168   
N10295  X73.7786  Y295.2414   
N10300  X73.2157  Y293.3463   
N10305  X72.1344  Y291.9548   
N10310  X70.3652  Y290.9223   
N10315  X67.7389  Y290.1056   
N10320  X59.2382  Y288.5423   
N10325  X51.5002  Y287.3430   
N10330  X47.1828  Y287.0400   
N10335  X44.9434  Y287.7072   
N10340  X43.4402  Y289.4200   
N10345 G0  Z0.1000 
N10350 G1  Z-1.4000  F100.00 
N10355  X41.9956  Y293.5532   F300.00 
N10360  X41.5654  Y299.1896   
N10365  X42.1287  Y304.5745   
N10370  X42.7759  Y306.6240   
N10375  X43.6638  Y307.9526   
N10380  X47.0611  Y309.4168   
N10385  X53.0792  Y310.8224   
N10390  X60.1704  Y311.8788   
N10395  X66.7868  Y312.2955   
N10400  X70.5668  Y311.9126   
N10405  X71.8366  Y311.3152   
N10410  X72.7609  Y310.3424   
N10415  X73.7776  Y306.9542   
N10420  X74.0258  Y301.1168   
N10425  X73.7786  Y295.2414   
N10430  X73.2157  Y293.3463   
N10435  X72.1344  Y291.9548   
N10440  X70.3652  Y290.9223   
N10445  X67.7389  Y290.1056   
N10450  X59.2382  Y288.5423   
N10455  X51.5002  Y287.3430   
N10460  X47.1828  Y287.0400   
N10465  X44.9434  Y287.7072   
N10470  X43.4402  Y289.4200   
N10475 G0  Z3.0000 
N10480  X28.0410  Y296.9532 
N10485  Z0.1000 
N10490 G1  Z-0.7000  F100.00 
N10495  X19.9483  Y294.8853   F300.00 
N10500  X17.1722  Y294.7515   
N10505  X16.1932  Y295.4256   
N10510  X16.8125  Y296.1342   
N10515  X18.4617  Y296.9450   
N10520  X23.5975  Y298.5581   
N10525  X29.0955  Y299.6312   
N10530  X32.4509  Y299.5325   
N10535  X32.7552  Y299.0922   
N10540  X32.4136  Y298.5778   
N10545  X29.9221  Y297.4338   
N10550  X28.0410  Y296.9532   
N10555 G0  Z0.1000 
N10560 G1  Z-1.4000  F100.00 
N10565  X19.9483  Y294.8853   F300.00 
N10570  X17.1722  Y294.7515   
N10575  X16.1932  Y295.4256   
N10580  X16.8125  Y296.1342   
N10585  X18.4617  Y296.9450   
N10590  X23.5975  Y298.5581   
N10595  X29.0955  Y299.6312   
N10600  X32.4509  Y299.5325   
N10605  X32.7552  Y299.0922   
N10610  X32.4136  Y298.5778   
N10615  X29.9221  Y297.4338   
N10620  X28.0410  Y296.9532   
N10625 G0  Z3.0000 
N10630  X11.0994  Y278.6187 
N10635  Z0.1000 
N10640 G1  Z-0.7000  F100.00 
N10645  X9.8758  Y290.4292   F300.00 
N10650  X9.0643  Y301.5276   
N10655  X20.7693  Y304.0201   
N10660  X34.6782  Y306.5122   
N10665  X36.6119  Y305.8286   
N10670  X38.4932  Y304.1037   
N10675  X39.9182  Y301.8256   
N10680  X40.4828  Y299.4840   
N10685  X39.6074  Y296.9122   
N10690  X37.3221  Y294.3476   
N10695  X34.1398  Y292.2289   
N10700  X30.5735  Y290.9954   
N10705  X21.6873  Y289.0476   
N10710  X19.2951  Y288.3148   
N10715  X17.9945  Y287.4240   
N10720  X17.4561  Y285.9502   
N10725  X17.3499  Y283.4695   
N10730  X16.8345  Y279.7088   
N10735  X15.9492  Y278.9102   
N10740  X14.4305  Y278.4643   
N10745  X12.2479  Y278.2797   
N10750  X11.0994  Y278.6187   
N10755 G0  Z0.1000 
N10760 G1  Z-1.4000  F100.00 
N10765  X9.8758  Y290.4292   F300.00 
N10770  X9.0643  Y301.5276   
N10775  X20.7693  Y304.0201   
N10780  X34.6782  Y306.5122   
N10785  X36.6119  Y305.8286   
N10790  X38.4932  Y304.1037   
N10795  X39.9182  Y301.8256   
N10800  X40.4828  Y299.4840   
N10805  X39.6074  Y296.9122   
N10810  X37.3221  Y294.3476   
N10815  X34.1398  Y292.2289   
N10820  X30.5735  Y290.9954   
N10825  X21.6873  Y289.0476   
N10830  X19.2951  Y288.3148   
N10835  X17.9945  Y287.4240   
N10840  X17.4561  Y285.9502   
N10845  X17.3499  Y283.4695   
N10850  X16.8345  Y279.7088   
N10855  X15.9492  Y278.9102   
N10860  X14.4305  Y278.4643   
N10865  X12.2479  Y278.2797   
N10870  X11.0994  Y278.6187   
N10875 G0  Z3.0000 
N10880  X37.6454  Y232.5913 
N10885  Z0.1000 
N10890 G1  Z-0.7000  F100.00 
N10895  X36.5559  Y230.8047   F300.00 
N10900  X35.3162  Y229.7988   
N10905  X33.4877  Y229.3674   
N10910  X30.6299  Y229.3047   
N10915  X26.7781  Y229.5667   
N10920  X24.9234  Y230.0841   
N10925  X25.2778  Y232.0175   
N10930  X26.7371  Y235.6834   
N10935  X28.0460  Y238.2687   
N10940  X29.2480  Y239.7507   
N10945  X30.7073  Y240.4241   
N10950  X32.7867  Y240.5831   
N10955  X35.0050  Y240.7254   
N10960  X36.3575  Y241.6654   
N10965  X37.3726  Y244.1743   
N10970  X38.5798  Y249.0232   
N10975  X40.3595  Y255.3009   
N10980  X42.4162  Y260.2422   
N10985  X44.7293  Y263.8062   
N10990  X47.2772  Y265.9518   
N10995  X48.4638  Y266.4986   
N11000  X48.8064  Y266.2485   
N11005  X46.8280  Y262.2665   
N11010  X44.6716  Y257.5629   
N11015  X43.0687  Y252.5635   
N11020  X42.3001  Y248.3622   
N11025  X42.6487  Y246.0514   
N11030  X44.7838  Y246.0868   
N11035  X48.6631  Y247.4264   
N11040  X51.3962  Y248.8068   
N11045  X53.2379  Y250.3084   
N11050  X54.5799  Y252.3710   
N11055  X55.8153  Y255.4337   
N11060  X57.8999  Y259.8809   
N11065  X60.6819  Y264.0485   
N11070  X63.5392  Y267.1360   
N11075  X65.8494  Y268.3429   
N11080  X66.1786  Y268.0944   
N11085  X66.0989  Y267.4150   
N11090  X64.8406  Y265.1622   
N11095  X62.5451  Y261.4491   
N11100  X60.7599  Y257.5848   
N11105  X59.8140  Y254.4176   
N11110  X60.0376  Y252.7950   
N11115  X62.5753  Y252.3029   
N11120  X65.6917  Y253.2320   
N11125  X68.8789  Y255.3383   
N11130  X71.6288  Y258.3770   
N11135  X77.4327  Y265.4062   
N11140  X78.7521  Y266.5331   
N11145  X79.1475  Y266.5793   
N11150  X77.0481  Y262.5616   
N11155  X75.0727  Y258.2602   
N11160  X74.9583  Y256.9225   
N11165  X75.3832  Y255.9560   
N11170  X77.2724  Y254.7527   
N11175  X79.8662  Y254.5796   
N11180  X82.8623  Y255.4019   
N11185  X85.9587  Y257.1842   
N11190  X91.4993  Y260.8799   
N11195  X91.8538  Y260.8904   
N11200  X91.8288  Y260.5471   
N11205  X90.7056  Y258.8209   
N11210  X88.7967  Y256.8861   
N11215  X87.3272  Y256.3950   
N11220  X87.2452  Y256.2553   
N11225  X87.8767  Y255.4773   
N11230  X90.8220  Y252.5169   
N11235  X97.5076  Y245.6586   
N11240  X98.4584  Y244.4035   
N11245  X98.2935  Y244.0536   
N11250  X93.4344  Y246.2369   
N11255  X88.9787  Y248.0012   
N11260  X84.1918  Y249.0399   
N11265  X79.0491  Y249.3494   
N11270  X73.5271  Y248.9261   
N11275  X67.6019  Y247.7674   
N11280  X61.2487  Y245.8697   
N11285  X54.4438  Y243.2294   
N11290  X47.1634  Y239.8431   
N11295  X40.8936  Y236.0874   
N11300  X38.8929  Y234.3077   
N11305  X37.6454  Y232.5913   
N11310 G0  Z0.1000 
N11315 G1  Z-1.4000  F100.00 
N11320  X36.5559  Y230.8047   F300.00 
N11325  X35.3162  Y229.7988   
N11330  X33.4877  Y229.3674   
N11335  X30.6299  Y229.3047   
N11340  X26.7781  Y229.5667   
N11345  X24.9234  Y230.0841   
N11350  X25.2778  Y232.0175   
N11355  X26.7371  Y235.6834   
N11360  X28.0460  Y238.2687   
N11365  X29.2480  Y239.7507   
N11370  X30.7073  Y240.4241   
N11375  X32.7867  Y240.5831   
N11380  X35.0050  Y240.7254   
N11385  X36.3575  Y241.6654   
N11390  X37.3726  Y244.1743   
N11395  X38.5798  Y249.0232   
N11400  X40.3595  Y255.3009   
N11405  X42.4162  Y260.2422   
N11410  X44.7293  Y263.8062   
N11415  X47.2772  Y265.9518   
N11420  X48.4638  Y266.4986   
N11425  X48.8064  Y266.2485   
N11430  X46.8280  Y262.2665   
N11435  X44.6716  Y257.5629   
N11440  X43.0687  Y252.5635   
N11445  X42.3001  Y248.3622   
N11450  X42.6487  Y246.0514   
N11455  X44.7838  Y246.0868   
N11460  X48.6631  Y247.4264   
N11465  X51.3962  Y248.8068   
N11470  X53.2379  Y250.3084   
N11475  X54.5799  Y252.3710   
N11480  X55.8153  Y255.4337   
N11485  X57.8999  Y259.8809   
N11490  X60.6819  Y264.0485   
N11495  X63.5392  Y267.1360   
N11500  X65.8494  Y268.3429   
N11505  X66.1786  Y268.0944   
N11510  X66.0989  Y267.4150   
N11515  X64.8406  Y265.1622   
N11520  X62.5451  Y261.4491   
N11525  X60.7599  Y257.5848   
N11530  X59.8140  Y254.4176   
N11535  X60.0376  Y252.7950   
N11540  X62.5753  Y252.3029   
N11545  X65.6917  Y253.2320   
N11550  X68.8789  Y255.3383   
N11555  X71.6288  Y258.3770   
N11560  X77.4327  Y265.4062   
N11565  X78.7521  Y266.5331   
N11570  X79.1475  Y266.5793   
N11575  X77.0481  Y262.5616   
N11580  X75.0727  Y258.2602   
N11585  X74.9583  Y256.9225   
N11590  X75.3832  Y255.9560   
N11595  X77.2724  Y254.7527   
N11600  X79.8662  Y254.5796   
N11605  X82.8623  Y255.4019   
N11610  X85.9587  Y257.1842   
N11615  X91.4993  Y260.8799   
N11620  X91.8538  Y260.8904   
N11625  X91.8288  Y260.5471   
N11630  X90.7056  Y258.8209   
N11635  X88.7967  Y256.8861   
N11640  X87.3272  Y256.3950   
N11645  X87.2452  Y256.2553   
N11650  X87.8767  Y255.4773   
N11655  X90.8220  Y252.5169   
N11660  X97.5076  Y245.6586   
N11665  X98.4584  Y244.4035   
N11670  X98.2935  Y244.0536   
N11675  X93.4344  Y246.2369   
N11680  X88.9787  Y248.0012   
N11685  X84.1918  Y249.0399   
N11690  X79.0491  Y249.3494   
N11695  X73.5271  Y248.9261   
N11700  X67.6019  Y247.7674   
N11705  X61.2487  Y245.8697   
N11710  X54.4438  Y243.2294   
N11715  X47.1634  Y239.8431   
N11720  X40.8936  Y236.0874   
N11725  X38.8929  Y234.3077   
N11730  X37.6454  Y232.5913   
N11735 G0  Z3.0000 
N11740 M5
N11745 M30

