N5 (File Name = quito on Saturday, November 11, 2023)
N10 (Default Mill Post)
N15  G91.1
N20 G0  Z3.0000 
N25 M3 
N30  X49.5478  Y4.5669 
N35  Z0.1000 
N40 G1  Z-0.7000  F100.00 
N45  X48.9586  Y5.5839   F300.00 
N50  X48.6530  Y6.1442   
N55  X48.3675  Y6.6421   
N60  X47.1611  Y8.6864   
N65  X43.5923  Y14.7925   
N70  X43.3375  Y15.2318   
N75  X41.5666  Y18.3167   
N80  X39.3483  Y22.1346   
N85  X37.8055  Y24.7765   
N90  X36.7816  Y26.5306   
N95  X33.9131  Y31.3892   
N100  X33.6634  Y31.8273   
N105  X32.9724  Y33.0273   
N110  X32.2814  Y34.2131   
N115  X31.2022  Y36.0373   
N120  X29.6978  Y38.6125   
N125  X28.4515  Y40.7919   
N130  X27.4826  Y42.4789   
N135  X27.3357  Y42.8197   
N140  X27.3389  Y42.9727   
N145  X28.1671  Y43.5185   
N150  X30.3678  Y44.8377   
N155  X33.4538  Y46.6747   
N160  X34.7334  Y47.3299   
N165  X34.8256  Y47.2732   
N170  X34.8875  Y47.0437   
N175  X34.9729  Y45.7087   
N180  X35.0564  Y44.3964   
N185  X35.1975  Y43.2624   
N190  X35.4082  Y42.2328   
N195  X35.7004  Y41.2340   
N200  X36.1968  Y39.9504   
N205  X37.0548  Y38.5604   
N210  X37.6385  Y37.7681   
N215  X38.3313  Y36.9699   
N220  X39.0529  Y36.2516   
N225  X39.7230  Y35.6996   
N230  X40.7824  Y35.0399   
N235  X42.0630  Y34.3841   
N240  X43.3829  Y33.8177   
N245  X44.5601  Y33.4263   
N250  X46.3194  Y33.0584   
N255  X48.2512  Y32.8145   
N260  X50.1671  Y32.7117   
N265  X51.8786  Y32.7668   
N270  X53.5689  Y32.9765   
N275  X55.1436  Y33.2894   
N280  X56.6027  Y33.7056   
N285  X57.9465  Y34.2250   
N290  X59.1749  Y34.8479   
N295  X60.2880  Y35.5741   
N300  X61.2860  Y36.4037   
N305  X62.1690  Y37.3368   
N310  X63.0194  Y38.4442   
N315  X63.7018  Y39.5449   
N320  X64.2354  Y40.6738   
N325  X64.6391  Y41.8660   
N330  X64.9920  Y43.2586   
N335  X65.0986  Y44.0131   
N340  X65.1688  Y45.0301   
N345  X65.2303  Y48.5236   
N350  X65.2373  Y55.0819   
N355  X65.2646  Y63.4503   
N360  X65.3054  Y65.1757   
N365  X65.3702  Y65.7350   
N370  X66.1278  Y66.2798   
N375  X68.3734  Y67.6368   
N380  X70.2338  Y68.7599   
N385  X72.1474  Y69.9061   
N390  X75.1241  Y71.6722   
N395  X81.8216  Y75.6826   
N400  X84.3730  Y77.2243   
N405  X90.5390  Y80.9535   
N410  X92.6120  Y82.2135   
N415  X94.7673  Y83.5344   
N420  X95.3417  Y83.8371   
N425  X95.5758  Y83.8984   
N430  X95.4258  Y83.4724   
N435  X94.9181  Y82.5524   
N440  X94.0887  Y81.0916   
N445  X93.0536  Y79.2312   
N450  X90.4073  Y74.5983   
N455  X88.5727  Y71.4090   
N460  X87.4051  Y69.3891   
N465  X84.9891  Y65.1899   
N470  X82.7792  Y61.3096   
N475  X80.5486  Y57.4293   
N480  X78.9001  Y54.5589   
N485  X77.5670  Y52.2201   
N490  X76.5063  Y50.3597   
N495  X75.3909  Y48.3930   
N500  X73.8482  Y45.6821   
N505  X72.4132  Y43.1838   
N510  X71.9153  Y42.3334   
N515  X68.6976  Y36.6458   
N520  X67.8130  Y35.0890   
N525  X66.6728  Y33.0691   
N530  X65.8512  Y31.6493   
N535  X64.9380  Y30.0546   
N540  X63.6447  Y27.7690   
N545  X62.6887  Y26.0680   
N550  X61.1199  Y23.3040   
N555  X58.7581  Y19.1579   
N560  X56.3634  Y14.9587   
N565  X54.3428  Y11.4505   
N570  X52.6945  Y8.5801   
N575  X50.8116  Y5.3165   
N580  X50.2295  Y4.3941   
N585  X49.9598  Y4.0650   
N590  X49.7858  Y4.2112   
N595  X49.5478  Y4.5669   
N600 G0  Z0.1000 
N605 G1  Z-1.4000  F100.00 
N610  X48.9586  Y5.5839   F300.00 
N615  X48.6530  Y6.1442   
N620  X48.3675  Y6.6421   
N625  X47.1611  Y8.6864   
N630  X43.5923  Y14.7925   
N635  X43.3375  Y15.2318   
N640  X41.5666  Y18.3167   
N645  X39.3483  Y22.1346   
N650  X37.8055  Y24.7765   
N655  X36.7816  Y26.5306   
N660  X33.9131  Y31.3892   
N665  X33.6634  Y31.8273   
N670  X32.9724  Y33.0273   
N675  X32.2814  Y34.2131   
N680  X31.2022  Y36.0373   
N685  X29.6978  Y38.6125   
N690  X28.4515  Y40.7919   
N695  X27.4826  Y42.4789   
N700  X27.3357  Y42.8197   
N705  X27.3389  Y42.9727   
N710  X28.1671  Y43.5185   
N715  X30.3678  Y44.8377   
N720  X33.4538  Y46.6747   
N725  X34.7334  Y47.3299   
N730  X34.8256  Y47.2732   
N735  X34.8875  Y47.0437   
N740  X34.9729  Y45.7087   
N745  X35.0564  Y44.3964   
N750  X35.1975  Y43.2624   
N755  X35.4082  Y42.2328   
N760  X35.7004  Y41.2340   
N765  X36.1968  Y39.9504   
N770  X37.0548  Y38.5604   
N775  X37.6385  Y37.7681   
N780  X38.3313  Y36.9699   
N785  X39.0529  Y36.2516   
N790  X39.7230  Y35.6996   
N795  X40.7824  Y35.0399   
N800  X42.0630  Y34.3841   
N805  X43.3829  Y33.8177   
N810  X44.5601  Y33.4263   
N815  X46.3194  Y33.0584   
N820  X48.2512  Y32.8145   
N825  X50.1671  Y32.7117   
N830  X51.8786  Y32.7668   
N835  X53.5689  Y32.9765   
N840  X55.1436  Y33.2894   
N845  X56.6027  Y33.7056   
N850  X57.9465  Y34.2250   
N855  X59.1749  Y34.8479   
N860  X60.2880  Y35.5741   
N865  X61.2860  Y36.4037   
N870  X62.1690  Y37.3368   
N875  X63.0194  Y38.4442   
N880  X63.7018  Y39.5449   
N885  X64.2354  Y40.6738   
N890  X64.6391  Y41.8660   
N895  X64.9920  Y43.2586   
N900  X65.0986  Y44.0131   
N905  X65.1688  Y45.0301   
N910  X65.2303  Y48.5236   
N915  X65.2373  Y55.0819   
N920  X65.2646  Y63.4503   
N925  X65.3054  Y65.1757   
N930  X65.3702  Y65.7350   
N935  X66.1278  Y66.2798   
N940  X68.3734  Y67.6368   
N945  X70.2338  Y68.7599   
N950  X72.1474  Y69.9061   
N955  X75.1241  Y71.6722   
N960  X81.8216  Y75.6826   
N965  X84.3730  Y77.2243   
N970  X90.5390  Y80.9535   
N975  X92.6120  Y82.2135   
N980  X94.7673  Y83.5344   
N985  X95.3417  Y83.8371   
N990  X95.5758  Y83.8984   
N995  X95.4258  Y83.4724   
N1000  X94.9181  Y82.5524   
N1005  X94.0887  Y81.0916   
N1010  X93.0536  Y79.2312   
N1015  X90.4073  Y74.5983   
N1020  X88.5727  Y71.4090   
N1025  X87.4051  Y69.3891   
N1030  X84.9891  Y65.1899   
N1035  X82.7792  Y61.3096   
N1040  X80.5486  Y57.4293   
N1045  X78.9001  Y54.5589   
N1050  X77.5670  Y52.2201   
N1055  X76.5063  Y50.3597   
N1060  X75.3909  Y48.3930   
N1065  X73.8482  Y45.6821   
N1070  X72.4132  Y43.1838   
N1075  X71.9153  Y42.3334   
N1080  X68.6976  Y36.6458   
N1085  X67.8130  Y35.0890   
N1090  X66.6728  Y33.0691   
N1095  X65.8512  Y31.6493   
N1100  X64.9380  Y30.0546   
N1105  X63.6447  Y27.7690   
N1110  X62.6887  Y26.0680   
N1115  X61.1199  Y23.3040   
N1120  X58.7581  Y19.1579   
N1125  X56.3634  Y14.9587   
N1130  X54.3428  Y11.4505   
N1135  X52.6945  Y8.5801   
N1140  X50.8116  Y5.3165   
N1145  X50.2295  Y4.3941   
N1150  X49.9598  Y4.0650   
N1155  X49.7858  Y4.2112   
N1160  X49.5478  Y4.5669   
N1165 G0  Z3.0000 
N1170  X52.2936  Y0.9500 
N1175  Z0.1000 
N1180 G1  Z-0.7000  F100.00 
N1185  X51.9028  Y0.3365   F300.00 
N1190  X51.6293  Y0.0220   
N1195  X51.4797  Y0.0000   
N1200  X51.2673  Y0.0434   
N1205  X50.7474  Y0.2736   
N1210  X50.2575  Y0.6078   
N1215  X49.9853  Y0.9410   
N1220  X49.3232  Y2.2743   
N1225  X48.6008  Y3.5304   
N1230  X48.1006  Y4.3809   
N1235  X45.3450  Y9.2499   
N1240  X45.0385  Y9.8482   
N1245  X44.8729  Y10.1267   
N1250  X44.5554  Y10.6276   
N1255  X44.1395  Y11.3049   
N1260  X43.5880  Y12.1522   
N1265  X42.5922  Y13.9347   
N1270  X41.7217  Y15.3417   
N1275  X40.8290  Y16.7769   
N1280  X40.2706  Y17.7227   
N1285  X39.6877  Y18.7327   
N1290  X39.1399  Y19.6363   
N1295  X38.5016  Y20.6994   
N1300  X36.9285  Y23.4103   
N1305  X33.9837  Y28.4068   
N1310  X33.2893  Y29.5762   
N1315  X32.3089  Y31.2240   
N1320  X29.1475  Y36.6458   
N1325  X25.9750  Y42.0144   
N1330  X22.1815  Y48.4993   
N1335  X18.5503  Y54.7184   
N1340  X15.8736  Y59.2897   
N1345  X14.6576  Y61.3853   
N1350  X12.4591  Y65.1593   
N1355  X10.3064  Y68.8347   
N1360  X9.7438  Y69.8160   
N1365  X9.3870  Y70.4236   
N1370  X8.7727  Y71.4621   
N1375  X6.2052  Y75.8740   
N1380  X3.4772  Y80.5516   
N1385  X2.6251  Y81.9868   
N1390  X1.9271  Y83.2093   
N1395  X1.0316  Y84.7589   
N1400  X0.2822  Y86.0630   
N1405  X0.0045  Y86.6679   
N1410  X0.0000  Y86.8030   
N1415  X0.0696  Y86.8863   
N1420  X5.2075  Y86.9528   
N1425  X21.2783  Y86.9194   
N1430  X45.8358  Y86.8426   
N1435  X78.5791  Y86.8290   
N1440  X91.3363  Y86.8611   
N1445  X99.1715  Y86.8876   
N1450  X99.3896  Y86.7432   
N1455  X99.6647  Y86.4167   
N1460  X99.9005  Y86.0407   
N1465  X100.0005  Y85.7478   
N1470  X99.8794  Y85.4107   
N1475  X99.5881  Y84.8633   
N1480  X98.0811  Y82.1994   
N1485  X96.5974  Y79.5417   
N1490  X95.4636  Y77.5218   
N1495  X90.9629  Y69.5486   
N1500  X88.4644  Y65.1367   
N1505  X85.7032  Y60.2465   
N1510  X83.7356  Y56.7383   
N1515  X81.0466  Y51.9543   
N1520  X76.1864  Y43.3433   
N1525  X72.5314  Y36.8811   
N1530  X70.7438  Y33.6918   
N1535  X67.7114  Y28.3005   
N1540  X65.3693  Y24.1544   
N1545  X59.5012  Y13.7361   
N1550  X57.5857  Y10.3342   
N1555  X54.1821  Y4.2746   
N1560  X53.2768  Y2.6799   
N1565  X52.2936  Y0.9500   
N1570 G0  Z0.1000 
N1575 G1  Z-1.4000  F100.00 
N1580  X51.9028  Y0.3365   F300.00 
N1585  X51.6293  Y0.0220   
N1590  X51.4797  Y0.0000   
N1595  X51.2673  Y0.0434   
N1600  X50.7474  Y0.2736   
N1605  X50.2575  Y0.6078   
N1610  X49.9853  Y0.9410   
N1615  X49.3232  Y2.2743   
N1620  X48.6008  Y3.5304   
N1625  X48.1006  Y4.3809   
N1630  X45.3450  Y9.2499   
N1635  X45.0385  Y9.8482   
N1640  X44.8729  Y10.1267   
N1645  X44.5554  Y10.6276   
N1650  X44.1395  Y11.3049   
N1655  X43.5880  Y12.1522   
N1660  X42.5922  Y13.9347   
N1665  X41.7217  Y15.3417   
N1670  X40.8290  Y16.7769   
N1675  X40.2706  Y17.7227   
N1680  X39.6877  Y18.7327   
N1685  X39.1399  Y19.6363   
N1690  X38.5016  Y20.6994   
N1695  X36.9285  Y23.4103   
N1700  X33.9837  Y28.4068   
N1705  X33.2893  Y29.5762   
N1710  X32.3089  Y31.2240   
N1715  X29.1475  Y36.6458   
N1720  X25.9750  Y42.0144   
N1725  X22.1815  Y48.4993   
N1730  X18.5503  Y54.7184   
N1735  X15.8736  Y59.2897   
N1740  X14.6576  Y61.3853   
N1745  X12.4591  Y65.1593   
N1750  X10.3064  Y68.8347   
N1755  X9.7438  Y69.8160   
N1760  X9.3870  Y70.4236   
N1765  X8.7727  Y71.4621   
N1770  X6.2052  Y75.8740   
N1775  X3.4772  Y80.5516   
N1780  X2.6251  Y81.9868   
N1785  X1.9271  Y83.2093   
N1790  X1.0316  Y84.7589   
N1795  X0.2822  Y86.0630   
N1800  X0.0045  Y86.6679   
N1805  X0.0000  Y86.8030   
N1810  X0.0696  Y86.8863   
N1815  X5.2075  Y86.9528   
N1820  X21.2783  Y86.9194   
N1825  X45.8358  Y86.8426   
N1830  X78.5791  Y86.8290   
N1835  X91.3363  Y86.8611   
N1840  X99.1715  Y86.8876   
N1845  X99.3896  Y86.7432   
N1850  X99.6647  Y86.4167   
N1855  X99.9005  Y86.0407   
N1860  X100.0005  Y85.7478   
N1865  X99.8794  Y85.4107   
N1870  X99.5881  Y84.8633   
N1875  X98.0811  Y82.1994   
N1880  X96.5974  Y79.5417   
N1885  X95.4636  Y77.5218   
N1890  X90.9629  Y69.5486   
N1895  X88.4644  Y65.1367   
N1900  X85.7032  Y60.2465   
N1905  X83.7356  Y56.7383   
N1910  X81.0466  Y51.9543   
N1915  X76.1864  Y43.3433   
N1920  X72.5314  Y36.8811   
N1925  X70.7438  Y33.6918   
N1930  X67.7114  Y28.3005   
N1935  X65.3693  Y24.1544   
N1940  X59.5012  Y13.7361   
N1945  X57.5857  Y10.3342   
N1950  X54.1821  Y4.2746   
N1955  X53.2768  Y2.6799   
N1960  X52.2936  Y0.9500   
N1965 G0  Z3.0000 
N1970  X47.6962  Y34.3708 
N1975  Z0.1000 
N1980 G1  Z-0.7000  F100.00 
N1985  X45.8532  Y34.6170   F300.00 
N1990  X44.4538  Y34.9865   
N1995  X42.9029  Y35.5785   
N2000  X41.8924  Y36.1320   
N2005  X41.4837  Y36.3800   
N2010  X41.1216  Y36.6060   
N2015  X40.4545  Y37.1397   
N2020  X39.2366  Y38.2648   
N2025  X38.3445  Y39.4667   
N2030  X37.6165  Y40.7771   
N2035  X37.0765  Y42.1455   
N2040  X36.7481  Y43.5215   
N2045  X36.6499  Y47.0972   
N2050  X36.6063  Y56.9814   
N2055  X36.5630  Y67.5176   
N2060  X36.5121  Y69.2958   
N2065  X36.4274  Y69.7634   
N2070  X36.0610  Y69.8351   
N2075  X35.4039  Y69.8659   
N2080  X34.6889  Y69.9038   
N2085  X34.5051  Y69.9582   
N2090  X34.3940  Y70.0439   
N2095  X34.3235  Y70.2367   
N2100  X34.2838  Y70.6675   
N2105  X34.2796  Y72.6215   
N2110  X34.3321  Y74.3835   
N2115  X34.4177  Y75.1295   
N2120  X35.9593  Y75.2305   
N2125  X40.0056  Y75.3219   
N2130  X44.6876  Y75.3671   
N2135  X45.4378  Y75.3233   
N2140  X45.6879  Y75.2257   
N2145  X45.7978  Y75.0629   
N2150  X45.8582  Y74.7007   
N2155  X45.8890  Y72.6210   
N2160  X45.8566  Y70.4797   
N2165  X45.7833  Y70.1194   
N2170  X45.6429  Y69.9122   
N2175  X45.4844  Y69.7521   
N2180  X45.2966  Y69.6689   
N2185  X44.4347  Y69.6456   
N2190  X43.4726  Y69.6651   
N2195  X43.4158  Y69.1550   
N2200  X43.3899  Y56.6320   
N2205  X43.4421  Y47.2345   
N2210  X43.4860  Y45.0085   
N2215  X43.5454  Y44.1406   
N2220  X43.7319  Y43.6658   
N2225  X44.0371  Y43.1258   
N2230  X44.4010  Y42.6150   
N2235  X44.7636  Y42.2277   
N2240  X45.2449  Y41.8905   
N2245  X45.9034  Y41.5259   
N2250  X46.6188  Y41.1950   
N2255  X47.2710  Y40.9584   
N2260  X48.1731  Y40.7414   
N2265  X49.1008  Y40.6044   
N2270  X50.0395  Y40.5468   
N2275  X50.9749  Y40.5674   
N2280  X51.8923  Y40.6655   
N2285  X52.7774  Y40.8400   
N2290  X53.6156  Y41.0900   
N2295  X54.3924  Y41.4147   
N2300  X54.9149  Y41.7027   
N2305  X55.3849  Y42.0304   
N2310  X55.8015  Y42.3967   
N2315  X56.1635  Y42.8005   
N2320  X56.4703  Y43.2406   
N2325  X56.7208  Y43.7158   
N2330  X56.9141  Y44.2250   
N2335  X57.0493  Y44.7669   
N2340  X57.1297  Y48.3347   
N2345  X57.1578  Y57.4932   
N2350  X57.1305  Y68.0503   
N2355  X57.0693  Y69.4702   
N2360  X57.0188  Y69.6879   
N2365  X56.9521  Y69.7575   
N2370  X56.5573  Y69.8352   
N2375  X55.8966  Y69.8675   
N2380  X55.1981  Y69.9045   
N2385  X54.8797  Y70.0346   
N2390  X54.7992  Y70.3060   
N2395  X54.7413  Y70.8723   
N2400  X54.6939  Y72.5026   
N2405  X54.7382  Y74.1524   
N2410  X54.7950  Y74.7430   
N2415  X54.8750  Y75.0486   
N2420  X55.0374  Y75.2804   
N2425  X60.3979  Y75.2583   
N2430  X64.6954  Y75.2125   
N2435  X65.5872  Y75.1665   
N2440  X65.8964  Y75.0977   
N2445  X65.9623  Y74.9152   
N2450  X66.0049  Y74.4819   
N2455  X66.0346  Y72.5995   
N2460  X66.0230  Y70.9686   
N2465  X65.9836  Y70.4809   
N2470  X65.8996  Y70.1633   
N2475  X65.7544  Y69.9793   
N2480  X65.5314  Y69.8927   
N2485  X64.7855  Y69.8659   
N2490  X64.1260  Y69.8393   
N2495  X63.7720  Y69.7777   
N2500  X63.7045  Y69.2143   
N2505  X63.6632  Y67.3146   
N2510  X63.6385  Y57.6222   
N2515  X63.6289  Y49.8683   
N2520  X63.5573  Y45.6305   
N2525  X63.4804  Y44.3998   
N2530  X63.3666  Y43.5318   
N2535  X63.2089  Y42.8544   
N2540  X62.9999  Y42.1954   
N2545  X62.3681  Y40.6512   
N2550  X61.5630  Y39.2747   
N2555  X60.5840  Y38.0657   
N2560  X59.4307  Y37.0235   
N2565  X58.1027  Y36.1481   
N2570  X56.5993  Y35.4388   
N2575  X54.9202  Y34.8953   
N2580  X53.0649  Y34.5173   
N2585  X51.8383  Y34.3888   
N2590  X50.3627  Y34.3169   
N2595  X48.8960  Y34.3085   
N2600  X47.6962  Y34.3708   
N2605 G0  Z0.1000 
N2610 G1  Z-1.4000  F100.00 
N2615  X45.8532  Y34.6170   F300.00 
N2620  X44.4538  Y34.9865   
N2625  X42.9029  Y35.5785   
N2630  X41.8924  Y36.1320   
N2635  X41.4837  Y36.3800   
N2640  X41.1216  Y36.6060   
N2645  X40.4545  Y37.1397   
N2650  X39.2366  Y38.2648   
N2655  X38.3445  Y39.4667   
N2660  X37.6165  Y40.7771   
N2665  X37.0765  Y42.1455   
N2670  X36.7481  Y43.5215   
N2675  X36.6499  Y47.0972   
N2680  X36.6063  Y56.9814   
N2685  X36.5630  Y67.5176   
N2690  X36.5121  Y69.2958   
N2695  X36.4274  Y69.7634   
N2700  X36.0610  Y69.8351   
N2705  X35.4039  Y69.8659   
N2710  X34.6889  Y69.9038   
N2715  X34.5051  Y69.9582   
N2720  X34.3940  Y70.0439   
N2725  X34.3235  Y70.2367   
N2730  X34.2838  Y70.6675   
N2735  X34.2796  Y72.6215   
N2740  X34.3321  Y74.3835   
N2745  X34.4177  Y75.1295   
N2750  X35.9593  Y75.2305   
N2755  X40.0056  Y75.3219   
N2760  X44.6876  Y75.3671   
N2765  X45.4378  Y75.3233   
N2770  X45.6879  Y75.2257   
N2775  X45.7978  Y75.0629   
N2780  X45.8582  Y74.7007   
N2785  X45.8890  Y72.6210   
N2790  X45.8566  Y70.4797   
N2795  X45.7833  Y70.1194   
N2800  X45.6429  Y69.9122   
N2805  X45.4844  Y69.7521   
N2810  X45.2966  Y69.6689   
N2815  X44.4347  Y69.6456   
N2820  X43.4726  Y69.6651   
N2825  X43.4158  Y69.1550   
N2830  X43.3899  Y56.6320   
N2835  X43.4421  Y47.2345   
N2840  X43.4860  Y45.0085   
N2845  X43.5454  Y44.1406   
N2850  X43.7319  Y43.6658   
N2855  X44.0371  Y43.1258   
N2860  X44.4010  Y42.6150   
N2865  X44.7636  Y42.2277   
N2870  X45.2449  Y41.8905   
N2875  X45.9034  Y41.5259   
N2880  X46.6188  Y41.1950   
N2885  X47.2710  Y40.9584   
N2890  X48.1731  Y40.7414   
N2895  X49.1008  Y40.6044   
N2900  X50.0395  Y40.5468   
N2905  X50.9749  Y40.5674   
N2910  X51.8923  Y40.6655   
N2915  X52.7774  Y40.8400   
N2920  X53.6156  Y41.0900   
N2925  X54.3924  Y41.4147   
N2930  X54.9149  Y41.7027   
N2935  X55.3849  Y42.0304   
N2940  X55.8015  Y42.3967   
N2945  X56.1635  Y42.8005   
N2950  X56.4703  Y43.2406   
N2955  X56.7208  Y43.7158   
N2960  X56.9141  Y44.2250   
N2965  X57.0493  Y44.7669   
N2970  X57.1297  Y48.3347   
N2975  X57.1578  Y57.4932   
N2980  X57.1305  Y68.0503   
N2985  X57.0693  Y69.4702   
N2990  X57.0188  Y69.6879   
N2995  X56.9521  Y69.7575   
N3000  X56.5573  Y69.8352   
N3005  X55.8966  Y69.8675   
N3010  X55.1981  Y69.9045   
N3015  X54.8797  Y70.0346   
N3020  X54.7992  Y70.3060   
N3025  X54.7413  Y70.8723   
N3030  X54.6939  Y72.5026   
N3035  X54.7382  Y74.1524   
N3040  X54.7950  Y74.7430   
N3045  X54.8750  Y75.0486   
N3050  X55.0374  Y75.2804   
N3055  X60.3979  Y75.2583   
N3060  X64.6954  Y75.2125   
N3065  X65.5872  Y75.1665   
N3070  X65.8964  Y75.0977   
N3075  X65.9623  Y74.9152   
N3080  X66.0049  Y74.4819   
N3085  X66.0346  Y72.5995   
N3090  X66.0230  Y70.9686   
N3095  X65.9836  Y70.4809   
N3100  X65.8996  Y70.1633   
N3105  X65.7544  Y69.9793   
N3110  X65.5314  Y69.8927   
N3115  X64.7855  Y69.8659   
N3120  X64.1260  Y69.8393   
N3125  X63.7720  Y69.7777   
N3130  X63.7045  Y69.2143   
N3135  X63.6632  Y67.3146   
N3140  X63.6385  Y57.6222   
N3145  X63.6289  Y49.8683   
N3150  X63.5573  Y45.6305   
N3155  X63.4804  Y44.3998   
N3160  X63.3666  Y43.5318   
N3165  X63.2089  Y42.8544   
N3170  X62.9999  Y42.1954   
N3175  X62.3681  Y40.6512   
N3180  X61.5630  Y39.2747   
N3185  X60.5840  Y38.0657   
N3190  X59.4307  Y37.0235   
N3195  X58.1027  Y36.1481   
N3200  X56.5993  Y35.4388   
N3205  X54.9202  Y34.8953   
N3210  X53.0649  Y34.5173   
N3215  X51.8383  Y34.3888   
N3220  X50.3627  Y34.3169   
N3225  X48.8960  Y34.3085   
N3230  X47.6962  Y34.3708   
N3235 G0  Z3.0000 
N3240  X47.8025  Y42.3650 
N3245  Z0.1000 
N3250 G1  Z-0.7000  F100.00 
N3255  X46.9162  Y42.6473   F300.00 
N3260  X46.2470  Y42.9635   
N3265  X45.7546  Y43.3376   
N3270  X45.3985  Y43.7938   
N3275  X45.1446  Y44.3359   
N3280  X45.0040  Y44.8569   
N3285  X44.9327  Y49.3297   
N3290  X44.9236  Y53.2962   
N3295  X45.2319  Y53.5821   
N3300  X46.9637  Y54.7131   
N3305  X49.0251  Y55.9777   
N3310  X50.2477  Y56.7170   
N3315  X51.5234  Y57.4768   
N3320  X53.0926  Y58.4439   
N3325  X55.0608  Y59.5740   
N3330  X55.3713  Y59.6558   
N3335  X55.4828  Y59.5289   
N3340  X55.5318  Y57.3806   
N3345  X55.5456  Y52.8152   
N3350  X55.4732  Y45.5053   
N3355  X55.3398  Y44.5624   
N3360  X55.2188  Y44.2753   
N3365  X55.0216  Y43.9749   
N3370  X54.6233  Y43.4891   
N3375  X54.1874  Y43.1145   
N3380  X53.6520  Y42.8077   
N3385  X52.9553  Y42.5253   
N3390  X52.3893  Y42.3371   
N3395  X51.8981  Y42.2310   
N3400  X50.3540  Y42.1526   
N3405  X48.8324  Y42.1671   
N3410  X47.8025  Y42.3650   
N3415 G0  Z0.1000 
N3420 G1  Z-1.4000  F100.00 
N3425  X46.9162  Y42.6473   F300.00 
N3430  X46.2470  Y42.9635   
N3435  X45.7546  Y43.3376   
N3440  X45.3985  Y43.7938   
N3445  X45.1446  Y44.3359   
N3450  X45.0040  Y44.8569   
N3455  X44.9327  Y49.3297   
N3460  X44.9236  Y53.2962   
N3465  X45.2319  Y53.5821   
N3470  X46.9637  Y54.7131   
N3475  X49.0251  Y55.9777   
N3480  X50.2477  Y56.7170   
N3485  X51.5234  Y57.4768   
N3490  X53.0926  Y58.4439   
N3495  X55.0608  Y59.5740   
N3500  X55.3713  Y59.6558   
N3505  X55.4828  Y59.5289   
N3510  X55.5318  Y57.3806   
N3515  X55.5456  Y52.8152   
N3520  X55.4732  Y45.5053   
N3525  X55.3398  Y44.5624   
N3530  X55.2188  Y44.2753   
N3535  X55.0216  Y43.9749   
N3540  X54.6233  Y43.4891   
N3545  X54.1874  Y43.1145   
N3550  X53.6520  Y42.8077   
N3555  X52.9553  Y42.5253   
N3560  X52.3893  Y42.3371   
N3565  X51.8981  Y42.2310   
N3570  X50.3540  Y42.1526   
N3575  X48.8324  Y42.1671   
N3580  X47.8025  Y42.3650   
N3585 G0  Z3.0000 
N3590  X44.2534  Y90.7287 
N3595  Z0.1000 
N3600 G1  Z-0.7000  F100.00 
N3605  Y90.7286   F300.00 
N3610  X43.9155  Y90.5082   
N3615  X43.8132  Y90.4912   
N3620  X43.7520  Y90.5437   
N3625  X43.7427  Y90.8787   
N3630  X43.8674  Y91.5566   
N3635  X44.7266  Y95.1027   
N3640  X45.2175  Y97.1866   
N3645  X45.2999  Y97.6976   
N3650  X45.2865  Y97.9199   
N3655  X44.6045  Y98.4765   
N3660  X41.9799  Y100.2240   
N3665  X40.5441  Y101.2202   
N3670  X39.9688  Y101.7005   
N3675  X40.8561  Y101.7985   
N3680  X43.4347  Y101.8666   
N3685  X46.3321  Y101.9410   
N3690  X46.8255  Y102.0038   
N3695  X46.9982  Y102.1046   
N3700  X48.2246  Y105.3710   
N3705  X49.0344  Y107.5798   
N3710  X49.4488  Y108.5629   
N3715  X49.5848  Y108.6052   
N3720  X49.7177  Y108.5022   
N3725  X49.9795  Y107.8525   
N3730  X50.4040  Y106.3848   
N3735  X51.1634  Y103.7853   
N3740  X51.7538  Y102.0046   
N3745  X51.9635  Y101.9375   
N3750  X52.5312  Y101.8949   
N3755  X55.1775  Y101.8650   
N3760  X57.5560  Y101.8376   
N3765  X58.6275  Y101.7741   
N3770  X58.6594  Y101.7090   
N3775  X58.5992  Y101.5996   
N3780  X58.1471  Y101.2057   
N3785  X55.5255  Y99.4215   
N3790  X53.9030  Y98.3096   
N3795  X53.2745  Y97.7662   
N3800  X53.2581  Y97.5185   
N3805  X53.3644  Y96.9388   
N3810  X54.2274  Y93.5219   
N3815  X54.6888  Y91.6116   
N3820  X54.8244  Y90.7734   
N3825  X54.7133  Y90.7354   
N3830  X54.5741  Y90.7729   
N3835  X53.1522  Y91.9309   
N3840  X51.3113  Y93.5266   
N3845  X50.1015  Y94.5676   
N3850  X49.7010  Y94.8554   
N3855  X49.4771  Y94.9566   
N3860  X49.3081  Y94.9031   
N3865  X48.9147  Y94.6190   
N3870  X46.5144  Y92.6157   
N3875  X44.2534  Y90.7287   
N3880 G0  Z0.1000 
N3885 G1  Z-1.4000  F100.00 
N3890  Y90.7286   F300.00 
N3895  X43.9155  Y90.5082   
N3900  X43.8132  Y90.4912   
N3905  X43.7520  Y90.5437   
N3910  X43.7427  Y90.8787   
N3915  X43.8674  Y91.5566   
N3920  X44.7266  Y95.1027   
N3925  X45.2175  Y97.1866   
N3930  X45.2999  Y97.6976   
N3935  X45.2865  Y97.9199   
N3940  X44.6045  Y98.4765   
N3945  X41.9799  Y100.2240   
N3950  X40.5441  Y101.2202   
N3955  X39.9688  Y101.7005   
N3960  X40.8561  Y101.7985   
N3965  X43.4347  Y101.8666   
N3970  X46.3321  Y101.9410   
N3975  X46.8255  Y102.0038   
N3980  X46.9982  Y102.1046   
N3985  X48.2246  Y105.3710   
N3990  X49.0344  Y107.5798   
N3995  X49.4488  Y108.5629   
N4000  X49.5848  Y108.6052   
N4005  X49.7177  Y108.5022   
N4010  X49.9795  Y107.8525   
N4015  X50.4040  Y106.3848   
N4020  X51.1634  Y103.7853   
N4025  X51.7538  Y102.0046   
N4030  X51.9635  Y101.9375   
N4035  X52.5312  Y101.8949   
N4040  X55.1775  Y101.8650   
N4045  X57.5560  Y101.8376   
N4050  X58.6275  Y101.7741   
N4055  X58.6594  Y101.7090   
N4060  X58.5992  Y101.5996   
N4065  X58.1471  Y101.2057   
N4070  X55.5255  Y99.4215   
N4075  X53.9030  Y98.3096   
N4080  X53.2745  Y97.7662   
N4085  X53.2581  Y97.5185   
N4090  X53.3644  Y96.9388   
N4095  X54.2274  Y93.5219   
N4100  X54.6888  Y91.6116   
N4105  X54.8244  Y90.7734   
N4110  X54.7133  Y90.7354   
N4115  X54.5741  Y90.7729   
N4120  X53.1522  Y91.9309   
N4125  X51.3113  Y93.5266   
N4130  X50.1015  Y94.5676   
N4135  X49.7010  Y94.8554   
N4140  X49.4771  Y94.9566   
N4145  X49.3081  Y94.9031   
N4150  X48.9147  Y94.6190   
N4155  X46.5144  Y92.6157   
N4160  X44.2534  Y90.7287   
N4165 G0  Z3.0000 
N4170  X24.6334  Y90.9861 
N4175  Z0.1000 
N4180 G1  Z-0.7000  F100.00 
N4185  X24.1798  Y90.6368   F300.00 
N4190  X23.9014  Y90.4915   
N4195  X23.8324  Y90.5217   
N4200  X23.7989  Y90.6307   
N4205  X23.8590  Y91.1957   
N4210  X24.6273  Y94.4866   
N4215  X25.3713  Y97.7108   
N4220  X25.2658  Y97.9442   
N4225  X24.8375  Y98.3217   
N4230  X22.3414  Y100.0206   
N4235  X20.2796  Y101.4054   
N4240  X20.0041  Y101.6408   
N4245  X20.0012  Y101.7414   
N4250  X23.5108  Y101.8667   
N4255  X27.0180  Y101.9894   
N4260  X27.5759  Y103.4133   
N4265  X28.7185  Y106.6506   
N4270  X29.3920  Y108.4015   
N4275  X29.5844  Y108.6449   
N4280  X29.6614  Y108.6405   
N4285  X29.7321  Y108.5642   
N4290  X30.1555  Y107.3549   
N4295  X31.0667  Y104.2586   
N4300  X31.7786  Y101.9995   
N4305  X31.9908  Y101.9360   
N4310  X32.5697  Y101.8948   
N4315  X35.1913  Y101.8650   
N4320  X37.6517  Y101.8351   
N4325  X38.6600  Y101.7567   
N4330  X38.7297  Y101.6499   
N4335  X38.5172  Y101.4272   
N4340  X36.4875  Y100.0327   
N4345  X33.6307  Y98.0872   
N4350  X33.3536  Y97.7942   
N4355  X33.3445  Y97.5615   
N4360  X33.5810  Y96.2676   
N4365  X34.2473  Y93.6277   
N4370  X34.8142  Y91.4117   
N4375  X34.9098  Y90.9205   
N4380  X34.9032  Y90.7391   
N4385  X34.7766  Y90.7298   
N4390  X34.5610  Y90.8174   
N4395  X34.0546  Y91.1835   
N4400  X29.8721  Y94.7844   
N4405  X29.6139  Y94.9299   
N4410  X29.4461  Y94.8978   
N4415  X29.1927  Y94.7563   
N4420  X28.2499  Y94.0259   
N4425  X26.4267  Y92.5010   
N4430  X24.6334  Y90.9861   
N4435 G0  Z0.1000 
N4440 G1  Z-1.4000  F100.00 
N4445  X24.1798  Y90.6368   F300.00 
N4450  X23.9014  Y90.4915   
N4455  X23.8324  Y90.5217   
N4460  X23.7989  Y90.6307   
N4465  X23.8590  Y91.1957   
N4470  X24.6273  Y94.4866   
N4475  X25.3713  Y97.7108   
N4480  X25.2658  Y97.9442   
N4485  X24.8375  Y98.3217   
N4490  X22.3414  Y100.0206   
N4495  X20.2796  Y101.4054   
N4500  X20.0041  Y101.6408   
N4505  X20.0012  Y101.7414   
N4510  X23.5108  Y101.8667   
N4515  X27.0180  Y101.9894   
N4520  X27.5759  Y103.4133   
N4525  X28.7185  Y106.6506   
N4530  X29.3920  Y108.4015   
N4535  X29.5844  Y108.6449   
N4540  X29.6614  Y108.6405   
N4545  X29.7321  Y108.5642   
N4550  X30.1555  Y107.3549   
N4555  X31.0667  Y104.2586   
N4560  X31.7786  Y101.9995   
N4565  X31.9908  Y101.9360   
N4570  X32.5697  Y101.8948   
N4575  X35.1913  Y101.8650   
N4580  X37.6517  Y101.8351   
N4585  X38.6600  Y101.7567   
N4590  X38.7297  Y101.6499   
N4595  X38.5172  Y101.4272   
N4600  X36.4875  Y100.0327   
N4605  X33.6307  Y98.0872   
N4610  X33.3536  Y97.7942   
N4615  X33.3445  Y97.5615   
N4620  X33.5810  Y96.2676   
N4625  X34.2473  Y93.6277   
N4630  X34.8142  Y91.4117   
N4635  X34.9098  Y90.9205   
N4640  X34.9032  Y90.7391   
N4645  X34.7766  Y90.7298   
N4650  X34.5610  Y90.8174   
N4655  X34.0546  Y91.1835   
N4660  X29.8721  Y94.7844   
N4665  X29.6139  Y94.9299   
N4670  X29.4461  Y94.8978   
N4675  X29.1927  Y94.7563   
N4680  X28.2499  Y94.0259   
N4685  X26.4267  Y92.5010   
N4690  X24.6334  Y90.9861   
N4695 G0  Z3.0000 
N4700  X4.6300  Y90.8878 
N4705  Z0.1000 
N4710 G1  Z-0.7000  F100.00 
N4715  X4.0187  Y90.4915   F300.00 
N4720  X3.9444  Y90.5220   
N4725  X3.9051  Y90.6266   
N4730  X3.9440  Y91.1350   
N4735  X4.5825  Y93.8934   
N4740  X5.3373  Y96.9897   
N4745  X5.4495  Y97.5963   
N4750  X5.4465  Y97.8587   
N4755  X5.3089  Y98.0313   
N4760  X4.9631  Y98.3159   
N4765  X3.6633  Y99.2089   
N4770  X0.2775  Y101.4710   
N4775  X0.0938  Y101.6439   
N4780  X0.1759  Y101.7617   
N4785  X1.2111  Y101.8351   
N4790  X3.5926  Y101.8650   
N4795  X5.7475  Y101.8736   
N4800  X6.3947  Y101.9079   
N4805  X6.8292  Y101.9840   
N4810  X7.1064  Y102.1185   
N4815  X7.2817  Y102.3277   
N4820  X7.5487  Y103.0361   
N4825  X9.1867  Y107.6862   
N4830  X9.5187  Y108.4774   
N4835  X9.6870  Y108.6705   
N4840  X9.8365  Y108.5417   
N4845  X10.0248  Y108.1279   
N4850  X10.5804  Y106.2785   
N4855  X11.4439  Y103.3052   
N4860  X11.7589  Y102.3884   
N4865  X11.9487  Y101.9995   
N4870  X12.1966  Y101.9367   
N4875  X12.7970  Y101.8954   
N4880  X15.3719  Y101.8650   
N4885  X17.7085  Y101.8371   
N4890  X18.7642  Y101.7724   
N4895  X18.7942  Y101.7048   
N4900  X18.7286  Y101.5900   
N4905  X18.2655  Y101.1847   
N4910  X15.6952  Y99.4289   
N4915  X13.4699  Y97.8865   
N4920  X13.4355  Y97.5392   
N4925  X13.5961  Y96.6399   
N4930  X14.6852  Y92.3520   
N4935  X15.0560  Y90.8371   
N4940  X15.0337  Y90.7263   
N4945  X14.9525  Y90.6921   
N4950  X14.5693  Y90.8833   
N4955  X13.8189  Y91.4708   
N4960  X12.6141  Y92.5147   
N4965  X10.5090  Y94.3320   
N4970  X9.6578  Y94.9564   
N4975  X9.0742  Y94.6110   
N4980  X5.2256  Y91.4019   
N4985  X4.6300  Y90.8878   
N4990 G0  Z0.1000 
N4995 G1  Z-1.4000  F100.00 
N5000  X4.0187  Y90.4915   F300.00 
N5005  X3.9444  Y90.5220   
N5010  X3.9051  Y90.6266   
N5015  X3.9440  Y91.1350   
N5020  X4.5825  Y93.8934   
N5025  X5.3373  Y96.9897   
N5030  X5.4495  Y97.5963   
N5035  X5.4465  Y97.8587   
N5040  X5.3089  Y98.0313   
N5045  X4.9631  Y98.3159   
N5050  X3.6633  Y99.2089   
N5055  X0.2775  Y101.4710   
N5060  X0.0938  Y101.6439   
N5065  X0.1759  Y101.7617   
N5070  X1.2111  Y101.8351   
N5075  X3.5926  Y101.8650   
N5080  X5.7475  Y101.8736   
N5085  X6.3947  Y101.9079   
N5090  X6.8292  Y101.9840   
N5095  X7.1064  Y102.1185   
N5100  X7.2817  Y102.3277   
N5105  X7.5487  Y103.0361   
N5110  X9.1867  Y107.6862   
N5115  X9.5187  Y108.4774   
N5120  X9.6870  Y108.6705   
N5125  X9.8365  Y108.5417   
N5130  X10.0248  Y108.1279   
N5135  X10.5804  Y106.2785   
N5140  X11.4439  Y103.3052   
N5145  X11.7589  Y102.3884   
N5150  X11.9487  Y101.9995   
N5155  X12.1966  Y101.9367   
N5160  X12.7970  Y101.8954   
N5165  X15.3719  Y101.8650   
N5170  X17.7085  Y101.8371   
N5175  X18.7642  Y101.7724   
N5180  X18.7942  Y101.7048   
N5185  X18.7286  Y101.5900   
N5190  X18.2655  Y101.1847   
N5195  X15.6952  Y99.4289   
N5200  X13.4699  Y97.8865   
N5205  X13.4355  Y97.5392   
N5210  X13.5961  Y96.6399   
N5215  X14.6852  Y92.3520   
N5220  X15.0560  Y90.8371   
N5225  X15.0337  Y90.7263   
N5230  X14.9525  Y90.6921   
N5235  X14.5693  Y90.8833   
N5240  X13.8189  Y91.4708   
N5245  X12.6141  Y92.5147   
N5250  X10.5090  Y94.3320   
N5255  X9.6578  Y94.9564   
N5260  X9.0742  Y94.6110   
N5265  X5.2256  Y91.4019   
N5270  X4.6300  Y90.8878   
N5275 G0  Z3.0000 
N5280  X66.8420  Y92.7240 
N5285  Z0.1000 
N5290 G1  Z-0.7000  F100.00 
N5295  X64.9056  Y91.1473   F300.00 
N5300  X64.0100  Y90.4915   
N5305  X63.9007  Y90.5392   
N5310  X63.8553  Y90.6538   
N5315  X64.6026  Y93.8165   
N5320  X65.4715  Y97.3154   
N5325  X65.5594  Y97.7014   
N5330  X65.5204  Y97.8556   
N5335  X65.3764  Y98.0310   
N5340  X64.6243  Y98.5864   
N5345  X63.0048  Y99.6499   
N5350  X60.6767  Y101.2080   
N5355  X60.2331  Y101.5607   
N5360  X60.0849  Y101.7661   
N5365  X61.0706  Y101.8388   
N5370  X63.5426  Y101.8667   
N5375  X66.4403  Y101.8962   
N5380  X66.9333  Y101.9534   
N5385  X67.1285  Y102.0569   
N5390  X67.3969  Y102.5804   
N5395  X67.7751  Y103.5718   
N5400  X69.2694  Y107.8162   
N5405  X69.5606  Y108.4852   
N5410  X69.7262  Y108.6497   
N5415  X69.7936  Y108.6540   
N5420  X69.8591  Y108.6057   
N5425  X70.0504  Y108.1560   
N5430  X71.1369  Y104.4738   
N5435  X71.6710  Y102.7251   
N5440  X71.9673  Y101.9506   
N5445  X73.0466  Y101.8931   
N5450  X75.4633  Y101.8683   
N5455  X77.9332  Y101.8392   
N5460  X78.8958  Y101.7640   
N5465  X78.7430  Y101.5463   
N5470  X78.1384  Y101.0678   
N5475  X75.4164  Y99.2127   
N5480  X73.8453  Y98.1298   
N5485  X73.5194  Y97.8465   
N5490  X73.4237  Y97.6767   
N5495  X73.7143  Y96.3167   
N5500  X74.5824  Y92.9262   
N5505  X74.9876  Y91.1622   
N5510  X74.9949  Y90.8072   
N5515  X74.9539  Y90.7302   
N5520  X74.8849  Y90.7082   
N5525  X74.6716  Y90.8116   
N5530  X74.2084  Y91.1660   
N5535  X72.1545  Y92.9367   
N5540  X70.2686  Y94.5587   
N5545  X69.8505  Y94.8705   
N5550  X69.6496  Y94.9566   
N5555  X68.7711  Y94.3007   
N5560  X66.8420  Y92.7240   
N5565 G0  Z0.1000 
N5570 G1  Z-1.4000  F100.00 
N5575  X64.9056  Y91.1473   F300.00 
N5580  X64.0100  Y90.4915   
N5585  X63.9007  Y90.5392   
N5590  X63.8553  Y90.6538   
N5595  X64.6026  Y93.8165   
N5600  X65.4715  Y97.3154   
N5605  X65.5594  Y97.7014   
N5610  X65.5204  Y97.8556   
N5615  X65.3764  Y98.0310   
N5620  X64.6243  Y98.5864   
N5625  X63.0048  Y99.6499   
N5630  X60.6767  Y101.2080   
N5635  X60.2331  Y101.5607   
N5640  X60.0849  Y101.7661   
N5645  X61.0706  Y101.8388   
N5650  X63.5426  Y101.8667   
N5655  X66.4403  Y101.8962   
N5660  X66.9333  Y101.9534   
N5665  X67.1285  Y102.0569   
N5670  X67.3969  Y102.5804   
N5675  X67.7751  Y103.5718   
N5680  X69.2694  Y107.8162   
N5685  X69.5606  Y108.4852   
N5690  X69.7262  Y108.6497   
N5695  X69.7936  Y108.6540   
N5700  X69.8591  Y108.6057   
N5705  X70.0504  Y108.1560   
N5710  X71.1369  Y104.4738   
N5715  X71.6710  Y102.7251   
N5720  X71.9673  Y101.9506   
N5725  X73.0466  Y101.8931   
N5730  X75.4633  Y101.8683   
N5735  X77.9332  Y101.8392   
N5740  X78.8958  Y101.7640   
N5745  X78.7430  Y101.5463   
N5750  X78.1384  Y101.0678   
N5755  X75.4164  Y99.2127   
N5760  X73.8453  Y98.1298   
N5765  X73.5194  Y97.8465   
N5770  X73.4237  Y97.6767   
N5775  X73.7143  Y96.3167   
N5780  X74.5824  Y92.9262   
N5785  X74.9876  Y91.1622   
N5790  X74.9949  Y90.8072   
N5795  X74.9539  Y90.7302   
N5800  X74.8849  Y90.7082   
N5805  X74.6716  Y90.8116   
N5810  X74.2084  Y91.1660   
N5815  X72.1545  Y92.9367   
N5820  X70.2686  Y94.5587   
N5825  X69.8505  Y94.8705   
N5830  X69.6496  Y94.9566   
N5835  X68.7711  Y94.3007   
N5840  X66.8420  Y92.7240   
N5845 G0  Z3.0000 
N5850  X85.4361  Y91.6216 
N5855  Z0.1000 
N5860 G1  Z-0.7000  F100.00 
N5865  X84.4542  Y90.8274   F300.00 
N5870  X83.9595  Y90.4950   
N5875  X83.8895  Y90.5315   
N5880  X83.8580  Y90.6601   
N5885  X83.9267  Y91.2850   
N5890  X84.7056  Y94.6416   
N5895  X85.2762  Y97.0762   
N5900  X85.3771  Y97.6682   
N5905  X85.3702  Y97.9170   
N5910  X84.5243  Y98.5547   
N5915  X82.6379  Y99.8411   
N5920  X80.7933  Y101.1088   
N5925  X80.0478  Y101.7015   
N5930  X80.9596  Y101.7996   
N5935  X83.5844  Y101.8703   
N5940  X87.1005  Y101.9500   
N5945  X88.2880  Y105.3217   
N5950  X89.3641  Y108.2904   
N5955  X89.4870  Y108.5576   
N5960  X89.5964  Y108.6996   
N5965  X89.7121  Y108.6716   
N5970  X89.8537  Y108.4289   
N5975  X90.2940  Y107.1209   
N5980  X91.0752  Y104.4180   
N5985  X91.8372  Y101.9995   
N5990  X92.0504  Y101.9361   
N5995  X92.6237  Y101.8949   
N6000  X95.2030  Y101.8650   
N6005  X97.5456  Y101.8366   
N6010  X98.6055  Y101.7706   
N6015  X98.6896  Y101.6737   
N6020  X98.6860  Y101.5709   
N6025  X97.5149  Y100.6885   
N6030  X95.2474  Y99.1655   
N6035  X93.6106  Y98.0450   
N6040  X93.2718  Y97.7622   
N6045  X93.4032  Y97.1833   
N6050  X94.2876  Y93.7081   
N6055  X94.7986  Y91.6417   
N6060  X94.9696  Y90.7407   
N6065  X94.8977  Y90.7117   
N6070  X94.7786  Y90.7423   
N6075  X94.3279  Y91.0357   
N6080  X92.0814  Y92.9268   
N6085  X90.3803  Y94.3603   
N6090  X89.5733  Y94.9566   
N6095  X89.3224  Y94.8266   
N6100  X88.6791  Y94.3322   
N6105  X85.4361  Y91.6216   
N6110 G0  Z0.1000 
N6115 G1  Z-1.4000  F100.00 
N6120  X84.4542  Y90.8274   F300.00 
N6125  X83.9595  Y90.4950   
N6130  X83.8895  Y90.5315   
N6135  X83.8580  Y90.6601   
N6140  X83.9267  Y91.2850   
N6145  X84.7056  Y94.6416   
N6150  X85.2762  Y97.0762   
N6155  X85.3771  Y97.6682   
N6160  X85.3702  Y97.9170   
N6165  X84.5243  Y98.5547   
N6170  X82.6379  Y99.8411   
N6175  X80.7933  Y101.1088   
N6180  X80.0478  Y101.7015   
N6185  X80.9596  Y101.7996   
N6190  X83.5844  Y101.8703   
N6195  X87.1005  Y101.9500   
N6200  X88.2880  Y105.3217   
N6205  X89.3641  Y108.2904   
N6210  X89.4870  Y108.5576   
N6215  X89.5964  Y108.6996   
N6220  X89.7121  Y108.6716   
N6225  X89.8537  Y108.4289   
N6230  X90.2940  Y107.1209   
N6235  X91.0752  Y104.4180   
N6240  X91.8372  Y101.9995   
N6245  X92.0504  Y101.9361   
N6250  X92.6237  Y101.8949   
N6255  X95.2030  Y101.8650   
N6260  X97.5456  Y101.8366   
N6265  X98.6055  Y101.7706   
N6270  X98.6896  Y101.6737   
N6275  X98.6860  Y101.5709   
N6280  X97.5149  Y100.6885   
N6285  X95.2474  Y99.1655   
N6290  X93.6106  Y98.0450   
N6295  X93.2718  Y97.7622   
N6300  X93.4032  Y97.1833   
N6305  X94.2876  Y93.7081   
N6310  X94.7986  Y91.6417   
N6315  X94.9696  Y90.7407   
N6320  X94.8977  Y90.7117   
N6325  X94.7786  Y90.7423   
N6330  X94.3279  Y91.0357   
N6335  X92.0814  Y92.9268   
N6340  X90.3803  Y94.3603   
N6345  X89.5733  Y94.9566   
N6350  X89.3224  Y94.8266   
N6355  X88.6791  Y94.3322   
N6360  X85.4361  Y91.6216   
N6365 G0  Z3.0000 
N6370 M5
N6375 M30

