N5 (File Name = Roma-Logo-2013 on Saturday, November 11, 2023)
N10 (Default Mill Post)
N15  G91.1
N20 G0  Z3.0000 
N25 M3 S4000 
N30  X77.3704  Y207.7045 
N35  Z0.1000 
N40 G1  Z-0.7000  F100.00 
N45  X77.3763  Y217.4467   F300.00 
N50  X77.1904  Y224.8174   
N55  X76.6419  Y226.5974   
N60  X76.2139  Y227.2493   
N65  X75.6515  Y227.7651   
N70  X74.9309  Y228.1618   
N75  X74.0284  Y228.4562   
N80  X71.5821  Y228.8062   
N85  X69.4406  Y229.0596   
N90  X69.1541  Y229.2775   
N95  X69.1060  Y229.6534   
N100  Y230.3103   
N105  X84.1872  Y230.2904   
N110  X94.0449  Y230.2480   
N115  X99.7532  Y230.0700   
N120  X103.1729  Y229.6306   
N125  X106.1652  Y228.8038   
N130  X108.6006  Y227.6480   
N135  X111.0579  Y226.1391   
N140  X112.4324  Y224.7000   
N145  X113.8479  Y222.6187   
N150  X115.0536  Y220.3147   
N155  X115.7987  Y218.2076   
N160  X115.9893  Y216.7734   
N165  X116.0524  Y214.9169   
N170  X115.9880  Y212.9909   
N175  X115.7961  Y211.3484   
N180  X115.1983  Y209.1600   
N185  X114.2354  Y206.8109   
N190  X113.0331  Y204.5680   
N195  X111.7174  Y202.6982   
N200  X108.5630  Y199.2191   
N205  X105.6836  Y196.5896   
N210  X105.1697  Y196.1025   
N215  X104.9560  Y195.7346   
N220  X106.0921  Y194.1002   
N225  X109.7186  Y189.5738   
N230  X112.4851  Y186.1099   
N235  X113.4227  Y184.9270   
N240  X115.0236  Y182.9668   
N245  X117.0421  Y180.5174   
N250  X120.3305  Y176.5895   
N255  X123.7200  Y172.9872   
N260  X126.5670  Y170.3539   
N265  X127.5860  Y169.6018   
N270  X128.2280  Y169.3332   
N275  X128.5039  Y169.1104   
N280  X129.0337  Y168.7458   
N285  X130.2914  Y168.2038   
N290  X133.0018  Y167.3613   
N295  X134.9385  Y167.1171   
N300  X135.6808  Y166.9866   
N305  X136.1661  Y166.7625   
N310  X136.3911  Y166.4473   
N315  X136.3525  Y166.0437   
N320  X136.0502  Y165.8266   
N325  X135.0979  Y165.7010   
N330  X129.7261  Y165.6290   
N335  X125.0447  Y165.6969   
N340  X121.8049  Y165.9434   
N345  X119.5258  Y166.4325   
N350  X117.7263  Y167.2285   
N355  X116.2240  Y168.1586   
N360  X114.7664  Y169.2674   
N365  X113.2535  Y170.6704   
N370  X111.5856  Y172.4827   
N375  X107.3855  Y177.7973   
N380  X101.3674  Y186.1342   
N385  X99.2654  Y189.0991   
N390  X97.8742  Y190.9393   
N395  X96.9549  Y191.9433   
N400  X96.4731  Y192.1461   
N405  X95.6007  Y192.2711   
N410  X91.8899  Y192.3519   
N415  X87.4082   
N420  X87.5784  Y183.4222   
N425  X87.7960  Y175.9673   
N430  X88.1750  Y171.4027   
N435  X88.4603  Y169.9650   
N440  X88.8282  Y168.9627   
N445  X89.2930  Y168.2999   
N450  X89.8687  Y167.8811   
N455  X92.4655  Y167.3409   
N460  X94.0548  Y167.1708   
N465  X95.0171  Y167.1791   
N470  X95.8942  Y167.0912   
N475  X96.3645  Y166.8376   
N480  X96.4404  Y166.3473   
N485  X96.3571  Y165.7613   
N490  X83.4542  Y165.7407   
N495  X72.8536  Y165.7934   
N500  X70.8789  Y165.9059   
N505  X70.2350  Y166.1000   
N510  X70.1170  Y166.5379   
N515  X70.4956  Y166.8924   
N520  X71.3032  Y167.1298   
N525  X72.4723  Y167.2164   
N530  X73.7537  Y167.3099   
N535  X74.8219  Y167.5795   
N540  X75.6337  Y168.0093   
N545  X76.1459  Y168.5831   
N550  X76.4977  Y169.3279   
N555  X76.7674  Y170.3030   
N560  X77.1106  Y174.1566   
N565  X77.2761  Y182.5682   
N570  X77.3645  Y197.9622   
N575  X77.3704  Y207.7045   
N580 G0  Z0.1000 
N585 G1  Z-1.4000  F100.00 
N590  X77.3763  Y217.4467   F300.00 
N595  X77.1904  Y224.8174   
N600  X76.6419  Y226.5974   
N605  X76.2139  Y227.2493   
N610  X75.6515  Y227.7651   
N615  X74.9309  Y228.1618   
N620  X74.0284  Y228.4562   
N625  X71.5821  Y228.8062   
N630  X69.4406  Y229.0596   
N635  X69.1541  Y229.2775   
N640  X69.1060  Y229.6534   
N645  Y230.3103   
N650  X84.1872  Y230.2904   
N655  X94.0449  Y230.2480   
N660  X99.7532  Y230.0700   
N665  X103.1729  Y229.6306   
N670  X106.1652  Y228.8038   
N675  X108.6006  Y227.6480   
N680  X111.0579  Y226.1391   
N685  X112.4324  Y224.7000   
N690  X113.8479  Y222.6187   
N695  X115.0536  Y220.3147   
N700  X115.7987  Y218.2076   
N705  X115.9893  Y216.7734   
N710  X116.0524  Y214.9169   
N715  X115.9880  Y212.9909   
N720  X115.7961  Y211.3484   
N725  X115.1983  Y209.1600   
N730  X114.2354  Y206.8109   
N735  X113.0331  Y204.5680   
N740  X111.7174  Y202.6982   
N745  X108.5630  Y199.2191   
N750  X105.6836  Y196.5896   
N755  X105.1697  Y196.1025   
N760  X104.9560  Y195.7346   
N765  X106.0921  Y194.1002   
N770  X109.7186  Y189.5738   
N775  X112.4851  Y186.1099   
N780  X113.4227  Y184.9270   
N785  X115.0236  Y182.9668   
N790  X117.0421  Y180.5174   
N795  X120.3305  Y176.5895   
N800  X123.7200  Y172.9872   
N805  X126.5670  Y170.3539   
N810  X127.5860  Y169.6018   
N815  X128.2280  Y169.3332   
N820  X128.5039  Y169.1104   
N825  X129.0337  Y168.7458   
N830  X130.2914  Y168.2038   
N835  X133.0018  Y167.3613   
N840  X134.9385  Y167.1171   
N845  X135.6808  Y166.9866   
N850  X136.1661  Y166.7625   
N855  X136.3911  Y166.4473   
N860  X136.3525  Y166.0437   
N865  X136.0502  Y165.8266   
N870  X135.0979  Y165.7010   
N875  X129.7261  Y165.6290   
N880  X125.0447  Y165.6969   
N885  X121.8049  Y165.9434   
N890  X119.5258  Y166.4325   
N895  X117.7263  Y167.2285   
N900  X116.2240  Y168.1586   
N905  X114.7664  Y169.2674   
N910  X113.2535  Y170.6704   
N915  X111.5856  Y172.4827   
N920  X107.3855  Y177.7973   
N925  X101.3674  Y186.1342   
N930  X99.2654  Y189.0991   
N935  X97.8742  Y190.9393   
N940  X96.9549  Y191.9433   
N945  X96.4731  Y192.1461   
N950  X95.6007  Y192.2711   
N955  X91.8899  Y192.3519   
N960  X87.4082   
N965  X87.5784  Y183.4222   
N970  X87.7960  Y175.9673   
N975  X88.1750  Y171.4027   
N980  X88.4603  Y169.9650   
N985  X88.8282  Y168.9627   
N990  X89.2930  Y168.2999   
N995  X89.8687  Y167.8811   
N1000  X92.4655  Y167.3409   
N1005  X94.0548  Y167.1708   
N1010  X95.0171  Y167.1791   
N1015  X95.8942  Y167.0912   
N1020  X96.3645  Y166.8376   
N1025  X96.4404  Y166.3473   
N1030  X96.3571  Y165.7613   
N1035  X83.4542  Y165.7407   
N1040  X72.8536  Y165.7934   
N1045  X70.8789  Y165.9059   
N1050  X70.2350  Y166.1000   
N1055  X70.1170  Y166.5379   
N1060  X70.4956  Y166.8924   
N1065  X71.3032  Y167.1298   
N1070  X72.4723  Y167.2164   
N1075  X73.7537  Y167.3099   
N1080  X74.8219  Y167.5795   
N1085  X75.6337  Y168.0093   
N1090  X76.1459  Y168.5831   
N1095  X76.4977  Y169.3279   
N1100  X76.7674  Y170.3030   
N1105  X77.1106  Y174.1566   
N1110  X77.2761  Y182.5682   
N1115  X77.3645  Y197.9622   
N1120  X77.3704  Y207.7045   
N1125 G0  Z3.0000 
N1130  X87.4989  Y206.8959 
N1135  Z0.1000 
N1140 G1  Z-0.7000  F100.00 
N1145  X87.4424  Y211.6644   F300.00 
N1150  X87.5525  Y221.2015   
N1155  X87.6914  Y224.4204   
N1160  X87.8864  Y225.7798   
N1165  X88.7380  Y226.1203   
N1170  X90.2863  Y226.3517   
N1175  X92.1730  Y226.4407   
N1180  X94.0395  Y226.3537   
N1185  X96.0171  Y225.9953   
N1190  X97.8666  Y225.3661   
N1195  X99.5703  Y224.4812   
N1200  X101.1105  Y223.3557   
N1205  X102.4696  Y222.0048   
N1210  X103.6299  Y220.4434   
N1215  X104.5736  Y218.6867   
N1220  X105.2832  Y216.7498   
N1225  X105.7396  Y214.3879   
N1230  X105.9579  Y211.5314   
N1235  X105.9240  Y208.6242   
N1240  X105.6237  Y206.1102   
N1245  X104.7339  Y203.0700   
N1250  X103.4127  Y200.4905   
N1255  X102.6088  Y199.4017   
N1260  X101.7191  Y198.4617   
N1265  X100.7510  Y197.6818   
N1270  X99.7118  Y197.0733   
N1275  X98.1614  Y196.5801   
N1280  X95.5664  Y196.4255   
N1285  X91.8592  Y196.4894   
N1290  X89.1995  Y197.0022   
N1295  X87.8906  Y197.5489   
N1300  X87.6952  Y198.9083   
N1305  X87.5553  Y202.1273   
N1310  X87.4989  Y206.8959   
N1315 G0  Z0.1000 
N1320 G1  Z-1.4000  F100.00 
N1325  X87.4424  Y211.6644   F300.00 
N1330  X87.5525  Y221.2015   
N1335  X87.6914  Y224.4204   
N1340  X87.8864  Y225.7798   
N1345  X88.7380  Y226.1203   
N1350  X90.2863  Y226.3517   
N1355  X92.1730  Y226.4407   
N1360  X94.0395  Y226.3537   
N1365  X96.0171  Y225.9953   
N1370  X97.8666  Y225.3661   
N1375  X99.5703  Y224.4812   
N1380  X101.1105  Y223.3557   
N1385  X102.4696  Y222.0048   
N1390  X103.6299  Y220.4434   
N1395  X104.5736  Y218.6867   
N1400  X105.2832  Y216.7498   
N1405  X105.7396  Y214.3879   
N1410  X105.9579  Y211.5314   
N1415  X105.9240  Y208.6242   
N1420  X105.6237  Y206.1102   
N1425  X104.7339  Y203.0700   
N1430  X103.4127  Y200.4905   
N1435  X102.6088  Y199.4017   
N1440  X101.7191  Y198.4617   
N1445  X100.7510  Y197.6818   
N1450  X99.7118  Y197.0733   
N1455  X98.1614  Y196.5801   
N1460  X95.5664  Y196.4255   
N1465  X91.8592  Y196.4894   
N1470  X89.1995  Y197.0022   
N1475  X87.8906  Y197.5489   
N1480  X87.6952  Y198.9083   
N1485  X87.5553  Y202.1273   
N1490  X87.4989  Y206.8959   
N1495 G0  Z3.0000 
N1500  X135.3083  Y258.2461 
N1505  Z0.1000 
N1510 G1  Z-0.7000  F100.00 
N1515  X136.0272  Y259.9515   F300.00 
N1520  X137.3132  Y262.4136   
N1525  X137.7394  Y262.9320   
N1530  X138.1325  Y263.1443   
N1535  X138.8320  Y263.1907   
N1540  X139.5259  Y263.0475   
N1545  X140.0376  Y262.7755   
N1550  X140.1904  Y262.4356   
N1555  X138.8627  Y259.5670   
N1560  X137.2958  Y256.7277   
N1565  X136.5668  Y256.1888   
N1570  X135.6705  Y255.9640   
N1575  X134.9102  Y256.0744   
N1580  X134.6758  Y256.2617   
N1585  X134.5893  Y256.5407   
N1590  X135.3083  Y258.2461   
N1595 G0  Z0.1000 
N1600 G1  Z-1.4000  F100.00 
N1605  X136.0272  Y259.9515   F300.00 
N1610  X137.3132  Y262.4136   
N1615  X137.7394  Y262.9320   
N1620  X138.1325  Y263.1443   
N1625  X138.8320  Y263.1907   
N1630  X139.5259  Y263.0475   
N1635  X140.0376  Y262.7755   
N1640  X140.1904  Y262.4356   
N1645  X138.8627  Y259.5670   
N1650  X137.2958  Y256.7277   
N1655  X136.5668  Y256.1888   
N1660  X135.6705  Y255.9640   
N1665  X134.9102  Y256.0744   
N1670  X134.6758  Y256.2617   
N1675  X134.5893  Y256.5407   
N1680  X135.3083  Y258.2461   
N1685 G0  Z3.0000 
N1690  X115.0054  Y276.3236 
N1695  Z0.1000 
N1700 G1  Z-0.7000  F100.00 
N1705  X83.6980  Y276.2903   F300.00 
N1710  X21.0833  Y276.3754   
N1715  X19.8778  Y282.5275   
N1720  X17.6864  Y294.2860   
N1725  X16.0645  Y304.5351   
N1730  X15.1297  Y311.2819   
N1735  X14.4034  Y317.2260   
N1740  X13.6682  Y324.7563   
N1745  X12.5082  Y340.7829   
N1750  X12.2611  Y349.3478   
N1755  X12.1771  Y360.7791   
N1760  X12.2566  Y372.2333   
N1765  X12.5003  Y380.8673   
N1770  X13.2598  Y392.2781   
N1775  X14.3539  Y403.7283   
N1780  X15.7791  Y415.1862   
N1785  X17.5319  Y426.6200   
N1790  X18.8627  Y433.9622   
N1795  X19.4812  Y434.1807   
N1800  X26.4254  Y435.8101   
N1805  X35.8998  Y438.2560   
N1810  X40.1332  Y439.4441   
N1815  X48.8325  Y442.0082   
N1820  X57.9417  Y444.9124   
N1825  X66.8779  Y447.9642   
N1830  X75.0581  Y450.9712   
N1835  X79.5654  Y452.6881   
N1840  X92.5162  Y458.0134   
N1845  X95.4310  Y459.3303   
N1850  X99.8729  Y461.3309   
N1855  X101.9337  Y462.2265   
N1860  X116.5975  Y469.5674   
N1865  X129.3698  Y476.7300   
N1870  X139.0429  Y482.3911   
N1875  X139.3616  Y482.5994   
N1880  X144.2757  Y485.4147   
N1885  X149.5381  Y488.6171   
N1890  X151.9272  Y490.1236   
N1895  X159.0008  Y494.5629   
N1900  X161.0474  Y495.8224   
N1905  X163.2819  Y497.2216   
N1910  X170.4853  Y502.0114   
N1915  X178.4608  Y507.4314   
N1920  X179.6970  Y508.2640   
N1925  X181.1141  Y509.2091   
N1930  X184.9922  Y512.0273   
N1935  X187.7703  Y514.0587   
N1940  X189.2255  Y515.1295   
N1945  X190.6807  Y516.1909   
N1950  X193.4588  Y518.3086   
N1955  X196.2370  Y520.4246   
N1960  X198.7955  Y522.4711   
N1965  X203.9042  Y526.6525   
N1970  X206.8268  Y529.1660   
N1975  X210.8574  Y532.8702   
N1980  X213.4119  Y535.1955   
N1985  X213.9834  Y534.8495   
N1990  X215.0531  Y533.9102   
N1995  X218.0651  Y531.0360   
N2000  X223.5267  Y526.2971   
N2005  X229.3844  Y521.5114   
N2010  X233.9263  Y518.0334   
N2015  X239.4825  Y513.8739   
N2020  X242.0098  Y511.9920   
N2025  X242.5898  Y511.5713   
N2030  X248.1461  Y507.7236   
N2035  X258.0620  Y500.9714   
N2040  X263.6801  Y497.4161   
N2045  X264.0143  Y497.1797   
N2050  X271.2169  Y492.5132   
N2055  X279.8452  Y487.2043   
N2060  X280.9035  Y486.5310   
N2065  X282.0941  Y485.7859   
N2070  X287.8608  Y482.3725   
N2075  X291.1076  Y480.4828   
N2080  X292.2201  Y479.8595   
N2085  X301.4087  Y474.5339   
N2090  X315.2726  Y467.0731   
N2095  X321.4891  Y463.9974   
N2100  X328.7930  Y460.5600   
N2105  X337.2494  Y456.8637   
N2110  X345.8586  Y453.3089   
N2115  X359.4715  Y448.2172   
N2120  X369.8034  Y444.6322   
N2125  X374.4336  Y443.1792   
N2130  X382.1582  Y440.8308   
N2135  X390.4942  Y438.4574   
N2140  X398.4728  Y436.3263   
N2145  X405.1252  Y434.7052   
N2150  X407.9831  Y433.9195   
N2155  X408.2927  Y432.9779   
N2160  X408.7604  Y430.7211   
N2165  X410.0005  Y423.3512   
N2170  X411.3644  Y413.9886   
N2175  X412.5129  Y404.8120   
N2180  X413.6161  Y393.6756   
N2185  X414.3479  Y383.2017   
N2190  X414.7537  Y372.5528   
N2195  X414.8788  Y360.8913   
N2200  X414.8213  Y351.9455   
N2205  X414.6297  Y344.2761   
N2210  X414.2729  Y337.0430   
N2215  X413.7200  Y329.4059   
N2220  X413.0912  Y322.1958   
N2225  X412.2560  Y314.5892   
N2230  X411.1106  Y305.8433   
N2235  X409.6196  Y296.1695   
N2240  X407.9976  Y286.8752   
N2245  X406.4592  Y279.2674   
N2250  X405.9094  Y276.8200   
N2255  X405.7766  Y276.2247   
N2260  X387.7900   
N2265  X374.1697  Y276.2919   
N2270  X369.8034  Y276.5014   
N2275  X371.0306  Y280.6542   
N2280  X374.0580  Y289.5367   
N2285  X375.5298  Y294.3018   
N2290  X376.2712  Y298.2284   
N2295  X376.3742  Y299.9355   
N2300  X376.3021  Y301.5027   
N2305  X376.0574  Y302.9534   
N2310  X375.6425  Y304.3108   
N2315  X375.1293  Y305.4720   
N2320  X374.2434  Y306.8515   
N2325  X369.5465  Y312.7730   
N2330  X363.5857  Y320.2633   
N2335  X360.9249  Y323.6670   
N2340  X355.8317  Y330.3777   
N2345  X351.0180  Y336.7734   
N2350  X351.0146  Y340.8287   
N2355  X350.7657  Y350.3912   
N2360  X350.2168  Y360.4944   
N2365  X349.3572  Y369.3472   
N2370  X348.1765  Y377.1859   
N2375  X346.6614  Y384.0830   
N2380  X344.7986  Y390.1110   
N2385  X343.7512  Y392.7777   
N2390  X342.6098  Y395.2442   
N2395  X341.3444  Y397.5536   
N2400  X339.9246  Y399.7490   
N2405  X338.3205  Y401.8734   
N2410  X336.5018  Y403.9699   
N2415  X334.4385  Y406.0815   
N2420  X332.1004  Y408.2512   
N2425  X330.1599  Y409.8309   
N2430  X327.9533  Y411.3564   
N2435  X325.4998  Y412.8185   
N2440  X322.8187  Y414.2077   
N2445  X319.9292  Y415.5149   
N2450  X316.8504  Y416.7307   
N2455  X313.6016  Y417.8457   
N2460  X310.2021  Y418.8508   
N2465  X305.2249  Y420.0638   
N2470  X299.5269  Y421.2313   
N2475  X293.9916  Y422.1864   
N2480  X289.5025  Y422.7621   
N2485  X285.3657  Y422.9710   
N2490  X279.7882  Y423.0269   
N2495  X273.4785  Y422.9322   
N2500  X267.1453  Y422.6891   
N2505  X253.3870  Y422.1370   
N2510  X246.3755  Y421.8770   
N2515  X237.7664  Y421.5857   
N2520  X221.5180  Y421.4088   
N2525  X203.8692  Y421.3835   
N2530  X191.0590  Y421.5471   
N2535  X181.8909  Y421.9540   
N2540  X175.8642  Y422.3953   
N2545  X173.3506  Y422.6762   
N2550  X169.2496  Y423.2366   
N2555  X165.6859  Y423.5757   
N2560  X160.9137  Y423.7291   
N2565  X155.7784  Y423.6873   
N2570  X151.1256  Y423.4406   
N2575  X138.1611  Y422.0096   
N2580  X125.9338  Y420.6518   
N2585  X122.1879  Y420.4539   
N2590  X118.5864  Y420.4633   
N2595  X114.5289  Y420.6483   
N2600  X113.6294  Y420.8773   
N2605  X112.8364  Y421.2904   
N2610  X111.8887  Y422.0163   
N2615  X111.6024  Y422.4642   
N2620  X111.4288  Y423.0355   
N2625  X111.3826  Y424.7486   
N2630  X111.6757  Y427.5563   
N2635  X111.9809  Y430.8638   
N2640  X111.9376  Y432.1126   
N2645  X111.7255  Y433.2266   
N2650  X111.3159  Y434.3074   
N2655  X110.6799  Y435.4564   
N2660  X108.6138  Y438.3648   
N2665  X105.9633  Y441.6724   
N2670  X103.9989  Y443.5812   
N2675  X103.2145  Y444.0553   
N2680  X102.5304  Y444.2329   
N2685  X101.9228  Y444.1317   
N2690  X101.3678  Y443.7695   
N2695  X99.6642  Y442.3954   
N2700  X96.2732  Y439.5547   
N2705  X95.1168  Y438.2920   
N2710  X94.2640  Y437.0347   
N2715  X93.6731  Y435.7077   
N2720  X93.3021  Y434.2363   
N2725  X93.1093  Y432.5455   
N2730  X93.0528  Y430.5606   
N2735  X92.9707  Y428.0875   
N2740  X92.8301  Y427.6385   
N2745  X92.5867  Y427.4726   
N2750  X84.4105  Y427.1647   
N2755  X79.5310  Y427.0527   
N2760  X77.2197  Y427.1713   
N2765  X76.7111  Y427.3890   
N2770  X76.4652  Y427.7507   
N2775  X76.2562  Y429.0214   
N2780  X75.5377  Y431.5458   
N2785  X74.5097  Y433.6786   
N2790  X73.8531  Y434.8587   
N2795  X73.2028  Y436.5922   
N2800  X71.7592  Y442.2207   
N2805  X71.5598  Y442.8032   
N2810  X71.2102  Y442.4853   
N2815  X68.2866  Y437.7526   
N2820  X64.4944  Y431.7995   
N2825  X62.4539  Y428.7544   
N2830  X61.0493  Y426.0904   
N2835  X60.2378  Y423.7105   
N2840  X59.9768  Y421.5173   
N2845  X59.9049  Y420.1237   
N2850  X59.6308  Y419.0514   
N2855  X59.0674  Y418.0883   
N2860  X58.1274  Y417.0221   
N2865  X57.2532  Y416.0344   
N2870  X56.5593  Y415.0375   
N2875  X56.0390  Y414.0043   
N2880  X55.6859  Y412.9075   
N2885  X55.4935  Y411.7200   
N2890  X55.4553  Y410.4145   
N2895  X55.8155  Y407.3407   
N2900  X56.3532  Y404.4454   
N2905  X55.7269  Y404.0334   
N2910  X52.9432  Y401.9326   
N2915  X51.9658  Y400.9672   
N2920  X51.3210  Y400.1088   
N2925  X50.7409  Y398.7569   
N2930  X50.6459  Y396.8927   
N2935  X50.8095  Y394.1929   
N2940  X51.2893  Y391.8906   
N2945  X52.2345  Y389.4942   
N2950  X53.7942  Y386.5122   
N2955  X55.3430  Y383.3446   
N2960  X56.2492  Y380.5457   
N2965  X56.5164  Y378.1005   
N2970  X56.4114  Y377.0058   
N2975  X56.1479  Y375.9938   
N2980  X55.5916  Y373.6318   
N2985  X55.5721  Y372.4461   
N2990  X56.1242  Y371.5420   
N2995  X56.7604  Y370.9444   
N3000  X57.6021  Y370.4384   
N3005  X58.6779  Y370.0181   
N3010  X60.0167  Y369.6778   
N3015  X63.5980  Y369.2132   
N3020  X68.5757  Y368.9977   
N3025  X72.8972  Y368.8115   
N3030  X76.1164  Y368.4802   
N3035  X81.3930  Y367.7954   
N3040  X88.3533  Y367.1226   
N3045  X91.9252  Y366.8294   
N3050  X96.9542  Y366.2810   
N3055  X101.7739  Y365.4800   
N3060  X106.4152  Y364.4204   
N3065  X110.9090  Y363.0960   
N3070  X117.1698  Y360.9145   
N3075  X121.7286  Y359.1810   
N3080  X124.7996  Y357.8919   
N3085  X130.2446  Y355.5378   
N3090  X138.5314  Y351.4457   
N3095  X144.4752  Y348.3875   
N3100  X147.4710  Y346.7162   
N3105  X148.2724  Y345.9741   
N3110  X148.9901  Y345.0077   
N3115  X149.6717  Y343.7408   
N3120  X150.3649  Y342.0975   
N3125  X151.1256  Y340.1215   
N3130  X151.1018  Y330.0673   
N3135  X150.9664  Y320.8849   
N3140  X150.6308  Y313.2663   
N3145  X149.5506  Y297.8679   
N3150  X148.6657  Y287.8602   
N3155  X147.8092  Y281.6921   
N3160  X147.3393  Y279.5631   
N3165  X146.8139  Y277.8122   
N3170  X146.3128  Y276.3570   
N3175  X115.0054  Y276.3236   
N3180 G0  Z0.1000 
N3185 G1  Z-1.4000  F100.00 
N3190  X83.6980  Y276.2903   F300.00 
N3195  X21.0833  Y276.3754   
N3200  X19.8778  Y282.5275   
N3205  X17.6864  Y294.2860   
N3210  X16.0645  Y304.5351   
N3215  X15.1297  Y311.2819   
N3220  X14.4034  Y317.2260   
N3225  X13.6682  Y324.7563   
N3230  X12.5082  Y340.7829   
N3235  X12.2611  Y349.3478   
N3240  X12.1771  Y360.7791   
N3245  X12.2566  Y372.2333   
N3250  X12.5003  Y380.8673   
N3255  X13.2598  Y392.2781   
N3260  X14.3539  Y403.7283   
N3265  X15.7791  Y415.1862   
N3270  X17.5319  Y426.6200   
N3275  X18.8627  Y433.9622   
N3280  X19.4812  Y434.1807   
N3285  X26.4254  Y435.8101   
N3290  X35.8998  Y438.2560   
N3295  X40.1332  Y439.4441   
N3300  X48.8325  Y442.0082   
N3305  X57.9417  Y444.9124   
N3310  X66.8779  Y447.9642   
N3315  X75.0581  Y450.9712   
N3320  X79.5654  Y452.6881   
N3325  X92.5162  Y458.0134   
N3330  X95.4310  Y459.3303   
N3335  X99.8729  Y461.3309   
N3340  X101.9337  Y462.2265   
N3345  X116.5975  Y469.5674   
N3350  X129.3698  Y476.7300   
N3355  X139.0429  Y482.3911   
N3360  X139.3616  Y482.5994   
N3365  X144.2757  Y485.4147   
N3370  X149.5381  Y488.6171   
N3375  X151.9272  Y490.1236   
N3380  X159.0008  Y494.5629   
N3385  X161.0474  Y495.8224   
N3390  X163.2819  Y497.2216   
N3395  X170.4853  Y502.0114   
N3400  X178.4608  Y507.4314   
N3405  X179.6970  Y508.2640   
N3410  X181.1141  Y509.2091   
N3415  X184.9922  Y512.0273   
N3420  X187.7703  Y514.0587   
N3425  X189.2255  Y515.1295   
N3430  X190.6807  Y516.1909   
N3435  X193.4588  Y518.3086   
N3440  X196.2370  Y520.4246   
N3445  X198.7955  Y522.4711   
N3450  X203.9042  Y526.6525   
N3455  X206.8268  Y529.1660   
N3460  X210.8574  Y532.8702   
N3465  X213.4119  Y535.1955   
N3470  X213.9834  Y534.8495   
N3475  X215.0531  Y533.9102   
N3480  X218.0651  Y531.0360   
N3485  X223.5267  Y526.2971   
N3490  X229.3844  Y521.5114   
N3495  X233.9263  Y518.0334   
N3500  X239.4825  Y513.8739   
N3505  X242.0098  Y511.9920   
N3510  X242.5898  Y511.5713   
N3515  X248.1461  Y507.7236   
N3520  X258.0620  Y500.9714   
N3525  X263.6801  Y497.4161   
N3530  X264.0143  Y497.1797   
N3535  X271.2169  Y492.5132   
N3540  X279.8452  Y487.2043   
N3545  X280.9035  Y486.5310   
N3550  X282.0941  Y485.7859   
N3555  X287.8608  Y482.3725   
N3560  X291.1076  Y480.4828   
N3565  X292.2201  Y479.8595   
N3570  X301.4087  Y474.5339   
N3575  X315.2726  Y467.0731   
N3580  X321.4891  Y463.9974   
N3585  X328.7930  Y460.5600   
N3590  X337.2494  Y456.8637   
N3595  X345.8586  Y453.3089   
N3600  X359.4715  Y448.2172   
N3605  X369.8034  Y444.6322   
N3610  X374.4336  Y443.1792   
N3615  X382.1582  Y440.8308   
N3620  X390.4942  Y438.4574   
N3625  X398.4728  Y436.3263   
N3630  X405.1252  Y434.7052   
N3635  X407.9831  Y433.9195   
N3640  X408.2927  Y432.9779   
N3645  X408.7604  Y430.7211   
N3650  X410.0005  Y423.3512   
N3655  X411.3644  Y413.9886   
N3660  X412.5129  Y404.8120   
N3665  X413.6161  Y393.6756   
N3670  X414.3479  Y383.2017   
N3675  X414.7537  Y372.5528   
N3680  X414.8788  Y360.8913   
N3685  X414.8213  Y351.9455   
N3690  X414.6297  Y344.2761   
N3695  X414.2729  Y337.0430   
N3700  X413.7200  Y329.4059   
N3705  X413.0912  Y322.1958   
N3710  X412.2560  Y314.5892   
N3715  X411.1106  Y305.8433   
N3720  X409.6196  Y296.1695   
N3725  X407.9976  Y286.8752   
N3730  X406.4592  Y279.2674   
N3735  X405.9094  Y276.8200   
N3740  X405.7766  Y276.2247   
N3745  X387.7900   
N3750  X374.1697  Y276.2919   
N3755  X369.8034  Y276.5014   
N3760  X371.0306  Y280.6542   
N3765  X374.0580  Y289.5367   
N3770  X375.5298  Y294.3018   
N3775  X376.2712  Y298.2284   
N3780  X376.3742  Y299.9355   
N3785  X376.3021  Y301.5027   
N3790  X376.0574  Y302.9534   
N3795  X375.6425  Y304.3108   
N3800  X375.1293  Y305.4720   
N3805  X374.2434  Y306.8515   
N3810  X369.5465  Y312.7730   
N3815  X363.5857  Y320.2633   
N3820  X360.9249  Y323.6670   
N3825  X355.8317  Y330.3777   
N3830  X351.0180  Y336.7734   
N3835  X351.0146  Y340.8287   
N3840  X350.7657  Y350.3912   
N3845  X350.2168  Y360.4944   
N3850  X349.3572  Y369.3472   
N3855  X348.1765  Y377.1859   
N3860  X346.6614  Y384.0830   
N3865  X344.7986  Y390.1110   
N3870  X343.7512  Y392.7777   
N3875  X342.6098  Y395.2442   
N3880  X341.3444  Y397.5536   
N3885  X339.9246  Y399.7490   
N3890  X338.3205  Y401.8734   
N3895  X336.5018  Y403.9699   
N3900  X334.4385  Y406.0815   
N3905  X332.1004  Y408.2512   
N3910  X330.1599  Y409.8309   
N3915  X327.9533  Y411.3564   
N3920  X325.4998  Y412.8185   
N3925  X322.8187  Y414.2077   
N3930  X319.9292  Y415.5149   
N3935  X316.8504  Y416.7307   
N3940  X313.6016  Y417.8457   
N3945  X310.2021  Y418.8508   
N3950  X305.2249  Y420.0638   
N3955  X299.5269  Y421.2313   
N3960  X293.9916  Y422.1864   
N3965  X289.5025  Y422.7621   
N3970  X285.3657  Y422.9710   
N3975  X279.7882  Y423.0269   
N3980  X273.4785  Y422.9322   
N3985  X267.1453  Y422.6891   
N3990  X253.3870  Y422.1370   
N3995  X246.3755  Y421.8770   
N4000  X237.7664  Y421.5857   
N4005  X221.5180  Y421.4088   
N4010  X203.8692  Y421.3835   
N4015  X191.0590  Y421.5471   
N4020  X181.8909  Y421.9540   
N4025  X175.8642  Y422.3953   
N4030  X173.3506  Y422.6762   
N4035  X169.2496  Y423.2366   
N4040  X165.6859  Y423.5757   
N4045  X160.9137  Y423.7291   
N4050  X155.7784  Y423.6873   
N4055  X151.1256  Y423.4406   
N4060  X138.1611  Y422.0096   
N4065  X125.9338  Y420.6518   
N4070  X122.1879  Y420.4539   
N4075  X118.5864  Y420.4633   
N4080  X114.5289  Y420.6483   
N4085  X113.6294  Y420.8773   
N4090  X112.8364  Y421.2904   
N4095  X111.8887  Y422.0163   
N4100  X111.6024  Y422.4642   
N4105  X111.4288  Y423.0355   
N4110  X111.3826  Y424.7486   
N4115  X111.6757  Y427.5563   
N4120  X111.9809  Y430.8638   
N4125  X111.9376  Y432.1126   
N4130  X111.7255  Y433.2266   
N4135  X111.3159  Y434.3074   
N4140  X110.6799  Y435.4564   
N4145  X108.6138  Y438.3648   
N4150  X105.9633  Y441.6724   
N4155  X103.9989  Y443.5812   
N4160  X103.2145  Y444.0553   
N4165  X102.5304  Y444.2329   
N4170  X101.9228  Y444.1317   
N4175  X101.3678  Y443.7695   
N4180  X99.6642  Y442.3954   
N4185  X96.2732  Y439.5547   
N4190  X95.1168  Y438.2920   
N4195  X94.2640  Y437.0347   
N4200  X93.6731  Y435.7077   
N4205  X93.3021  Y434.2363   
N4210  X93.1093  Y432.5455   
N4215  X93.0528  Y430.5606   
N4220  X92.9707  Y428.0875   
N4225  X92.8301  Y427.6385   
N4230  X92.5867  Y427.4726   
N4235  X84.4105  Y427.1647   
N4240  X79.5310  Y427.0527   
N4245  X77.2197  Y427.1713   
N4250  X76.7111  Y427.3890   
N4255  X76.4652  Y427.7507   
N4260  X76.2562  Y429.0214   
N4265  X75.5377  Y431.5458   
N4270  X74.5097  Y433.6786   
N4275  X73.8531  Y434.8587   
N4280  X73.2028  Y436.5922   
N4285  X71.7592  Y442.2207   
N4290  X71.5598  Y442.8032   
N4295  X71.2102  Y442.4853   
N4300  X68.2866  Y437.7526   
N4305  X64.4944  Y431.7995   
N4310  X62.4539  Y428.7544   
N4315  X61.0493  Y426.0904   
N4320  X60.2378  Y423.7105   
N4325  X59.9768  Y421.5173   
N4330  X59.9049  Y420.1237   
N4335  X59.6308  Y419.0514   
N4340  X59.0674  Y418.0883   
N4345  X58.1274  Y417.0221   
N4350  X57.2532  Y416.0344   
N4355  X56.5593  Y415.0375   
N4360  X56.0390  Y414.0043   
N4365  X55.6859  Y412.9075   
N4370  X55.4935  Y411.7200   
N4375  X55.4553  Y410.4145   
N4380  X55.8155  Y407.3407   
N4385  X56.3532  Y404.4454   
N4390  X55.7269  Y404.0334   
N4395  X52.9432  Y401.9326   
N4400  X51.9658  Y400.9672   
N4405  X51.3210  Y400.1088   
N4410  X50.7409  Y398.7569   
N4415  X50.6459  Y396.8927   
N4420  X50.8095  Y394.1929   
N4425  X51.2893  Y391.8906   
N4430  X52.2345  Y389.4942   
N4435  X53.7942  Y386.5122   
N4440  X55.3430  Y383.3446   
N4445  X56.2492  Y380.5457   
N4450  X56.5164  Y378.1005   
N4455  X56.4114  Y377.0058   
N4460  X56.1479  Y375.9938   
N4465  X55.5916  Y373.6318   
N4470  X55.5721  Y372.4461   
N4475  X56.1242  Y371.5420   
N4480  X56.7604  Y370.9444   
N4485  X57.6021  Y370.4384   
N4490  X58.6779  Y370.0181   
N4495  X60.0167  Y369.6778   
N4500  X63.5980  Y369.2132   
N4505  X68.5757  Y368.9977   
N4510  X72.8972  Y368.8115   
N4515  X76.1164  Y368.4802   
N4520  X81.3930  Y367.7954   
N4525  X88.3533  Y367.1226   
N4530  X91.9252  Y366.8294   
N4535  X96.9542  Y366.2810   
N4540  X101.7739  Y365.4800   
N4545  X106.4152  Y364.4204   
N4550  X110.9090  Y363.0960   
N4555  X117.1698  Y360.9145   
N4560  X121.7286  Y359.1810   
N4565  X124.7996  Y357.8919   
N4570  X130.2446  Y355.5378   
N4575  X138.5314  Y351.4457   
N4580  X144.4752  Y348.3875   
N4585  X147.4710  Y346.7162   
N4590  X148.2724  Y345.9741   
N4595  X148.9901  Y345.0077   
N4600  X149.6717  Y343.7408   
N4605  X150.3649  Y342.0975   
N4610  X151.1256  Y340.1215   
N4615  X151.1018  Y330.0673   
N4620  X150.9664  Y320.8849   
N4625  X150.6308  Y313.2663   
N4630  X149.5506  Y297.8679   
N4635  X148.6657  Y287.8602   
N4640  X147.8092  Y281.6921   
N4645  X147.3393  Y279.5631   
N4650  X146.8139  Y277.8122   
N4655  X146.3128  Y276.3570   
N4660  X115.0054  Y276.3236   
N4665 G0  Z3.0000 
N4670  X207.8439  Y293.6881 
N4675  Z0.1000 
N4680 G1  Z-0.7000  F100.00 
N4685  X207.9543  Y292.8010   F300.00 
N4690  X207.9726  Y291.7536   
N4695  X207.7494  Y291.1090   
N4700  X207.2454  Y290.5434   
N4705  X206.4462  Y289.9012   
N4710  X205.6788  Y289.4701   
N4715  X204.7262  Y289.2338   
N4720  X203.6455  Y289.7082   
N4725  X202.7284  Y290.3373   
N4730  X201.7963  Y291.1915   
N4735  X201.0308  Y292.0839   
N4740  X200.6137  Y292.8273   
N4745  X200.5051  Y293.2345   
N4750  X200.5743  Y293.3768   
N4755  X201.6611  Y292.8934   
N4760  X202.5456  Y292.5328   
N4765  X203.3350  Y292.3859   
N4770  X203.9784  Y292.4554   
N4775  X204.4251  Y292.7441   
N4780  X204.8683  Y293.0608   
N4785  X205.4911  Y293.2889   
N4790  X206.0832  Y293.5644   
N4795  X206.3980  Y294.0335   
N4800  X207.0532  Y295.2536   
N4805  X207.5522  Y295.8940   
N4810  X207.7335  Y294.5752   
N4815  X207.8439  Y293.6881   
N4820 G0  Z0.1000 
N4825 G1  Z-1.4000  F100.00 
N4830  X207.9543  Y292.8010   F300.00 
N4835  X207.9726  Y291.7536   
N4840  X207.7494  Y291.1090   
N4845  X207.2454  Y290.5434   
N4850  X206.4462  Y289.9012   
N4855  X205.6788  Y289.4701   
N4860  X204.7262  Y289.2338   
N4865  X203.6455  Y289.7082   
N4870  X202.7284  Y290.3373   
N4875  X201.7963  Y291.1915   
N4880  X201.0308  Y292.0839   
N4885  X200.6137  Y292.8273   
N4890  X200.5051  Y293.2345   
N4895  X200.5743  Y293.3768   
N4900  X201.6611  Y292.8934   
N4905  X202.5456  Y292.5328   
N4910  X203.3350  Y292.3859   
N4915  X203.9784  Y292.4554   
N4920  X204.4251  Y292.7441   
N4925  X204.8683  Y293.0608   
N4930  X205.4911  Y293.2889   
N4935  X206.0832  Y293.5644   
N4940  X206.3980  Y294.0335   
N4945  X207.0532  Y295.2536   
N4950  X207.5522  Y295.8940   
N4955  X207.7335  Y294.5752   
N4960  X207.8439  Y293.6881   
N4965 G0  Z3.0000 
N4970  X212.9606  Y273.6887 
N4975  Z0.1000 
N4980 G1  Z-0.7000  F100.00 
N4985  X215.1269  Y270.6234   F300.00 
N4990  X216.8210  Y268.2421   
N4995  X217.2438  Y267.8558   
N5000  X217.7092  Y267.1365   
N5005  X218.3463  Y265.4659   
N5010  X218.3552  Y264.4603   
N5015  X217.8177  Y263.5932   
N5020  X217.1294  Y262.9665   
N5025  X216.3156  Y262.5241   
N5030  X215.4703  Y262.3036   
N5035  X214.6872  Y262.3423   
N5040  X213.6622  Y262.1950   
N5045  X211.7388  Y261.2957   
N5050  X210.1869  Y260.5450   
N5055  X209.0393  Y260.1694   
N5060  X208.1754  Y260.1452   
N5065  X207.4746  Y260.4482   
N5070  X206.0839  Y261.0003   
N5075  X205.3666  Y261.2962   
N5080  X204.8418  Y261.8057   
N5085  X204.5389  Y262.4867   
N5090  X204.4872  Y263.2971   
N5095  X204.6925  Y264.0174   
N5100  X205.2330  Y264.3275   
N5105  X205.8944  Y264.4897   
N5110  X205.2991  Y264.6865   
N5115  X204.8514  Y264.9940   
N5120  X204.7038  Y265.5269   
N5125  X204.7434  Y265.9373   
N5130  X204.9749  Y266.1479   
N5135  X206.6882  Y266.1984   
N5140  X207.4398  Y266.2006   
N5145  X207.9197  Y266.3127   
N5150  X208.2872  Y266.6118   
N5155  X208.7016  Y267.1754   
N5160  X209.3910  Y267.9157   
N5165  X210.3986  Y268.6264   
N5170  X211.6419  Y269.2581   
N5175  X213.0382  Y269.7617   
N5180  X213.5425  Y269.9733   
N5185  X212.5890  Y270.0806   
N5190  X211.3418  Y270.0660   
N5195  X210.2146  Y269.8318   
N5200  X209.1747  Y269.3674   
N5205  X208.1897  Y268.6624   
N5210  X207.0736  Y267.7070   
N5215  X202.2214  Y272.5611   
N5220  X198.6672  Y276.2381   
N5225  X196.9355  Y278.2621   
N5230  X196.5370  Y279.5169   
N5235  X196.6143  Y280.7426   
N5240  X197.1532  Y281.8853   
N5245  X198.1398  Y282.8907   
N5250  X200.0032  Y284.0545   
N5255  X202.1342  Y284.9543   
N5260  X204.3731  Y285.5361   
N5265  X206.5607  Y285.7458   
N5270  X207.9897  Y285.5786   
N5275  X209.2897  Y284.7011   
N5280  X211.2638  Y282.7348   
N5285  X213.1750  Y280.1614   
N5290  X214.9998  Y277.0165   
N5295  X216.7152  Y273.3358   
N5300  X217.9088  Y270.1994   
N5305  X217.9425  Y269.6215   
N5310  X217.6684  Y269.4261   
N5315  X217.4043  Y269.5616   
N5320  X217.0056  Y270.0308   
N5325  X215.8332  Y271.9300   
N5330  X214.2894  Y274.5184   
N5335  X212.6735  Y276.8990   
N5340  X211.0368  Y279.0013   
N5345  X209.4304  Y280.7547   
N5350  X207.9151  Y282.1177   
N5355  X206.5698  Y283.0051   
N5360  X205.2704  Y283.4809   
N5365  X203.8927  Y283.6092   
N5370  X202.7739  Y283.5531   
N5375  X203.3620  Y283.3247   
N5380  X204.8511  Y282.6069   
N5385  X206.6034  Y281.3184   
N5390  X208.3850  Y279.6550   
N5395  X209.9616  Y277.8122   
N5400  X210.7944  Y276.7539   
N5405  X212.9606  Y273.6887   
N5410 G0  Z0.1000 
N5415 G1  Z-1.4000  F100.00 
N5420  X215.1269  Y270.6234   F300.00 
N5425  X216.8210  Y268.2421   
N5430  X217.2438  Y267.8558   
N5435  X217.7092  Y267.1365   
N5440  X218.3463  Y265.4659   
N5445  X218.3552  Y264.4603   
N5450  X217.8177  Y263.5932   
N5455  X217.1294  Y262.9665   
N5460  X216.3156  Y262.5241   
N5465  X215.4703  Y262.3036   
N5470  X214.6872  Y262.3423   
N5475  X213.6622  Y262.1950   
N5480  X211.7388  Y261.2957   
N5485  X210.1869  Y260.5450   
N5490  X209.0393  Y260.1694   
N5495  X208.1754  Y260.1452   
N5500  X207.4746  Y260.4482   
N5505  X206.0839  Y261.0003   
N5510  X205.3666  Y261.2962   
N5515  X204.8418  Y261.8057   
N5520  X204.5389  Y262.4867   
N5525  X204.4872  Y263.2971   
N5530  X204.6925  Y264.0174   
N5535  X205.2330  Y264.3275   
N5540  X205.8944  Y264.4897   
N5545  X205.2991  Y264.6865   
N5550  X204.8514  Y264.9940   
N5555  X204.7038  Y265.5269   
N5560  X204.7434  Y265.9373   
N5565  X204.9749  Y266.1479   
N5570  X206.6882  Y266.1984   
N5575  X207.4398  Y266.2006   
N5580  X207.9197  Y266.3127   
N5585  X208.2872  Y266.6118   
N5590  X208.7016  Y267.1754   
N5595  X209.3910  Y267.9157   
N5600  X210.3986  Y268.6264   
N5605  X211.6419  Y269.2581   
N5610  X213.0382  Y269.7617   
N5615  X213.5425  Y269.9733   
N5620  X212.5890  Y270.0806   
N5625  X211.3418  Y270.0660   
N5630  X210.2146  Y269.8318   
N5635  X209.1747  Y269.3674   
N5640  X208.1897  Y268.6624   
N5645  X207.0736  Y267.7070   
N5650  X202.2214  Y272.5611   
N5655  X198.6672  Y276.2381   
N5660  X196.9355  Y278.2621   
N5665  X196.5370  Y279.5169   
N5670  X196.6143  Y280.7426   
N5675  X197.1532  Y281.8853   
N5680  X198.1398  Y282.8907   
N5685  X200.0032  Y284.0545   
N5690  X202.1342  Y284.9543   
N5695  X204.3731  Y285.5361   
N5700  X206.5607  Y285.7458   
N5705  X207.9897  Y285.5786   
N5710  X209.2897  Y284.7011   
N5715  X211.2638  Y282.7348   
N5720  X213.1750  Y280.1614   
N5725  X214.9998  Y277.0165   
N5730  X216.7152  Y273.3358   
N5735  X217.9088  Y270.1994   
N5740  X217.9425  Y269.6215   
N5745  X217.6684  Y269.4261   
N5750  X217.4043  Y269.5616   
N5755  X217.0056  Y270.0308   
N5760  X215.8332  Y271.9300   
N5765  X214.2894  Y274.5184   
N5770  X212.6735  Y276.8990   
N5775  X211.0368  Y279.0013   
N5780  X209.4304  Y280.7547   
N5785  X207.9151  Y282.1177   
N5790  X206.5698  Y283.0051   
N5795  X205.2704  Y283.4809   
N5800  X203.8927  Y283.6092   
N5805  X202.7739  Y283.5531   
N5810  X203.3620  Y283.3247   
N5815  X204.8511  Y282.6069   
N5820  X206.6034  Y281.3184   
N5825  X208.3850  Y279.6550   
N5830  X209.9616  Y277.8122   
N5835  X210.7944  Y276.7539   
N5840  X212.9606  Y273.6887   
N5845 G0  Z3.0000 
N5850  X218.4602  Y273.6094 
N5855  Z0.1000 
N5860 G1  Z-0.7000  F100.00 
N5865  X217.2668  Y276.2143   F300.00 
N5870  X214.7380  Y280.7518   
N5875  X213.4968  Y282.3974   
N5880  X212.0742  Y284.0102   
N5885  X210.7031  Y285.3448   
N5890  X209.6159  Y286.1557   
N5895  X208.6725  Y286.8757   
N5900  X209.5287  Y288.7338   
N5905  X210.3849  Y290.3799   
N5910  X210.3058  Y295.7014   
N5915  X210.2267  Y301.0229   
N5920  X211.5001  Y301.1943   
N5925  X212.7103  Y301.4734   
N5930  X213.9889  Y301.9469   
N5935  X215.0996  Y302.5121   
N5940  X215.8061  Y303.0662   
N5945  X215.9694  Y303.3217   
N5950  X215.8126  Y303.4390   
N5955  X213.9540  Y303.3478   
N5960  X211.9599  Y303.2801   
N5965  X211.4546  Y303.4231   
N5970  X211.0107  Y303.7173   
N5975  X210.4353  Y304.4108   
N5980  X210.1323  Y305.3960   
N5985  X209.6803  Y307.3909   
N5990  X209.4315  Y308.0099   
N5995  X209.2120  Y308.2392   
N6000  X209.0099  Y308.0911   
N6005  X208.8562  Y307.6462   
N6010  X208.6934  Y305.8623   
N6015  X208.7235  Y302.8800   
N6020  X208.9464  Y298.6917   
N6025  X209.0794  Y295.5368   
N6030  X208.9838  Y293.9381   
N6035  X208.7605  Y293.4743   
N6040  X208.5979  Y293.8238   
N6045  X207.9883  Y296.9944   
N6050  X207.4718  Y299.3011   
N6055  X207.1703  Y299.8969   
N6060  X206.7494  Y300.3679   
N6065  X206.0328  Y300.8816   
N6070  X205.4034  Y301.0951   
N6075  X205.0102  Y301.0120   
N6080  X205.5194  Y300.4998   
N6085  X206.2987  Y299.7214   
N6090  X206.7796  Y298.9805   
N6095  X206.9882  Y298.2196   
N6100  X206.9511  Y297.3816   
N6105  X206.7127  Y296.5732   
N6110  X206.3972  Y296.1540   
N6115  X206.1340  Y295.8870   
N6120  X206.0217  Y295.4448   
N6125  X205.9461  Y295.1429   
N6130  X205.7044  Y294.8512   
N6135  X204.6011  Y294.1908   
N6140  X203.2888  Y293.6686   
N6145  X202.8861  Y293.6981   
N6150  X202.4435  Y293.8926   
N6155  X201.5846  Y294.4095   
N6160  X201.0601  Y294.9064   
N6165  X200.8319  Y295.4348   
N6170  X200.8624  Y296.0461   
N6175  X200.8968  Y296.6587   
N6180  X200.6942  Y296.8674   
N6185  X200.3319  Y296.6706   
N6190  X199.8874  Y296.0667   
N6195  X199.4097  Y295.4903   
N6200  X198.8869  Y295.2746   
N6205  X198.4491  Y295.3879   
N6210  X198.2009  Y295.6796   
N6215  X198.1716  Y296.0770   
N6220  X198.3903  Y296.5078   
N6225  X199.0152  Y298.0258   
N6230  X199.2798  Y299.1111   
N6235  X200.7350  Y299.1137   
N6240  X201.7983  Y299.1862   
N6245  X202.6236  Y299.4061   
N6250  X203.2360  Y299.7840   
N6255  X203.6608  Y300.3304   
N6260  X203.8326  Y300.7691   
N6265  X203.7994  Y301.0017   
N6270  X203.5922  Y300.9986   
N6275  X203.2422  Y300.7301   
N6280  X202.8908  Y300.4674   
N6285  X202.4339  Y300.3166   
N6290  X200.9100  Y300.2961   
N6295  X199.3938  Y300.0295   
N6300  X198.7020  Y299.8550   
N6305  X198.0410  Y299.8786   
N6310  X197.5066  Y300.0822   
N6315  X197.1945  Y300.4476   
N6320  X197.2034  Y300.7284   
N6325  X197.4271  Y301.0040   
N6330  X198.4126  Y301.5028   
N6335  X199.9369  Y301.8702   
N6340  X201.7863  Y302.0323   
N6345  X204.0283  Y302.0726   
N6350  X204.9613  Y304.4749   
N6355  X206.0535  Y306.9552   
N6360  X206.6056  Y307.7818   
N6365  X207.2490  Y308.3972   
N6370  X208.0494  Y308.8501   
N6375  X209.0721  Y309.1888   
N6380  X212.0469  Y309.7177   
N6385  X215.1667  Y310.0438   
N6390  X216.2061  Y309.9228   
N6395  X217.5741  Y309.5977   
N6400  X219.4758  Y309.2057   
N6405  X220.1422  Y309.2543   
N6410  X219.5600  Y309.6701   
N6415  X217.7159  Y310.3795   
N6420  X215.9687  Y310.8010   
N6425  X214.0193  Y310.8466   
N6430  X211.9949  Y310.7527   
N6435  X211.3750  Y311.8721   
N6440  X210.9133  Y312.9934   
N6445  X210.9295  Y314.1210   
N6450  X211.2955  Y315.4116   
N6455  X211.9225  Y316.9172   
N6460  X212.5739  Y318.1340   
N6465  X213.0131  Y318.5579   
N6470  X213.1896  Y317.9922   
N6475  X213.2776  Y316.8177   
N6480  X213.4384  Y315.3313   
N6485  X214.0964  Y314.2907   
N6490  X215.9858  Y312.5481   
N6495  X216.8640  Y311.9275   
N6500  X217.3189  Y311.7703   
N6505  X216.9428  Y312.4320   
N6510  X215.8434  Y313.8276   
N6515  X214.8213  Y315.1438   
N6520  X214.3161  Y316.1486   
N6525  X214.2621  Y317.0674   
N6530  X214.5938  Y318.1257   
N6535  X215.4571  Y319.4682   
N6540  X216.7220  Y320.6527   
N6545  X218.0877  Y321.4525   
N6550  X218.7144  Y321.6373   
N6555  X219.2535  Y321.6408   
N6560  X220.0169  Y321.6047   
N6565  X220.7341  Y321.7417   
N6570  X221.4804  Y321.7969   
N6575  X222.4683  Y321.5386   
N6580  X223.5957  Y321.0049   
N6585  X224.7601  Y320.2344   
N6590  X225.4512  Y319.5316   
N6595  X226.0511  Y318.6242   
N6600  X226.4504  Y317.7118   
N6605  X226.5394  Y316.9941   
N6610  X226.2387  Y314.7758   
N6615  X226.3086  Y313.8023   
N6620  X226.7113  Y314.1615   
N6625  X227.0816  Y315.0668   
N6630  X227.3527  Y316.2962   
N6635  X227.4579  Y317.6273   
N6640  X227.5258  Y319.1292   
N6645  X227.6762  Y319.2014   
N6650  X227.9626  Y318.9769   
N6655  X228.4590  Y318.3117   
N6660  X229.0154  Y317.2257   
N6665  X230.0070  Y314.4569   
N6670  X230.2697  Y313.3967   
N6675  X230.3114  Y312.7436   
N6680  X230.0951  Y312.2549   
N6685  X229.5835  Y311.6879   
N6690  X229.0951  Y311.2376   
N6695  X228.5922  Y310.9977   
N6700  X226.5435  Y310.8850   
N6705  X224.3942  Y310.7481   
N6710  X222.5659  Y310.1954   
N6715  X221.3493  Y309.6390   
N6720  X220.8433  Y309.2694   
N6725  X220.8731  Y309.0971   
N6730  X221.1570  Y309.0813   
N6735  X223.6559  Y309.6967   
N6740  X225.8910  Y310.1664   
N6745  X227.4296  Y310.2129   
N6750  X230.5859  Y309.8138   
N6755  X232.6116  Y309.5621   
N6760  X233.6153  Y308.2880   
N6765  X235.4076  Y306.0702   
N6770  X237.4346  Y303.9332   
N6775  X239.1656  Y302.3960   
N6780  X239.7542  Y302.0144   
N6785  X240.0697  Y301.9774   
N6790  X240.1296  Y302.1484   
N6795  X239.8235  Y302.6395   
N6800  X236.9181  Y306.1724   
N6805  X234.3370  Y309.4516   
N6810  X232.8744  Y312.0809   
N6815  X230.8701  Y314.9929   
N6820  X230.2145  Y315.9338   
N6825  X229.5329  Y317.2639   
N6830  X228.9976  Y318.6050   
N6835  X228.7808  Y319.5786   
N6840  X228.8894  Y320.0233   
N6845  X229.1506  Y320.3876   
N6850  X229.4489  Y320.4824   
N6855  X229.8033  Y320.2860   
N6860  X230.7929  Y318.9192   
N6865  X231.1105  Y318.5805   
N6870  X231.5205  Y318.7906   
N6875  X231.8293  Y319.1493   
N6880  X231.9397  Y319.5139   
N6885  X231.8501  Y319.8317   
N6890  X231.5589  Y320.0497   
N6895  X231.2888  Y320.4109   
N6900  X231.1654  Y321.0566   
N6905  X231.2057  Y321.7189   
N6910  X231.4266  Y322.1298   
N6915  X231.6541  Y322.4000   
N6920  X231.6420  Y322.7827   
N6925  X230.8975  Y323.8922   
N6930  X230.3696  Y324.5851   
N6935  X230.1575  Y325.1213   
N6940  X230.2157  Y325.4895   
N6945  X230.4987  Y325.6782   
N6950  X230.9609  Y325.6760   
N6955  X231.5570  Y325.4716   
N6960  X232.2413  Y325.0536   
N6965  X232.9684  Y324.4106   
N6970  X234.6000  Y322.6974   
N6975  X235.3999  Y321.6254   
N6980  X235.6488  Y320.6464   
N6985  X235.6269  Y319.2118   
N6990  X235.5501  Y316.9893   
N6995  X238.4577  Y314.0033   
N7000  X241.6430  Y310.6164   
N7005  X243.5225  Y308.2287   
N7010  X244.0731  Y307.2549   
N7015  X244.4178  Y306.3456   
N7020  X244.6500  Y304.4726   
N7025  X244.6330  Y303.6041   
N7030  X244.5182  Y303.0758   
N7035  X244.2227  Y302.7059   
N7040  X243.6636  Y302.3130   
N7045  X242.5184  Y301.7228   
N7050  X241.1584  Y301.2053   
N7055  X240.2382  Y300.9551   
N7060  X239.3804  Y300.8720   
N7065  X236.2636  Y301.2079   
N7070  X232.8207  Y301.7337   
N7075  X232.3646  Y304.7966   
N7080  X231.8442  Y307.6426   
N7085  X231.5844  Y308.2116   
N7090  X231.3216  Y308.2216   
N7095  X230.9231  Y306.0573   
N7100  X230.5361  Y304.1088   
N7105  X230.2666  Y303.4899   
N7110  X229.9084  Y303.0788   
N7115  X229.4331  Y302.8539   
N7120  X228.8124  Y302.7936   
N7125  X227.0206  Y303.0797   
N7130  X225.1232  Y303.3469   
N7135  X225.1936  Y303.0341   
N7140  X225.7709  Y302.5297   
N7145  X228.2102  Y301.1164   
N7150  X229.8057  Y300.1962   
N7155  X230.6410  Y299.4929   
N7160  X230.8389  Y297.9287   
N7165  X230.8508  Y294.3973   
N7170  X230.8770  Y290.3800   
N7175  X231.2159  Y287.8663   
N7180  X231.8314  Y283.5999   
N7185  X231.9978  Y281.3179   
N7190  X233.1791  Y281.1560   
N7195  X234.6409  Y280.8341   
N7200  X236.4292  Y280.2761   
N7205  X238.1718  Y279.6110   
N7210  X239.4964  Y278.9679   
N7215  X241.7454  Y277.2666   
N7220  X244.9204  Y274.9847   
N7225  X248.4018  Y272.5524   
N7230  X249.2522  Y271.8262   
N7235  X249.7363  Y271.2482   
N7240  X250.0069  Y270.5628   
N7245  X250.2167  Y269.5142   
N7250  X250.3983  Y267.9595   
N7255  X250.2410  Y267.0544   
N7260  X249.9555  Y265.5455   
N7265  X249.9862  Y264.8689   
N7270  X250.1459  Y264.5927   
N7275  X251.0592  Y265.7318   
N7280  X251.4509  Y266.3992   
N7285  X251.6337  Y266.9444   
N7290  X251.5173  Y268.5664   
N7295  X251.0526  Y272.1434   
N7300  X251.0898  Y272.8269   
N7305  X251.2854  Y273.2001   
N7310  X251.7271  Y273.4806   
N7315  X252.3415  Y273.4837   
N7320  X252.9178  Y273.4635   
N7325  X253.3151  Y273.6128   
N7330  X253.9585  Y273.7286   
N7335  X255.0998  Y273.6036   
N7340  X256.3358  Y273.3088   
N7345  X257.2636  Y272.9155   
N7350  X258.1057  Y272.0335   
N7355  X258.6028  Y270.6697   
N7360  X258.7715  Y268.7420   
N7365  X258.6283  Y266.1684   
N7370  X258.0116  Y262.1496   
N7375  X257.6204  Y259.3245   
N7380  X257.4760  Y258.3760   
N7385  X256.9233  Y257.7231   
N7390  X256.9232   
N7395  X255.9691  Y257.2473   
N7400  X254.8981  Y257.2888   
N7405  X253.6249  Y257.8704   
N7410  X252.0641  Y259.0148   
N7415  X250.5626  Y260.0039   
N7420  X248.6245  Y260.9990   
N7425  X243.5734  Y263.4136   
N7430  X241.8505  Y264.3747   
N7435  X240.8495  Y265.0739   
N7440  X239.2398  Y267.0872   
N7445  X237.9881  Y269.1079   
N7450  X237.5057  Y269.1922   
N7455  X236.3277  Y268.9614   
N7460  X234.2144  Y268.6231   
N7465  X231.7588  Y268.5382   
N7470  X229.4058  Y268.6995   
N7475  X227.6001  Y269.0999   
N7480  X226.3355  Y269.7087   
N7485  X226.1644  Y270.0685   
N7490  X226.1350  Y270.6392   
N7495  X226.4138  Y272.7532   
N7500  X227.1804  Y275.1242   
N7505  X228.3296  Y277.4924   
N7510  X229.7565  Y279.5981   
N7515  X230.2942  Y280.3783   
N7520  X230.2975  Y280.7009   
N7525  X229.7970  Y280.5549   
N7530  X228.8236  Y279.9294   
N7535  X228.0549  Y279.2578   
N7540  X227.3089  Y278.3889   
N7545  X225.9603  Y276.2080   
N7550  X224.9286  Y273.6847   
N7555  X224.3646  Y271.1170   
N7560  X224.1995  Y270.0744   
N7565  X223.9208  Y269.4552   
N7570  X223.4146  Y269.1216   
N7575  X222.5676  Y268.9355   
N7580  X221.4723  Y268.8469   
N7585  X220.7470  Y269.0730   
N7590  X220.2036  Y269.7476   
N7595  X219.6536  Y271.0044   
N7600  X218.4602  Y273.6094   
N7605 G0  Z0.1000 
N7610 G1  Z-1.4000  F100.00 
N7615  X217.2668  Y276.2143   F300.00 
N7620  X214.7380  Y280.7518   
N7625  X213.4968  Y282.3974   
N7630  X212.0742  Y284.0102   
N7635  X210.7031  Y285.3448   
N7640  X209.6159  Y286.1557   
N7645  X208.6725  Y286.8757   
N7650  X209.5287  Y288.7338   
N7655  X210.3849  Y290.3799   
N7660  X210.3058  Y295.7014   
N7665  X210.2267  Y301.0229   
N7670  X211.5001  Y301.1943   
N7675  X212.7103  Y301.4734   
N7680  X213.9889  Y301.9469   
N7685  X215.0996  Y302.5121   
N7690  X215.8061  Y303.0662   
N7695  X215.9694  Y303.3217   
N7700  X215.8126  Y303.4390   
N7705  X213.9540  Y303.3478   
N7710  X211.9599  Y303.2801   
N7715  X211.4546  Y303.4231   
N7720  X211.0107  Y303.7173   
N7725  X210.4353  Y304.4108   
N7730  X210.1323  Y305.3960   
N7735  X209.6803  Y307.3909   
N7740  X209.4315  Y308.0099   
N7745  X209.2120  Y308.2392   
N7750  X209.0099  Y308.0911   
N7755  X208.8562  Y307.6462   
N7760  X208.6934  Y305.8623   
N7765  X208.7235  Y302.8800   
N7770  X208.9464  Y298.6917   
N7775  X209.0794  Y295.5368   
N7780  X208.9838  Y293.9381   
N7785  X208.7605  Y293.4743   
N7790  X208.5979  Y293.8238   
N7795  X207.9883  Y296.9944   
N7800  X207.4718  Y299.3011   
N7805  X207.1703  Y299.8969   
N7810  X206.7494  Y300.3679   
N7815  X206.0328  Y300.8816   
N7820  X205.4034  Y301.0951   
N7825  X205.0102  Y301.0120   
N7830  X205.5194  Y300.4998   
N7835  X206.2987  Y299.7214   
N7840  X206.7796  Y298.9805   
N7845  X206.9882  Y298.2196   
N7850  X206.9511  Y297.3816   
N7855  X206.7127  Y296.5732   
N7860  X206.3972  Y296.1540   
N7865  X206.1340  Y295.8870   
N7870  X206.0217  Y295.4448   
N7875  X205.9461  Y295.1429   
N7880  X205.7044  Y294.8512   
N7885  X204.6011  Y294.1908   
N7890  X203.2888  Y293.6686   
N7895  X202.8861  Y293.6981   
N7900  X202.4435  Y293.8926   
N7905  X201.5846  Y294.4095   
N7910  X201.0601  Y294.9064   
N7915  X200.8319  Y295.4348   
N7920  X200.8624  Y296.0461   
N7925  X200.8968  Y296.6587   
N7930  X200.6942  Y296.8674   
N7935  X200.3319  Y296.6706   
N7940  X199.8874  Y296.0667   
N7945  X199.4097  Y295.4903   
N7950  X198.8869  Y295.2746   
N7955  X198.4491  Y295.3879   
N7960  X198.2009  Y295.6796   
N7965  X198.1716  Y296.0770   
N7970  X198.3903  Y296.5078   
N7975  X199.0152  Y298.0258   
N7980  X199.2798  Y299.1111   
N7985  X200.7350  Y299.1137   
N7990  X201.7983  Y299.1862   
N7995  X202.6236  Y299.4061   
N8000  X203.2360  Y299.7840   
N8005  X203.6608  Y300.3304   
N8010  X203.8326  Y300.7691   
N8015  X203.7994  Y301.0017   
N8020  X203.5922  Y300.9986   
N8025  X203.2422  Y300.7301   
N8030  X202.8908  Y300.4674   
N8035  X202.4339  Y300.3166   
N8040  X200.9100  Y300.2961   
N8045  X199.3938  Y300.0295   
N8050  X198.7020  Y299.8550   
N8055  X198.0410  Y299.8786   
N8060  X197.5066  Y300.0822   
N8065  X197.1945  Y300.4476   
N8070  X197.2034  Y300.7284   
N8075  X197.4271  Y301.0040   
N8080  X198.4126  Y301.5028   
N8085  X199.9369  Y301.8702   
N8090  X201.7863  Y302.0323   
N8095  X204.0283  Y302.0726   
N8100  X204.9613  Y304.4749   
N8105  X206.0535  Y306.9552   
N8110  X206.6056  Y307.7818   
N8115  X207.2490  Y308.3972   
N8120  X208.0494  Y308.8501   
N8125  X209.0721  Y309.1888   
N8130  X212.0469  Y309.7177   
N8135  X215.1667  Y310.0438   
N8140  X216.2061  Y309.9228   
N8145  X217.5741  Y309.5977   
N8150  X219.4758  Y309.2057   
N8155  X220.1422  Y309.2543   
N8160  X219.5600  Y309.6701   
N8165  X217.7159  Y310.3795   
N8170  X215.9687  Y310.8010   
N8175  X214.0193  Y310.8466   
N8180  X211.9949  Y310.7527   
N8185  X211.3750  Y311.8721   
N8190  X210.9133  Y312.9934   
N8195  X210.9295  Y314.1210   
N8200  X211.2955  Y315.4116   
N8205  X211.9225  Y316.9172   
N8210  X212.5739  Y318.1340   
N8215  X213.0131  Y318.5579   
N8220  X213.1896  Y317.9922   
N8225  X213.2776  Y316.8177   
N8230  X213.4384  Y315.3313   
N8235  X214.0964  Y314.2907   
N8240  X215.9858  Y312.5481   
N8245  X216.8640  Y311.9275   
N8250  X217.3189  Y311.7703   
N8255  X216.9428  Y312.4320   
N8260  X215.8434  Y313.8276   
N8265  X214.8213  Y315.1438   
N8270  X214.3161  Y316.1486   
N8275  X214.2621  Y317.0674   
N8280  X214.5938  Y318.1257   
N8285  X215.4571  Y319.4682   
N8290  X216.7220  Y320.6527   
N8295  X218.0877  Y321.4525   
N8300  X218.7144  Y321.6373   
N8305  X219.2535  Y321.6408   
N8310  X220.0169  Y321.6047   
N8315  X220.7341  Y321.7417   
N8320  X221.4804  Y321.7969   
N8325  X222.4683  Y321.5386   
N8330  X223.5957  Y321.0049   
N8335  X224.7601  Y320.2344   
N8340  X225.4512  Y319.5316   
N8345  X226.0511  Y318.6242   
N8350  X226.4504  Y317.7118   
N8355  X226.5394  Y316.9941   
N8360  X226.2387  Y314.7758   
N8365  X226.3086  Y313.8023   
N8370  X226.7113  Y314.1615   
N8375  X227.0816  Y315.0668   
N8380  X227.3527  Y316.2962   
N8385  X227.4579  Y317.6273   
N8390  X227.5258  Y319.1292   
N8395  X227.6762  Y319.2014   
N8400  X227.9626  Y318.9769   
N8405  X228.4590  Y318.3117   
N8410  X229.0154  Y317.2257   
N8415  X230.0070  Y314.4569   
N8420  X230.2697  Y313.3967   
N8425  X230.3114  Y312.7436   
N8430  X230.0951  Y312.2549   
N8435  X229.5835  Y311.6879   
N8440  X229.0951  Y311.2376   
N8445  X228.5922  Y310.9977   
N8450  X226.5435  Y310.8850   
N8455  X224.3942  Y310.7481   
N8460  X222.5659  Y310.1954   
N8465  X221.3493  Y309.6390   
N8470  X220.8433  Y309.2694   
N8475  X220.8731  Y309.0971   
N8480  X221.1570  Y309.0813   
N8485  X223.6559  Y309.6967   
N8490  X225.8910  Y310.1664   
N8495  X227.4296  Y310.2129   
N8500  X230.5859  Y309.8138   
N8505  X232.6116  Y309.5621   
N8510  X233.6153  Y308.2880   
N8515  X235.4076  Y306.0702   
N8520  X237.4346  Y303.9332   
N8525  X239.1656  Y302.3960   
N8530  X239.7542  Y302.0144   
N8535  X240.0697  Y301.9774   
N8540  X240.1296  Y302.1484   
N8545  X239.8235  Y302.6395   
N8550  X236.9181  Y306.1724   
N8555  X234.3370  Y309.4516   
N8560  X232.8744  Y312.0809   
N8565  X230.8701  Y314.9929   
N8570  X230.2145  Y315.9338   
N8575  X229.5329  Y317.2639   
N8580  X228.9976  Y318.6050   
N8585  X228.7808  Y319.5786   
N8590  X228.8894  Y320.0233   
N8595  X229.1506  Y320.3876   
N8600  X229.4489  Y320.4824   
N8605  X229.8033  Y320.2860   
N8610  X230.7929  Y318.9192   
N8615  X231.1105  Y318.5805   
N8620  X231.5205  Y318.7906   
N8625  X231.8293  Y319.1493   
N8630  X231.9397  Y319.5139   
N8635  X231.8501  Y319.8317   
N8640  X231.5589  Y320.0497   
N8645  X231.2888  Y320.4109   
N8650  X231.1654  Y321.0566   
N8655  X231.2057  Y321.7189   
N8660  X231.4266  Y322.1298   
N8665  X231.6541  Y322.4000   
N8670  X231.6420  Y322.7827   
N8675  X230.8975  Y323.8922   
N8680  X230.3696  Y324.5851   
N8685  X230.1575  Y325.1213   
N8690  X230.2157  Y325.4895   
N8695  X230.4987  Y325.6782   
N8700  X230.9609  Y325.6760   
N8705  X231.5570  Y325.4716   
N8710  X232.2413  Y325.0536   
N8715  X232.9684  Y324.4106   
N8720  X234.6000  Y322.6974   
N8725  X235.3999  Y321.6254   
N8730  X235.6488  Y320.6464   
N8735  X235.6269  Y319.2118   
N8740  X235.5501  Y316.9893   
N8745  X238.4577  Y314.0033   
N8750  X241.6430  Y310.6164   
N8755  X243.5225  Y308.2287   
N8760  X244.0731  Y307.2549   
N8765  X244.4178  Y306.3456   
N8770  X244.6500  Y304.4726   
N8775  X244.6330  Y303.6041   
N8780  X244.5182  Y303.0758   
N8785  X244.2227  Y302.7059   
N8790  X243.6636  Y302.3130   
N8795  X242.5184  Y301.7228   
N8800  X241.1584  Y301.2053   
N8805  X240.2382  Y300.9551   
N8810  X239.3804  Y300.8720   
N8815  X236.2636  Y301.2079   
N8820  X232.8207  Y301.7337   
N8825  X232.3646  Y304.7966   
N8830  X231.8442  Y307.6426   
N8835  X231.5844  Y308.2116   
N8840  X231.3216  Y308.2216   
N8845  X230.9231  Y306.0573   
N8850  X230.5361  Y304.1088   
N8855  X230.2666  Y303.4899   
N8860  X229.9084  Y303.0788   
N8865  X229.4331  Y302.8539   
N8870  X228.8124  Y302.7936   
N8875  X227.0206  Y303.0797   
N8880  X225.1232  Y303.3469   
N8885  X225.1936  Y303.0341   
N8890  X225.7709  Y302.5297   
N8895  X228.2102  Y301.1164   
N8900  X229.8057  Y300.1962   
N8905  X230.6410  Y299.4929   
N8910  X230.8389  Y297.9287   
N8915  X230.8508  Y294.3973   
N8920  X230.8770  Y290.3800   
N8925  X231.2159  Y287.8663   
N8930  X231.8314  Y283.5999   
N8935  X231.9978  Y281.3179   
N8940  X233.1791  Y281.1560   
N8945  X234.6409  Y280.8341   
N8950  X236.4292  Y280.2761   
N8955  X238.1718  Y279.6110   
N8960  X239.4964  Y278.9679   
N8965  X241.7454  Y277.2666   
N8970  X244.9204  Y274.9847   
N8975  X248.4018  Y272.5524   
N8980  X249.2522  Y271.8262   
N8985  X249.7363  Y271.2482   
N8990  X250.0069  Y270.5628   
N8995  X250.2167  Y269.5142   
N9000  X250.3983  Y267.9595   
N9005  X250.2410  Y267.0544   
N9010  X249.9555  Y265.5455   
N9015  X249.9862  Y264.8689   
N9020  X250.1459  Y264.5927   
N9025  X251.0592  Y265.7318   
N9030  X251.4509  Y266.3992   
N9035  X251.6337  Y266.9444   
N9040  X251.5173  Y268.5664   
N9045  X251.0526  Y272.1434   
N9050  X251.0898  Y272.8269   
N9055  X251.2854  Y273.2001   
N9060  X251.7271  Y273.4806   
N9065  X252.3415  Y273.4837   
N9070  X252.9178  Y273.4635   
N9075  X253.3151  Y273.6128   
N9080  X253.9585  Y273.7286   
N9085  X255.0998  Y273.6036   
N9090  X256.3358  Y273.3088   
N9095  X257.2636  Y272.9155   
N9100  X258.1057  Y272.0335   
N9105  X258.6028  Y270.6697   
N9110  X258.7715  Y268.7420   
N9115  X258.6283  Y266.1684   
N9120  X258.0116  Y262.1496   
N9125  X257.6204  Y259.3245   
N9130  X257.4760  Y258.3760   
N9135  X256.9233  Y257.7231   
N9140  X256.9232   
N9145  X255.9691  Y257.2473   
N9150  X254.8981  Y257.2888   
N9155  X253.6249  Y257.8704   
N9160  X252.0641  Y259.0148   
N9165  X250.5626  Y260.0039   
N9170  X248.6245  Y260.9990   
N9175  X243.5734  Y263.4136   
N9180  X241.8505  Y264.3747   
N9185  X240.8495  Y265.0739   
N9190  X239.2398  Y267.0872   
N9195  X237.9881  Y269.1079   
N9200  X237.5057  Y269.1922   
N9205  X236.3277  Y268.9614   
N9210  X234.2144  Y268.6231   
N9215  X231.7588  Y268.5382   
N9220  X229.4058  Y268.6995   
N9225  X227.6001  Y269.0999   
N9230  X226.3355  Y269.7087   
N9235  X226.1644  Y270.0685   
N9240  X226.1350  Y270.6392   
N9245  X226.4138  Y272.7532   
N9250  X227.1804  Y275.1242   
N9255  X228.3296  Y277.4924   
N9260  X229.7565  Y279.5981   
N9265  X230.2942  Y280.3783   
N9270  X230.2975  Y280.7009   
N9275  X229.7970  Y280.5549   
N9280  X228.8236  Y279.9294   
N9285  X228.0549  Y279.2578   
N9290  X227.3089  Y278.3889   
N9295  X225.9603  Y276.2080   
N9300  X224.9286  Y273.6847   
N9305  X224.3646  Y271.1170   
N9310  X224.1995  Y270.0744   
N9315  X223.9208  Y269.4552   
N9320  X223.4146  Y269.1216   
N9325  X222.5676  Y268.9355   
N9330  X221.4723  Y268.8469   
N9335  X220.7470  Y269.0730   
N9340  X220.2036  Y269.7476   
N9345  X219.6536  Y271.0044   
N9350  X218.4602  Y273.6094   
N9355 G0  Z3.0000 
N9360  X215.9137  Y320.9065 
N9365  Z0.1000 
N9370 G1  Z-0.7000  F100.00 
N9375  X215.0708  Y320.2899   F300.00 
N9380  X213.9073  Y319.3984   
N9385  X213.8414  Y319.5636   
N9390  X214.0891  Y320.1313   
N9395  X214.6393  Y320.7274   
N9400  X215.5814  Y321.4306   
N9405  X216.5784  Y322.0169   
N9410  X217.2932  Y322.2621   
N9415  X217.4403  Y322.1816   
N9420  X217.3666  Y321.9858   
N9425  X216.7565  Y321.5230   
N9430  X215.9137  Y320.9065   
N9435 G0  Z0.1000 
N9440 G1  Z-1.4000  F100.00 
N9445  X215.0708  Y320.2899   F300.00 
N9450  X213.9073  Y319.3984   
N9455  X213.8414  Y319.5636   
N9460  X214.0891  Y320.1313   
N9465  X214.6393  Y320.7274   
N9470  X215.5814  Y321.4306   
N9475  X216.5784  Y322.0169   
N9480  X217.2932  Y322.2621   
N9485  X217.4403  Y322.1816   
N9490  X217.3666  Y321.9858   
N9495  X216.7565  Y321.5230   
N9500  X215.9137  Y320.9065   
N9505 G0  Z3.0000 
N9510  X217.4700  Y322.9196 
N9515  Z0.1000 
N9520 G1  Z-0.7000  F100.00 
N9525  X217.8007  Y323.0478   F300.00 
N9530  X217.8709  Y322.9724   
N9535  X217.6684  Y322.7913   
N9540  X217.0069  Y322.5348   
N9545  X216.9366  Y322.6102   
N9550  X217.1392  Y322.7913   
N9555  X217.4700  Y322.9196   
N9560 G0  Z0.1000 
N9565 G1  Z-1.4000  F100.00 
N9570  X217.8007  Y323.0478   F300.00 
N9575  X217.8709  Y322.9724   
N9580  X217.6684  Y322.7913   
N9585  X217.0069  Y322.5348   
N9590  X216.9366  Y322.6102   
N9595  X217.1392  Y322.7913   
N9600  X217.4700  Y322.9196   
N9605 G0  Z3.0000 
N9610  X219.9865  Y323.8410 
N9615  Z0.1000 
N9620 G1  Z-0.7000  F100.00 
N9625  X220.4086  Y323.8760   F300.00 
N9630  X220.7483  Y323.7824   
N9635  X220.9738  Y323.5881   
N9640  X220.9724  Y323.4460   
N9645  X220.7248  Y323.4841   
N9650  X220.4104  Y323.4742   
N9655  X220.3142  Y323.0842   
N9660  X220.2034  Y322.6705   
N9665  X219.9438  Y322.5420   
N9670  X219.6446  Y322.6940   
N9675  X219.4147  Y323.1220   
N9680  X219.2173  Y323.5701   
N9685  X218.8547  Y323.2038   
N9690  X218.5774  Y322.9181   
N9695  X218.4621  Y322.9524   
N9700  X218.5532  Y323.2269   
N9705  X218.7970  Y323.4681   
N9710  X219.5644  Y323.8060   
N9715  X219.9865  Y323.8410   
N9720 G0  Z0.1000 
N9725 G1  Z-1.4000  F100.00 
N9730  X220.4086  Y323.8760   F300.00 
N9735  X220.7483  Y323.7824   
N9740  X220.9738  Y323.5881   
N9745  X220.9724  Y323.4460   
N9750  X220.7248  Y323.4841   
N9755  X220.4104  Y323.4742   
N9760  X220.3142  Y323.0842   
N9765  X220.2034  Y322.6705   
N9770  X219.9438  Y322.5420   
N9775  X219.6446  Y322.6940   
N9780  X219.4147  Y323.1220   
N9785  X219.2173  Y323.5701   
N9790  X218.8547  Y323.2038   
N9795  X218.5774  Y322.9181   
N9800  X218.4621  Y322.9524   
N9805  X218.5532  Y323.2269   
N9810  X218.7970  Y323.4681   
N9815  X219.5644  Y323.8060   
N9820  X219.9865  Y323.8410   
N9825 G0  Z3.0000 
N9830  X223.2246  Y322.0483 
N9835  Z0.1000 
N9840 G1  Z-0.7000  F100.00 
N9845  X223.7538  Y321.8653   F300.00 
N9850  X224.1527  Y321.5933   
N9855  X224.1308  Y321.5005   
N9860  X223.0923  Y321.8557   
N9865  X222.6483  Y322.1159   
N9870  X222.6954  Y322.2313   
N9875  X223.2246  Y322.0483   
N9880 G0  Z0.1000 
N9885 G1  Z-1.4000  F100.00 
N9890  X223.7538  Y321.8653   F300.00 
N9895  X224.1527  Y321.5933   
N9900  X224.1308  Y321.5005   
N9905  X223.0923  Y321.8557   
N9910  X222.6483  Y322.1159   
N9915  X222.6954  Y322.2313   
N9920  X223.2246  Y322.0483   
N9925 G0  Z3.0000 
N9930  X225.1164  Y320.9668 
N9935  Z0.1000 
N9940 G1  Z-0.7000  F100.00 
N9945  X224.6153  Y321.3395   F300.00 
N9950  X224.6195  Y321.4474   
N9955  X224.8856  Y321.4684   
N9960  X225.4046  Y321.2807   
N9965  X226.0541  Y320.8294   
N9970  X226.5678  Y320.3193   
N9975  X226.6378  Y320.0947   
N9980  X226.3069  Y320.1787   
N9985  X225.6176  Y320.5941   
N9990  X225.1164  Y320.9668   
N9995 G0  Z0.1000 
N10000 G1  Z-1.4000  F100.00 
N10005  X224.6153  Y321.3395   F300.00 
N10010  X224.6195  Y321.4474   
N10015  X224.8856  Y321.4684   
N10020  X225.4046  Y321.2807   
N10025  X226.0541  Y320.8294   
N10030  X226.5678  Y320.3193   
N10035  X226.6378  Y320.0947   
N10040  X226.3069  Y320.1787   
N10045  X225.6176  Y320.5941   
N10050  X225.1164  Y320.9668   
N10055 G0  Z3.0000 
N10060  X225.4315  Y342.6111 
N10065  Z0.1000 
N10070 G1  Z-0.7000  F100.00 
N10075  X223.8084  Y340.2960   F300.00 
N10080  X222.0251  Y337.8064   
N10085  X221.4450  Y337.3667   
N10090  X221.2052  Y337.3746   
N10095  X221.0267  Y337.5418   
N10100  X220.2917  Y339.6075   
N10105  X219.3321  Y343.1372   
N10110  X218.4669  Y346.8623   
N10115  X218.0152  Y349.5142   
N10120  X217.9951  Y351.0609   
N10125  X218.2045  Y351.3879   
N10130  X218.6313  Y351.6661   
N10135  X220.4566  Y352.3207   
N10140  X222.7591  Y352.6514   
N10145  X225.0070  Y352.6229   
N10150  X225.9442  Y352.4629   
N10155  X226.6683  Y352.1998   
N10160  X227.4776  Y351.5596   
N10165  X228.1759  Y350.6267   
N10170  X228.6721  Y349.5543   
N10175  X228.8750  Y348.4952   
N10180  X228.8116  Y347.9039   
N10185  X228.5389  Y347.2135   
N10190  X227.0545  Y344.9262   
N10195  X225.4315  Y342.6111   
N10200 G0  Z0.1000 
N10205 G1  Z-1.4000  F100.00 
N10210  X223.8084  Y340.2960   F300.00 
N10215  X222.0251  Y337.8064   
N10220  X221.4450  Y337.3667   
N10225  X221.2052  Y337.3746   
N10230  X221.0267  Y337.5418   
N10235  X220.2917  Y339.6075   
N10240  X219.3321  Y343.1372   
N10245  X218.4669  Y346.8623   
N10250  X218.0152  Y349.5142   
N10255  X217.9951  Y351.0609   
N10260  X218.2045  Y351.3879   
N10265  X218.6313  Y351.6661   
N10270  X220.4566  Y352.3207   
N10275  X222.7591  Y352.6514   
N10280  X225.0070  Y352.6229   
N10285  X225.9442  Y352.4629   
N10290  X226.6683  Y352.1998   
N10295  X227.4776  Y351.5596   
N10300  X228.1759  Y350.6267   
N10305  X228.6721  Y349.5543   
N10310  X228.8750  Y348.4952   
N10315  X228.8116  Y347.9039   
N10320  X228.5389  Y347.2135   
N10325  X227.0545  Y344.9262   
N10330  X225.4315  Y342.6111   
N10335 G0  Z3.0000 
N10340  X252.5449  Y344.0749 
N10345  Z0.1000 
N10350 G1  Z-0.7000  F100.00 
N10355  X251.4532  Y341.5615   F300.00 
N10360  X250.2801  Y339.2588   
N10365  X249.4593  Y337.9387   
N10370  X248.9523  Y337.4981   
N10375  X248.4947  Y337.3742   
N10380  X248.1029  Y337.5655   
N10385  X247.7936  Y338.0710   
N10390  X246.8508  Y340.8493   
N10395  X245.7482  Y344.6114   
N10400  X244.7983  Y348.2328   
N10405  X244.3138  Y350.5890   
N10410  X244.3966  Y351.9397   
N10415  X244.6612  Y352.4378   
N10420  X245.1002  Y352.8345   
N10425  X246.5778  Y353.3743   
N10430  X248.9825  Y353.6597   
N10435  X250.9563  Y353.7105   
N10440  X252.3077  Y353.5181   
N10445  X253.2185  Y353.0278   
N10450  X253.8706  Y352.1847   
N10455  X254.3045  Y351.0888   
N10460  X254.4128  Y349.8552   
N10465  X254.1915  Y348.3872   
N10470  X253.6366  Y346.5883   
N10475  X252.5449  Y344.0749   
N10480 G0  Z0.1000 
N10485 G1  Z-1.4000  F100.00 
N10490  X251.4532  Y341.5615   F300.00 
N10495  X250.2801  Y339.2588   
N10500  X249.4593  Y337.9387   
N10505  X248.9523  Y337.4981   
N10510  X248.4947  Y337.3742   
N10515  X248.1029  Y337.5655   
N10520  X247.7936  Y338.0710   
N10525  X246.8508  Y340.8493   
N10530  X245.7482  Y344.6114   
N10535  X244.7983  Y348.2328   
N10540  X244.3138  Y350.5890   
N10545  X244.3966  Y351.9397   
N10550  X244.6612  Y352.4378   
N10555  X245.1002  Y352.8345   
N10560  X246.5778  Y353.3743   
N10565  X248.9825  Y353.6597   
N10570  X250.9563  Y353.7105   
N10575  X252.3077  Y353.5181   
N10580  X253.2185  Y353.0278   
N10585  X253.8706  Y352.1847   
N10590  X254.3045  Y351.0888   
N10595  X254.4128  Y349.8552   
N10600  X254.1915  Y348.3872   
N10605  X253.6366  Y346.5883   
N10610  X252.5449  Y344.0749   
N10615 G0  Z3.0000 
N10620  X272.5582  Y346.2201 
N10625  Z0.1000 
N10630 G1  Z-0.7000  F100.00 
N10635  X271.3251  Y348.3236   F300.00 
N10640  X270.0199  Y350.8271   
N10645  X269.1098  Y352.8784   
N10650  X268.6162  Y354.4223   
N10655  X268.5609  Y355.4034   
N10660  X268.9756  Y356.0461   
N10665  X269.8723  Y356.5362   
N10670  X271.2738  Y356.8819   
N10675  X273.2029  Y357.0914   
N10680  X275.0754  Y357.1758   
N10685  X276.2906  Y357.0920   
N10690  X277.1329  Y356.7862   
N10695  X277.8867  Y356.2045   
N10700  X278.5242  Y355.4867   
N10705  X278.9903  Y354.6648   
N10710  X279.2791  Y353.7527   
N10715  X279.3847  Y352.7642   
N10720  X279.0503  Y351.1414   
N10725  X278.1957  Y348.6783   
N10730  X277.0782  Y346.0400   
N10735  X275.9548  Y343.8918   
N10740  X275.4111  Y343.1911   
N10745  X274.9660  Y342.8996   
N10750  X274.5051  Y343.1865   
N10755  X273.7912  Y344.1166   
N10760  X272.5582  Y346.2201   
N10765 G0  Z0.1000 
N10770 G1  Z-1.4000  F100.00 
N10775  X271.3251  Y348.3236   F300.00 
N10780  X270.0199  Y350.8271   
N10785  X269.1098  Y352.8784   
N10790  X268.6162  Y354.4223   
N10795  X268.5609  Y355.4034   
N10800  X268.9756  Y356.0461   
N10805  X269.8723  Y356.5362   
N10810  X271.2738  Y356.8819   
N10815  X273.2029  Y357.0914   
N10820  X275.0754  Y357.1758   
N10825  X276.2906  Y357.0920   
N10830  X277.1329  Y356.7862   
N10835  X277.8867  Y356.2045   
N10840  X278.5242  Y355.4867   
N10845  X278.9903  Y354.6648   
N10850  X279.2791  Y353.7527   
N10855  X279.3847  Y352.7642   
N10860  X279.0503  Y351.1414   
N10865  X278.1957  Y348.6783   
N10870  X277.0782  Y346.0400   
N10875  X275.9548  Y343.8918   
N10880  X275.4111  Y343.1911   
N10885  X274.9660  Y342.8996   
N10890  X274.5051  Y343.1865   
N10895  X273.7912  Y344.1166   
N10900  X272.5582  Y346.2201   
N10905 G0  Z3.0000 
N10910  X273.9988  Y334.7433 
N10915  Z0.1000 
N10920 G1  Z-0.7000  F100.00 
N10925  X274.3700  Y335.0808   F300.00 
N10930  X275.1456  Y335.6214   
N10935  X275.8029  Y335.7277   
N10940  X276.3389  Y335.4003   
N10945  X276.7500  Y334.6399   
N10950  X276.8114  Y334.2536   
N10955  X276.6723  Y334.0661   
N10960  X276.3629  Y334.0883   
N10965  X275.9132  Y334.3313   
N10970  X275.2656  Y334.5938   
N10975  X274.4810  Y334.5713   
N10980  X273.6277  Y334.4058   
N10985  X273.9988  Y334.7433   
N10990 G0  Z0.1000 
N10995 G1  Z-1.4000  F100.00 
N11000  X274.3700  Y335.0808   F300.00 
N11005  X275.1456  Y335.6214   
N11010  X275.8029  Y335.7277   
N11015  X276.3389  Y335.4003   
N11020  X276.7500  Y334.6399   
N11025  X276.8114  Y334.2536   
N11030  X276.6723  Y334.0661   
N11035  X276.3629  Y334.0883   
N11040  X275.9132  Y334.3313   
N11045  X275.2656  Y334.5938   
N11050  X274.4810  Y334.5713   
N11055  X273.6277  Y334.4058   
N11060  X273.9988  Y334.7433   
N11065 G0  Z3.0000 
N11070  X281.2599  Y336.7618 
N11075  Z0.1000 
N11080 G1  Z-0.7000  F100.00 
N11085  X280.7053  Y336.9061   F300.00 
N11090  X280.0980  Y337.1670   
N11095  X279.8454  Y337.3981   
N11100  X280.0489  Y337.6000   
N11105  X280.5315  Y337.5902   
N11110  X281.1009  Y337.4046   
N11115  X281.5652  Y337.0788   
N11120  X281.8323  Y336.7489   
N11125  X281.8144  Y336.6175   
N11130  X281.2599  Y336.7618   
N11135 G0  Z0.1000 
N11140 G1  Z-1.4000  F100.00 
N11145  X280.7053  Y336.9061   F300.00 
N11150  X280.0980  Y337.1670   
N11155  X279.8454  Y337.3981   
N11160  X280.0489  Y337.6000   
N11165  X280.5315  Y337.5902   
N11170  X281.1009  Y337.4046   
N11175  X281.5652  Y337.0788   
N11180  X281.8323  Y336.7489   
N11185  X281.8144  Y336.6175   
N11190  X281.2599  Y336.7618   
N11195 G0  Z3.0000 
N11200  X289.1024  Y329.8247 
N11205  Z0.1000 
N11210 G1  Z-0.7000  F100.00 
N11215  X289.3595  Y331.1729   F300.00 
N11220  X289.2533  Y331.6939   
N11225  X288.9826  Y332.1371   
N11230  X288.7171  Y332.7296   
N11235  X288.7482  Y333.8196   
N11240  X288.7546  Y335.0385   
N11245  X288.1882  Y335.9621   
N11250  X286.6807  Y337.2751   
N11255  X286.0512  Y337.8080   
N11260  X286.0224  Y338.5881   
N11265  X286.0045  Y339.3891   
N11270  X285.6466  Y340.0863   
N11275  X284.9908  Y340.6764   
N11280  X284.0586  Y341.2446   
N11285  X283.0776  Y341.6723   
N11290  X282.2754  Y341.8413   
N11295  X281.8178  Y341.9165   
N11300  X281.7200  Y342.0972   
N11305  X281.9584  Y342.3163   
N11310  X282.5094  Y342.5067   
N11315  X283.6966  Y342.5870   
N11320  X285.2635  Y342.4898   
N11325  X286.7493  Y342.2637   
N11330  X287.6937  Y341.9576   
N11335  X288.1486  Y341.4705   
N11340  X288.4386  Y340.8091   
N11345  X288.7425  Y340.1569   
N11350  X289.3898  Y339.8526   
N11355  X289.9494  Y339.6340   
N11360  X290.3579  Y339.2626   
N11365  X290.6083  Y338.7479   
N11370  X290.6933  Y338.0995   
N11375  X290.9528  Y337.3994   
N11380  X291.5767  Y336.5608   
N11385  X292.4464  Y335.4191   
N11390  X293.0013  Y334.1225   
N11395  X293.2730  Y332.5611   
N11400  X293.2935  Y330.6246   
N11405  X293.0917  Y328.5080   
N11410  X292.6367  Y327.2524   
N11415  X291.7847  Y325.4052   
N11420  X291.3502  Y324.6223   
N11425  X290.7165  Y324.0377   
N11430  X289.8587  Y323.6057   
N11435  X287.8070  Y324.3359   
N11440  X286.0960  Y325.1388   
N11445  X285.7295  Y325.7211   
N11450  X285.7514  Y326.4770   
N11455  X286.1476  Y327.3521   
N11460  X286.9043  Y328.2925   
N11465  X287.2045  Y328.4230   
N11470  X287.4003  Y327.8956   
N11475  X287.7333  Y326.7101   
N11480  X287.8958  Y326.5431   
N11485  X288.1086  Y326.5600   
N11490  X288.4352  Y327.1643   
N11495  X288.8452  Y328.4765   
N11500  X289.1024  Y329.8247   
N11505 G0  Z0.1000 
N11510 G1  Z-1.4000  F100.00 
N11515  X289.3595  Y331.1729   F300.00 
N11520  X289.2533  Y331.6939   
N11525  X288.9826  Y332.1371   
N11530  X288.7171  Y332.7296   
N11535  X288.7482  Y333.8196   
N11540  X288.7546  Y335.0385   
N11545  X288.1882  Y335.9621   
N11550  X286.6807  Y337.2751   
N11555  X286.0512  Y337.8080   
N11560  X286.0224  Y338.5881   
N11565  X286.0045  Y339.3891   
N11570  X285.6466  Y340.0863   
N11575  X284.9908  Y340.6764   
N11580  X284.0586  Y341.2446   
N11585  X283.0776  Y341.6723   
N11590  X282.2754  Y341.8413   
N11595  X281.8178  Y341.9165   
N11600  X281.7200  Y342.0972   
N11605  X281.9584  Y342.3163   
N11610  X282.5094  Y342.5067   
N11615  X283.6966  Y342.5870   
N11620  X285.2635  Y342.4898   
N11625  X286.7493  Y342.2637   
N11630  X287.6937  Y341.9576   
N11635  X288.1486  Y341.4705   
N11640  X288.4386  Y340.8091   
N11645  X288.7425  Y340.1569   
N11650  X289.3898  Y339.8526   
N11655  X289.9494  Y339.6340   
N11660  X290.3579  Y339.2626   
N11665  X290.6083  Y338.7479   
N11670  X290.6933  Y338.0995   
N11675  X290.9528  Y337.3994   
N11680  X291.5767  Y336.5608   
N11685  X292.4464  Y335.4191   
N11690  X293.0013  Y334.1225   
N11695  X293.2730  Y332.5611   
N11700  X293.2935  Y330.6246   
N11705  X293.0917  Y328.5080   
N11710  X292.6367  Y327.2524   
N11715  X291.7847  Y325.4052   
N11720  X291.3502  Y324.6223   
N11725  X290.7165  Y324.0377   
N11730  X289.8587  Y323.6057   
N11735  X287.8070  Y324.3359   
N11740  X286.0960  Y325.1388   
N11745  X285.7295  Y325.7211   
N11750  X285.7514  Y326.4770   
N11755  X286.1476  Y327.3521   
N11760  X286.9043  Y328.2925   
N11765  X287.2045  Y328.4230   
N11770  X287.4003  Y327.8956   
N11775  X287.7333  Y326.7101   
N11780  X287.8958  Y326.5431   
N11785  X288.1086  Y326.5600   
N11790  X288.4352  Y327.1643   
N11795  X288.8452  Y328.4765   
N11800  X289.1024  Y329.8247   
N11805 G0  Z3.0000 
N11810  X287.0254  Y321.9313 
N11815  Z0.1000 
N11820 G1  Z-0.7000  F100.00 
N11825  X287.8042  Y320.7715   F300.00 
N11830  X289.2659  Y318.7000   
N11835  X289.5750  Y318.5490   
N11840  X289.5027  Y319.0871   
N11845  X289.4575  Y319.4609   
N11850  X289.5847  Y319.6163   
N11855  X289.9368  Y319.4871   
N11860  X290.1717  Y319.1211   
N11865  X290.2775  Y318.5510   
N11870  X290.2424  Y317.8093   
N11875  X289.9727  Y316.9028   
N11880  X289.3865  Y316.1544   
N11885  X288.4131  Y315.5003   
N11890  X286.9818  Y314.8770   
N11895  X285.3495  Y314.3338   
N11900  X284.0798  Y314.0589   
N11905  X283.1737  Y314.0527   
N11910  X282.6321  Y314.3151   
N11915  X282.2907  Y314.7863   
N11920  X282.2477  Y315.1017   
N11925  X282.4968  Y315.2472   
N11930  X283.0317  Y315.2087   
N11935  X283.8368  Y315.0477   
N11940  X283.1640  Y316.3131   
N11945  X282.5395  Y317.7597   
N11950  X282.4983  Y318.1551   
N11955  X282.6479  Y318.2934   
N11960  X283.4773  Y317.7642   
N11965  X284.3823  Y317.2230   
N11970  X284.6525  Y317.2103   
N11975  X284.7977  Y317.3601   
N11980  X284.7032  Y318.1190   
N11985  X284.0787  Y319.4433   
N11990  X283.3389  Y321.0058   
N11995  X283.2397  Y321.4586   
N12000  X283.3075  Y321.6826   
N12005  X283.5322  Y321.6706   
N12010  X283.9038  Y321.4153   
N12015  X285.0475  Y320.1455   
N12020  X286.5024  Y318.5580   
N12025  X286.6690  Y318.6549   
N12030  X286.7444  Y318.9277   
N12035  X286.6451  Y319.8911   
N12040  X286.2513  Y321.2296   
N12045  X285.6098  Y322.7248   
N12050  X285.4500  Y323.1950   
N12055  X285.4830  Y323.4901   
N12060  X285.7823  Y323.5109   
N12065  X286.2465  Y323.0911   
N12070  X287.0254  Y321.9313   
N12075 G0  Z0.1000 
N12080 G1  Z-1.4000  F100.00 
N12085  X287.8042  Y320.7715   F300.00 
N12090  X289.2659  Y318.7000   
N12095  X289.5750  Y318.5490   
N12100  X289.5027  Y319.0871   
N12105  X289.4575  Y319.4609   
N12110  X289.5847  Y319.6163   
N12115  X289.9368  Y319.4871   
N12120  X290.1717  Y319.1211   
N12125  X290.2775  Y318.5510   
N12130  X290.2424  Y317.8093   
N12135  X289.9727  Y316.9028   
N12140  X289.3865  Y316.1544   
N12145  X288.4131  Y315.5003   
N12150  X286.9818  Y314.8770   
N12155  X285.3495  Y314.3338   
N12160  X284.0798  Y314.0589   
N12165  X283.1737  Y314.0527   
N12170  X282.6321  Y314.3151   
N12175  X282.2907  Y314.7863   
N12180  X282.2477  Y315.1017   
N12185  X282.4968  Y315.2472   
N12190  X283.0317  Y315.2087   
N12195  X283.8368  Y315.0477   
N12200  X283.1640  Y316.3131   
N12205  X282.5395  Y317.7597   
N12210  X282.4983  Y318.1551   
N12215  X282.6479  Y318.2934   
N12220  X283.4773  Y317.7642   
N12225  X284.3823  Y317.2230   
N12230  X284.6525  Y317.2103   
N12235  X284.7977  Y317.3601   
N12240  X284.7032  Y318.1190   
N12245  X284.0787  Y319.4433   
N12250  X283.3389  Y321.0058   
N12255  X283.2397  Y321.4586   
N12260  X283.3075  Y321.6826   
N12265  X283.5322  Y321.6706   
N12270  X283.9038  Y321.4153   
N12275  X285.0475  Y320.1455   
N12280  X286.5024  Y318.5580   
N12285  X286.6690  Y318.6549   
N12290  X286.7444  Y318.9277   
N12295  X286.6451  Y319.8911   
N12300  X286.2513  Y321.2296   
N12305  X285.6098  Y322.7248   
N12310  X285.4500  Y323.1950   
N12315  X285.4830  Y323.4901   
N12320  X285.7823  Y323.5109   
N12325  X286.2465  Y323.0911   
N12330  X287.0254  Y321.9313   
N12335 G0  Z3.0000 
N12340  X287.0008  Y308.1520 
N12345  Z0.1000 
N12350 G1  Z-0.7000  F100.00 
N12355  X285.4220  Y311.0876   F300.00 
N12360  X284.5570  Y312.4285   
N12365  X284.3102  Y312.6202   
N12370  X284.4104  Y312.8059   
N12375  X285.4155  Y313.0017   
N12380  X288.3356  Y313.4220   
N12385  X290.1835  Y313.8423   
N12390  X291.1660  Y312.7042   
N12395  X294.3347  Y309.2778   
N12400  X295.4771  Y308.2042   
N12405  X296.0183  Y307.8630   
N12410  X296.1215  Y308.1027   
N12415  X295.8285  Y308.7258   
N12420  X293.3268  Y312.3287   
N12425  X290.9167  Y315.6900   
N12430  X291.0974  Y317.6184   
N12435  X291.2781  Y319.5469   
N12440  X290.3654  Y320.2431   
N12445  X289.1650  Y320.9392   
N12450  X288.7865  Y321.1861   
N12455  X288.3100  Y321.7443   
N12460  X287.9369  Y322.3404   
N12465  X287.8686  Y322.7006   
N12470  X288.8896  Y322.5754   
N12475  X290.8256  Y322.1299   
N12480  X291.8336  Y321.8567   
N12485  X292.7430  Y321.4024   
N12490  X293.5150  Y320.7915   
N12495  X294.1108  Y320.0488   
N12500  X294.8158  Y318.1368   
N12505  X295.8581  Y314.6247   
N12510  X296.8606  Y310.8558   
N12515  X297.4459  Y308.1733   
N12520  X297.4892  Y306.7996   
N12525  X297.3180  Y305.2504   
N12530  X297.0781  Y304.2293   
N12535  X296.7247  Y303.3890   
N12540  X295.1912  Y301.3617   
N12545  X294.5509  Y300.7792   
N12550  X293.8494  Y300.4879   
N12555  X293.0234  Y300.4753   
N12560  X292.0099  Y300.7288   
N12565  X291.2363  Y301.0328   
N12570  X290.6350  Y301.5835   
N12575  X288.5796  Y305.2164   
N12580  X287.0008  Y308.1520   
N12585 G0  Z0.1000 
N12590 G1  Z-1.4000  F100.00 
N12595  X285.4220  Y311.0876   F300.00 
N12600  X284.5570  Y312.4285   
N12605  X284.3102  Y312.6202   
N12610  X284.4104  Y312.8059   
N12615  X285.4155  Y313.0017   
N12620  X288.3356  Y313.4220   
N12625  X290.1835  Y313.8423   
N12630  X291.1660  Y312.7042   
N12635  X294.3347  Y309.2778   
N12640  X295.4771  Y308.2042   
N12645  X296.0183  Y307.8630   
N12650  X296.1215  Y308.1027   
N12655  X295.8285  Y308.7258   
N12660  X293.3268  Y312.3287   
N12665  X290.9167  Y315.6900   
N12670  X291.0974  Y317.6184   
N12675  X291.2781  Y319.5469   
N12680  X290.3654  Y320.2431   
N12685  X289.1650  Y320.9392   
N12690  X288.7865  Y321.1861   
N12695  X288.3100  Y321.7443   
N12700  X287.9369  Y322.3404   
N12705  X287.8686  Y322.7006   
N12710  X288.8896  Y322.5754   
N12715  X290.8256  Y322.1299   
N12720  X291.8336  Y321.8567   
N12725  X292.7430  Y321.4024   
N12730  X293.5150  Y320.7915   
N12735  X294.1108  Y320.0488   
N12740  X294.8158  Y318.1368   
N12745  X295.8581  Y314.6247   
N12750  X296.8606  Y310.8558   
N12755  X297.4459  Y308.1733   
N12760  X297.4892  Y306.7996   
N12765  X297.3180  Y305.2504   
N12770  X297.0781  Y304.2293   
N12775  X296.7247  Y303.3890   
N12780  X295.1912  Y301.3617   
N12785  X294.5509  Y300.7792   
N12790  X293.8494  Y300.4879   
N12795  X293.0234  Y300.4753   
N12800  X292.0099  Y300.7288   
N12805  X291.2363  Y301.0328   
N12810  X290.6350  Y301.5835   
N12815  X288.5796  Y305.2164   
N12820  X287.0008  Y308.1520   
N12825 G0  Z3.0000 
N12830  X268.8088  Y307.8174 
N12835  Z0.1000 
N12840 G1  Z-0.7000  F100.00 
N12845  X268.6016  Y311.4804   F300.00 
N12850  X268.6002  Y312.0389   
N12855  X268.8718  Y312.2080   
N12860  X269.1501  Y312.3392   
N12865  X269.2397  Y312.6779   
N12870  X269.1417  Y313.1415   
N12875  X268.8567  Y313.6476   
N12880  X268.5729  Y314.2335   
N12885  X268.4860  Y314.9424   
N12890  X268.5954  Y315.7193   
N12895  X268.9001  Y316.5089   
N12900  X269.1559  Y317.1671   
N12905  X269.0324  Y317.4439   
N12910  X268.7713  Y317.8574   
N12915  X268.7587  Y318.6925   
N12920  X268.9715  Y319.7343   
N12925  X269.3869  Y320.7675   
N12930  X269.7517  Y321.6107   
N12935  X269.7169  Y321.9916   
N12940  X269.2972  Y321.9007   
N12945  X268.5076  Y321.3286   
N12950  X267.8797  Y320.6160   
N12955  X267.3721  Y319.6425   
N12960  X266.9906  Y318.4225   
N12965  X266.7411  Y316.9705   
N12970  X266.6059  Y314.8230   
N12975  X267.0451  Y310.6484   
N12980  X267.5201  Y306.5752   
N12985  X266.6051  Y305.8109   
N12990  X265.7226  Y305.2079   
N12995  X264.7784  Y304.7923   
N13000  X263.8610  Y304.5933   
N13005  X263.0591  Y304.6400   
N13010  X262.0463  Y305.2856   
N13015  X260.5868  Y306.5929   
N13020  X259.6104  Y307.6468   
N13025  X258.7432  Y308.7956   
N13030  X256.6934  Y312.3259   
N13035  X254.3878  Y316.7577   
N13040  X254.2158  Y317.0010   
N13045  X253.8699  Y317.1463   
N13050  X252.2438  Y317.2351   
N13055  X248.6289  Y317.4086   
N13060  X247.6671  Y317.5415   
N13065  X246.9646  Y317.7856   
N13070  X246.2577  Y318.2787   
N13075  X245.2828  Y319.1588   
N13080  X243.9530  Y320.5600   
N13085  X243.6781  Y321.0465   
N13090  X243.5975  Y321.4809   
N13095  X243.7460  Y322.1326   
N13100  X244.2152  Y322.3918   
N13105  X245.0406  Y322.2620   
N13110  X246.2576  Y321.7467   
N13115  X247.9457  Y321.0877   
N13120  X249.8423  Y320.9392   
N13125  X251.5245  Y321.0411   
N13130  X251.9828  Y321.2027   
N13135  X252.3287  Y321.4684   
N13140  X252.8579  Y322.2378   
N13145  X252.5083  Y322.6284   
N13150  X251.6677  Y323.2300   
N13155  X250.5905  Y324.0856   
N13160  X250.4587  Y324.3680   
N13165  X250.5826  Y324.5456   
N13170  X251.5508  Y324.5633   
N13175  X253.4018  Y324.0926   
N13180  X255.1978  Y323.4892   
N13185  X256.2305  Y323.0181   
N13190  X256.8401  Y322.4676   
N13195  X257.3670  Y321.6262   
N13200  X258.6085  Y319.9760   
N13205  X260.5213  Y317.9020   
N13210  X262.5112  Y315.7666   
N13215  X262.8364  Y315.1588   
N13220  X262.9120  Y314.5842   
N13225  X263.2734  Y312.1974   
N13230  X263.9635  Y309.1346   
N13235  X264.4610  Y307.3034   
N13240  X264.6898  Y306.9485   
N13245  X264.9047  Y306.9687   
N13250  X264.6539  Y311.1943   
N13255  X264.2752  Y315.3807   
N13260  X264.3866  Y315.9575   
N13265  X264.7067  Y316.3253   
N13270  X265.6746  Y318.1611   
N13275  X266.3297  Y319.6163   
N13280  X267.1376  Y320.7185   
N13285  X267.8352  Y321.5222   
N13290  X268.6637  Y322.0917   
N13295  X269.5505  Y322.3902   
N13300  X270.4228  Y322.3810   
N13305  X273.2969  Y321.1752   
N13310  X274.9001  Y320.4535   
N13315  X275.2438  Y320.4028   
N13320  X275.3474  Y320.5386   
N13325  X275.0675  Y321.0058   
N13330  X274.3593  Y321.6382   
N13335  X272.4478  Y322.7868   
N13340  X271.8800  Y323.0766   
N13345  X271.6873  Y323.3457   
N13350  X271.8687  Y323.6323   
N13355  X272.4235  Y323.9749   
N13360  X273.1615  Y324.6945   
N13365  X273.7056  Y325.8086   
N13370  X273.9432  Y326.9873   
N13375  X273.7620  Y327.9008   
N13380  X271.9717  Y330.9136   
N13385  X271.7218  Y331.6861   
N13390  X271.7274  Y332.3513   
N13395  X271.9519  Y333.4012   
N13400  X272.3587  Y334.2601   
N13405  X272.9917  Y334.9952   
N13410  X273.8946  Y335.6738   
N13415  X275.3713  Y336.8206   
N13420  X277.0673  Y338.3925   
N13425  X278.8649  Y340.0137   
N13430  X279.5677  Y340.3562   
N13435  X280.4358  Y340.5786   
N13440  X281.9006  Y340.7432   
N13445  X282.4107  Y340.5430   
N13450  X283.0816  Y340.0984   
N13455  X284.0170  Y339.2662   
N13460  X284.2948  Y338.2962   
N13465  X284.3976  Y337.7311   
N13470  X284.6465  Y337.2044   
N13475  X285.8432  Y335.8559   
N13480  X286.9517  Y334.6318   
N13485  X287.1256  Y334.2562   
N13490  X287.0935  Y333.9665   
N13495  X286.8815  Y332.4993   
N13500  X286.7863  Y331.6712   
N13505  X286.5972  Y331.5902   
N13510  X286.2535  Y331.6498   
N13515  X285.7668  Y331.6822   
N13520  X285.7135  Y331.3345   
N13525  X286.0349  Y330.9401   
N13530  X286.8594  Y330.7177   
N13535  X287.9152  Y330.5742   
N13540  X286.9891  Y330.1614   
N13545  X286.0875  Y329.5619   
N13550  X285.0431  Y328.6197   
N13555  X284.1710  Y327.6491   
N13560  X283.7861  Y326.9644   
N13565  X283.8381  Y325.6500   
N13570  X284.1043  Y324.5964   
N13575  X284.2629  Y324.0696   
N13580  X284.0881  Y323.6779   
N13585  X283.5640  Y323.4062   
N13590  X282.6750  Y323.2397   
N13595  X281.1057  Y322.9808   
N13600  X279.7165  Y322.5723   
N13605  X278.5174  Y322.0179   
N13610  X277.5187  Y321.3214   
N13615  X276.4534  Y320.1720   
N13620  X276.4593  Y319.9375   
N13625  X276.8688  Y320.0191   
N13630  X281.9960  Y321.7330   
N13635  X282.1036  Y321.6194   
N13640  X282.0616  Y321.3462   
N13645  X282.0724  Y320.8413   
N13650  X282.3068  Y320.1704   
N13655  X282.5621  Y319.4832   
N13660  X282.1328  Y319.3004   
N13665  X281.8318  Y319.2120   
N13670  X281.6632  Y318.9907   
N13675  X281.5863  Y317.7642   
N13680  X281.5107  Y316.6104   
N13685  X281.2333  Y316.0850   
N13690  X281.0175  Y315.7432   
N13695  X281.0266  Y315.2003   
N13700  X281.2377  Y314.5766   
N13705  X281.6282  Y313.9923   
N13710  X281.8793  Y313.6195   
N13715  X281.8949  Y313.3755   
N13720  X281.6231  Y313.3497   
N13725  X281.0416  Y313.6056   
N13730  X278.5602  Y315.1723   
N13735  X276.4968  Y316.3559   
N13740  X276.4347  Y315.9436   
N13745  X276.6765  Y315.2749   
N13750  X277.1524  Y314.4904   
N13755  X277.7931  Y313.7311   
N13760  X278.7580  Y312.9390   
N13765  X279.9752  Y312.2147   
N13770  X281.3658  Y311.5986   
N13775  X282.8506  Y311.1315   
N13780  X283.5852  Y310.9098   
N13785  X284.2387  Y310.2522   
N13790  X287.2552  Y304.8408   
N13795  X289.7970  Y300.1695   
N13800  X291.3858  Y296.9786   
N13805  X292.1426  Y294.5017   
N13810  X292.6139  Y292.7755   
N13815  X293.0915  Y291.7559   
N13820  X293.8478  Y290.6801   
N13825  X294.6429  Y289.1617   
N13830  X295.2972  Y287.5842   
N13835  X295.6312  Y286.3310   
N13840  X295.6471  Y285.1565   
N13845  X295.3547  Y284.2226   
N13850  X295.0604  Y283.2893   
N13855  X295.2282  Y281.9925   
N13860  X295.3940  Y280.5907   
N13865  X295.4206  Y278.7541   
N13870  X295.1344  Y274.4877   
N13875  X294.5261  Y270.6169   
N13880  X294.1500  Y269.2747   
N13885  X293.7520  Y268.5651   
N13890  X291.5871  Y267.6666   
N13895  X291.5872   
N13900  X289.9477  Y267.2266   
N13905  X288.4109  Y267.0223   
N13910  X287.0930  Y267.0605   
N13915  X286.1102  Y267.3480   
N13920  X285.3098  Y267.9058   
N13925  X284.6103  Y268.6752   
N13930  X284.0091  Y269.6638   
N13935  X283.5037  Y270.8790   
N13940  X282.7697  Y274.0197   
N13945  X282.3875  Y278.1575   
N13950  X282.3743  Y281.1243   
N13955  X282.9195  Y283.4176   
N13960  X284.4988  Y287.4872   
N13965  X285.3005  Y289.0089   
N13970  X285.9862  Y289.9251   
N13975  X286.8475  Y290.3877   
N13980  X288.1325  Y290.7626   
N13985  X289.4557  Y290.9645   
N13990  X290.4317  Y290.9081   
N13995  X290.8177  Y290.8744   
N14000  X291.0696  Y291.0081   
N14005  X291.0442  Y291.1782   
N14010  X290.8056  Y291.3703   
N14015  X289.8605  Y291.7652   
N14020  X288.5783  Y292.0828   
N14025  X287.3027  Y292.2131   
N14030  X285.9658  Y292.0648   
N14035  X285.5224  Y291.7858   
N14040  X285.0240  Y291.2868   
N14045  X284.1978  Y290.0844   
N14050  X283.3456  Y288.3242   
N14055  X282.5530  Y286.2078   
N14060  X281.9055  Y283.9370   
N14065  X281.4644  Y282.3344   
N14070  X281.0207  Y281.3517   
N14075  X280.4878  Y280.8581   
N14080  X279.7791  Y280.7226   
N14085  X278.3788  Y281.0963   
N14090  X277.0243  Y281.9421   
N14095  X275.2312  Y284.5217   
N14100  X273.0393  Y288.1309   
N14105  X271.2835  Y291.8972   
N14110  X269.8337  Y295.8201   
N14115  X269.3573  Y298.5560   
N14120  X269.0159  Y304.1544   
N14125  X268.8088  Y307.8174   
N14130 G0  Z0.1000 
N14135 G1  Z-1.4000  F100.00 
N14140  X268.6016  Y311.4804   F300.00 
N14145  X268.6002  Y312.0389   
N14150  X268.8718  Y312.2080   
N14155  X269.1501  Y312.3392   
N14160  X269.2397  Y312.6779   
N14165  X269.1417  Y313.1415   
N14170  X268.8567  Y313.6476   
N14175  X268.5729  Y314.2335   
N14180  X268.4860  Y314.9424   
N14185  X268.5954  Y315.7193   
N14190  X268.9001  Y316.5089   
N14195  X269.1559  Y317.1671   
N14200  X269.0324  Y317.4439   
N14205  X268.7713  Y317.8574   
N14210  X268.7587  Y318.6925   
N14215  X268.9715  Y319.7343   
N14220  X269.3869  Y320.7675   
N14225  X269.7517  Y321.6107   
N14230  X269.7169  Y321.9916   
N14235  X269.2972  Y321.9007   
N14240  X268.5076  Y321.3286   
N14245  X267.8797  Y320.6160   
N14250  X267.3721  Y319.6425   
N14255  X266.9906  Y318.4225   
N14260  X266.7411  Y316.9705   
N14265  X266.6059  Y314.8230   
N14270  X267.0451  Y310.6484   
N14275  X267.5201  Y306.5752   
N14280  X266.6051  Y305.8109   
N14285  X265.7226  Y305.2079   
N14290  X264.7784  Y304.7923   
N14295  X263.8610  Y304.5933   
N14300  X263.0591  Y304.6400   
N14305  X262.0463  Y305.2856   
N14310  X260.5868  Y306.5929   
N14315  X259.6104  Y307.6468   
N14320  X258.7432  Y308.7956   
N14325  X256.6934  Y312.3259   
N14330  X254.3878  Y316.7577   
N14335  X254.2158  Y317.0010   
N14340  X253.8699  Y317.1463   
N14345  X252.2438  Y317.2351   
N14350  X248.6289  Y317.4086   
N14355  X247.6671  Y317.5415   
N14360  X246.9646  Y317.7856   
N14365  X246.2577  Y318.2787   
N14370  X245.2828  Y319.1588   
N14375  X243.9530  Y320.5600   
N14380  X243.6781  Y321.0465   
N14385  X243.5975  Y321.4809   
N14390  X243.7460  Y322.1326   
N14395  X244.2152  Y322.3918   
N14400  X245.0406  Y322.2620   
N14405  X246.2576  Y321.7467   
N14410  X247.9457  Y321.0877   
N14415  X249.8423  Y320.9392   
N14420  X251.5245  Y321.0411   
N14425  X251.9828  Y321.2027   
N14430  X252.3287  Y321.4684   
N14435  X252.8579  Y322.2378   
N14440  X252.5083  Y322.6284   
N14445  X251.6677  Y323.2300   
N14450  X250.5905  Y324.0856   
N14455  X250.4587  Y324.3680   
N14460  X250.5826  Y324.5456   
N14465  X251.5508  Y324.5633   
N14470  X253.4018  Y324.0926   
N14475  X255.1978  Y323.4892   
N14480  X256.2305  Y323.0181   
N14485  X256.8401  Y322.4676   
N14490  X257.3670  Y321.6262   
N14495  X258.6085  Y319.9760   
N14500  X260.5213  Y317.9020   
N14505  X262.5112  Y315.7666   
N14510  X262.8364  Y315.1588   
N14515  X262.9120  Y314.5842   
N14520  X263.2734  Y312.1974   
N14525  X263.9635  Y309.1346   
N14530  X264.4610  Y307.3034   
N14535  X264.6898  Y306.9485   
N14540  X264.9047  Y306.9687   
N14545  X264.6539  Y311.1943   
N14550  X264.2752  Y315.3807   
N14555  X264.3866  Y315.9575   
N14560  X264.7067  Y316.3253   
N14565  X265.6746  Y318.1611   
N14570  X266.3297  Y319.6163   
N14575  X267.1376  Y320.7185   
N14580  X267.8352  Y321.5222   
N14585  X268.6637  Y322.0917   
N14590  X269.5505  Y322.3902   
N14595  X270.4228  Y322.3810   
N14600  X273.2969  Y321.1752   
N14605  X274.9001  Y320.4535   
N14610  X275.2438  Y320.4028   
N14615  X275.3474  Y320.5386   
N14620  X275.0675  Y321.0058   
N14625  X274.3593  Y321.6382   
N14630  X272.4478  Y322.7868   
N14635  X271.8800  Y323.0766   
N14640  X271.6873  Y323.3457   
N14645  X271.8687  Y323.6323   
N14650  X272.4235  Y323.9749   
N14655  X273.1615  Y324.6945   
N14660  X273.7056  Y325.8086   
N14665  X273.9432  Y326.9873   
N14670  X273.7620  Y327.9008   
N14675  X271.9717  Y330.9136   
N14680  X271.7218  Y331.6861   
N14685  X271.7274  Y332.3513   
N14690  X271.9519  Y333.4012   
N14695  X272.3587  Y334.2601   
N14700  X272.9917  Y334.9952   
N14705  X273.8946  Y335.6738   
N14710  X275.3713  Y336.8206   
N14715  X277.0673  Y338.3925   
N14720  X278.8649  Y340.0137   
N14725  X279.5677  Y340.3562   
N14730  X280.4358  Y340.5786   
N14735  X281.9006  Y340.7432   
N14740  X282.4107  Y340.5430   
N14745  X283.0816  Y340.0984   
N14750  X284.0170  Y339.2662   
N14755  X284.2948  Y338.2962   
N14760  X284.3976  Y337.7311   
N14765  X284.6465  Y337.2044   
N14770  X285.8432  Y335.8559   
N14775  X286.9517  Y334.6318   
N14780  X287.1256  Y334.2562   
N14785  X287.0935  Y333.9665   
N14790  X286.8815  Y332.4993   
N14795  X286.7863  Y331.6712   
N14800  X286.5972  Y331.5902   
N14805  X286.2535  Y331.6498   
N14810  X285.7668  Y331.6822   
N14815  X285.7135  Y331.3345   
N14820  X286.0349  Y330.9401   
N14825  X286.8594  Y330.7177   
N14830  X287.9152  Y330.5742   
N14835  X286.9891  Y330.1614   
N14840  X286.0875  Y329.5619   
N14845  X285.0431  Y328.6197   
N14850  X284.1710  Y327.6491   
N14855  X283.7861  Y326.9644   
N14860  X283.8381  Y325.6500   
N14865  X284.1043  Y324.5964   
N14870  X284.2629  Y324.0696   
N14875  X284.0881  Y323.6779   
N14880  X283.5640  Y323.4062   
N14885  X282.6750  Y323.2397   
N14890  X281.1057  Y322.9808   
N14895  X279.7165  Y322.5723   
N14900  X278.5174  Y322.0179   
N14905  X277.5187  Y321.3214   
N14910  X276.4534  Y320.1720   
N14915  X276.4593  Y319.9375   
N14920  X276.8688  Y320.0191   
N14925  X281.9960  Y321.7330   
N14930  X282.1036  Y321.6194   
N14935  X282.0616  Y321.3462   
N14940  X282.0724  Y320.8413   
N14945  X282.3068  Y320.1704   
N14950  X282.5621  Y319.4832   
N14955  X282.1328  Y319.3004   
N14960  X281.8318  Y319.2120   
N14965  X281.6632  Y318.9907   
N14970  X281.5863  Y317.7642   
N14975  X281.5107  Y316.6104   
N14980  X281.2333  Y316.0850   
N14985  X281.0175  Y315.7432   
N14990  X281.0266  Y315.2003   
N14995  X281.2377  Y314.5766   
N15000  X281.6282  Y313.9923   
N15005  X281.8793  Y313.6195   
N15010  X281.8949  Y313.3755   
N15015  X281.6231  Y313.3497   
N15020  X281.0416  Y313.6056   
N15025  X278.5602  Y315.1723   
N15030  X276.4968  Y316.3559   
N15035  X276.4347  Y315.9436   
N15040  X276.6765  Y315.2749   
N15045  X277.1524  Y314.4904   
N15050  X277.7931  Y313.7311   
N15055  X278.7580  Y312.9390   
N15060  X279.9752  Y312.2147   
N15065  X281.3658  Y311.5986   
N15070  X282.8506  Y311.1315   
N15075  X283.5852  Y310.9098   
N15080  X284.2387  Y310.2522   
N15085  X287.2552  Y304.8408   
N15090  X289.7970  Y300.1695   
N15095  X291.3858  Y296.9786   
N15100  X292.1426  Y294.5017   
N15105  X292.6139  Y292.7755   
N15110  X293.0915  Y291.7559   
N15115  X293.8478  Y290.6801   
N15120  X294.6429  Y289.1617   
N15125  X295.2972  Y287.5842   
N15130  X295.6312  Y286.3310   
N15135  X295.6471  Y285.1565   
N15140  X295.3547  Y284.2226   
N15145  X295.0604  Y283.2893   
N15150  X295.2282  Y281.9925   
N15155  X295.3940  Y280.5907   
N15160  X295.4206  Y278.7541   
N15165  X295.1344  Y274.4877   
N15170  X294.5261  Y270.6169   
N15175  X294.1500  Y269.2747   
N15180  X293.7520  Y268.5651   
N15185  X291.5871  Y267.6666   
N15190  X291.5872   
N15195  X289.9477  Y267.2266   
N15200  X288.4109  Y267.0223   
N15205  X287.0930  Y267.0605   
N15210  X286.1102  Y267.3480   
N15215  X285.3098  Y267.9058   
N15220  X284.6103  Y268.6752   
N15225  X284.0091  Y269.6638   
N15230  X283.5037  Y270.8790   
N15235  X282.7697  Y274.0197   
N15240  X282.3875  Y278.1575   
N15245  X282.3743  Y281.1243   
N15250  X282.9195  Y283.4176   
N15255  X284.4988  Y287.4872   
N15260  X285.3005  Y289.0089   
N15265  X285.9862  Y289.9251   
N15270  X286.8475  Y290.3877   
N15275  X288.1325  Y290.7626   
N15280  X289.4557  Y290.9645   
N15285  X290.4317  Y290.9081   
N15290  X290.8177  Y290.8744   
N15295  X291.0696  Y291.0081   
N15300  X291.0442  Y291.1782   
N15305  X290.8056  Y291.3703   
N15310  X289.8605  Y291.7652   
N15315  X288.5783  Y292.0828   
N15320  X287.3027  Y292.2131   
N15325  X285.9658  Y292.0648   
N15330  X285.5224  Y291.7858   
N15335  X285.0240  Y291.2868   
N15340  X284.1978  Y290.0844   
N15345  X283.3456  Y288.3242   
N15350  X282.5530  Y286.2078   
N15355  X281.9055  Y283.9370   
N15360  X281.4644  Y282.3344   
N15365  X281.0207  Y281.3517   
N15370  X280.4878  Y280.8581   
N15375  X279.7791  Y280.7226   
N15380  X278.3788  Y281.0963   
N15385  X277.0243  Y281.9421   
N15390  X275.2312  Y284.5217   
N15395  X273.0393  Y288.1309   
N15400  X271.2835  Y291.8972   
N15405  X269.8337  Y295.8201   
N15410  X269.3573  Y298.5560   
N15415  X269.0159  Y304.1544   
N15420  X268.8088  Y307.8174   
N15425 G0  Z3.0000 
N15430  X271.2532  Y277.3673 
N15435  Z0.1000 
N15440 G1  Z-0.7000  F100.00 
N15445  X271.3922  Y274.6239   F300.00 
N15450  X271.6421  Y271.2667   
N15455  X271.6727  Y269.5307   
N15460  X271.4307  Y268.7920   
N15465  X270.8627  Y268.4263   
N15470  Y268.4262   
N15475  X270.1079  Y268.1899   
N15480  X269.1039  Y268.0408   
N15485  X268.1768  Y268.0093   
N15490  X267.6525  Y268.1260   
N15495  X266.1390  Y268.3947   
N15500  X263.4128  Y268.5383   
N15505  X261.6645  Y268.5518   
N15510  X261.4979  Y270.1459   
N15515  X261.2606  Y271.5030   
N15520  X260.9242  Y272.5273   
N15525  X260.5171  Y273.3145   
N15530  X261.7146  Y273.8963   
N15535  X262.5603  Y274.3920   
N15540  X262.9121  Y274.7669   
N15545  X261.5697  Y277.1616   
N15550  X259.6270  Y280.5246   
N15555  X257.9639  Y283.9820   
N15560  X256.7821  Y287.0692   
N15565  X256.2837  Y289.3216   
N15570  X256.2635  Y290.6146   
N15575  X256.3986  Y291.6624   
N15580  X256.7531  Y292.5183   
N15585  X257.3914  Y293.2358   
N15590  X258.3777  Y293.8683   
N15595  X259.7765  Y294.4691   
N15600  X264.0682  Y295.7897   
N15605  X266.7643  Y296.4139   
N15610  X267.2723  Y296.3564   
N15615  X267.4100  Y296.0684   
N15620  X268.1241  Y294.2416   
N15625  X269.8230  Y290.9283   
N15630  X271.8413  Y287.3601   
N15635  X273.5136  Y284.7688   
N15640  X274.5537  Y283.2475   
N15645  X273.9818  Y283.1039   
N15650  X272.4781  Y283.9084   
N15655  X269.8405  Y285.8429   
N15660  X266.9901  Y288.1892   
N15665  X264.8480  Y290.2286   
N15670  X264.2037  Y290.8404   
N15675  X263.8373  Y290.9965   
N15680  X263.7730  Y290.6943   
N15685  X263.9544  Y290.1829   
N15690  X265.0006  Y288.6019   
N15695  X266.8688  Y286.3930   
N15700  X269.4517  Y283.6959   
N15705  X271.1141  Y282.0389   
N15710  Y280.1107   
N15715  X271.2532  Y277.3673   
N15720 G0  Z0.1000 
N15725 G1  Z-1.4000  F100.00 
N15730  X271.3922  Y274.6239   F300.00 
N15735  X271.6421  Y271.2667   
N15740  X271.6727  Y269.5307   
N15745  X271.4307  Y268.7920   
N15750  X270.8627  Y268.4263   
N15755  Y268.4262   
N15760  X270.1079  Y268.1899   
N15765  X269.1039  Y268.0408   
N15770  X268.1768  Y268.0093   
N15775  X267.6525  Y268.1260   
N15780  X266.1390  Y268.3947   
N15785  X263.4128  Y268.5383   
N15790  X261.6645  Y268.5518   
N15795  X261.4979  Y270.1459   
N15800  X261.2606  Y271.5030   
N15805  X260.9242  Y272.5273   
N15810  X260.5171  Y273.3145   
N15815  X261.7146  Y273.8963   
N15820  X262.5603  Y274.3920   
N15825  X262.9121  Y274.7669   
N15830  X261.5697  Y277.1616   
N15835  X259.6270  Y280.5246   
N15840  X257.9639  Y283.9820   
N15845  X256.7821  Y287.0692   
N15850  X256.2837  Y289.3216   
N15855  X256.2635  Y290.6146   
N15860  X256.3986  Y291.6624   
N15865  X256.7531  Y292.5183   
N15870  X257.3914  Y293.2358   
N15875  X258.3777  Y293.8683   
N15880  X259.7765  Y294.4691   
N15885  X264.0682  Y295.7897   
N15890  X266.7643  Y296.4139   
N15895  X267.2723  Y296.3564   
N15900  X267.4100  Y296.0684   
N15905  X268.1241  Y294.2416   
N15910  X269.8230  Y290.9283   
N15915  X271.8413  Y287.3601   
N15920  X273.5136  Y284.7688   
N15925  X274.5537  Y283.2475   
N15930  X273.9818  Y283.1039   
N15935  X272.4781  Y283.9084   
N15940  X269.8405  Y285.8429   
N15945  X266.9901  Y288.1892   
N15950  X264.8480  Y290.2286   
N15955  X264.2037  Y290.8404   
N15960  X263.8373  Y290.9965   
N15965  X263.7730  Y290.6943   
N15970  X263.9544  Y290.1829   
N15975  X265.0006  Y288.6019   
N15980  X266.8688  Y286.3930   
N15985  X269.4517  Y283.6959   
N15990  X271.1141  Y282.0389   
N15995  Y280.1107   
N16000  X271.2532  Y277.3673   
N16005 G0  Z3.0000 
N16010  X298.1433  Y274.6845 
N16015  Z0.1000 
N16020 G1  Z-0.7000  F100.00 
N16025  X298.8762  Y273.3143   F300.00 
N16030  X299.4788  Y271.8376   
N16035  X299.6673  Y270.7280   
N16040  X299.4389  Y269.8313   
N16045  X298.7903  Y268.9935   
N16050  X298.0319  Y268.3587   
N16055  X297.3012  Y268.0165   
N16060  X296.5612  Y267.9568   
N16065  X295.7748  Y268.1696   
N16070  X294.9908  Y268.4992   
N16075  X295.6202  Y270.6722   
N16080  X296.0998  Y272.8560   
N16085  X296.2495  Y275.0640   
N16090  X296.3078  Y276.6311   
N16095  X296.4480  Y277.2825   
N16100  X296.8123  Y276.9459   
N16105  X297.4104  Y276.0547   
N16110  X298.1433  Y274.6845   
N16115 G0  Z0.1000 
N16120 G1  Z-1.4000  F100.00 
N16125  X298.8762  Y273.3143   F300.00 
N16130  X299.4788  Y271.8376   
N16135  X299.6673  Y270.7280   
N16140  X299.4389  Y269.8313   
N16145  X298.7903  Y268.9935   
N16150  X298.0319  Y268.3587   
N16155  X297.3012  Y268.0165   
