N5 (File Name = SOLO on Friday, November 10, 2023)
N10 (Default Mill Post)
N15  G91.1
N20 G0  Z3.0000 
N25 M3 S4000 
N30  X234.6098  Y495.8578 
N35  Z0.1000 
N40 G1  Z-0.7000  F100.00 
N45  X236.9199  Y488.2439   F300.00 
N50  X240.2037  Y481.6911   
N55  X242.0856  Y479.8110   
N60  X244.2841  Y478.6572   
N65  X250.1009  Y477.9176   
N70  X255.8551  Y478.5701   
N75  X259.9102  Y481.4815   
N80  X262.5299  Y485.0136   
N85  X263.5667  Y488.4918   
N90  X265.2768  Y496.2938   
N95  X266.7440  Y499.2411   
N100  X268.1550  Y500.3512   
N105  X273.0875  Y500.0466   
N110  X275.0667  Y499.7867   
N115  X276.2178  Y498.8844   
N120  X277.4233  Y492.8529   
N125  X279.0900  Y483.6869   
N130  X281.8789  Y477.9908   
N135  X283.8760  Y476.2296   
N140  X286.3713  Y475.0781   
N145  X293.1494  Y474.2597   
N150  X297.6118  Y474.7610   
N155  X300.9241  Y476.5927   
N160  X303.6272  Y480.2488   
N165  X306.2622  Y486.2227   
N170  X309.1952  Y493.9183   
N175  X313.4531  Y493.1225   
N180  X318.7607  Y491.6783   
N185  X319.2625  Y488.9812   
N190  X318.9943  Y483.4081   
N195  X319.1607  Y474.6772   
N200  X320.1593  Y471.2215   
N205  X321.7624  Y468.3811   
N210  X323.9656  Y466.1614   
N215  X326.7641  Y464.5684   
N220  X330.1529  Y463.6080   
N225  X334.1287  Y463.2869   
N230  X337.7373  Y463.6629   
N235  X340.6031  Y465.1365   
N240  X343.3629  Y468.2254   
N245  X346.6563  Y473.4463   
N250  X349.0585  Y477.0259   
N255  X351.2750  Y478.7360   
N260  X353.8440  Y478.7733   
N265  X357.3038  Y477.3342   
N270  X360.7893  Y475.5315   
N275  X359.0719  Y469.8253   
N280  X357.4328  Y459.8220   
N285  X357.4632  Y455.1660   
N290  X358.1143  Y451.7519   
N295  X360.1193  Y449.4971   
N300  X363.8376  Y447.3087   
N305  X368.2784  Y445.6540   
N310  X372.4520  Y444.9982   
N315  X374.8408  Y445.2397   
N320  X376.9440  Y446.2009   
N325  X382.4023  Y451.7044   
N330  X386.8528  Y456.4383   
N335  X389.5070  Y458.4037   
N340  X394.4216  Y455.5664   
N345  X397.9606  Y452.7348   
N350  X394.7266  Y445.6710   
N355  X391.9802  Y438.0100   
N360  X391.5853  Y431.9006   
N365  X393.5847  Y427.0492   
N370  X398.0223  Y423.1614   
N375  X402.5364  Y421.0416   
N380  X406.7072  Y420.7914   
N385  X411.1347  Y422.5130   
N390  X416.4193  Y426.3096   
N395  X423.3374  Y432.0048   
N400  X427.1064  Y428.2363   
N405  X430.8749  Y424.4673   
N410  X426.2953  Y417.5676   
N415  X422.0057  Y409.3472   
N420  X421.1329  Y405.7884   
N425  X421.1126  Y402.5636   
N430  X421.9490  Y399.6462   
N435  X423.6443  Y397.0113   
N440  X426.2027  Y394.6331   
N445  X429.6274  Y392.4852   
N450  X434.2332  Y390.0494   
N455  X439.9906  Y392.7442   
N460  X447.6580  Y396.3293   
N465  X451.5233  Y397.6495   
N470  X453.5122  Y396.8878   
N475  X455.5508  Y394.2285   
N480  X458.7986  Y389.9701   
N485  X453.9370  Y385.8090   
N490  X447.9972  Y379.3167   
N495  X446.2323  Y376.0721   
N500  X445.2752  Y372.8552   
N505  X445.1296  Y369.6867   
N510  X445.7991  Y366.5868   
N515  X447.2866  Y363.5754   
N520  X449.5966  Y360.6728   
N525  X452.7518  Y357.8586   
N530  X455.7780  Y356.6153   
N535  X459.4815  Y356.8190   
N540  X464.6702  Y358.3452   
N545  X470.4769  Y360.1963   
N550  X473.9035  Y360.5926   
N555  X475.9038  Y359.3931   
N560  X477.4319  Y356.4559   
N565  X479.2770  Y351.7814   
N570  X472.7491  Y347.0277   
N575  X467.4839  Y342.6362   
N580  X463.9914  Y338.3912   
N585  X462.4118  Y334.1186   
N590  X463.2260  Y329.3626   
N595  X465.3895  Y324.9475   
N600  X468.5631  Y321.2159   
N605  X472.5247  Y318.7261   
N610  X476.7711  Y318.7068   
N615  X486.1034  Y320.1874   
N620  X491.1013  Y320.9187   
N625  X492.4423  Y315.6355   
N630  X493.5404  Y310.3136   
N635  X485.0168  Y306.1520   
N640  X478.9843  Y302.6480   
N645  X475.3536  Y299.1228   
N650  X473.7883  Y295.0852   
N655  X473.9500  Y290.0430   
N660  X475.3306  Y285.5386   
N665  X477.5171  Y281.7881   
N670  X479.2843  Y280.0711   
N675  X481.4303  Y279.0154   
N680  X489.8364  Y277.9647   
N685  X499.3941  Y277.3551   
N690  X499.7660  Y272.2383   
N695  X499.8968  Y269.2646   
N700  X499.4305  Y267.6030   
N705  X497.9126  Y266.6578   
N710  X494.8892  Y265.8316   
N715  X485.8103  Y262.7105   
N720  X482.5238  Y260.7701   
N725  X480.0516  Y258.5517   
N730  X478.3775  Y256.0376   
N735  X477.4853  Y253.2096   
N740  X477.3595  Y250.0489   
N745  X477.9844  Y246.5380   
N750  X479.6175  Y242.3764   
N755  X482.1169  Y239.4539   
N760  X485.8159  Y237.5088   
N765  X491.0465  Y236.2803   
N770  X498.9770  Y234.5629   
N775  X499.7024  Y232.5243   
N780  X500.0037  Y228.5138   
N785  Y223.0993   
N790  X494.8219  Y223.0703   
N795  X489.3277  Y222.7145   
N800  X484.4611  Y221.7524   
N805  X480.4377  Y220.2428   
N810  X477.4738  Y218.2465   
N815  X475.2177  Y215.0061   
N820  X473.9680  Y210.8072   
N825  X473.8196  Y206.2452   
N830  X474.8675  Y201.9150   
N835  X476.0711  Y199.6768   
N840  X477.8498  Y197.9478   
N845  X485.2891  Y194.4798   
N850  X492.0373  Y191.4302   
N855  X493.2708  Y190.2708   
N860  X493.3989  Y189.1427   
N865  X492.0561  Y183.9858   
N870  X491.4368  Y182.1877   
N875  X489.9903  Y181.2628   
N880  X480.4589  Y180.9375   
N885  X472.7869  Y180.6624   
N890  X468.0498  Y179.2620   
N895  X465.2421  Y176.1331   
N900  X463.3587  Y170.6730   
N905  X462.5920  Y165.6105   
N910  X463.4564  Y161.6766   
N915  X466.2218  Y158.3325   
N920  X471.1566  Y155.0391   
N925  X478.6056  Y150.0462   
N930  X478.5604  Y147.9504   
N935  X477.5692  Y144.6248   
N940  X476.1803  Y141.5465   
N945  X474.9430  Y140.1922   
N950  X466.7268  Y142.1138   
N955  X460.2930  Y143.2631   
N960  X455.2964  Y143.2820   
N965  X451.3136  Y141.5705   
N970  X448.0313  Y138.3269   
N975  X445.7867  Y134.0123   
N980  X444.9167  Y129.0876   
N985  X445.0577  Y126.0831   
N990  X445.9222  Y123.7385   
N995  X451.8717  Y117.6623   
N1000  X458.8981  Y111.4275   
N1005  X455.9807  Y106.9185   
N1010  X453.5624  Y103.8901   
N1015  X451.8445  Y102.9403   
N1020  X440.6030  Y107.6328   
N1025  X433.9116  Y109.4249   
N1030  X431.5933  Y109.2852   
N1035  X429.5975  Y108.4839   
N1040  X425.4875  Y104.9780   
N1045  X421.7444  Y100.1285   
N1050  X420.5186  Y95.3457   
N1055  X421.8135  Y90.2768   
N1060  X425.6308  Y84.5679   
N1065  X430.5081  Y77.3479   
N1070  X426.9220  Y72.5942   
N1075  X423.3360  Y69.1584   
N1080  X418.4952  Y72.9928   
N1085  X411.4531  Y77.7036   
N1090  X405.5331  Y79.5349   
N1095  X402.8258  Y79.3828   
N1100  X400.1969  Y78.5252   
N1105  X394.9050  Y74.7148   
N1110  X391.8742  Y71.0168   
N1115  X390.7821  Y67.1409   
N1120  X391.6097  Y62.4480   
N1125  X394.3368  Y56.2976   
N1130  X398.6053  Y48.0491   
N1135  X394.6690  Y45.3515   
N1140  X389.9747  Y42.6540   
N1145  X383.0631  Y48.6482   
N1150  X378.0854  Y52.9065   
N1155  X373.7598  Y55.1543   
N1160  X369.6461  Y55.5285   
N1165  X365.3034  Y54.1664   
N1170  X360.1179  Y50.8131   
N1175  X357.1370  Y46.7128   
N1180  X356.3545  Y41.8512   
N1185  X357.7646  Y36.2141   
N1190  X359.8696  Y30.6803   
N1195  X360.3986  Y27.2657   
N1200  X359.2544  Y25.0847   
N1205  X356.3398  Y23.2511   
N1210  X351.6372  Y20.8517   
N1215  X346.6586  Y27.9108   
N1220  X342.0358  Y33.4069   
N1225  X337.9553  Y36.5132   
N1230  X333.8559  Y37.4436   
N1235  X329.5395  Y37.0943   
N1240  X325.3955  Y35.5524   
N1245  X321.8136  Y32.9046   
N1250  X319.6326  Y30.2213   
N1255  X318.6054  Y27.1763   
N1260  X318.6068  Y22.8792   
N1265  X319.5132  Y16.4408   
N1270  X319.7455  Y9.5254   
N1275  X314.4180  Y7.8734   
N1280  X309.8869  Y7.0407   
N1285  X306.8677  Y13.8676   
N1290  X302.7678  Y21.0544   
N1295  X298.0455  Y25.3916   
N1300  X295.4258  Y26.5063   
N1305  X292.6208  Y26.9256   
N1310  X286.4142  Y25.7021   
N1315  X282.3646  Y23.5930   
N1320  X279.8140  Y20.7576   
N1325  X278.4859  Y16.7067   
N1330  X278.1048  Y10.9498   
N1335  X277.7408  Y5.2353   
N1340  X276.4533  Y1.7981   
N1345  X273.9483  Y0.2521   
N1350  X269.9319  Y0.2111   
N1355  X268.1891  Y0.6705   
N1360  X266.9302  Y1.8778   
N1365  X264.5989  Y8.5001   
N1370  X262.2083  Y14.9312   
N1375  X259.0457  Y19.5056   
N1380  X255.0970  Y22.2378   
N1385  X250.3484  Y23.1419   
N1390  X246.0560  Y22.4788   
N1395  X242.0354  Y20.7466   
N1400  X238.9249  Y18.3172   
N1405  X237.3632  Y15.5643   
N1410  X234.0578  Y1.8437   
N1415  X232.5252  Y0.1995   
N1420  X230.1285  Y0.0000   
N1425  X224.9393  Y0.9142   
N1430  X223.5979  Y4.2049   
N1435  X222.2653  Y10.8576   
N1440  X220.7119  Y17.9776   
N1445  X218.2682  Y22.6230   
N1450  X214.5126  Y25.2925   
N1455  X209.0225  Y26.4832   
N1460  X203.8932  Y26.3201   
N1465  X199.9611  Y24.5063   
N1470  X196.8281  Y20.7272   
N1475  X194.0969  Y14.6680   
N1480  X192.3181  Y10.2406   
N1485  X190.6136  Y8.0241   
N1490  X188.1810  Y7.4854   
N1495  X184.2189  Y8.0904   
N1500  X180.2509  Y8.8840   
N1505  X181.0283  Y17.2500   
N1510  X181.1937  Y24.3778   
N1515  X180.1260  Y29.7232   
N1520  X177.7390  Y33.5179   
N1525  X173.9443  Y35.9925   
N1530  X167.8777  Y37.7873   
N1535  X162.9922  Y37.2680   
N1540  X158.6514  Y34.1861   
N1545  X154.2211  Y28.2937   
N1550  X149.5163  Y20.9968   
N1555  X145.0611  Y22.4373   
N1560  X140.1208  Y24.9782   
N1565  X140.0503  Y27.0076   
N1570  X141.0350  Y30.7254   
N1575  X142.2940  Y35.8943   
N1580  X142.7036  Y41.3033   
N1585  X142.2663  Y46.1266   
N1590  X140.9844  Y49.5394   
N1595  X138.5411  Y51.9139   
N1600  X135.0289  Y54.0069   
N1605  X131.1115  Y55.4977   
N1610  X127.4541  Y56.0658   
N1615  X125.5200  Y55.7050   
N1620  X123.3763  Y54.4972   
N1625  X117.4172  Y48.7832   
N1630  X110.7460  Y41.5001   
N1635  X106.9462  Y44.1207   
N1640  X102.6634  Y47.1109   
N1645  X105.4066  Y54.6687   
N1650  X107.6848  Y61.1859   
N1655  X108.6327  Y66.7598   
N1660  X107.8401  Y71.4288   
N1665  X104.4559  Y75.3305   
N1670  X100.5621  Y78.1128   
N1675  X96.7130  Y79.7141   
N1680  X93.2288  Y80.0501   
N1685  X90.4294  Y79.0358   
N1690  X82.4311  Y73.2904   
N1695  X76.6686  Y69.1786   
N1700  X73.0485  Y72.7983   
N1705  X69.4289  Y76.4184   
N1710  X74.4001  Y84.1098   
N1715  X78.1262  Y90.7800   
N1720  X79.4022  Y95.9706   
N1725  X78.2363  Y100.4478   
N1730  X74.6379  Y104.9780   
N1735  X70.5380  Y108.3226   
N1740  X66.5562  Y109.5921   
N1745  X61.9799  Y108.8290   
N1750  X56.0958  Y106.0762   
N1755  X48.2809  Y102.4335   
N1760  X46.6409  Y103.6316   
N1765  X44.4106  Y106.5213   
N1770  X41.7595  Y110.6156   
N1775  X46.6893  Y115.3454   
N1780  X50.5942  Y119.7493   
N1785  X53.4627  Y124.3325   
N1790  X55.0880  Y128.6830   
N1795  X55.2617  Y132.3884   
N1800  X53.6853  Y135.7989   
N1805  X50.7227  Y139.6628   
N1810  X47.3455  Y142.4594   
N1815  X43.7378  Y143.7561   
N1820  X39.6121  Y143.5962   
N1825  X34.6815  Y142.0212   
N1830  X30.0033  Y140.4323   
N1835  X26.6611  Y140.2895   
N1840  X24.2875  Y141.6719   
N1845  X22.5147  Y144.6598   
N1850  X21.3157  Y148.4486   
N1855  X22.2723  Y150.0462   
N1860  X30.9139  Y156.3256   
N1865  X34.2548  Y159.7167   
N1870  X36.3169  Y162.7116   
N1875  X37.6795  Y167.0929   
N1880  X36.1607  Y172.4821   
N1885  X33.7248  Y177.4446   
N1890  X30.5632  Y180.2458   
N1895  X25.8114  Y181.3080   
N1900  X18.6043  Y181.0536   
N1905  X9.0093  Y180.2039   
N1910  X7.7430  Y185.1917   
N1915  X6.4771  Y190.1795   
N1920  X14.2091  Y193.8697   
N1925  X19.4886  Y196.8073   
N1930  X23.5018  Y199.9141   
N1935  X26.0505  Y203.0039   
N1940  X26.9376  Y205.8899   
N1945  X25.3860  Y213.0735   
N1950  X22.0290  Y219.2027   
N1955  X18.8075  Y221.3081   
N1960  X13.6381  Y221.8805   
N1965  X3.9316  Y222.6422   
N1970  X1.8409  Y223.1910   
N1975  X0.6977  Y224.0661   
N1980  X0.1217  Y228.5438   
N1985  Y233.6832   
N1990  X6.9960  Y235.3324   
N1995  X15.2547  Y238.2521   
N2000  X18.2398  Y240.1571   
N2005  X20.4752  Y242.3750   
N2010  X21.9705  Y244.9187   
N2015  X22.7354  Y247.8006   
N2020  X22.1134  Y254.6289   
N2025  X20.5858  Y258.6213   
N2030  X18.1767  Y261.3152   
N2035  X14.2805  Y263.1456   
N2040  X8.2904  Y264.5464   
N2045  X0.0000  Y266.0712   
N2050  X0.3659  Y271.7134   
N2055  X0.7313  Y277.3551   
N2060  X8.6563  Y278.0564   
N2065  X17.1753  Y279.4748   
N2070  X20.2231  Y280.6642   
N2075  X22.5599  Y282.2618   
N2080  X24.2580  Y284.3331   
N2085  X25.3902  Y286.9445   
N2090  X26.2464  Y294.0507   
N2095  X25.5856  Y298.1008   
N2100  X23.4409  Y301.4370   
N2105  X19.6660  Y304.2102   
N2110  X14.1151  Y306.5714   
N2115  X6.8343  Y309.6528   
N2120  X7.5785  Y315.2245   
N2125  X8.7973  Y320.0279   
N2130  X19.0600  Y319.5994   
N2135  X28.3951  Y319.7091   
N2140  X30.6397  Y320.7030   
N2145  X32.8217  Y322.6698   
N2150  X35.4971  Y326.3009   
N2155  X37.0680  Y330.4888   
N2160  X37.4228  Y334.7481   
N2165  X36.4519  Y338.5926   
N2170  X34.0806  Y341.7132   
N2175  X30.6024  Y344.5956   
N2180  X24.8690  Y348.3673   
N2185  X22.0889  Y350.8985   
N2190  X21.5705  Y353.2049   
N2195  X22.6216  Y356.2997   
N2200  X24.8271  Y360.8575   
N2205  X31.8212  Y359.0429   
N2210  X41.4545  Y357.3162   
N2215  X44.9571  Y357.5586   
N2220  X47.9957  Y358.5254   
N2225  X50.3357  Y360.3290   
N2230  X52.5457  Y363.2533   
N2235  X54.2489  Y366.6868   
N2240  X55.0682  Y370.0161   
N2245  X55.0949  Y373.5906   
N2250  X54.2157  Y376.4785   
N2255  X52.0167  Y379.4697   
N2260  X48.0841  Y383.3552   
N2265  X41.1812  Y389.7794   
N2270  X44.4327  Y394.0428   
N2275  X47.6846  Y398.3057   
N2280  X53.8664  Y395.3469   
N2285  X61.8527  Y392.2765   
N2290  X68.1137  Y391.6857   
N2295  X70.7159  Y392.3346   
N2300  X73.0282  Y393.6202   
N2305  X76.9742  Y398.1256   
N2310  X78.9547  Y402.4668   
N2315  X79.2354  Y406.6303   
N2320  X77.7654  Y410.9803   
N2325  X74.4941  Y415.8824   
N2330  X69.6173  Y423.5590   
N2335  X70.4302  Y425.3212   
N2340  X72.3393  Y427.5842   
N2345  X74.5521  Y429.5367   
N2350  X76.2756  Y430.3680   
N2355  X83.7421  Y426.0847   
N2360  X89.6593  Y422.5872   
N2365  X94.2854  Y421.0541   
N2370  X98.3276  Y421.3868   
N2375  X102.4929  Y423.4885   
N2380  X106.4937  Y427.0280   
N2385  X108.7060  Y431.3513   
N2390  X109.3645  Y434.0862   
N2395  X109.2986  Y436.4069   
N2400  X106.3222  Y443.1246   
N2405  X102.5362  Y451.7929   
N2410  X103.6412  Y453.6914   
N2415  X106.2978  Y456.0452   
N2420  X110.0589  Y458.7235   
N2425  X115.7467  Y453.2214   
N2430  X121.6368  Y448.0571   
N2435  X126.3610  Y445.4770   
N2440  X130.8023  Y445.2051   
N2445  X135.8436  Y446.9673   
N2450  X138.8960  Y448.9958   
N2455  X141.4986  Y451.7648   
N2460  X143.3105  Y454.8236   
N2465  X143.9902  Y457.7221   
N2470  X141.5180  Y467.0448   
N2475  X139.9660  Y472.5418   
N2480  X139.7061  Y475.4518   
N2485  X141.7134  Y476.8895   
N2490  X145.0132  Y478.0766   
N2495  X148.1827  Y478.6304   
N2500  X149.7992  Y478.1683   
N2505  X151.9000  Y474.5228   
N2510  X155.5584  Y470.0949   
N2515  X159.6591  Y466.0950   
N2520  X163.0871  Y463.7348   
N2525  X167.4395  Y462.6574   
N2530  X172.5862  Y464.3559   
N2535  X177.3003  Y466.9978   
N2540  X180.1260  Y470.1617   
N2545  X181.3287  Y474.3292   
N2550  X181.1725  Y479.9838   
N2555  X179.7984  Y489.1217   
N2560  X180.3730  Y491.0115   
N2565  X183.8609  Y492.4676   
N2570  X189.3376  Y493.7607   
N2575  X193.4964  Y486.3863   
N2580  X196.7216  Y480.4764   
N2585  X199.8252  Y476.6328   
N2590  X202.1822  Y475.3025   
N2595  X204.9863  Y474.5477   
N2600  X211.1911  Y474.6357   
N2605  X216.9480  Y476.6361   
N2610  X219.1921  Y478.2719   
N2615  X220.7653  Y480.2884   
N2620  X221.6519  Y484.3076   
N2625  X222.0206  Y490.6774   
N2630  X222.1219  Y495.6094   
N2635  X222.8795  Y498.2453   
N2640  X224.9721  Y499.5139   
N2645  X229.0774  Y500.3466   
N2650  X232.1768  Y500.4857   
N2655  X233.4933  Y499.5374   
N2660  X234.6098  Y495.8578   
N2665 G0  Z0.1000 
N2670 G1  Z-1.4000  F100.00 
N2675  X236.9199  Y488.2439   F300.00 
N2680  X240.2037  Y481.6911   
N2685  X242.0856  Y479.8110   
N2690  X244.2841  Y478.6572   
N2695  X250.1009  Y477.9176   
N2700  X255.8551  Y478.5701   
N2705  X259.9102  Y481.4815   
N2710  X262.5299  Y485.0136   
N2715  X263.5667  Y488.4918   
N2720  X265.2768  Y496.2938   
N2725  X266.7440  Y499.2411   
N2730  X268.1550  Y500.3512   
N2735  X273.0875  Y500.0466   
N2740  X275.0667  Y499.7867   
N2745  X276.2178  Y498.8844   
N2750  X277.4233  Y492.8529   
N2755  X279.0900  Y483.6869   
N2760  X281.8789  Y477.9908   
N2765  X283.8760  Y476.2296   
N2770  X286.3713  Y475.0781   
N2775  X293.1494  Y474.2597   
N2780  X297.6118  Y474.7610   
N2785  X300.9241  Y476.5927   
N2790  X303.6272  Y480.2488   
N2795  X306.2622  Y486.2227   
N2800  X309.1952  Y493.9183   
N2805  X313.4531  Y493.1225   
N2810  X318.7607  Y491.6783   
N2815  X319.2625  Y488.9812   
N2820  X318.9943  Y483.4081   
N2825  X319.1607  Y474.6772   
N2830  X320.1593  Y471.2215   
N2835  X321.7624  Y468.3811   
N2840  X323.9656  Y466.1614   
N2845  X326.7641  Y464.5684   
N2850  X330.1529  Y463.6080   
N2855  X334.1287  Y463.2869   
N2860  X337.7373  Y463.6629   
N2865  X340.6031  Y465.1365   
N2870  X343.3629  Y468.2254   
N2875  X346.6563  Y473.4463   
N2880  X349.0585  Y477.0259   
N2885  X351.2750  Y478.7360   
N2890  X353.8440  Y478.7733   
N2895  X357.3038  Y477.3342   
N2900  X360.7893  Y475.5315   
N2905  X359.0719  Y469.8253   
N2910  X357.4328  Y459.8220   
N2915  X357.4632  Y455.1660   
N2920  X358.1143  Y451.7519   
N2925  X360.1193  Y449.4971   
N2930  X363.8376  Y447.3087   
N2935  X368.2784  Y445.6540   
N2940  X372.4520  Y444.9982   
N2945  X374.8408  Y445.2397   
N2950  X376.9440  Y446.2009   
N2955  X382.4023  Y451.7044   
N2960  X386.8528  Y456.4383   
N2965  X389.5070  Y458.4037   
N2970  X394.4216  Y455.5664   
N2975  X397.9606  Y452.7348   
N2980  X394.7266  Y445.6710   
N2985  X391.9802  Y438.0100   
N2990  X391.5853  Y431.9006   
N2995  X393.5847  Y427.0492   
N3000  X398.0223  Y423.1614   
N3005  X402.5364  Y421.0416   
N3010  X406.7072  Y420.7914   
N3015  X411.1347  Y422.5130   
N3020  X416.4193  Y426.3096   
N3025  X423.3374  Y432.0048   
N3030  X427.1064  Y428.2363   
N3035  X430.8749  Y424.4673   
N3040  X426.2953  Y417.5676   
N3045  X422.0057  Y409.3472   
N3050  X421.1329  Y405.7884   
N3055  X421.1126  Y402.5636   
N3060  X421.9490  Y399.6462   
N3065  X423.6443  Y397.0113   
N3070  X426.2027  Y394.6331   
N3075  X429.6274  Y392.4852   
N3080  X434.2332  Y390.0494   
N3085  X439.9906  Y392.7442   
N3090  X447.6580  Y396.3293   
N3095  X451.5233  Y397.6495   
N3100  X453.5122  Y396.8878   
N3105  X455.5508  Y394.2285   
N3110  X458.7986  Y389.9701   
N3115  X453.9370  Y385.8090   
N3120  X447.9972  Y379.3167   
N3125  X446.2323  Y376.0721   
N3130  X445.2752  Y372.8552   
N3135  X445.1296  Y369.6867   
N3140  X445.7991  Y366.5868   
N3145  X447.2866  Y363.5754   
N3150  X449.5966  Y360.6728   
N3155  X452.7518  Y357.8586   
N3160  X455.7780  Y356.6153   
N3165  X459.4815  Y356.8190   
N3170  X464.6702  Y358.3452   
N3175  X470.4769  Y360.1963   
N3180  X473.9035  Y360.5926   
N3185  X475.9038  Y359.3931   
N3190  X477.4319  Y356.4559   
N3195  X479.2770  Y351.7814   
N3200  X472.7491  Y347.0277   
N3205  X467.4839  Y342.6362   
N3210  X463.9914  Y338.3912   
N3215  X462.4118  Y334.1186   
N3220  X463.2260  Y329.3626   
N3225  X465.3895  Y324.9475   
N3230  X468.5631  Y321.2159   
N3235  X472.5247  Y318.7261   
N3240  X476.7711  Y318.7068   
N3245  X486.1034  Y320.1874   
N3250  X491.1013  Y320.9187   
N3255  X492.4423  Y315.6355   
N3260  X493.5404  Y310.3136   
N3265  X485.0168  Y306.1520   
N3270  X478.9843  Y302.6480   
N3275  X475.3536  Y299.1228   
N3280  X473.7883  Y295.0852   
N3285  X473.9500  Y290.0430   
N3290  X475.3306  Y285.5386   
N3295  X477.5171  Y281.7881   
N3300  X479.2843  Y280.0711   
N3305  X481.4303  Y279.0154   
N3310  X489.8364  Y277.9647   
N3315  X499.3941  Y277.3551   
N3320  X499.7660  Y272.2383   
N3325  X499.8968  Y269.2646   
N3330  X499.4305  Y267.6030   
N3335  X497.9126  Y266.6578   
N3340  X494.8892  Y265.8316   
N3345  X485.8103  Y262.7105   
N3350  X482.5238  Y260.7701   
N3355  X480.0516  Y258.5517   
N3360  X478.3775  Y256.0376   
N3365  X477.4853  Y253.2096   
N3370  X477.3595  Y250.0489   
N3375  X477.9844  Y246.5380   
N3380  X479.6175  Y242.3764   
N3385  X482.1169  Y239.4539   
N3390  X485.8159  Y237.5088   
N3395  X491.0465  Y236.2803   
N3400  X498.9770  Y234.5629   
N3405  X499.7024  Y232.5243   
N3410  X500.0037  Y228.5138   
N3415  Y223.0993   
N3420  X494.8219  Y223.0703   
N3425  X489.3277  Y222.7145   
N3430  X484.4611  Y221.7524   
N3435  X480.4377  Y220.2428   
N3440  X477.4738  Y218.2465   
N3445  X475.2177  Y215.0061   
N3450  X473.9680  Y210.8072   
N3455  X473.8196  Y206.2452   
N3460  X474.8675  Y201.9150   
N3465  X476.0711  Y199.6768   
N3470  X477.8498  Y197.9478   
N3475  X485.2891  Y194.4798   
N3480  X492.0373  Y191.4302   
N3485  X493.2708  Y190.2708   
N3490  X493.3989  Y189.1427   
N3495  X492.0561  Y183.9858   
N3500  X491.4368  Y182.1877   
N3505  X489.9903  Y181.2628   
N3510  X480.4589  Y180.9375   
N3515  X472.7869  Y180.6624   
N3520  X468.0498  Y179.2620   
N3525  X465.2421  Y176.1331   
N3530  X463.3587  Y170.6730   
N3535  X462.5920  Y165.6105   
N3540  X463.4564  Y161.6766   
N3545  X466.2218  Y158.3325   
N3550  X471.1566  Y155.0391   
N3555  X478.6056  Y150.0462   
N3560  X478.5604  Y147.9504   
N3565  X477.5692  Y144.6248   
N3570  X476.1803  Y141.5465   
N3575  X474.9430  Y140.1922   
N3580  X466.7268  Y142.1138   
N3585  X460.2930  Y143.2631   
N3590  X455.2964  Y143.2820   
N3595  X451.3136  Y141.5705   
N3600  X448.0313  Y138.3269   
N3605  X445.7867  Y134.0123   
N3610  X444.9167  Y129.0876   
N3615  X445.0577  Y126.0831   
N3620  X445.9222  Y123.7385   
N3625  X451.8717  Y117.6623   
N3630  X458.8981  Y111.4275   
N3635  X455.9807  Y106.9185   
N3640  X453.5624  Y103.8901   
N3645  X451.8445  Y102.9403   
N3650  X440.6030  Y107.6328   
N3655  X433.9116  Y109.4249   
N3660  X431.5933  Y109.2852   
N3665  X429.5975  Y108.4839   
N3670  X425.4875  Y104.9780   
N3675  X421.7444  Y100.1285   
N3680  X420.5186  Y95.3457   
N3685  X421.8135  Y90.2768   
N3690  X425.6308  Y84.5679   
N3695  X430.5081  Y77.3479   
N3700  X426.9220  Y72.5942   
N3705  X423.3360  Y69.1584   
N3710  X418.4952  Y72.9928   
N3715  X411.4531  Y77.7036   
N3720  X405.5331  Y79.5349   
N3725  X402.8258  Y79.3828   
N3730  X400.1969  Y78.5252   
N3735  X394.9050  Y74.7148   
N3740  X391.8742  Y71.0168   
N3745  X390.7821  Y67.1409   
N3750  X391.6097  Y62.4480   
N3755  X394.3368  Y56.2976   
N3760  X398.6053  Y48.0491   
N3765  X394.6690  Y45.3515   
N3770  X389.9747  Y42.6540   
N3775  X383.0631  Y48.6482   
N3780  X378.0854  Y52.9065   
N3785  X373.7598  Y55.1543   
N3790  X369.6461  Y55.5285   
N3795  X365.3034  Y54.1664   
N3800  X360.1179  Y50.8131   
N3805  X357.1370  Y46.7128   
N3810  X356.3545  Y41.8512   
N3815  X357.7646  Y36.2141   
N3820  X359.8696  Y30.6803   
N3825  X360.3986  Y27.2657   
N3830  X359.2544  Y25.0847   
N3835  X356.3398  Y23.2511   
N3840  X351.6372  Y20.8517   
N3845  X346.6586  Y27.9108   
N3850  X342.0358  Y33.4069   
N3855  X337.9553  Y36.5132   
N3860  X333.8559  Y37.4436   
N3865  X329.5395  Y37.0943   
N3870  X325.3955  Y35.5524   
N3875  X321.8136  Y32.9046   
N3880  X319.6326  Y30.2213   
N3885  X318.6054  Y27.1763   
N3890  X318.6068  Y22.8792   
N3895  X319.5132  Y16.4408   
N3900  X319.7455  Y9.5254   
N3905  X314.4180  Y7.8734   
N3910  X309.8869  Y7.0407   
N3915  X306.8677  Y13.8676   
N3920  X302.7678  Y21.0544   
N3925  X298.0455  Y25.3916   
N3930  X295.4258  Y26.5063   
N3935  X292.6208  Y26.9256   
N3940  X286.4142  Y25.7021   
N3945  X282.3646  Y23.5930   
N3950  X279.8140  Y20.7576   
N3955  X278.4859  Y16.7067   
N3960  X278.1048  Y10.9498   
N3965  X277.7408  Y5.2353   
N3970  X276.4533  Y1.7981   
N3975  X273.9483  Y0.2521   
N3980  X269.9319  Y0.2111   
N3985  X268.1891  Y0.6705   
N3990  X266.9302  Y1.8778   
N3995  X264.5989  Y8.5001   
N4000  X262.2083  Y14.9312   
N4005  X259.0457  Y19.5056   
N4010  X255.0970  Y22.2378   
N4015  X250.3484  Y23.1419   
N4020  X246.0560  Y22.4788   
N4025  X242.0354  Y20.7466   
N4030  X238.9249  Y18.3172   
N4035  X237.3632  Y15.5643   
N4040  X234.0578  Y1.8437   
N4045  X232.5252  Y0.1995   
N4050  X230.1285  Y0.0000   
N4055  X224.9393  Y0.9142   
N4060  X223.5979  Y4.2049   
N4065  X222.2653  Y10.8576   
N4070  X220.7119  Y17.9776   
N4075  X218.2682  Y22.6230   
N4080  X214.5126  Y25.2925   
N4085  X209.0225  Y26.4832   
N4090  X203.8932  Y26.3201   
N4095  X199.9611  Y24.5063   
N4100  X196.8281  Y20.7272   
N4105  X194.0969  Y14.6680   
N4110  X192.3181  Y10.2406   
N4115  X190.6136  Y8.0241   
N4120  X188.1810  Y7.4854   
N4125  X184.2189  Y8.0904   
N4130  X180.2509  Y8.8840   
N4135  X181.0283  Y17.2500   
N4140  X181.1937  Y24.3778   
N4145  X180.1260  Y29.7232   
N4150  X177.7390  Y33.5179   
N4155  X173.9443  Y35.9925   
N4160  X167.8777  Y37.7873   
N4165  X162.9922  Y37.2680   
N4170  X158.6514  Y34.1861   
N4175  X154.2211  Y28.2937   
N4180  X149.5163  Y20.9968   
N4185  X145.0611  Y22.4373   
N4190  X140.1208  Y24.9782   
N4195  X140.0503  Y27.0076   
N4200  X141.0350  Y30.7254   
N4205  X142.2940  Y35.8943   
N4210  X142.7036  Y41.3033   
N4215  X142.2663  Y46.1266   
N4220  X140.9844  Y49.5394   
N4225  X138.5411  Y51.9139   
N4230  X135.0289  Y54.0069   
N4235  X131.1115  Y55.4977   
N4240  X127.4541  Y56.0658   
N4245  X125.5200  Y55.7050   
N4250  X123.3763  Y54.4972   
N4255  X117.4172  Y48.7832   
N4260  X110.7460  Y41.5001   
N4265  X106.9462  Y44.1207   
N4270  X102.6634  Y47.1109   
N4275  X105.4066  Y54.6687   
N4280  X107.6848  Y61.1859   
N4285  X108.6327  Y66.7598   
N4290  X107.8401  Y71.4288   
N4295  X104.4559  Y75.3305   
N4300  X100.5621  Y78.1128   
N4305  X96.7130  Y79.7141   
N4310  X93.2288  Y80.0501   
N4315  X90.4294  Y79.0358   
N4320  X82.4311  Y73.2904   
N4325  X76.6686  Y69.1786   
N4330  X73.0485  Y72.7983   
N4335  X69.4289  Y76.4184   
N4340  X74.4001  Y84.1098   
N4345  X78.1262  Y90.7800   
N4350  X79.4022  Y95.9706   
N4355  X78.2363  Y100.4478   
N4360  X74.6379  Y104.9780   
N4365  X70.5380  Y108.3226   
N4370  X66.5562  Y109.5921   
N4375  X61.9799  Y108.8290   
N4380  X56.0958  Y106.0762   
N4385  X48.2809  Y102.4335   
N4390  X46.6409  Y103.6316   
N4395  X44.4106  Y106.5213   
N4400  X41.7595  Y110.6156   
N4405  X46.6893  Y115.3454   
N4410  X50.5942  Y119.7493   
N4415  X53.4627  Y124.3325   
N4420  X55.0880  Y128.6830   
N4425  X55.2617  Y132.3884   
N4430  X53.6853  Y135.7989   
N4435  X50.7227  Y139.6628   
N4440  X47.3455  Y142.4594   
N4445  X43.7378  Y143.7561   
N4450  X39.6121  Y143.5962   
N4455  X34.6815  Y142.0212   
N4460  X30.0033  Y140.4323   
N4465  X26.6611  Y140.2895   
N4470  X24.2875  Y141.6719   
N4475  X22.5147  Y144.6598   
N4480  X21.3157  Y148.4486   
N4485  X22.2723  Y150.0462   
N4490  X30.9139  Y156.3256   
N4495  X34.2548  Y159.7167   
N4500  X36.3169  Y162.7116   
N4505  X37.6795  Y167.0929   
N4510  X36.1607  Y172.4821   
N4515  X33.7248  Y177.4446   
N4520  X30.5632  Y180.2458   
N4525  X25.8114  Y181.3080   
N4530  X18.6043  Y181.0536   
N4535  X9.0093  Y180.2039   
N4540  X7.7430  Y185.1917   
N4545  X6.4771  Y190.1795   
N4550  X14.2091  Y193.8697   
N4555  X19.4886  Y196.8073   
N4560  X23.5018  Y199.9141   
N4565  X26.0505  Y203.0039   
N4570  X26.9376  Y205.8899   
N4575  X25.3860  Y213.0735   
N4580  X22.0290  Y219.2027   
N4585  X18.8075  Y221.3081   
N4590  X13.6381  Y221.8805   
N4595  X3.9316  Y222.6422   
N4600  X1.8409  Y223.1910   
N4605  X0.6977  Y224.0661   
N4610  X0.1217  Y228.5438   
N4615  Y233.6832   
N4620  X6.9960  Y235.3324   
N4625  X15.2547  Y238.2521   
N4630  X18.2398  Y240.1571   
N4635  X20.4752  Y242.3750   
N4640  X21.9705  Y244.9187   
N4645  X22.7354  Y247.8006   
N4650  X22.1134  Y254.6289   
N4655  X20.5858  Y258.6213   
N4660  X18.1767  Y261.3152   
N4665  X14.2805  Y263.1456   
N4670  X8.2904  Y264.5464   
N4675  X0.0000  Y266.0712   
N4680  X0.3659  Y271.7134   
N4685  X0.7313  Y277.3551   
N4690  X8.6563  Y278.0564   
N4695  X17.1753  Y279.4748   
N4700  X20.2231  Y280.6642   
N4705  X22.5599  Y282.2618   
N4710  X24.2580  Y284.3331   
N4715  X25.3902  Y286.9445   
N4720  X26.2464  Y294.0507   
N4725  X25.5856  Y298.1008   
N4730  X23.4409  Y301.4370   
N4735  X19.6660  Y304.2102   
N4740  X14.1151  Y306.5714   
N4745  X6.8343  Y309.6528   
N4750  X7.5785  Y315.2245   
N4755  X8.7973  Y320.0279   
N4760  X19.0600  Y319.5994   
N4765  X28.3951  Y319.7091   
N4770  X30.6397  Y320.7030   
N4775  X32.8217  Y322.6698   
N4780  X35.4971  Y326.3009   
N4785  X37.0680  Y330.4888   
N4790  X37.4228  Y334.7481   
N4795  X36.4519  Y338.5926   
N4800  X34.0806  Y341.7132   
N4805  X30.6024  Y344.5956   
N4810  X24.8690  Y348.3673   
N4815  X22.0889  Y350.8985   
N4820  X21.5705  Y353.2049   
N4825  X22.6216  Y356.2997   
N4830  X24.8271  Y360.8575   
N4835  X31.8212  Y359.0429   
N4840  X41.4545  Y357.3162   
N4845  X44.9571  Y357.5586   
N4850  X47.9957  Y358.5254   
N4855  X50.3357  Y360.3290   
N4860  X52.5457  Y363.2533   
N4865  X54.2489  Y366.6868   
N4870  X55.0682  Y370.0161   
N4875  X55.0949  Y373.5906   
N4880  X54.2157  Y376.4785   
N4885  X52.0167  Y379.4697   
N4890  X48.0841  Y383.3552   
N4895  X41.1812  Y389.7794   
N4900  X44.4327  Y394.0428   
N4905  X47.6846  Y398.3057   
N4910  X53.8664  Y395.3469   
N4915  X61.8527  Y392.2765   
N4920  X68.1137  Y391.6857   
N4925  X70.7159  Y392.3346   
N4930  X73.0282  Y393.6202   
N4935  X76.9742  Y398.1256   
N4940  X78.9547  Y402.4668   
N4945  X79.2354  Y406.6303   
N4950  X77.7654  Y410.9803   
N4955  X74.4941  Y415.8824   
N4960  X69.6173  Y423.5590   
N4965  X70.4302  Y425.3212   
N4970  X72.3393  Y427.5842   
N4975  X74.5521  Y429.5367   
N4980  X76.2756  Y430.3680   
N4985  X83.7421  Y426.0847   
N4990  X89.6593  Y422.5872   
N4995  X94.2854  Y421.0541   
N5000  X98.3276  Y421.3868   
N5005  X102.4929  Y423.4885   
N5010  X106.4937  Y427.0280   
N5015  X108.7060  Y431.3513   
N5020  X109.3645  Y434.0862   
N5025  X109.2986  Y436.4069   
N5030  X106.3222  Y443.1246   
N5035  X102.5362  Y451.7929   
N5040  X103.6412  Y453.6914   
N5045  X106.2978  Y456.0452   
N5050  X110.0589  Y458.7235   
N5055  X115.7467  Y453.2214   
N5060  X121.6368  Y448.0571   
N5065  X126.3610  Y445.4770   
N5070  X130.8023  Y445.2051   
N5075  X135.8436  Y446.9673   
N5080  X138.8960  Y448.9958   
N5085  X141.4986  Y451.7648   
N5090  X143.3105  Y454.8236   
N5095  X143.9902  Y457.7221   
N5100  X141.5180  Y467.0448   
N5105  X139.9660  Y472.5418   
N5110  X139.7061  Y475.4518   
N5115  X141.7134  Y476.8895   
N5120  X145.0132  Y478.0766   
N5125  X148.1827  Y478.6304   
N5130  X149.7992  Y478.1683   
N5135  X151.9000  Y474.5228   
N5140  X155.5584  Y470.0949   
N5145  X159.6591  Y466.0950   
N5150  X163.0871  Y463.7348   
N5155  X167.4395  Y462.6574   
N5160  X172.5862  Y464.3559   
N5165  X177.3003  Y466.9978   
N5170  X180.1260  Y470.1617   
N5175  X181.3287  Y474.3292   
N5180  X181.1725  Y479.9838   
N5185  X179.7984  Y489.1217   
N5190  X180.3730  Y491.0115   
N5195  X183.8609  Y492.4676   
N5200  X189.3376  Y493.7607   
N5205  X193.4964  Y486.3863   
N5210  X196.7216  Y480.4764   
N5215  X199.8252  Y476.6328   
N5220  X202.1822  Y475.3025   
N5225  X204.9863  Y474.5477   
N5230  X211.1911  Y474.6357   
N5235  X216.9480  Y476.6361   
N5240  X219.1921  Y478.2719   
N5245  X220.7653  Y480.2884   
N5250  X221.6519  Y484.3076   
N5255  X222.0206  Y490.6774   
N5260  X222.1219  Y495.6094   
N5265  X222.8795  Y498.2453   
N5270  X224.9721  Y499.5139   
N5275  X229.0774  Y500.3466   
N5280  X232.1768  Y500.4857   
N5285  X233.4933  Y499.5374   
N5290  X234.6098  Y495.8578   
N5295 G0  Z3.0000 
N5300  X276.4925  Y43.9138 
N5305  Z0.1000 
N5310 G1  Z-0.7000  F100.00 
N5315  X263.8893  Y43.0042   F300.00 
N5320  X247.8858  Y42.8286   
N5325  X231.9183  Y43.3493   
N5330  X219.4230  Y44.5299   
N5335  X206.0696  Y47.0376   
N5340  X193.0347  Y50.3380   
N5345  X180.3454  Y54.4101   
N5350  X168.0284  Y59.2344   
N5355  X156.1104  Y64.7894   
N5360  X144.6183  Y71.0546   
N5365  X133.5787  Y78.0096   
N5370  X123.0183  Y85.6337   
N5375  X112.9643  Y93.9062   
N5380  X103.4426  Y102.8063   
N5385  X94.4808  Y112.3137   
N5390  X86.1056  Y122.4073   
N5395  X78.3432  Y133.0672   
N5400  X71.2210  Y144.2718   
N5405  X64.7650  Y156.0012   
N5410  X59.0026  Y168.2344   
N5415  X51.1107  Y189.6381   
N5420  X45.6718  Y211.6146   
N5425  X42.6793  Y233.9565   
N5430  X42.1273  Y256.4578   
N5435  X44.0097  Y278.9112   
N5440  X48.3205  Y301.1108   
N5445  X55.0534  Y322.8490   
N5450  X64.2019  Y343.9191   
N5455  X73.0250  Y359.7216   
N5460  X83.1066  Y374.5183   
N5465  X94.3495  Y388.2651   
N5470  X106.6582  Y400.9190   
N5475  X119.9364  Y412.4365   
N5480  X134.0879  Y422.7734   
N5485  X149.0167  Y431.8873   
N5490  X164.6267  Y439.7339   
N5495  X180.8214  Y446.2701   
N5500  X197.5055  Y451.4523   
N5505  X214.5817  Y455.2370   
N5510  X231.9547  Y457.5811   
N5515  X249.5282  Y458.4405   
N5520  X267.2057  Y457.7719   
N5525  X284.8916  Y455.5323   
N5530  X302.4895  Y451.6781   
N5535  X316.6212  Y447.3825   
N5540  X330.2800  Y442.1827   
N5545  X343.4325  Y436.1129   
N5550  X356.0467  Y429.2072   
N5555  X368.0895  Y421.4992   
N5560  X379.5286  Y413.0240   
N5565  X390.3314  Y403.8147   
N5570  X400.4651  Y393.9064   
N5575  X409.8969  Y383.3326   
N5580  X418.5952  Y372.1276   
N5585  X426.5262  Y360.3253   
N5590  X433.6582  Y347.9604   
N5595  X439.9579  Y335.0665   
N5600  X445.3931  Y321.6781   
N5605  X449.9312  Y307.8289   
N5610  X453.5393  Y293.5535   
N5615  X456.8364  Y273.2382   
N5620  X458.0433  Y252.6815   
N5625  X457.1982  Y232.0833   
N5630  X454.3388  Y211.6431   
N5635  X449.5031  Y191.5619   
N5640  X442.7292  Y172.0397   
N5645  X434.0549  Y153.2760   
N5650  X423.5190  Y135.4717   
N5655  X410.0873  Y117.4310   
N5660  X394.9229  Y101.0754   
N5665  X378.1854  Y86.5051   
N5670  X360.0341  Y73.8195   
N5675  X340.6294  Y63.1181   
N5680  X320.1312  Y54.5005   
N5685  X298.6989  Y48.0657   
N5690  X276.4925  Y43.9138   
N5695 G0  Z0.1000 
N5700 G1  Z-1.4000  F100.00 
N5705  X263.8893  Y43.0042   F300.00 
N5710  X247.8858  Y42.8286   
N5715  X231.9183  Y43.3493   
N5720  X219.4230  Y44.5299   
N5725  X206.0696  Y47.0376   
N5730  X193.0347  Y50.3380   
N5735  X180.3454  Y54.4101   
N5740  X168.0284  Y59.2344   
N5745  X156.1104  Y64.7894   
N5750  X144.6183  Y71.0546   
N5755  X133.5787  Y78.0096   
N5760  X123.0183  Y85.6337   
N5765  X112.9643  Y93.9062   
N5770  X103.4426  Y102.8063   
N5775  X94.4808  Y112.3137   
N5780  X86.1056  Y122.4073   
N5785  X78.3432  Y133.0672   
N5790  X71.2210  Y144.2718   
N5795  X64.7650  Y156.0012   
N5800  X59.0026  Y168.2344   
N5805  X51.1107  Y189.6381   
N5810  X45.6718  Y211.6146   
N5815  X42.6793  Y233.9565   
N5820  X42.1273  Y256.4578   
N5825  X44.0097  Y278.9112   
N5830  X48.3205  Y301.1108   
N5835  X55.0534  Y322.8490   
N5840  X64.2019  Y343.9191   
N5845  X73.0250  Y359.7216   
N5850  X83.1066  Y374.5183   
N5855  X94.3495  Y388.2651   
N5860  X106.6582  Y400.9190   
N5865  X119.9364  Y412.4365   
N5870  X134.0879  Y422.7734   
N5875  X149.0167  Y431.8873   
N5880  X164.6267  Y439.7339   
N5885  X180.8214  Y446.2701   
N5890  X197.5055  Y451.4523   
N5895  X214.5817  Y455.2370   
N5900  X231.9547  Y457.5811   
N5905  X249.5282  Y458.4405   
N5910  X267.2057  Y457.7719   
N5915  X284.8916  Y455.5323   
N5920  X302.4895  Y451.6781   
N5925  X316.6212  Y447.3825   
N5930  X330.2800  Y442.1827   
N5935  X343.4325  Y436.1129   
N5940  X356.0467  Y429.2072   
N5945  X368.0895  Y421.4992   
N5950  X379.5286  Y413.0240   
N5955  X390.3314  Y403.8147   
N5960  X400.4651  Y393.9064   
N5965  X409.8969  Y383.3326   
N5970  X418.5952  Y372.1276   
N5975  X426.5262  Y360.3253   
N5980  X433.6582  Y347.9604   
N5985  X439.9579  Y335.0665   
N5990  X445.3931  Y321.6781   
N5995  X449.9312  Y307.8289   
N6000  X453.5393  Y293.5535   
N6005  X456.8364  Y273.2382   
N6010  X458.0433  Y252.6815   
N6015  X457.1982  Y232.0833   
N6020  X454.3388  Y211.6431   
N6025  X449.5031  Y191.5619   
N6030  X442.7292  Y172.0397   
N6035  X434.0549  Y153.2760   
N6040  X423.5190  Y135.4717   
N6045  X410.0873  Y117.4310   
N6050  X394.9229  Y101.0754   
N6055  X378.1854  Y86.5051   
N6060  X360.0341  Y73.8195   
N6065  X340.6294  Y63.1181   
N6070  X320.1312  Y54.5005   
N6075  X298.6989  Y48.0657   
N6080  X276.4925  Y43.9138   
N6085 G0  Z3.0000 
N6090  X128.0849  Y133.1815 
N6095  Z0.1000 
N6100 G1  Z-0.7000  F100.00 
N6105  X143.3216  Y177.9883   F300.00 
N6110  X155.1547  Y212.4311   
N6115  X156.4782  Y215.7840   
N6120  X173.0945  Y215.7310   
N6125  X186.1129  Y215.4591   
N6130  X194.7047  Y214.5928   
N6135  X200.1012  Y212.9080   
N6140  X203.5324  Y210.1805   
N6145  X205.8231  Y206.2641   
N6150  X205.6941  Y200.3376   
N6155  X203.3674  Y189.7247   
N6160  X199.3515  Y180.7463   
N6165  X194.1637  Y174.2714   
N6170  X191.2924  Y172.2448   
N6175  X188.3224  Y171.1702   
N6180  X184.0724  Y170.3730   
N6185  X187.6451  Y168.2007   
N6190  X190.9546  Y165.3059   
N6195  X191.7255  Y163.3825   
N6200  X191.8937  Y160.8370   
N6205  X190.3763  Y152.9663   
N6210  X186.3175  Y139.8678   
N6215  X179.8200  Y120.0751   
N6220  X168.0818  Y119.7272   
N6225  X156.3432  Y119.3793   
N6230  X163.1042  Y139.5259   
N6235  X167.6616  Y154.3211   
N6240  X169.1251  Y161.6005   
N6245  X167.8542  Y162.8834   
N6250  X165.7377  Y163.1383   
N6255  X164.1018  Y162.1540   
N6260  X162.2318  Y158.9283   
N6265  X155.6736  Y141.1180   
N6270  X148.2573  Y119.4885   
N6275  X135.8072  Y119.4774   
N6280  X123.3575  Y119.4664   
N6285  X128.0849  Y133.1815   
N6290 G0  Z0.1000 
N6295 G1  Z-1.4000  F100.00 
N6300  X143.3216  Y177.9883   F300.00 
N6305  X155.1547  Y212.4311   
N6310  X156.4782  Y215.7840   
N6315  X173.0945  Y215.7310   
N6320  X186.1129  Y215.4591   
N6325  X194.7047  Y214.5928   
N6330  X200.1012  Y212.9080   
N6335  X203.5324  Y210.1805   
N6340  X205.8231  Y206.2641   
N6345  X205.6941  Y200.3376   
N6350  X203.3674  Y189.7247   
N6355  X199.3515  Y180.7463   
N6360  X194.1637  Y174.2714   
N6365  X191.2924  Y172.2448   
N6370  X188.3224  Y171.1702   
N6375  X184.0724  Y170.3730   
N6380  X187.6451  Y168.2007   
N6385  X190.9546  Y165.3059   
N6390  X191.7255  Y163.3825   
N6395  X191.8937  Y160.8370   
N6400  X190.3763  Y152.9663   
N6405  X186.3175  Y139.8678   
N6410  X179.8200  Y120.0751   
N6415  X168.0818  Y119.7272   
N6420  X156.3432  Y119.3793   
N6425  X163.1042  Y139.5259   
N6430  X167.6616  Y154.3211   
N6435  X169.1251  Y161.6005   
N6440  X167.8542  Y162.8834   
N6445  X165.7377  Y163.1383   
N6450  X164.1018  Y162.1540   
N6455  X162.2318  Y158.9283   
N6460  X155.6736  Y141.1180   
N6465  X148.2573  Y119.4885   
N6470  X135.8072  Y119.4774   
N6475  X123.3575  Y119.4664   
N6480  X128.0849  Y133.1815   
N6485 G0  Z3.0000 
N6490  X175.5990  Y180.3357 
N6495  Z0.1000 
N6500 G1  Z-0.7000  F100.00 
N6505  X173.2005  Y178.6777   F300.00 
N6510  X170.7310  Y177.9883   
N6515  X169.1772  Y178.0768   
N6520  X168.8274  Y179.3247   
N6525  X172.5586  Y191.1974   
N6530  X175.2742  Y197.7188   
N6535  X176.5262  Y199.1469   
N6540  X177.9358  Y199.7151   
N6545  X180.0739  Y199.4446   
N6550  X181.3628  Y198.0589   
N6555  X181.3200  Y194.5305   
N6560  X179.9707  Y189.2501   
N6565  X177.8768  Y183.9434   
N6570  X175.5990  Y180.3357   
N6575 G0  Z0.1000 
N6580 G1  Z-1.4000  F100.00 
N6585  X173.2005  Y178.6777   F300.00 
N6590  X170.7310  Y177.9883   
N6595  X169.1772  Y178.0768   
N6600  X168.8274  Y179.3247   
N6605  X172.5586  Y191.1974   
N6610  X175.2742  Y197.7188   
N6615  X176.5262  Y199.1469   
N6620  X177.9358  Y199.7151   
N6625  X180.0739  Y199.4446   
N6630  X181.3628  Y198.0589   
N6635  X181.3200  Y194.5305   
N6640  X179.9707  Y189.2501   
N6645  X177.8768  Y183.9434   
N6650  X175.5990  Y180.3357   
N6655 G0  Z3.0000 
N6660  X226.7752  Y165.3640 
N6665  Z0.1000 
N6670 G1  Z-0.7000  F100.00 
N6675  X243.3671  Y213.6504   F300.00 
N6680  X244.3454  Y214.7780   
N6685  X246.8338  Y215.4231   
N6690  X260.4964  Y215.7840   
N6695  X273.8681  Y215.4821   
N6700  X282.8378  Y214.4352   
N6705  X288.4136  Y212.4325   
N6710  X291.6029  Y209.2626   
N6715  X293.2332  Y205.9231   
N6720  X293.8184  Y202.4638   
N6725  X293.3728  Y198.1105   
N6730  X291.9098  Y192.0891   
N6735  X289.5398  Y185.0668   
N6740  X286.7293  Y179.8417   
N6745  X283.2765  Y176.1257   
N6750  X278.9790  Y173.6314   
N6755  X273.5921  Y171.4033   
N6760  X277.3726  Y168.8652   
N6765  X280.4402  Y165.8944   
N6770  X281.5356  Y161.7254   
N6775  X280.7149  Y155.0243   
N6780  X278.0721  Y145.6828   
N6785  X274.4617  Y136.2670   
N6790  X270.7402  Y129.3448   
N6795  X266.3998  Y124.3141   
N6800  X263.9386  Y122.6833   
N6805  X260.8300  Y121.5188   
N6810  X251.3115  Y120.2216   
N6815  X235.1255  Y119.6848   
N6820  X211.0441  Y119.2111   
N6825  X226.7752  Y165.3640   
N6830 G0  Z0.1000 
N6835 G1  Z-1.4000  F100.00 
N6840  X243.3671  Y213.6504   F300.00 
N6845  X244.3454  Y214.7780   
N6850  X246.8338  Y215.4231   
N6855  X260.4964  Y215.7840   
N6860  X273.8681  Y215.4821   
N6865  X282.8378  Y214.4352   
N6870  X288.4136  Y212.4325   
N6875  X291.6029  Y209.2626   
N6880  X293.2332  Y205.9231   
N6885  X293.8184  Y202.4638   
N6890  X293.3728  Y198.1105   
N6895  X291.9098  Y192.0891   
N6900  X289.5398  Y185.0668   
N6905  X286.7293  Y179.8417   
N6910  X283.2765  Y176.1257   
N6915  X278.9790  Y173.6314   
N6920  X273.5921  Y171.4033   
N6925  X277.3726  Y168.8652   
N6930  X280.4402  Y165.8944   
N6935  X281.5356  Y161.7254   
N6940  X280.7149  Y155.0243   
N6945  X278.0721  Y145.6828   
N6950  X274.4617  Y136.2670   
N6955  X270.7402  Y129.3448   
N6960  X266.3998  Y124.3141   
N6965  X263.9386  Y122.6833   
N6970  X260.8300  Y121.5188   
N6975  X251.3115  Y120.2216   
N6980  X235.1255  Y119.6848   
N6985  X211.0441  Y119.2111   
N6990  X226.7752  Y165.3640   
N6995 G0  Z3.0000 
N7000  X248.3946  Y137.0887 
N7005  Z0.1000 
N7010 G1  Z-0.7000  F100.00 
N7015  X245.9504  Y135.8320   F300.00 
N7020  X243.6791  Y135.3569   
N7025  X242.1441  Y135.6855   
N7030  X241.9091  Y136.8394   
N7035  X246.5011  Y150.9199   
N7040  X250.3816  Y161.6088   
N7045  X251.8055  Y163.0267   
N7050  X253.6386  Y163.1120   
N7055  X256.0979  Y162.1908   
N7060  X257.1458  Y160.0965   
N7065  X256.4256  Y155.0815   
N7070  X254.0648  Y147.8343   
N7075  X251.0567  Y140.9664   
N7080  X248.3946  Y137.0887   
N7085 G0  Z0.1000 
N7090 G1  Z-1.4000  F100.00 
N7095  X245.9504  Y135.8320   F300.00 
N7100  X243.6791  Y135.3569   
N7105  X242.1441  Y135.6855   
N7110  X241.9091  Y136.8394   
N7115  X246.5011  Y150.9199   
N7120  X250.3816  Y161.6088   
N7125  X251.8055  Y163.0267   
N7130  X253.6386  Y163.1120   
N7135  X256.0979  Y162.1908   
N7140  X257.1458  Y160.0965   
N7145  X256.4256  Y155.0815   
N7150  X254.0648  Y147.8343   
N7155  X251.0567  Y140.9664   
N7160  X248.3946  Y137.0887   
N7165 G0  Z3.0000 
N7170  X264.4303  Y180.9790 
N7175  Z0.1000 
N7180 G1  Z-0.7000  F100.00 
N7185  X261.7760  Y178.7321   F300.00 
N7190  X259.0153  Y177.8727   
N7195  X257.0550  Y178.4542   
N7200  X256.8011  Y180.5292   
N7205  X262.3239  Y196.2700   
N7210  X264.0939  Y198.7667   
N7215  X266.0090  Y199.3247   
N7220  X268.2868  Y198.7358   
N7225  X269.3665  Y197.0447   
N7230  X269.2481  Y193.6199   
N7235  X268.1601  Y189.0648   
N7240  X266.4413  Y184.4834   
N7245  X264.4303  Y180.9790   
N7250 G0  Z0.1000 
N7255 G1  Z-1.4000  F100.00 
N7260  X261.7760  Y178.7321   F300.00 
N7265  X259.0153  Y177.8727   
N7270  X257.0550  Y178.4542   
N7275  X256.8011  Y180.5292   
N7280  X262.3239  Y196.2700   
N7285  X264.0939  Y198.7667   
N7290  X266.0090  Y199.3247   
N7295  X268.2868  Y198.7358   
N7300  X269.3665  Y197.0447   
N7305  X269.2481  Y193.6199   
N7310  X268.1601  Y189.0648   
N7315  X266.4413  Y184.4834   
N7320  X264.4303  Y180.9790   
N7325 G0  Z3.0000 
N7330  X316.6995  Y119.9442 
N7335  Z0.1000 
N7340 G1  Z-0.7000  F100.00 
N7345  X310.4509  Y123.2100   F300.00 
N7350  X308.3275  Y125.2256   
N7355  X306.8409  Y127.5600   
N7360  X305.6917  Y133.3727   
N7365  X306.8257  Y141.0281   
N7370  X309.0376  Y149.2923   
N7375  X311.2808  Y153.3557   
N7380  X312.9481  Y154.2760   
N7385  X315.2650  Y154.7036   
N7390  X322.7002  Y154.8229   
N7395  X334.0808   
N7400  X332.2482  Y149.6411   
N7405  X329.1382  Y138.6633   
N7410  X329.1229  Y135.7786   
N7415  X330.1109  Y134.4644   
N7420  X332.8021  Y134.2561   
N7425  X335.4001  Y135.5735   
N7430  X337.7083  Y138.2573   
N7435  X339.5294  Y142.1456   
N7440  X341.0049  Y147.1173   
N7445  X341.3049  Y150.5660   
N7450  X340.3510  Y153.2262   
N7455  X338.0650  Y155.8312   
N7460  X328.3317  Y165.0151   
N7465  X323.6941  Y170.0205   
N7470  X321.1376  Y174.6576   
N7475  X320.4275  Y179.6164   
N7480  X321.3288  Y185.5852   
N7485  X324.5568  Y195.6281   
N7490  X328.8939  Y203.5209   
N7495  X334.4665  Y209.4404   
N7500  X341.4008  Y213.5629   
N7505  X351.0921  Y216.2208   
N7510  X361.4008  Y216.6683   
N7515  X370.7521  Y215.0015   
N7520  X374.5759  Y213.4062   
N7525  X377.5697  Y211.3192   
N7530  X379.3162  Y209.5027   
N7535  X380.2083  Y207.7659   
N7540  X380.1263  Y201.9767   
N7545  X378.0789  Y191.0947   
N7550  X376.7472  Y186.5230   
N7555  X365.1988   
N7560  X353.6505   
N7565  X354.4615  Y189.8758   
N7570  X356.3223  Y196.0742   
N7575  X356.6817  Y200.0367   
N7580  X355.4066  Y200.9708   
N7585  X353.5528  Y201.0717   
N7590  X351.5363  Y200.4012   
N7595  X349.7728  Y199.0197   
N7600  X347.9784  Y196.1493   
N7605  X346.5241  Y192.4389   
N7610  X345.7024  Y188.8298   
N7615  X345.8056  Y186.2640   
N7620  X348.6382  Y183.0900   
N7625  X354.4509  Y178.0556   
N7630  X362.4229  Y170.6384   
N7635  X364.8896  Y167.1699   
N7640  X366.4145  Y163.6226   
N7645  X367.0485  Y159.8167   
N7650  X366.8458  Y155.5741   
N7655  X364.1385  Y145.0593   
N7660  X360.9170  Y136.7689   
N7665  X357.4439  Y130.8981   
N7670  X353.0878  Y126.6287   
N7675  X347.2162  Y123.1432   
N7680  X339.5414  Y120.2815   
N7685  X331.2846  Y118.7305   
N7690  X323.3647  Y118.5858   
N7695  X316.6995  Y119.9442   
N7700 G0  Z0.1000 
N7705 G1  Z-1.4000  F100.00 
N7710  X310.4509  Y123.2100   F300.00 
N7715  X308.3275  Y125.2256   
N7720  X306.8409  Y127.5600   
N7725  X305.6917  Y133.3727   
N7730  X306.8257  Y141.0281   
N7735  X309.0376  Y149.2923   
N7740  X311.2808  Y153.3557   
N7745  X312.9481  Y154.2760   
N7750  X315.2650  Y154.7036   
N7755  X322.7002  Y154.8229   
N7760  X334.0808   
N7765  X332.2482  Y149.6411   
N7770  X329.1382  Y138.6633   
N7775  X329.1229  Y135.7786   
N7780  X330.1109  Y134.4644   
N7785  X332.8021  Y134.2561   
N7790  X335.4001  Y135.5735   
N7795  X337.7083  Y138.2573   
N7800  X339.5294  Y142.1456   
N7805  X341.0049  Y147.1173   
N7810  X341.3049  Y150.5660   
N7815  X340.3510  Y153.2262   
N7820  X338.0650  Y155.8312   
N7825  X328.3317  Y165.0151   
N7830  X323.6941  Y170.0205   
N7835  X321.1376  Y174.6576   
N7840  X320.4275  Y179.6164   
N7845  X321.3288  Y185.5852   
N7850  X324.5568  Y195.6281   
N7855  X328.8939  Y203.5209   
N7860  X334.4665  Y209.4404   
N7865  X341.4008  Y213.5629   
N7870  X351.0921  Y216.2208   
N7875  X361.4008  Y216.6683   
N7880  X370.7521  Y215.0015   
N7885  X374.5759  Y213.4062   
N7890  X377.5697  Y211.3192   
N7895  X379.3162  Y209.5027   
N7900  X380.2083  Y207.7659   
N7905  X380.1263  Y201.9767   
N7910  X378.0789  Y191.0947   
N7915  X376.7472  Y186.5230   
N7920  X365.1988   
N7925  X353.6505   
N7930  X354.4615  Y189.8758   
N7935  X356.3223  Y196.0742   
N7940  X356.6817  Y200.0367   
N7945  X355.4066  Y200.9708   
N7950  X353.5528  Y201.0717   
N7955  X351.5363  Y200.4012   
N7960  X349.7728  Y199.0197   
N7965  X347.9784  Y196.1493   
N7970  X346.5241  Y192.4389   
N7975  X345.7024  Y188.8298   
N7980  X345.8056  Y186.2640   
N7985  X348.6382  Y183.0900   
N7990  X354.4509  Y178.0556   
N7995  X362.4229  Y170.6384   
N8000  X364.8896  Y167.1699   
N8005  X366.4145  Y163.6226   
N8010  X367.0485  Y159.8167   
N8015  X366.8458  Y155.5741   
N8020  X364.1385  Y145.0593   
N8025  X360.9170  Y136.7689   
N8030  X357.4439  Y130.8981   
N8035  X353.0878  Y126.6287   
N8040  X347.2162  Y123.1432   
N8045  X339.5414  Y120.2815   
N8050  X331.2846  Y118.7305   
N8055  X323.3647  Y118.5858   
N8060  X316.6995  Y119.9442   
N8065 G0  Z3.0000 
N8070  X207.3945  Y329.2847 
N8075  Z0.1000 
N8080 G1  Z-0.7000  F100.00 
N8085  X218.1502  Y333.3076   F300.00 
N8090  X228.4184  Y335.8305   
N8095  X237.3531  Y336.2434   
N8100  X245.7956  Y335.8780   
N8105  X245.4822  Y331.8869   
N8110  X243.0851  Y323.6149   
N8115  X237.7618  Y309.3312   
N8120  X229.6410  Y288.9375   
N8125  X230.1202  Y289.0956   
N8130  X232.0916  Y291.2669   
N8135  X238.9756  Y299.7085   
N8140  X253.7658  Y319.4183   
N8145  X258.3393  Y326.9852   
N8150  X261.8304  Y334.0490   
N8155  X264.0561  Y338.5958   
N8160  X265.3980  Y339.9736   
N8165  X267.2025  Y340.8496   
N8170  X273.1331  Y341.3823   
N8175  X283.7101  Y340.7658   
N8180  X294.8018  Y339.9455   
N8185  X296.5727  Y331.6984   
N8190  X298.3431  Y323.4513   
N8195  X294.2806  Y317.4723   
N8200  X290.2665  Y310.2804   
N8205  X287.4344  Y302.3969   
N8210  X285.8764  Y294.1594   
N8215  X285.6852  Y285.9077   
N8220  X287.2067  Y276.6938   
N8225  X290.5624  Y268.7739   
N8230  X295.8488  Y261.9838   
N8235  X303.1623  Y256.1597   
N8240  X308.1022  Y252.9704   
N8245  X254.3929   
N8250  X186.0534  Y252.0769   
N8255  X171.4227  Y251.1834   
N8260  X177.1814  Y253.4708   
N8265  X187.8497  Y259.2535   
N8270  X197.7179  Y267.4601   
N8275  X205.9116  Y277.2219   
N8280  X209.1077  Y282.4143   
N8285  X211.5574  Y287.6689   
N8290  X213.9799  Y297.1261   
N8295  X214.4264  Y307.1690   
N8300  X212.9509  Y316.7709   
N8305  X209.6068  Y324.9047   
N8310  X207.3945  Y329.2847   
N8315 G0  Z0.1000 
N8320 G1  Z-1.4000  F100.00 
N8325  X218.1502  Y333.3076   F300.00 
N8330  X228.4184  Y335.8305   
N8335  X237.3531  Y336.2434   
N8340  X245.7956  Y335.8780   
N8345  X245.4822  Y331.8869   
N8350  X243.0851  Y323.6149   
N8355  X237.7618  Y309.3312   
N8360  X229.6410  Y288.9375   
N8365  X230.1202  Y289.0956   
N8370  X232.0916  Y291.2669   
N8375  X238.9756  Y299.7085   
N8380  X253.7658  Y319.4183   
N8385  X258.3393  Y326.9852   
N8390  X261.8304  Y334.0490   
N8395  X264.0561  Y338.5958   
N8400  X265.3980  Y339.9736   
N8405  X267.2025  Y340.8496   
N8410  X273.1331  Y341.3823   
N8415  X283.7101  Y340.7658   
N8420  X294.8018  Y339.9455   
N8425  X296.5727  Y331.6984   
N8430  X298.3431  Y323.4513   
N8435  X294.2806  Y317.4723   
N8440  X290.2665  Y310.2804   
N8445  X287.4344  Y302.3969   
N8450  X285.8764  Y294.1594   
N8455  X285.6852  Y285.9077   
N8460  X287.2067  Y276.6938   
N8465  X290.5624  Y268.7739   
N8470  X295.8488  Y261.9838   
N8475  X303.1623  Y256.1597   
N8480  X308.1022  Y252.9704   
N8485  X254.3929   
N8490  X186.0534  Y252.0769   
N8495  X171.4227  Y251.1834   
N8500  X177.1814  Y253.4708   
N8505  X187.8497  Y259.2535   
N8510  X197.7179  Y267.4601   
N8515  X205.9116  Y277.2219   
N8520  X209.1077  Y282.4143   
N8525  X211.5574  Y287.6689   
N8530  X213.9799  Y297.1261   
N8535  X214.4264  Y307.1690   
N8540  X212.9509  Y316.7709   
N8545  X209.6068  Y324.9047   
N8550  X207.3945  Y329.2847   
N8555 G0  Z3.0000 
N8560  X169.8085  Y257.1919 
N8565  Z0.1000 
N8570 G1  Z-0.7000  F100.00 
N8575  X158.0113  Y255.3095   F300.00 
N8580  X148.7453  Y255.8620   
N8585  X140.7323  Y258.7614   
N8590  X134.1745  Y263.6455   
N8595  X129.2738  Y270.1508   
N8600  X126.2324  Y277.9136   
N8605  X125.2523  Y286.5722   
N8610  X126.5357  Y295.7626   
N8615  X130.2844  Y305.1217   
N8620  X134.3174  Y311.1772   
N8625  X139.3665  Y316.5249   
N8630  X145.2118  Y321.0615   
N8635  X151.6341  Y324.6840   
N8640  X158.4140  Y327.2885   
N8645  X165.3331  Y328.7718   
N8650  X172.1706  Y329.0303   
N8655  X178.7086  Y327.9612   
N8660  X183.9180  Y325.6171   
N8665  X184.4162  Y324.6761   
N8670  X183.0319  Y324.2950   
N8675  X180.2320  Y321.9214   
N8680  X175.1746  Y316.2147   
N8685  X170.5794  Y309.8634   
N8690  X166.6607  Y302.8941   
N8695  X163.6433  Y295.7658   
N8700  X161.7535  Y288.9375   
N8705  X161.4614  Y286.9468   
N8710  X161.7839  Y286.6893   
N8715  X165.0363  Y292.1116   
N8720  X169.3173  Y299.1302   
N8725  X174.0065  Y305.3599   
N8730  X179.1878  Y310.8984   
N8735  X184.9429  Y315.8442   
N8740  X190.9509  Y319.9607   
N8745  X192.2923  Y319.8773   
N8750  X193.4752  Y318.6828   
N8755  X197.3470  Y312.0495   
N8760  X199.5777  Y304.1659   
N8765  X200.0657  Y295.6474   
N8770  X198.7086  Y287.1086   
N8775  X197.0036  Y282.6332   
N8780  X194.4111  Y278.0136   
N8785  X187.2492  Y269.0508   
N8790  X178.5915  Y261.6378   
N8795  X174.1304  Y258.9554   
N8800  X169.8085  Y257.1919   
N8805 G0  Z0.1000 
N8810 G1  Z-1.4000  F100.00 
N8815  X158.0113  Y255.3095   F300.00 
N8820  X148.7453  Y255.8620   
N8825  X140.7323  Y258.7614   
N8830  X134.1745  Y263.6455   
N8835  X129.2738  Y270.1508   
N8840  X126.2324  Y277.9136   
N8845  X125.2523  Y286.5722   
N8850  X126.5357  Y295.7626   
N8855  X130.2844  Y305.1217   
N8860  X134.3174  Y311.1772   
N8865  X139.3665  Y316.5249   
N8870  X145.2118  Y321.0615   
N8875  X151.6341  Y324.6840   
N8880  X158.4140  Y327.2885   
N8885  X165.3331  Y328.7718   
N8890  X172.1706  Y329.0303   
N8895  X178.7086  Y327.9612   
N8900  X183.9180  Y325.6171   
N8905  X184.4162  Y324.6761   
N8910  X183.0319  Y324.2950   
N8915  X180.2320  Y321.9214   
N8920  X175.1746  Y316.2147   
N8925  X170.5794  Y309.8634   
N8930  X166.6607  Y302.8941   
N8935  X163.6433  Y295.7658   
N8940  X161.7535  Y288.9375   
N8945  X161.4614  Y286.9468   
N8950  X161.7839  Y286.6893   
N8955  X165.0363  Y292.1116   
N8960  X169.3173  Y299.1302   
N8965  X174.0065  Y305.3599   
N8970  X179.1878  Y310.8984   
N8975  X184.9429  Y315.8442   
N8980  X190.9509  Y319.9607   
N8985  X192.2923  Y319.8773   
N8990  X193.4752  Y318.6828   
N8995  X197.3470  Y312.0495   
N9000  X199.5777  Y304.1659   
N9005  X200.0657  Y295.6474   
N9010  X198.7086  Y287.1086   
N9015  X197.0036  Y282.6332   
N9020  X194.4111  Y278.0136   
N9025  X187.2492  Y269.0508   
N9030  X178.5915  Y261.6378   
N9035  X174.1304  Y258.9554   
N9040  X169.8085  Y257.1919   
N9045 G0  Z3.0000 
N9050  X127.5305  Y247.5365 
N9055  Z0.1000 
N9060 G1  Z-0.7000  F100.00 
N9065  X151.3056  Y249.9433   F300.00 
N9070  X152.4525  Y250.1148   
N9075  X152.4636  Y250.4341   
N9080  X148.8670  Y251.6631   
N9085  X139.1052  Y255.5242   
N9090  X135.1735  Y258.2246   
N9095  X131.3696  Y261.7286   
N9100  X126.4933  Y267.5329   
N9105  X123.4473  Y273.4451   
N9110  X121.8787  Y280.4536   
N9115  X121.4345  Y289.5472   
N9120  X122.0312  Y301.0624   
N9125  X123.1644  Y305.0387   
N9130  X125.1975  Y309.6643   
N9135  X129.7779  Y317.5336   
N9140  X135.5592  Y324.6241   
N9145  X142.2990  Y330.7934   
N9150  X149.7550  Y335.8996   
N9155  X157.6841  Y339.8013   
N9160  X165.8437  Y342.3556   
N9165  X173.9913  Y343.4205   
N9170  X181.8845  Y342.8546   
N9175  X188.7210  Y341.1137   
N9180  X194.6955  Y338.8737   
N9185  X200.0745  Y336.9152   
N9190  X205.5517  Y338.3774   
N9195  X211.0473  Y341.2851   
N9200  X206.6567  Y343.6813   
N9205  X201.3380  Y346.5678   
N9210  X198.3036  Y350.4663   
N9215  X197.6211  Y355.2182   
N9220  X199.3584  Y360.6658   
N9225  X202.1334  Y364.4477   
N9230  X206.7931  Y369.2604   
N9235  X218.3627  Y378.7439   
N9240  X229.4308  Y385.2828   
N9245  X241.6027  Y390.8706   
N9250  X253.0349  Y394.7662   
N9255  X261.8829  Y396.2293   
N9260  X265.5828  Y395.8252   
N9265  X269.3402  Y394.5967   
N9270  X277.1399  Y389.5715   
N9275  X285.5091  Y380.9622   
N9280  X294.6756  Y368.5770   
N9285  X301.3817  Y358.6037   
N9290  X307.5381  Y362.4308   
N9295  X314.0761  Y365.5813   
N9300  X321.8080  Y366.6140   
N9305  X329.9220  Y366.9697   
N9310  X324.4600  Y364.4615   
N9315  X316.2060  Y359.7014   
N9320  X310.4343  Y353.9707   
N9325  X306.8626  Y346.8821   
N9330  X305.2083  Y338.0475   
N9335  X305.2479  Y330.3911   
N9340  X311.8850  Y334.4177   
N9345  X320.8426  Y339.2806   
N9350  X330.1238  Y342.2053   
N9355  X339.4290  Y343.2491   
N9360  X348.4576  Y342.4685   
N9365  X356.9089  Y339.9211   
N9370  X364.4827  Y335.6641   
N9375  X370.8783  Y329.7547   
N9380  X375.7961  Y322.2500   
N9385  X378.1614  Y315.2461   
N9390  X378.6126  Y304.1779   
N9395  X377.9886  Y292.9789   
N9400  X375.4426  Y285.2801   
N9405  X369.3507  Y275.0593   
N9410  X361.2663  Y266.0155   
N9415  X351.7856  Y258.7038   
N9420  X341.5044  Y253.6787   
N9425  X337.2608  Y251.8262   
N9430  X336.4226  Y251.1391   
N9435  X336.6277  Y250.7249   
N9440  X357.9641  Y248.7047   
N9445  X385.3966  Y246.3264   
N9450  X385.4607  Y246.2297   
N9455  X384.0649  Y246.1357   
N9460  X377.1698  Y245.9564   
N9465  X348.9115  Y245.6500   
N9470  X250.0627  Y245.3532   
N9475  X106.8038  Y245.3274   
N9480  X127.5305  Y247.5365   
N9485 G0  Z0.1000 
N9490 G1  Z-1.4000  F100.00 
N9495  X151.3056  Y249.9433   F300.00 
N9500  X152.4525  Y250.1148   
N9505  X152.4636  Y250.4341   
N9510  X148.8670  Y251.6631   
N9515  X139.1052  Y255.5242   
N9520  X135.1735  Y258.2246   
N9525  X131.3696  Y261.7286   
N9530  X126.4933  Y267.5329   
N9535  X123.4473  Y273.4451   
N9540  X121.8787  Y280.4536   
N9545  X121.4345  Y289.5472   
N9550  X122.0312  Y301.0624   
N9555  X123.1644  Y305.0387   
N9560  X125.1975  Y309.6643   
N9565  X129.7779  Y317.5336   
N9570  X135.5592  Y324.6241   
N9575  X142.2990  Y330.7934   
N9580  X149.7550  Y335.8996   
N9585  X157.6841  Y339.8013   
N9590  X165.8437  Y342.3556   
N9595  X173.9913  Y343.4205   
N9600  X181.8845  Y342.8546   
N9605  X188.7210  Y341.1137   
N9610  X194.6955  Y338.8737   
N9615  X200.0745  Y336.9152   
N9620  X205.5517  Y338.3774   
N9625  X211.0473  Y341.2851   
N9630  X206.6567  Y343.6813   
N9635  X201.3380  Y346.5678   
N9640  X198.3036  Y350.4663   
N9645  X197.6211  Y355.2182   
N9650  X199.3584  Y360.6658   
N9655  X202.1334  Y364.4477   
N9660  X206.7931  Y369.2604   
N9665  X218.3627  Y378.7439   
N9670  X229.4308  Y385.2828   
N9675  X241.6027  Y390.8706   
N9680  X253.0349  Y394.7662   
N9685  X261.8829  Y396.2293   
N9690  X265.5828  Y395.8252   
N9695  X269.3402  Y394.5967   
N9700  X277.1399  Y389.5715   
N9705  X285.5091  Y380.9622   
N9710  X294.6756  Y368.5770   
N9715  X301.3817  Y358.6037   
N9720  X307.5381  Y362.4308   
N9725  X314.0761  Y365.5813   
N9730  X321.8080  Y366.6140   
N9735  X329.9220  Y366.9697   
N9740  X324.4600  Y364.4615   
N9745  X316.2060  Y359.7014   
N9750  X310.4343  Y353.9707   
N9755  X306.8626  Y346.8821   
N9760  X305.2083  Y338.0475   
N9765  X305.2479  Y330.3911   
N9770  X311.8850  Y334.4177   
N9775  X320.8426  Y339.2806   
N9780  X330.1238  Y342.2053   
N9785  X339.4290  Y343.2491   
N9790  X348.4576  Y342.4685   
N9795  X356.9089  Y339.9211   
N9800  X364.4827  Y335.6641   
N9805  X370.8783  Y329.7547   
N9810  X375.7961  Y322.2500   
N9815  X378.1614  Y315.2461   
N9820  X378.6126  Y304.1779   
N9825  X377.9886  Y292.9789   
N9830  X375.4426  Y285.2801   
N9835  X369.3507  Y275.0593   
N9840  X361.2663  Y266.0155   
N9845  X351.7856  Y258.7038   
N9850  X341.5044  Y253.6787   
N9855  X337.2608  Y251.8262   
N9860  X336.4226  Y251.1391   
N9865  X336.6277  Y250.7249   
N9870  X357.9641  Y248.7047   
N9875  X385.3966  Y246.3264   
N9880  X385.4607  Y246.2297   
N9885  X384.0649  Y246.1357   
N9890  X377.1698  Y245.9564   
N9895  X348.9115  Y245.6500   
N9900  X250.0627  Y245.3532   
N9905  X106.8038  Y245.3274   
N9910  X127.5305  Y247.5365   
N9915 G0  Z3.0000 
N9920  X280.2693  Y351.4708 
N9925  Z0.1000 
N9930 G1  Z-0.7000  F100.00 
N9935  X255.2754  Y350.7239   F300.00 
N9940  X246.1970  Y351.0331   
N9945  X235.6370  Y352.6547   
N9950  X226.8876  Y354.9255   
N9955  X224.2205  Y356.0969   
N9960  X223.2399  Y357.1817   
N9965  X224.1191  Y358.8549   
N9970  X226.5374  Y361.1285   
N9975  X234.6666  Y366.6794   
N9980  X244.9809  Y372.2409   
N9985  X254.8348  Y376.2177   
N9990  X259.7033  Y377.4485   
N9995  X263.7575  Y377.8255   
N10000  X267.5306  Y377.3421   
N10005  X271.5549  Y375.9905   
N10010  X278.8136  Y372.0727   
N10015  X288.2947  Y366.0048   
N10020  X296.5206  Y360.1322   
N10025  X300.0122  Y356.8006   
N10030  X298.4883  Y353.4777   
N10035  X297.0501  Y352.5187   
N10040  X294.0447  Y351.9206   
N10045  X280.2693  Y351.4708   
N10050 G0  Z0.1000 
N10055 G1  Z-1.4000  F100.00 
N10060  X255.2754  Y350.7239   F300.00 
N10065  X246.1970  Y351.0331   
N10070  X235.6370  Y352.6547   
N10075  X226.8876  Y354.9255   
N10080  X224.2205  Y356.0969   
N10085  X223.2399  Y357.1817   
N10090  X224.1191  Y358.8549   
N10095  X226.5374  Y361.1285   
N10100  X234.6666  Y366.6794   
N10105  X244.9809  Y372.2409   
N10110  X254.8348  Y376.2177   
N10115  X259.7033  Y377.4485   
N10120  X263.7575  Y377.8255   
N10125  X267.5306  Y377.3421   
N10130  X271.5549  Y375.9905   
N10135  X278.8136  Y372.0727   
N10140  X288.2947  Y366.0048   
N10145  X296.5206  Y360.1322   
N10150  X300.0122  Y356.8006   
N10155  X298.4883  Y353.4777   
N10160  X297.0501  Y352.5187   
N10165  X294.0447  Y351.9206   
N10170  X280.2693  Y351.4708   
N10175 G0  Z3.0000 
N10180  X286.1049  Y394.0958 
N10185  Z0.1000 
N10190 G1  Z-0.7000  F100.00 
N10195  X283.3484  Y399.3863   F300.00 
N10200  X280.2287  Y402.9461   
N10205  X276.0178  Y405.3695   
N10210  X269.9886  Y407.2505   
N10215  X261.9723  Y409.2684   
N10220  X270.3434  Y412.6199   
N10225  X278.1292  Y415.0046   
N10230  X285.8907  Y416.0847   
N10235  X292.8881  Y415.8197   
N10240  X298.3814  Y414.1691   
N10245  X302.3416  Y411.4609   
N10250  X305.5862  Y408.0408   
N10255  X307.7796  Y404.3488   
N10260  X308.5856  Y400.8241   
N10265  X307.1958  Y396.3298   
N10270  X303.6503  Y392.0880   
N10275  X298.8855  Y388.9319   
N10280  X293.8364  Y387.6947   
N10285  X291.0190  Y387.8251   
N10290  X289.2260  Y388.5753   
N10295  X287.8053  Y390.4858   
N10300  X286.1049  Y394.0958   
N10305 G0  Z0.1000 
N10310 G1  Z-1.4000  F100.00 
N10315  X283.3484  Y399.3863   F300.00 
N10320  X280.2287  Y402.9461   
N10325  X276.0178  Y405.3695   
N10330  X269.9886  Y407.2505   
N10335  X261.9723  Y409.2684   
N10340  X270.3434  Y412.6199   
N10345  X278.1292  Y415.0046   
N10350  X285.8907  Y416.0847   
N10355  X292.8881  Y415.8197   
N10360  X298.3814  Y414.1691   
N10365  X302.3416  Y411.4609   
N10370  X305.5862  Y408.0408   
N10375  X307.7796  Y404.3488   
N10380  X308.5856  Y400.8241   
N10385  X307.1958  Y396.3298   
N10390  X303.6503  Y392.0880   
N10395  X298.8855  Y388.9319   
N10400  X293.8364  Y387.6947   
N10405  X291.0190  Y387.8251   
N10410  X289.2260  Y388.5753   
N10415  X287.8053  Y390.4858   
N10420  X286.1049  Y394.0958   
N10425 G0  Z3.0000 
N10430  X331.2629  Y256.4841 
N10435  Z0.1000 
N10440 G1  Z-0.7000  F100.00 
N10445  X321.3942  Y254.9957   F300.00 
N10450  X312.4310  Y256.0141   
N10455  X304.4088  Y259.5300   
N10460  X297.3630  Y265.5339   
N10465  X293.8037  Y270.2319   
N10470  X291.5798  Y275.2049   
N10475  X290.5287  Y280.9900   
N10480  X290.4863  Y288.1251   
N10485  X291.4112  Y294.7774   
N10490  X293.3968  Y301.3748   
N10495  X296.2547  Y307.4266   
N10500  X299.7975  Y312.4416   
N10505  X300.9398  Y313.4743   
N10510  X301.9573  Y313.2964   
N10515  X305.2894  Y307.9381   
N10520  X314.1213  Y294.8419   
N10525  X318.7257  Y289.3592   
N10530  X321.7564  Y286.7717   
N10535  X321.8021  Y288.1546   
N10540  X319.6814  Y292.2075   
N10545  X313.2669  Y304.8525   
N10550  X308.0672  Y317.7930   
N10555  X307.9215  Y319.3160   
N10560  X308.8261  Y320.6800   
N10565  X315.5277  Y324.4987   
N10570  X324.1517  Y327.8990   
N10575  X334.2683  Y328.5626   
N10580  X344.0311  Y327.9769   
N10585  X347.1945  Y326.8659   
N10590  X350.7137  Y324.8724   
N10595  X354.4435  Y322.1122   
N10600  X357.6780  Y318.7934   
N10605  X362.5114  Y310.8375   
N10610  X364.9131  Y301.7144   
N10615  X365.1081  Y296.9372   
N10620  X364.5827  Y292.1346   
N10625  X362.9293  Y285.9409   
N10630  X360.3995  Y280.0729   
N10635  X357.0720  Y274.6165   
N10640  X353.0270  Y269.6563   
N10645  X348.3443  Y265.2782   
N10650  X343.1025  Y261.5664   
N10655  X337.3825  Y258.6066   
N10660  X331.2629  Y256.4841   
N10665 G0  Z0.1000 
N10670 G1  Z-1.4000  F100.00 
N10675  X321.3942  Y254.9957   F300.00 
N10680  X312.4310  Y256.0141   
N10685  X304.4088  Y259.5300   
N10690  X297.3630  Y265.5339   
N10695  X293.8037  Y270.2319   
N10700  X291.5798  Y275.2049   
N10705  X290.5287  Y280.9900   
N10710  X290.4863  Y288.1251   
N10715  X291.4112  Y294.7774   
N10720  X293.3968  Y301.3748   
N10725  X296.2547  Y307.4266   
N10730  X299.7975  Y312.4416   
N10735  X300.9398  Y313.4743   
N10740  X301.9573  Y313.2964   
N10745  X305.2894  Y307.9381   
N10750  X314.1213  Y294.8419   
N10755  X318.7257  Y289.3592   
N10760  X321.7564  Y286.7717   
N10765  X321.8021  Y288.1546   
N10770  X319.6814  Y292.2075   
N10775  X313.2669  Y304.8525   
N10780  X308.0672  Y317.7930   
N10785  X307.9215  Y319.3160   
N10790  X308.8261  Y320.6800   
N10795  X315.5277  Y324.4987   
N10800  X324.1517  Y327.8990   
N10805  X334.2683  Y328.5626   
N10810  X344.0311  Y327.9769   
N10815  X347.1945  Y326.8659   
N10820  X350.7137  Y324.8724   
N10825  X354.4435  Y322.1122   
N10830  X357.6780  Y318.7934   
N10835  X362.5114  Y310.8375   
N10840  X364.9131  Y301.7144   
N10845  X365.1081  Y296.9372   
N10850  X364.5827  Y292.1346   
N10855  X362.9293  Y285.9409   
N10860  X360.3995  Y280.0729   
N10865  X357.0720  Y274.6165   
N10870  X353.0270  Y269.6563   
N10875  X348.3443  Y265.2782   
N10880  X343.1025  Y261.5664   
N10885  X337.3825  Y258.6066   
N10890  X331.2629  Y256.4841   
N10895 G0  Z3.0000 
N10900 M5
N10905 M30

