N5 (File Name = SOLO on Friday, November 10, 2023)
N10 (Default Mill Post)
N15  G91.1
N20 G0  Z3.0000 
N25 M3 
N30  X128.0849  Y133.1815 
N35  Z0.1000 
N40 G1  Z-0.7000  F100.00 
N45  X143.3216  Y177.9883   F300.00 
N50  X155.1547  Y212.4311   
N55  X156.4782  Y215.7840   
N60  X173.0945  Y215.7310   
N65  X186.1129  Y215.4591   
N70  X194.7047  Y214.5928   
N75  X200.1012  Y212.9080   
N80  X203.5324  Y210.1805   
N85  X205.8231  Y206.2641   
N90  X205.6941  Y200.3376   
N95  X203.3674  Y189.7247   
N100  X199.3515  Y180.7463   
N105  X194.1637  Y174.2714   
N110  X191.2924  Y172.2448   
N115  X188.3224  Y171.1702   
N120  X184.0724  Y170.3730   
N125  X187.6451  Y168.2007   
N130  X190.9546  Y165.3059   
N135  X191.7255  Y163.3825   
N140  X191.8937  Y160.8370   
N145  X190.3763  Y152.9663   
N150  X186.3175  Y139.8678   
N155  X179.8200  Y120.0751   
N160  X168.0818  Y119.7272   
N165  X156.3432  Y119.3793   
N170  X163.1042  Y139.5259   
N175  X167.6616  Y154.3211   
N180  X169.1251  Y161.6005   
N185  X167.8542  Y162.8834   
N190  X165.7377  Y163.1383   
N195  X164.1018  Y162.1540   
N200  X162.2318  Y158.9283   
N205  X155.6736  Y141.1180   
N210  X148.2573  Y119.4885   
N215  X135.8072  Y119.4774   
N220  X123.3575  Y119.4664   
N225  X128.0849  Y133.1815   
N230 G0  Z0.1000 
N235 G1  Z-1.4000  F100.00 
N240  X143.3216  Y177.9883   F300.00 
N245  X155.1547  Y212.4311   
N250  X156.4782  Y215.7840   
N255  X173.0945  Y215.7310   
N260  X186.1129  Y215.4591   
N265  X194.7047  Y214.5928   
N270  X200.1012  Y212.9080   
N275  X203.5324  Y210.1805   
N280  X205.8231  Y206.2641   
N285  X205.6941  Y200.3376   
N290  X203.3674  Y189.7247   
N295  X199.3515  Y180.7463   
N300  X194.1637  Y174.2714   
N305  X191.2924  Y172.2448   
N310  X188.3224  Y171.1702   
N315  X184.0724  Y170.3730   
N320  X187.6451  Y168.2007   
N325  X190.9546  Y165.3059   
N330  X191.7255  Y163.3825   
N335  X191.8937  Y160.8370   
N340  X190.3763  Y152.9663   
N345  X186.3175  Y139.8678   
N350  X179.8200  Y120.0751   
N355  X168.0818  Y119.7272   
N360  X156.3432  Y119.3793   
N365  X163.1042  Y139.5259   
N370  X167.6616  Y154.3211   
N375  X169.1251  Y161.6005   
N380  X167.8542  Y162.8834   
N385  X165.7377  Y163.1383   
N390  X164.1018  Y162.1540   
N395  X162.2318  Y158.9283   
N400  X155.6736  Y141.1180   
N405  X148.2573  Y119.4885   
N410  X135.8072  Y119.4774   
N415  X123.3575  Y119.4664   
N420  X128.0849  Y133.1815   
N425 G0  Z0.1000 
N430 G1  Z-1.5000  F100.00 
N435  X143.3216  Y177.9883   F300.00 
N440  X155.1547  Y212.4311   
N445  X156.4782  Y215.7840   
N450  X173.0945  Y215.7310   
N455  X186.1129  Y215.4591   
N460  X194.7047  Y214.5928   
N465  X200.1012  Y212.9080   
N470  X203.5324  Y210.1805   
N475  X205.8231  Y206.2641   
N480  X205.6941  Y200.3376   
N485  X203.3674  Y189.7247   
N490  X199.3515  Y180.7463   
N495  X194.1637  Y174.2714   
N500  X191.2924  Y172.2448   
N505  X188.3224  Y171.1702   
N510  X184.0724  Y170.3730   
N515  X187.6451  Y168.2007   
N520  X190.9546  Y165.3059   
N525  X191.7255  Y163.3825   
N530  X191.8937  Y160.8370   
N535  X190.3763  Y152.9663   
N540  X186.3175  Y139.8678   
N545  X179.8200  Y120.0751   
N550  X168.0818  Y119.7272   
N555  X156.3432  Y119.3793   
N560  X163.1042  Y139.5259   
N565  X167.6616  Y154.3211   
N570  X169.1251  Y161.6005   
N575  X167.8542  Y162.8834   
N580  X165.7377  Y163.1383   
N585  X164.1018  Y162.1540   
N590  X162.2318  Y158.9283   
N595  X155.6736  Y141.1180   
N600  X148.2573  Y119.4885   
N605  X135.8072  Y119.4774   
N610  X123.3575  Y119.4664   
N615  X128.0849  Y133.1815   
N620 G0  Z3.0000 
N625  X175.5990  Y180.3357 
N630  Z0.1000 
N635 G1  Z-0.7000  F100.00 
N640  X173.2005  Y178.6777   F300.00 
N645  X170.7310  Y177.9883   
N650  X169.1772  Y178.0768   
N655  X168.8274  Y179.3247   
N660  X172.5586  Y191.1974   
N665  X175.2742  Y197.7188   
N670  X176.5262  Y199.1469   
N675  X177.9358  Y199.7151   
N680  X180.0739  Y199.4446   
N685  X181.3628  Y198.0589   
N690  X181.3200  Y194.5305   
N695  X179.9707  Y189.2501   
N700  X177.8768  Y183.9434   
N705  X175.5990  Y180.3357   
N710 G0  Z0.1000 
N715 G1  Z-1.4000  F100.00 
N720  X173.2005  Y178.6777   F300.00 
N725  X170.7310  Y177.9883   
N730  X169.1772  Y178.0768   
N735  X168.8274  Y179.3247   
N740  X172.5586  Y191.1974   
N745  X175.2742  Y197.7188   
N750  X176.5262  Y199.1469   
N755  X177.9358  Y199.7151   
N760  X180.0739  Y199.4446   
N765  X181.3628  Y198.0589   
N770  X181.3200  Y194.5305   
N775  X179.9707  Y189.2501   
N780  X177.8768  Y183.9434   
N785  X175.5990  Y180.3357   
N790 G0  Z0.1000 
N795 G1  Z-1.5000  F100.00 
N800  X173.2005  Y178.6777   F300.00 
N805  X170.7310  Y177.9883   
N810  X169.1772  Y178.0768   
N815  X168.8274  Y179.3247   
N820  X172.5586  Y191.1974   
N825  X175.2742  Y197.7188   
N830  X176.5262  Y199.1469   
N835  X177.9358  Y199.7151   
N840  X180.0739  Y199.4446   
N845  X181.3628  Y198.0589   
N850  X181.3200  Y194.5305   
N855  X179.9707  Y189.2501   
N860  X177.8768  Y183.9434   
N865  X175.5990  Y180.3357   
N870 G0  Z3.0000 
N875  X226.7752  Y165.3640 
N880  Z0.1000 
N885 G1  Z-0.7000  F100.00 
N890  X243.3671  Y213.6504   F300.00 
N895  X244.3454  Y214.7780   
N900  X246.8338  Y215.4231   
N905  X260.4964  Y215.7840   
N910  X273.8681  Y215.4821   
N915  X282.8378  Y214.4352   
N920  X288.4136  Y212.4325   
N925  X291.6029  Y209.2626   
N930  X293.2332  Y205.9231   
N935  X293.8184  Y202.4638   
N940  X293.3728  Y198.1105   
N945  X291.9098  Y192.0891   
N950  X289.5398  Y185.0668   
N955  X286.7293  Y179.8417   
N960  X283.2765  Y176.1257   
N965  X278.9790  Y173.6314   
N970  X273.5921  Y171.4033   
N975  X277.3726  Y168.8652   
N980  X280.4402  Y165.8944   
N985  X281.5356  Y161.7254   
N990  X280.7149  Y155.0243   
N995  X278.0721  Y145.6828   
N1000  X274.4617  Y136.2670   
N1005  X270.7402  Y129.3448   
N1010  X266.3998  Y124.3141   
N1015  X263.9386  Y122.6833   
N1020  X260.8300  Y121.5188   
N1025  X251.3115  Y120.2216   
N1030  X235.1255  Y119.6848   
N1035  X211.0441  Y119.2111   
N1040  X226.7752  Y165.3640   
N1045 G0  Z0.1000 
N1050 G1  Z-1.4000  F100.00 
N1055  X243.3671  Y213.6504   F300.00 
N1060  X244.3454  Y214.7780   
N1065  X246.8338  Y215.4231   
N1070  X260.4964  Y215.7840   
N1075  X273.8681  Y215.4821   
N1080  X282.8378  Y214.4352   
N1085  X288.4136  Y212.4325   
N1090  X291.6029  Y209.2626   
N1095  X293.2332  Y205.9231   
N1100  X293.8184  Y202.4638   
N1105  X293.3728  Y198.1105   
N1110  X291.9098  Y192.0891   
N1115  X289.5398  Y185.0668   
N1120  X286.7293  Y179.8417   
N1125  X283.2765  Y176.1257   
N1130  X278.9790  Y173.6314   
N1135  X273.5921  Y171.4033   
N1140  X277.3726  Y168.8652   
N1145  X280.4402  Y165.8944   
N1150  X281.5356  Y161.7254   
N1155  X280.7149  Y155.0243   
N1160  X278.0721  Y145.6828   
N1165  X274.4617  Y136.2670   
N1170  X270.7402  Y129.3448   
N1175  X266.3998  Y124.3141   
N1180  X263.9386  Y122.6833   
N1185  X260.8300  Y121.5188   
N1190  X251.3115  Y120.2216   
N1195  X235.1255  Y119.6848   
N1200  X211.0441  Y119.2111   
N1205  X226.7752  Y165.3640   
N1210 G0  Z0.1000 
N1215 G1  Z-1.5000  F100.00 
N1220  X243.3671  Y213.6504   F300.00 
N1225  X244.3454  Y214.7780   
N1230  X246.8338  Y215.4231   
N1235  X260.4964  Y215.7840   
N1240  X273.8681  Y215.4821   
N1245  X282.8378  Y214.4352   
N1250  X288.4136  Y212.4325   
N1255  X291.6029  Y209.2626   
N1260  X293.2332  Y205.9231   
N1265  X293.8184  Y202.4638   
N1270  X293.3728  Y198.1105   
N1275  X291.9098  Y192.0891   
N1280  X289.5398  Y185.0668   
N1285  X286.7293  Y179.8417   
N1290  X283.2765  Y176.1257   
N1295  X278.9790  Y173.6314   
N1300  X273.5921  Y171.4033   
N1305  X277.3726  Y168.8652   
N1310  X280.4402  Y165.8944   
N1315  X281.5356  Y161.7254   
N1320  X280.7149  Y155.0243   
N1325  X278.0721  Y145.6828   
N1330  X274.4617  Y136.2670   
N1335  X270.7402  Y129.3448   
N1340  X266.3998  Y124.3141   
N1345  X263.9386  Y122.6833   
N1350  X260.8300  Y121.5188   
N1355  X251.3115  Y120.2216   
N1360  X235.1255  Y119.6848   
N1365  X211.0441  Y119.2111   
N1370  X226.7752  Y165.3640   
N1375 G0  Z3.0000 
N1380  X248.3946  Y137.0887 
N1385  Z0.1000 
N1390 G1  Z-0.7000  F100.00 
N1395  X245.9504  Y135.8320   F300.00 
N1400  X243.6791  Y135.3569   
N1405  X242.1441  Y135.6855   
N1410  X241.9091  Y136.8394   
N1415  X246.5011  Y150.9199   
N1420  X250.3816  Y161.6088   
N1425  X251.8055  Y163.0267   
N1430  X253.6386  Y163.1120   
N1435  X256.0979  Y162.1908   
N1440  X257.1458  Y160.0965   
N1445  X256.4256  Y155.0815   
N1450  X254.0648  Y147.8343   
N1455  X251.0567  Y140.9664   
N1460  X248.3946  Y137.0887   
N1465 G0  Z0.1000 
N1470 G1  Z-1.4000  F100.00 
N1475  X245.9504  Y135.8320   F300.00 
N1480  X243.6791  Y135.3569   
N1485  X242.1441  Y135.6855   
N1490  X241.9091  Y136.8394   
N1495  X246.5011  Y150.9199   
N1500  X250.3816  Y161.6088   
N1505  X251.8055  Y163.0267   
N1510  X253.6386  Y163.1120   
N1515  X256.0979  Y162.1908   
N1520  X257.1458  Y160.0965   
N1525  X256.4256  Y155.0815   
N1530  X254.0648  Y147.8343   
N1535  X251.0567  Y140.9664   
N1540  X248.3946  Y137.0887   
N1545 G0  Z0.1000 
N1550 G1  Z-1.5000  F100.00 
N1555  X245.9504  Y135.8320   F300.00 
N1560  X243.6791  Y135.3569   
N1565  X242.1441  Y135.6855   
N1570  X241.9091  Y136.8394   
N1575  X246.5011  Y150.9199   
N1580  X250.3816  Y161.6088   
N1585  X251.8055  Y163.0267   
N1590  X253.6386  Y163.1120   
N1595  X256.0979  Y162.1908   
N1600  X257.1458  Y160.0965   
N1605  X256.4256  Y155.0815   
N1610  X254.0648  Y147.8343   
N1615  X251.0567  Y140.9664   
N1620  X248.3946  Y137.0887   
N1625 G0  Z3.0000 
N1630  X264.4303  Y180.9790 
N1635  Z0.1000 
N1640 G1  Z-0.7000  F100.00 
N1645  X261.7760  Y178.7321   F300.00 
N1650  X259.0153  Y177.8727   
N1655  X257.0550  Y178.4542   
N1660  X256.8011  Y180.5292   
N1665  X262.3239  Y196.2700   
N1670  X264.0939  Y198.7667   
N1675  X266.0090  Y199.3247   
N1680  X268.2868  Y198.7358   
N1685  X269.3665  Y197.0447   
N1690  X269.2481  Y193.6199   
N1695  X268.1601  Y189.0648   
N1700  X266.4413  Y184.4834   
N1705  X264.4303  Y180.9790   
N1710 G0  Z0.1000 
N1715 G1  Z-1.4000  F100.00 
N1720  X261.7760  Y178.7321   F300.00 
N1725  X259.0153  Y177.8727   
N1730  X257.0550  Y178.4542   
N1735  X256.8011  Y180.5292   
N1740  X262.3239  Y196.2700   
N1745  X264.0939  Y198.7667   
N1750  X266.0090  Y199.3247   
N1755  X268.2868  Y198.7358   
N1760  X269.3665  Y197.0447   
N1765  X269.2481  Y193.6199   
N1770  X268.1601  Y189.0648   
N1775  X266.4413  Y184.4834   
N1780  X264.4303  Y180.9790   
N1785 G0  Z0.1000 
N1790 G1  Z-1.5000  F100.00 
N1795  X261.7760  Y178.7321   F300.00 
N1800  X259.0153  Y177.8727   
N1805  X257.0550  Y178.4542   
N1810  X256.8011  Y180.5292   
N1815  X262.3239  Y196.2700   
N1820  X264.0939  Y198.7667   
N1825  X266.0090  Y199.3247   
N1830  X268.2868  Y198.7358   
N1835  X269.3665  Y197.0447   
N1840  X269.2481  Y193.6199   
N1845  X268.1601  Y189.0648   
N1850  X266.4413  Y184.4834   
N1855  X264.4303  Y180.9790   
N1860 G0  Z3.0000 
N1865  X254.3929  Y252.9704 
N1870  Z0.1000 
N1875 G1  Z-0.7000  F100.00 
N1880  X308.1022   F300.00 
N1885  X303.1623  Y256.1597   
N1890  X295.8488  Y261.9838   
N1895  X290.5624  Y268.7739   
N1900  X287.2067  Y276.6938   
N1905  X285.6852  Y285.9077   
N1910  X285.8764  Y294.1594   
N1915  X287.4344  Y302.3969   
N1920  X290.2665  Y310.2804   
N1925  X294.2806  Y317.4723   
N1930  X298.3431  Y323.4513   
N1935  X296.5727  Y331.6984   
N1940  X294.8018  Y339.9455   
N1945  X283.7101  Y340.7658   
N1950  X273.1331  Y341.3823   
N1955  X267.2025  Y340.8496   
N1960  X265.3980  Y339.9736   
N1965  X264.0561  Y338.5958   
N1970  X261.8304  Y334.0490   
N1975  X258.3393  Y326.9852   
N1980  X253.7658  Y319.4183   
N1985  X238.9756  Y299.7085   
N1990  X232.0916  Y291.2669   
N1995  X230.1202  Y289.0956   
N2000  X229.6410  Y288.9375   
N2005  X237.7618  Y309.3312   
N2010  X243.0851  Y323.6149   
N2015  X245.4822  Y331.8869   
N2020  X245.7956  Y335.8780   
N2025  X237.3531  Y336.2434   
N2030  X228.4184  Y335.8305   
N2035  X218.1502  Y333.3076   
N2040  X207.3945  Y329.2847   
N2045  X209.6068  Y324.9047   
N2050  X212.9509  Y316.7709   
N2055  X214.4264  Y307.1690   
N2060  X213.9799  Y297.1261   
N2065  X211.5574  Y287.6689   
N2070  X209.1077  Y282.4143   
N2075  X205.9116  Y277.2219   
N2080  X197.7179  Y267.4601   
N2085  X187.8497  Y259.2535   
N2090  X177.1814  Y253.4708   
N2095  X171.4227  Y251.1834   
N2100  X186.0534  Y252.0769   
N2105  X254.3929  Y252.9704   
N2110 G0  Z0.1000 
N2115 G1  Z-1.4000  F100.00 
N2120  X308.1022   F300.00 
N2125  X303.1623  Y256.1597   
N2130  X295.8488  Y261.9838   
N2135  X290.5624  Y268.7739   
N2140  X287.2067  Y276.6938   
N2145  X285.6852  Y285.9077   
N2150  X285.8764  Y294.1594   
N2155  X287.4344  Y302.3969   
N2160  X290.2665  Y310.2804   
N2165  X294.2806  Y317.4723   
N2170  X298.3431  Y323.4513   
N2175  X296.5727  Y331.6984   
N2180  X294.8018  Y339.9455   
N2185  X283.7101  Y340.7658   
N2190  X273.1331  Y341.3823   
N2195  X267.2025  Y340.8496   
N2200  X265.3980  Y339.9736   
N2205  X264.0561  Y338.5958   
N2210  X261.8304  Y334.0490   
N2215  X258.3393  Y326.9852   
N2220  X253.7658  Y319.4183   
N2225  X238.9756  Y299.7085   
N2230  X232.0916  Y291.2669   
N2235  X230.1202  Y289.0956   
N2240  X229.6410  Y288.9375   
N2245  X237.7618  Y309.3312   
N2250  X243.0851  Y323.6149   
N2255  X245.4822  Y331.8869   
N2260  X245.7956  Y335.8780   
N2265  X237.3531  Y336.2434   
N2270  X228.4184  Y335.8305   
N2275  X218.1502  Y333.3076   
N2280  X207.3945  Y329.2847   
N2285  X209.6068  Y324.9047   
N2290  X212.9509  Y316.7709   
N2295  X214.4264  Y307.1690   
N2300  X213.9799  Y297.1261   
N2305  X211.5574  Y287.6689   
N2310  X209.1077  Y282.4143   
N2315  X205.9116  Y277.2219   
N2320  X197.7179  Y267.4601   
N2325  X187.8497  Y259.2535   
N2330  X177.1814  Y253.4708   
N2335  X171.4227  Y251.1834   
N2340  X186.0534  Y252.0769   
N2345  X254.3929  Y252.9704   
N2350 G0  Z0.1000 
N2355 G1  Z-1.5000  F100.00 
N2360  X308.1022   F300.00 
N2365  X303.1623  Y256.1597   
N2370  X295.8488  Y261.9838   
N2375  X290.5624  Y268.7739   
N2380  X287.2067  Y276.6938   
N2385  X285.6852  Y285.9077   
N2390  X285.8764  Y294.1594   
N2395  X287.4344  Y302.3969   
N2400  X290.2665  Y310.2804   
N2405  X294.2806  Y317.4723   
N2410  X298.3431  Y323.4513   
N2415  X296.5727  Y331.6984   
N2420  X294.8018  Y339.9455   
N2425  X283.7101  Y340.7658   
N2430  X273.1331  Y341.3823   
N2435  X267.2025  Y340.8496   
N2440  X265.3980  Y339.9736   
N2445  X264.0561  Y338.5958   
N2450  X261.8304  Y334.0490   
N2455  X258.3393  Y326.9852   
N2460  X253.7658  Y319.4183   
N2465  X238.9756  Y299.7085   
N2470  X232.0916  Y291.2669   
N2475  X230.1202  Y289.0956   
N2480  X229.6410  Y288.9375   
N2485  X237.7618  Y309.3312   
N2490  X243.0851  Y323.6149   
N2495  X245.4822  Y331.8869   
N2500  X245.7956  Y335.8780   
N2505  X237.3531  Y336.2434   
N2510  X228.4184  Y335.8305   
N2515  X218.1502  Y333.3076   
N2520  X207.3945  Y329.2847   
N2525  X209.6068  Y324.9047   
N2530  X212.9509  Y316.7709   
N2535  X214.4264  Y307.1690   
N2540  X213.9799  Y297.1261   
N2545  X211.5574  Y287.6689   
N2550  X209.1077  Y282.4143   
N2555  X205.9116  Y277.2219   
N2560  X197.7179  Y267.4601   
N2565  X187.8497  Y259.2535   
N2570  X177.1814  Y253.4708   
N2575  X171.4227  Y251.1834   
N2580  X186.0534  Y252.0769   
N2585  X254.3929  Y252.9704   
N2590 G0  Z3.0000 
N2595  X331.2629  Y256.4841 
N2600  Z0.1000 
N2605 G1  Z-0.7000  F100.00 
N2610  X321.3942  Y254.9957   F300.00 
N2615  X312.4310  Y256.0141   
N2620  X304.4088  Y259.5300   
N2625  X297.3630  Y265.5339   
N2630  X293.8037  Y270.2319   
N2635  X291.5798  Y275.2049   
N2640  X290.5287  Y280.9900   
N2645  X290.4863  Y288.1251   
N2650  X291.4112  Y294.7774   
N2655  X293.3968  Y301.3748   
N2660  X296.2547  Y307.4266   
N2665  X299.7975  Y312.4416   
N2670  X300.9398  Y313.4743   
N2675  X301.9573  Y313.2964   
N2680  X305.2894  Y307.9381   
N2685  X314.1213  Y294.8419   
N2690  X318.7257  Y289.3592   
N2695  X321.7564  Y286.7717   
N2700  X321.8021  Y288.1546   
N2705  X319.6814  Y292.2075   
N2710  X313.2669  Y304.8525   
N2715  X308.0672  Y317.7930   
N2720  X307.9215  Y319.3160   
N2725  X308.8261  Y320.6800   
N2730  X315.5277  Y324.4987   
N2735  X324.1517  Y327.8990   
N2740  X334.2683  Y328.5626   
N2745  X344.0311  Y327.9769   
N2750  X347.1945  Y326.8659   
N2755  X350.7137  Y324.8724   
N2760  X354.4435  Y322.1122   
N2765  X357.6780  Y318.7934   
N2770  X362.5114  Y310.8375   
N2775  X364.9131  Y301.7144   
N2780  X365.1081  Y296.9372   
N2785  X364.5827  Y292.1346   
N2790  X362.9293  Y285.9409   
N2795  X360.3995  Y280.0729   
N2800  X357.0720  Y274.6165   
N2805  X353.0270  Y269.6563   
N2810  X348.3443  Y265.2782   
N2815  X343.1025  Y261.5664   
N2820  X337.3825  Y258.6066   
N2825  X331.2629  Y256.4841   
N2830 G0  Z0.1000 
N2835 G1  Z-1.4000  F100.00 
N2840  X321.3942  Y254.9957   F300.00 
N2845  X312.4310  Y256.0141   
N2850  X304.4088  Y259.5300   
N2855  X297.3630  Y265.5339   
N2860  X293.8037  Y270.2319   
N2865  X291.5798  Y275.2049   
N2870  X290.5287  Y280.9900   
N2875  X290.4863  Y288.1251   
N2880  X291.4112  Y294.7774   
N2885  X293.3968  Y301.3748   
N2890  X296.2547  Y307.4266   
N2895  X299.7975  Y312.4416   
N2900  X300.9398  Y313.4743   
N2905  X301.9573  Y313.2964   
N2910  X305.2894  Y307.9381   
N2915  X314.1213  Y294.8419   
N2920  X318.7257  Y289.3592   
N2925  X321.7564  Y286.7717   
N2930  X321.8021  Y288.1546   
N2935  X319.6814  Y292.2075   
N2940  X313.2669  Y304.8525   
N2945  X308.0672  Y317.7930   
N2950  X307.9215  Y319.3160   
N2955  X308.8261  Y320.6800   
N2960  X315.5277  Y324.4987   
N2965  X324.1517  Y327.8990   
N2970  X334.2683  Y328.5626   
N2975  X344.0311  Y327.9769   
N2980  X347.1945  Y326.8659   
N2985  X350.7137  Y324.8724   
N2990  X354.4435  Y322.1122   
N2995  X357.6780  Y318.7934   
N3000  X362.5114  Y310.8375   
N3005  X364.9131  Y301.7144   
N3010  X365.1081  Y296.9372   
N3015  X364.5827  Y292.1346   
N3020  X362.9293  Y285.9409   
N3025  X360.3995  Y280.0729   
N3030  X357.0720  Y274.6165   
N3035  X353.0270  Y269.6563   
N3040  X348.3443  Y265.2782   
N3045  X343.1025  Y261.5664   
N3050  X337.3825  Y258.6066   
N3055  X331.2629  Y256.4841   
N3060 G0  Z0.1000 
N3065 G1  Z-1.5000  F100.00 
N3070  X321.3942  Y254.9957   F300.00 
N3075  X312.4310  Y256.0141   
N3080  X304.4088  Y259.5300   
N3085  X297.3630  Y265.5339   
N3090  X293.8037  Y270.2319   
N3095  X291.5798  Y275.2049   
N3100  X290.5287  Y280.9900   
N3105  X290.4863  Y288.1251   
N3110  X291.4112  Y294.7774   
N3115  X293.3968  Y301.3748   
N3120  X296.2547  Y307.4266   
N3125  X299.7975  Y312.4416   
N3130  X300.9398  Y313.4743   
N3135  X301.9573  Y313.2964   
N3140  X305.2894  Y307.9381   
N3145  X314.1213  Y294.8419   
N3150  X318.7257  Y289.3592   
N3155  X321.7564  Y286.7717   
N3160  X321.8021  Y288.1546   
N3165  X319.6814  Y292.2075   
N3170  X313.2669  Y304.8525   
N3175  X308.0672  Y317.7930   
N3180  X307.9215  Y319.3160   
N3185  X308.8261  Y320.6800   
N3190  X315.5277  Y324.4987   
N3195  X324.1517  Y327.8990   
N3200  X334.2683  Y328.5626   
N3205  X344.0311  Y327.9769   
N3210  X347.1945  Y326.8659   
N3215  X350.7137  Y324.8724   
N3220  X354.4435  Y322.1122   
N3225  X357.6780  Y318.7934   
N3230  X362.5114  Y310.8375   
N3235  X364.9131  Y301.7144   
N3240  X365.1081  Y296.9372   
N3245  X364.5827  Y292.1346   
N3250  X362.9293  Y285.9409   
N3255  X360.3995  Y280.0729   
N3260  X357.0720  Y274.6165   
N3265  X353.0270  Y269.6563   
N3270  X348.3443  Y265.2782   
N3275  X343.1025  Y261.5664   
N3280  X337.3825  Y258.6066   
N3285  X331.2629  Y256.4841   
N3290 G0  Z3.0000 
N3295  X280.2693  Y351.4708 
N3300  Z0.1000 
N3305 G1  Z-0.7000  F100.00 
N3310  X255.2754  Y350.7239   F300.00 
N3315  X246.1970  Y351.0331   
N3320  X235.6370  Y352.6547   
N3325  X226.8876  Y354.9255   
N3330  X224.2205  Y356.0969   
N3335  X223.2399  Y357.1817   
N3340  X224.1191  Y358.8549   
N3345  X226.5374  Y361.1285   
N3350  X234.6666  Y366.6794   
N3355  X244.9809  Y372.2409   
N3360  X254.8348  Y376.2177   
N3365  X259.7033  Y377.4485   
N3370  X263.7575  Y377.8255   
N3375  X267.5306  Y377.3421   
N3380  X271.5549  Y375.9905   
N3385  X278.8136  Y372.0727   
N3390  X288.2947  Y366.0048   
N3395  X296.5206  Y360.1322   
N3400  X300.0122  Y356.8006   
N3405  X298.4883  Y353.4777   
N3410  X297.0501  Y352.5187   
N3415  X294.0447  Y351.9206   
N3420  X280.2693  Y351.4708   
N3425 G0  Z0.1000 
N3430 G1  Z-1.4000  F100.00 
N3435  X255.2754  Y350.7239   F300.00 
N3440  X246.1970  Y351.0331   
N3445  X235.6370  Y352.6547   
N3450  X226.8876  Y354.9255   
N3455  X224.2205  Y356.0969   
N3460  X223.2399  Y357.1817   
N3465  X224.1191  Y358.8549   
N3470  X226.5374  Y361.1285   
N3475  X234.6666  Y366.6794   
N3480  X244.9809  Y372.2409   
N3485  X254.8348  Y376.2177   
N3490  X259.7033  Y377.4485   
N3495  X263.7575  Y377.8255   
N3500  X267.5306  Y377.3421   
N3505  X271.5549  Y375.9905   
N3510  X278.8136  Y372.0727   
N3515  X288.2947  Y366.0048   
N3520  X296.5206  Y360.1322   
N3525  X300.0122  Y356.8006   
N3530  X298.4883  Y353.4777   
N3535  X297.0501  Y352.5187   
N3540  X294.0447  Y351.9206   
N3545  X280.2693  Y351.4708   
N3550 G0  Z0.1000 
N3555 G1  Z-1.5000  F100.00 
N3560  X255.2754  Y350.7239   F300.00 
N3565  X246.1970  Y351.0331   
N3570  X235.6370  Y352.6547   
N3575  X226.8876  Y354.9255   
N3580  X224.2205  Y356.0969   
N3585  X223.2399  Y357.1817   
N3590  X224.1191  Y358.8549   
N3595  X226.5374  Y361.1285   
N3600  X234.6666  Y366.6794   
N3605  X244.9809  Y372.2409   
N3610  X254.8348  Y376.2177   
N3615  X259.7033  Y377.4485   
N3620  X263.7575  Y377.8255   
N3625  X267.5306  Y377.3421   
N3630  X271.5549  Y375.9905   
N3635  X278.8136  Y372.0727   
N3640  X288.2947  Y366.0048   
N3645  X296.5206  Y360.1322   
N3650  X300.0122  Y356.8006   
N3655  X298.4883  Y353.4777   
N3660  X297.0501  Y352.5187   
N3665  X294.0447  Y351.9206   
N3670  X280.2693  Y351.4708   
N3675 G0  Z3.0000 
N3680  X286.1049  Y394.0958 
N3685  Z0.1000 
N3690 G1  Z-0.7000  F100.00 
N3695  X283.3484  Y399.3863   F300.00 
N3700  X280.2287  Y402.9461   
N3705  X276.0178  Y405.3695   
N3710  X269.9886  Y407.2505   
N3715  X261.9723  Y409.2684   
N3720  X270.3434  Y412.6199   
N3725  X278.1292  Y415.0046   
N3730  X285.8907  Y416.0847   
N3735  X292.8881  Y415.8197   
N3740  X298.3814  Y414.1691   
N3745  X302.3416  Y411.4609   
N3750  X305.5862  Y408.0408   
N3755  X307.7796  Y404.3488   
N3760  X308.5856  Y400.8241   
N3765  X307.1958  Y396.3298   
N3770  X303.6503  Y392.0880   
N3775  X298.8855  Y388.9319   
N3780  X293.8364  Y387.6947   
N3785  X291.0190  Y387.8251   
N3790  X289.2260  Y388.5753   
N3795  X287.8053  Y390.4858   
N3800  X286.1049  Y394.0958   
N3805 G0  Z0.1000 
N3810 G1  Z-1.4000  F100.00 
N3815  X283.3484  Y399.3863   F300.00 
N3820  X280.2287  Y402.9461   
N3825  X276.0178  Y405.3695   
N3830  X269.9886  Y407.2505   
N3835  X261.9723  Y409.2684   
N3840  X270.3434  Y412.6199   
N3845  X278.1292  Y415.0046   
N3850  X285.8907  Y416.0847   
N3855  X292.8881  Y415.8197   
N3860  X298.3814  Y414.1691   
N3865  X302.3416  Y411.4609   
N3870  X305.5862  Y408.0408   
N3875  X307.7796  Y404.3488   
N3880  X308.5856  Y400.8241   
N3885  X307.1958  Y396.3298   
N3890  X303.6503  Y392.0880   
N3895  X298.8855  Y388.9319   
N3900  X293.8364  Y387.6947   
N3905  X291.0190  Y387.8251   
N3910  X289.2260  Y388.5753   
N3915  X287.8053  Y390.4858   
N3920  X286.1049  Y394.0958   
N3925 G0  Z0.1000 
N3930 G1  Z-1.5000  F100.00 
N3935  X283.3484  Y399.3863   F300.00 
N3940  X280.2287  Y402.9461   
N3945  X276.0178  Y405.3695   
N3950  X269.9886  Y407.2505   
N3955  X261.9723  Y409.2684   
N3960  X270.3434  Y412.6199   
N3965  X278.1292  Y415.0046   
N3970  X285.8907  Y416.0847   
N3975  X292.8881  Y415.8197   
N3980  X298.3814  Y414.1691   
N3985  X302.3416  Y411.4609   
N3990  X305.5862  Y408.0408   
N3995  X307.7796  Y404.3488   
N4000  X308.5856  Y400.8241   
N4005  X307.1958  Y396.3298   
N4010  X303.6503  Y392.0880   
N4015  X298.8855  Y388.9319   
N4020  X293.8364  Y387.6947   
N4025  X291.0190  Y387.8251   
N4030  X289.2260  Y388.5753   
N4035  X287.8053  Y390.4858   
N4040  X286.1049  Y394.0958   
N4045 G0  Z3.0000 
N4050  X169.8085  Y257.1919 
N4055  Z0.1000 
N4060 G1  Z-0.7000  F100.00 
N4065  X158.0113  Y255.3095   F300.00 
N4070  X148.7453  Y255.8620   
N4075  X140.7323  Y258.7614   
N4080  X134.1745  Y263.6455   
N4085  X129.2738  Y270.1508   
N4090  X126.2324  Y277.9136   
N4095  X125.2523  Y286.5722   
N4100  X126.5357  Y295.7626   
N4105  X130.2844  Y305.1217   
N4110  X134.3174  Y311.1772   
N4115  X139.3665  Y316.5249   
N4120  X145.2118  Y321.0615   
N4125  X151.6341  Y324.6840   
N4130  X158.4140  Y327.2885   
N4135  X165.3331  Y328.7718   
N4140  X172.1706  Y329.0303   
N4145  X178.7086  Y327.9612   
N4150  X183.9180  Y325.6171   
N4155  X184.4162  Y324.6761   
N4160  X183.0319  Y324.2950   
N4165  X180.2320  Y321.9214   
N4170  X175.1746  Y316.2147   
N4175  X170.5794  Y309.8634   
N4180  X166.6607  Y302.8941   
N4185  X163.6433  Y295.7658   
N4190  X161.7535  Y288.9375   
N4195  X161.4614  Y286.9468   
N4200  X161.7839  Y286.6893   
N4205  X165.0363  Y292.1116   
N4210  X169.3173  Y299.1302   
N4215  X174.0065  Y305.3599   
N4220  X179.1878  Y310.8984   
N4225  X184.9429  Y315.8442   
N4230  X190.9509  Y319.9607   
N4235  X192.2923  Y319.8773   
N4240  X193.4752  Y318.6828   
N4245  X197.3470  Y312.0495   
N4250  X199.5777  Y304.1659   
N4255  X200.0657  Y295.6474   
N4260  X198.7086  Y287.1086   
N4265  X197.0036  Y282.6332   
N4270  X194.4111  Y278.0136   
N4275  X187.2492  Y269.0508   
N4280  X178.5915  Y261.6378   
N4285  X174.1304  Y258.9554   
N4290  X169.8085  Y257.1919   
N4295 G0  Z0.1000 
N4300 G1  Z-1.4000  F100.00 
N4305  X158.0113  Y255.3095   F300.00 
N4310  X148.7453  Y255.8620   
N4315  X140.7323  Y258.7614   
N4320  X134.1745  Y263.6455   
N4325  X129.2738  Y270.1508   
N4330  X126.2324  Y277.9136   
N4335  X125.2523  Y286.5722   
N4340  X126.5357  Y295.7626   
N4345  X130.2844  Y305.1217   
N4350  X134.3174  Y311.1772   
N4355  X139.3665  Y316.5249   
N4360  X145.2118  Y321.0615   
N4365  X151.6341  Y324.6840   
N4370  X158.4140  Y327.2885   
N4375  X165.3331  Y328.7718   
N4380  X172.1706  Y329.0303   
N4385  X178.7086  Y327.9612   
N4390  X183.9180  Y325.6171   
N4395  X184.4162  Y324.6761   
N4400  X183.0319  Y324.2950   
N4405  X180.2320  Y321.9214   
N4410  X175.1746  Y316.2147   
N4415  X170.5794  Y309.8634   
N4420  X166.6607  Y302.8941   
N4425  X163.6433  Y295.7658   
N4430  X161.7535  Y288.9375   
N4435  X161.4614  Y286.9468   
N4440  X161.7839  Y286.6893   
N4445  X165.0363  Y292.1116   
N4450  X169.3173  Y299.1302   
N4455  X174.0065  Y305.3599   
N4460  X179.1878  Y310.8984   
N4465  X184.9429  Y315.8442   
N4470  X190.9509  Y319.9607   
N4475  X192.2923  Y319.8773   
N4480  X193.4752  Y318.6828   
N4485  X197.3470  Y312.0495   
N4490  X199.5777  Y304.1659   
N4495  X200.0657  Y295.6474   
N4500  X198.7086  Y287.1086   
N4505  X197.0036  Y282.6332   
N4510  X194.4111  Y278.0136   
N4515  X187.2492  Y269.0508   
N4520  X178.5915  Y261.6378   
N4525  X174.1304  Y258.9554   
N4530  X169.8085  Y257.1919   
N4535 G0  Z0.1000 
N4540 G1  Z-1.5000  F100.00 
N4545  X158.0113  Y255.3095   F300.00 
N4550  X148.7453  Y255.8620   
N4555  X140.7323  Y258.7614   
N4560  X134.1745  Y263.6455   
N4565  X129.2738  Y270.1508   
N4570  X126.2324  Y277.9136   
N4575  X125.2523  Y286.5722   
N4580  X126.5357  Y295.7626   
N4585  X130.2844  Y305.1217   
N4590  X134.3174  Y311.1772   
N4595  X139.3665  Y316.5249   
N4600  X145.2118  Y321.0615   
N4605  X151.6341  Y324.6840   
N4610  X158.4140  Y327.2885   
N4615  X165.3331  Y328.7718   
N4620  X172.1706  Y329.0303   
N4625  X178.7086  Y327.9612   
N4630  X183.9180  Y325.6171   
N4635  X184.4162  Y324.6761   
N4640  X183.0319  Y324.2950   
N4645  X180.2320  Y321.9214   
N4650  X175.1746  Y316.2147   
N4655  X170.5794  Y309.8634   
N4660  X166.6607  Y302.8941   
N4665  X163.6433  Y295.7658   
N4670  X161.7535  Y288.9375   
N4675  X161.4614  Y286.9468   
N4680  X161.7839  Y286.6893   
N4685  X165.0363  Y292.1116   
N4690  X169.3173  Y299.1302   
N4695  X174.0065  Y305.3599   
N4700  X179.1878  Y310.8984   
N4705  X184.9429  Y315.8442   
N4710  X190.9509  Y319.9607   
N4715  X192.2923  Y319.8773   
N4720  X193.4752  Y318.6828   
N4725  X197.3470  Y312.0495   
N4730  X199.5777  Y304.1659   
N4735  X200.0657  Y295.6474   
N4740  X198.7086  Y287.1086   
N4745  X197.0036  Y282.6332   
N4750  X194.4111  Y278.0136   
N4755  X187.2492  Y269.0508   
N4760  X178.5915  Y261.6378   
N4765  X174.1304  Y258.9554   
N4770  X169.8085  Y257.1919   
N4775 G0  Z3.0000 
N4780  X127.5305  Y247.5365 
N4785  Z0.1000 
N4790 G1  Z-0.7000  F100.00 
N4795  X151.3056  Y249.9433   F300.00 
N4800  X152.4525  Y250.1148   
N4805  X152.4636  Y250.4341   
N4810  X148.8670  Y251.6631   
N4815  X139.1052  Y255.5242   
N4820  X135.1735  Y258.2246   
N4825  X131.3696  Y261.7286   
N4830  X126.4933  Y267.5329   
N4835  X123.4473  Y273.4451   
N4840  X121.8787  Y280.4536   
N4845  X121.4345  Y289.5472   
N4850  X122.0312  Y301.0624   
N4855  X123.1644  Y305.0387   
N4860  X125.1975  Y309.6643   
N4865  X129.7779  Y317.5336   
N4870  X135.5592  Y324.6241   
N4875  X142.2990  Y330.7934   
N4880  X149.7550  Y335.8996   
N4885  X157.6841  Y339.8013   
N4890  X165.8437  Y342.3556   
N4895  X173.9913  Y343.4205   
N4900  X181.8845  Y342.8546   
N4905  X188.7210  Y341.1137   
N4910  X194.6955  Y338.8737   
N4915  X200.0745  Y336.9152   
N4920  X205.5517  Y338.3774   
N4925  X211.0473  Y341.2851   
N4930  X206.6567  Y343.6813   
N4935  X201.3380  Y346.5678   
N4940  X198.3036  Y350.4663   
N4945  X197.6211  Y355.2182   
N4950  X199.3584  Y360.6658   
N4955  X202.1334  Y364.4477   
N4960  X206.7931  Y369.2604   
N4965  X218.3627  Y378.7439   
N4970  X229.4308  Y385.2828   
N4975  X241.6027  Y390.8706   
N4980  X253.0349  Y394.7662   
N4985  X261.8829  Y396.2293   
N4990  X265.5828  Y395.8252   
N4995  X269.3402  Y394.5967   
N5000  X277.1399  Y389.5715   
N5005  X285.5091  Y380.9622   
N5010  X294.6756  Y368.5770   
N5015  X301.3817  Y358.6037   
N5020  X307.5381  Y362.4308   
N5025  X314.0761  Y365.5813   
N5030  X321.8080  Y366.6140   
N5035  X329.9220  Y366.9697   
N5040  X324.4600  Y364.4615   
N5045  X316.2060  Y359.7014   
N5050  X310.4343  Y353.9707   
N5055  X306.8626  Y346.8821   
N5060  X305.2083  Y338.0475   
N5065  X305.2479  Y330.3911   
N5070  X311.8850  Y334.4177   
N5075  X320.8426  Y339.2806   
N5080  X330.1238  Y342.2053   
N5085  X339.4290  Y343.2491   
N5090  X348.4576  Y342.4685   
N5095  X356.9089  Y339.9211   
N5100  X364.4827  Y335.6641   
N5105  X370.8783  Y329.7547   
N5110  X375.7961  Y322.2500   
N5115  X378.1614  Y315.2461   
N5120  X378.6126  Y304.1779   
N5125  X377.9886  Y292.9789   
N5130  X375.4426  Y285.2801   
N5135  X369.3507  Y275.0593   
N5140  X361.2663  Y266.0155   
N5145  X351.7856  Y258.7038   
N5150  X341.5044  Y253.6787   
N5155  X337.2608  Y251.8262   
N5160  X336.4226  Y251.1391   
N5165  X336.6277  Y250.7249   
N5170  X357.9641  Y248.7047   
N5175  X385.3966  Y246.3264   
N5180  X385.4607  Y246.2297   
N5185  X384.0649  Y246.1357   
N5190  X377.1698  Y245.9564   
N5195  X348.9115  Y245.6500   
N5200  X250.0627  Y245.3532   
N5205  X106.8038  Y245.3274   
N5210  X127.5305  Y247.5365   
N5215 G0  Z0.1000 
N5220 G1  Z-1.4000  F100.00 
N5225  X151.3056  Y249.9433   F300.00 
N5230  X152.4525  Y250.1148   
N5235  X152.4636  Y250.4341   
N5240  X148.8670  Y251.6631   
N5245  X139.1052  Y255.5242   
N5250  X135.1735  Y258.2246   
N5255  X131.3696  Y261.7286   
N5260  X126.4933  Y267.5329   
N5265  X123.4473  Y273.4451   
N5270  X121.8787  Y280.4536   
N5275  X121.4345  Y289.5472   
N5280  X122.0312  Y301.0624   
N5285  X123.1644  Y305.0387   
N5290  X125.1975  Y309.6643   
N5295  X129.7779  Y317.5336   
N5300  X135.5592  Y324.6241   
N5305  X142.2990  Y330.7934   
N5310  X149.7550  Y335.8996   
N5315  X157.6841  Y339.8013   
N5320  X165.8437  Y342.3556   
N5325  X173.9913  Y343.4205   
N5330  X181.8845  Y342.8546   
N5335  X188.7210  Y341.1137   
N5340  X194.6955  Y338.8737   
N5345  X200.0745  Y336.9152   
N5350  X205.5517  Y338.3774   
N5355  X211.0473  Y341.2851   
N5360  X206.6567  Y343.6813   
N5365  X201.3380  Y346.5678   
N5370  X198.3036  Y350.4663   
N5375  X197.6211  Y355.2182   
N5380  X199.3584  Y360.6658   
N5385  X202.1334  Y364.4477   
N5390  X206.7931  Y369.2604   
N5395  X218.3627  Y378.7439   
N5400  X229.4308  Y385.2828   
N5405  X241.6027  Y390.8706   
N5410  X253.0349  Y394.7662   
N5415  X261.8829  Y396.2293   
N5420  X265.5828  Y395.8252   
N5425  X269.3402  Y394.5967   
N5430  X277.1399  Y389.5715   
N5435  X285.5091  Y380.9622   
N5440  X294.6756  Y368.5770   
N5445  X301.3817  Y358.6037   
N5450  X307.5381  Y362.4308   
N5455  X314.0761  Y365.5813   
N5460  X321.8080  Y366.6140   
N5465  X329.9220  Y366.9697   
N5470  X324.4600  Y364.4615   
N5475  X316.2060  Y359.7014   
N5480  X310.4343  Y353.9707   
N5485  X306.8626  Y346.8821   
N5490  X305.2083  Y338.0475   
N5495  X305.2479  Y330.3911   
N5500  X311.8850  Y334.4177   
N5505  X320.8426  Y339.2806   
N5510  X330.1238  Y342.2053   
N5515  X339.4290  Y343.2491   
N5520  X348.4576  Y342.4685   
N5525  X356.9089  Y339.9211   
N5530  X364.4827  Y335.6641   
N5535  X370.8783  Y329.7547   
N5540  X375.7961  Y322.2500   
N5545  X378.1614  Y315.2461   
N5550  X378.6126  Y304.1779   
N5555  X377.9886  Y292.9789   
N5560  X375.4426  Y285.2801   
N5565  X369.3507  Y275.0593   
N5570  X361.2663  Y266.0155   
N5575  X351.7856  Y258.7038   
N5580  X341.5044  Y253.6787   
N5585  X337.2608  Y251.8262   
N5590  X336.4226  Y251.1391   
N5595  X336.6277  Y250.7249   
N5600  X357.9641  Y248.7047   
N5605  X385.3966  Y246.3264   
N5610  X385.4607  Y246.2297   
N5615  X384.0649  Y246.1357   
N5620  X377.1698  Y245.9564   
N5625  X348.9115  Y245.6500   
N5630  X250.0627  Y245.3532   
N5635  X106.8038  Y245.3274   
N5640  X127.5305  Y247.5365   
N5645 G0  Z0.1000 
N5650 G1  Z-1.5000  F100.00 
N5655  X151.3056  Y249.9433   F300.00 
N5660  X152.4525  Y250.1148   
N5665  X152.4636  Y250.4341   
N5670  X148.8670  Y251.6631   
N5675  X139.1052  Y255.5242   
N5680  X135.1735  Y258.2246   
N5685  X131.3696  Y261.7286   
N5690  X126.4933  Y267.5329   
N5695  X123.4473  Y273.4451   
N5700  X121.8787  Y280.4536   
N5705  X121.4345  Y289.5472   
N5710  X122.0312  Y301.0624   
N5715  X123.1644  Y305.0387   
N5720  X125.1975  Y309.6643   
N5725  X129.7779  Y317.5336   
N5730  X135.5592  Y324.6241   
N5735  X142.2990  Y330.7934   
N5740  X149.7550  Y335.8996   
N5745  X157.6841  Y339.8013   
N5750  X165.8437  Y342.3556   
N5755  X173.9913  Y343.4205   
N5760  X181.8845  Y342.8546   
N5765  X188.7210  Y341.1137   
N5770  X194.6955  Y338.8737   
N5775  X200.0745  Y336.9152   
N5780  X205.5517  Y338.3774   
N5785  X211.0473  Y341.2851   
N5790  X206.6567  Y343.6813   
N5795  X201.3380  Y346.5678   
N5800  X198.3036  Y350.4663   
N5805  X197.6211  Y355.2182   
N5810  X199.3584  Y360.6658   
N5815  X202.1334  Y364.4477   
N5820  X206.7931  Y369.2604   
N5825  X218.3627  Y378.7439   
N5830  X229.4308  Y385.2828   
N5835  X241.6027  Y390.8706   
N5840  X253.0349  Y394.7662   
N5845  X261.8829  Y396.2293   
N5850  X265.5828  Y395.8252   
N5855  X269.3402  Y394.5967   
N5860  X277.1399  Y389.5715   
N5865  X285.5091  Y380.9622   
N5870  X294.6756  Y368.5770   
N5875  X301.3817  Y358.6037   
N5880  X307.5381  Y362.4308   
N5885  X314.0761  Y365.5813   
N5890  X321.8080  Y366.6140   
N5895  X329.9220  Y366.9697   
N5900  X324.4600  Y364.4615   
N5905  X316.2060  Y359.7014   
N5910  X310.4343  Y353.9707   
N5915  X306.8626  Y346.8821   
N5920  X305.2083  Y338.0475   
N5925  X305.2479  Y330.3911   
N5930  X311.8850  Y334.4177   
N5935  X320.8426  Y339.2806   
N5940  X330.1238  Y342.2053   
N5945  X339.4290  Y343.2491   
N5950  X348.4576  Y342.4685   
N5955  X356.9089  Y339.9211   
N5960  X364.4827  Y335.6641   
N5965  X370.8783  Y329.7547   
N5970  X375.7961  Y322.2500   
N5975  X378.1614  Y315.2461   
N5980  X378.6126  Y304.1779   
N5985  X377.9886  Y292.9789   
N5990  X375.4426  Y285.2801   
N5995  X369.3507  Y275.0593   
N6000  X361.2663  Y266.0155   
N6005  X351.7856  Y258.7038   
N6010  X341.5044  Y253.6787   
N6015  X337.2608  Y251.8262   
N6020  X336.4226  Y251.1391   
N6025  X336.6277  Y250.7249   
N6030  X357.9641  Y248.7047   
N6035  X385.3966  Y246.3264   
N6040  X385.4607  Y246.2297   
N6045  X384.0649  Y246.1357   
N6050  X377.1698  Y245.9564   
N6055  X348.9115  Y245.6500   
N6060  X250.0627  Y245.3532   
N6065  X106.8038  Y245.3274   
N6070  X127.5305  Y247.5365   
N6075 G0  Z3.0000 
N6080  X316.6995  Y119.9442 
N6085  Z0.1000 
N6090 G1  Z-0.7000  F100.00 
N6095  X310.4509  Y123.2100   F300.00 
N6100  X308.3275  Y125.2256   
N6105  X306.8409  Y127.5600   
N6110  X305.6917  Y133.3727   
N6115  X306.8257  Y141.0281   
N6120  X309.0376  Y149.2923   
N6125  X311.2808  Y153.3557   
N6130  X312.9481  Y154.2760   
N6135  X315.2650  Y154.7036   
N6140  X322.7002  Y154.8229   
N6145  X334.0808   
N6150  X332.2482  Y149.6411   
N6155  X329.1382  Y138.6633   
N6160  X329.1229  Y135.7786   
N6165  X330.1109  Y134.4644   
N6170  X332.8021  Y134.2561   
N6175  X335.4001  Y135.5735   
N6180  X337.7083  Y138.2573   
N6185  X339.5294  Y142.1456   
N6190  X341.0049  Y147.1173   
N6195  X341.3049  Y150.5660   
N6200  X340.3510  Y153.2262   
N6205  X338.0650  Y155.8312   
N6210  X328.3317  Y165.0151   
N6215  X323.6941  Y170.0205   
N6220  X321.1376  Y174.6576   
N6225  X320.4275  Y179.6164   
N6230  X321.3288  Y185.5852   
N6235  X324.5568  Y195.6281   
N6240  X328.8939  Y203.5209   
N6245  X334.4665  Y209.4404   
N6250  X341.4008  Y213.5629   
N6255  X351.0921  Y216.2208   
N6260  X361.4008  Y216.6683   
N6265  X370.7521  Y215.0015   
N6270  X374.5759  Y213.4062   
N6275  X377.5697  Y211.3192   
N6280  X379.3162  Y209.5027   
N6285  X380.2083  Y207.7659   
N6290  X380.1263  Y201.9767   
N6295  X378.0789  Y191.0947   
N6300  X376.7472  Y186.5230   
N6305  X365.1988   
N6310  X353.6505   
N6315  X354.4615  Y189.8758   
N6320  X356.3223  Y196.0742   
N6325  X356.6817  Y200.0367   
N6330  X355.4066  Y200.9708   
N6335  X353.5528  Y201.0717   
N6340  X351.5363  Y200.4012   
N6345  X349.7728  Y199.0197   
N6350  X347.9784  Y196.1493   
N6355  X346.5241  Y192.4389   
N6360  X345.7024  Y188.8298   
N6365  X345.8056  Y186.2640   
N6370  X348.6382  Y183.0900   
N6375  X354.4509  Y178.0556   
N6380  X362.4229  Y170.6384   
N6385  X364.8896  Y167.1699   
N6390  X366.4145  Y163.6226   
N6395  X367.0485  Y159.8167   
N6400  X366.8458  Y155.5741   
N6405  X364.1385  Y145.0593   
N6410  X360.9170  Y136.7689   
N6415  X357.4439  Y130.8981   
N6420  X353.0878  Y126.6287   
N6425  X347.2162  Y123.1432   
N6430  X339.5414  Y120.2815   
N6435  X331.2846  Y118.7305   
N6440  X323.3647  Y118.5858   
N6445  X316.6995  Y119.9442   
N6450 G0  Z0.1000 
N6455 G1  Z-1.4000  F100.00 
N6460  X310.4509  Y123.2100   F300.00 
N6465  X308.3275  Y125.2256   
N6470  X306.8409  Y127.5600   
N6475  X305.6917  Y133.3727   
N6480  X306.8257  Y141.0281   
N6485  X309.0376  Y149.2923   
N6490  X311.2808  Y153.3557   
N6495  X312.9481  Y154.2760   
N6500  X315.2650  Y154.7036   
N6505  X322.7002  Y154.8229   
N6510  X334.0808   
N6515  X332.2482  Y149.6411   
N6520  X329.1382  Y138.6633   
N6525  X329.1229  Y135.7786   
N6530  X330.1109  Y134.4644   
N6535  X332.8021  Y134.2561   
N6540  X335.4001  Y135.5735   
N6545  X337.7083  Y138.2573   
N6550  X339.5294  Y142.1456   
N6555  X341.0049  Y147.1173   
N6560  X341.3049  Y150.5660   
N6565  X340.3510  Y153.2262   
N6570  X338.0650  Y155.8312   
N6575  X328.3317  Y165.0151   
N6580  X323.6941  Y170.0205   
N6585  X321.1376  Y174.6576   
N6590  X320.4275  Y179.6164   
N6595  X321.3288  Y185.5852   
N6600  X324.5568  Y195.6281   
N6605  X328.8939  Y203.5209   
N6610  X334.4665  Y209.4404   
N6615  X341.4008  Y213.5629   
N6620  X351.0921  Y216.2208   
N6625  X361.4008  Y216.6683   
N6630  X370.7521  Y215.0015   
N6635  X374.5759  Y213.4062   
N6640  X377.5697  Y211.3192   
N6645  X379.3162  Y209.5027   
N6650  X380.2083  Y207.7659   
N6655  X380.1263  Y201.9767   
N6660  X378.0789  Y191.0947   
N6665  X376.7472  Y186.5230   
N6670  X365.1988   
N6675  X353.6505   
N6680  X354.4615  Y189.8758   
N6685  X356.3223  Y196.0742   
N6690  X356.6817  Y200.0367   
N6695  X355.4066  Y200.9708   
N6700  X353.5528  Y201.0717   
N6705  X351.5363  Y200.4012   
N6710  X349.7728  Y199.0197   
N6715  X347.9784  Y196.1493   
N6720  X346.5241  Y192.4389   
N6725  X345.7024  Y188.8298   
N6730  X345.8056  Y186.2640   
N6735  X348.6382  Y183.0900   
N6740  X354.4509  Y178.0556   
N6745  X362.4229  Y170.6384   
N6750  X364.8896  Y167.1699   
N6755  X366.4145  Y163.6226   
N6760  X367.0485  Y159.8167   
N6765  X366.8458  Y155.5741   
N6770  X364.1385  Y145.0593   
N6775  X360.9170  Y136.7689   
N6780  X357.4439  Y130.8981   
N6785  X353.0878  Y126.6287   
N6790  X347.2162  Y123.1432   
N6795  X339.5414  Y120.2815   
N6800  X331.2846  Y118.7305   
N6805  X323.3647  Y118.5858   
N6810  X316.6995  Y119.9442   
N6815 G0  Z0.1000 
N6820 G1  Z-1.5000  F100.00 
N6825  X310.4509  Y123.2100   F300.00 
N6830  X308.3275  Y125.2256   
N6835  X306.8409  Y127.5600   
N6840  X305.6917  Y133.3727   
N6845  X306.8257  Y141.0281   
N6850  X309.0376  Y149.2923   
N6855  X311.2808  Y153.3557   
N6860  X312.9481  Y154.2760   
N6865  X315.2650  Y154.7036   
N6870  X322.7002  Y154.8229   
N6875  X334.0808   
N6880  X332.2482  Y149.6411   
N6885  X329.1382  Y138.6633   
N6890  X329.1229  Y135.7786   
N6895  X330.1109  Y134.4644   
N6900  X332.8021  Y134.2561   
N6905  X335.4001  Y135.5735   
N6910  X337.7083  Y138.2573   
N6915  X339.5294  Y142.1456   
N6920  X341.0049  Y147.1173   
N6925  X341.3049  Y150.5660   
N6930  X340.3510  Y153.2262   
N6935  X338.0650  Y155.8312   
N6940  X328.3317  Y165.0151   
N6945  X323.6941  Y170.0205   
N6950  X321.1376  Y174.6576   
N6955  X320.4275  Y179.6164   
N6960  X321.3288  Y185.5852   
N6965  X324.5568  Y195.6281   
N6970  X328.8939  Y203.5209   
N6975  X334.4665  Y209.4404   
N6980  X341.4008  Y213.5629   
N6985  X351.0921  Y216.2208   
N6990  X361.4008  Y216.6683   
N6995  X370.7521  Y215.0015   
N7000  X374.5759  Y213.4062   
N7005  X377.5697  Y211.3192   
N7010  X379.3162  Y209.5027   
N7015  X380.2083  Y207.7659   
N7020  X380.1263  Y201.9767   
N7025  X378.0789  Y191.0947   
N7030  X376.7472  Y186.5230   
N7035  X365.1988   
N7040  X353.6505   
N7045  X354.4615  Y189.8758   
N7050  X356.3223  Y196.0742   
N7055  X356.6817  Y200.0367   
N7060  X355.4066  Y200.9708   
N7065  X353.5528  Y201.0717   
N7070  X351.5363  Y200.4012   
N7075  X349.7728  Y199.0197   
N7080  X347.9784  Y196.1493   
N7085  X346.5241  Y192.4389   
N7090  X345.7024  Y188.8298   
N7095  X345.8056  Y186.2640   
N7100  X348.6382  Y183.0900   
N7105  X354.4509  Y178.0556   
N7110  X362.4229  Y170.6384   
N7115  X364.8896  Y167.1699   
N7120  X366.4145  Y163.6226   
N7125  X367.0485  Y159.8167   
N7130  X366.8458  Y155.5741   
N7135  X364.1385  Y145.0593   
N7140  X360.9170  Y136.7689   
N7145  X357.4439  Y130.8981   
N7150  X353.0878  Y126.6287   
N7155  X347.2162  Y123.1432   
N7160  X339.5414  Y120.2815   
N7165  X331.2846  Y118.7305   
N7170  X323.3647  Y118.5858   
N7175  X316.6995  Y119.9442   
N7180 G0  Z3.0000 
N7185  X276.4925  Y43.9138 
N7190  Z0.1000 
N7195 G1  Z-0.7000  F100.00 
N7200  X263.8893  Y43.0042   F300.00 
N7205  X247.8858  Y42.8286   
N7210  X231.9183  Y43.3493   
N7215  X219.4230  Y44.5299   
N7220  X206.0696  Y47.0376   
N7225  X193.0347  Y50.3380   
N7230  X180.3454  Y54.4101   
N7235  X168.0284  Y59.2344   
N7240  X156.1104  Y64.7894   
N7245  X144.6183  Y71.0546   
N7250  X133.5787  Y78.0096   
N7255  X123.0183  Y85.6337   
N7260  X112.9643  Y93.9062   
N7265  X103.4426  Y102.8063   
N7270  X94.4808  Y112.3137   
N7275  X86.1056  Y122.4073   
N7280  X78.3432  Y133.0672   
N7285  X71.2210  Y144.2718   
N7290  X64.7650  Y156.0012   
N7295  X59.0026  Y168.2344   
N7300  X51.1107  Y189.6381   
N7305  X45.6718  Y211.6146   
N7310  X42.6793  Y233.9565   
N7315  X42.1273  Y256.4578   
N7320  X44.0097  Y278.9112   
N7325  X48.3205  Y301.1108   
N7330  X55.0534  Y322.8490   
N7335  X64.2019  Y343.9191   
N7340  X73.0250  Y359.7216   
N7345  X83.1066  Y374.5183   
N7350  X94.3495  Y388.2651   
N7355  X106.6582  Y400.9190   
N7360  X119.9364  Y412.4365   
N7365  X134.0879  Y422.7734   
N7370  X149.0167  Y431.8873   
N7375  X164.6267  Y439.7339   
N7380  X180.8214  Y446.2701   
N7385  X197.5055  Y451.4523   
N7390  X214.5817  Y455.2370   
N7395  X231.9547  Y457.5811   
N7400  X249.5282  Y458.4405   
N7405  X267.2057  Y457.7719   
N7410  X284.8916  Y455.5323   
N7415  X302.4895  Y451.6781   
N7420  X316.6212  Y447.3825   
N7425  X330.2800  Y442.1827   
N7430  X343.4325  Y436.1129   
N7435  X356.0467  Y429.2072   
N7440  X368.0895  Y421.4992   
N7445  X379.5286  Y413.0240   
N7450  X390.3314  Y403.8147   
N7455  X400.4651  Y393.9064   
N7460  X409.8969  Y383.3326   
N7465  X418.5952  Y372.1276   
N7470  X426.5262  Y360.3253   
N7475  X433.6582  Y347.9604   
N7480  X439.9579  Y335.0665   
N7485  X445.3931  Y321.6781   
N7490  X449.9312  Y307.8289   
N7495  X453.5393  Y293.5535   
N7500  X456.8364  Y273.2382   
N7505  X458.0433  Y252.6815   
N7510  X457.1982  Y232.0833   
N7515  X454.3388  Y211.6431   
N7520  X449.5031  Y191.5619   
N7525  X442.7292  Y172.0397   
N7530  X434.0549  Y153.2760   
N7535  X423.5190  Y135.4717   
N7540  X410.0873  Y117.4310   
N7545  X394.9229  Y101.0754   
N7550  X378.1854  Y86.5051   
N7555  X360.0341  Y73.8195   
N7560  X340.6294  Y63.1181   
N7565  X320.1312  Y54.5005   
N7570  X298.6989  Y48.0657   
N7575  X276.4925  Y43.9138   
N7580 G0  Z0.1000 
N7585 G1  Z-1.4000  F100.00 
N7590  X263.8893  Y43.0042   F300.00 
N7595  X247.8858  Y42.8286   
N7600  X231.9183  Y43.3493   
N7605  X219.4230  Y44.5299   
N7610  X206.0696  Y47.0376   
N7615  X193.0347  Y50.3380   
N7620  X180.3454  Y54.4101   
N7625  X168.0284  Y59.2344   
N7630  X156.1104  Y64.7894   
N7635  X144.6183  Y71.0546   
N7640  X133.5787  Y78.0096   
N7645  X123.0183  Y85.6337   
N7650  X112.9643  Y93.9062   
N7655  X103.4426  Y102.8063   
N7660  X94.4808  Y112.3137   
N7665  X86.1056  Y122.4073   
N7670  X78.3432  Y133.0672   
N7675  X71.2210  Y144.2718   
N7680  X64.7650  Y156.0012   
N7685  X59.0026  Y168.2344   
N7690  X51.1107  Y189.6381   
N7695  X45.6718  Y211.6146   
N7700  X42.6793  Y233.9565   
N7705  X42.1273  Y256.4578   
N7710  X44.0097  Y278.9112   
N7715  X48.3205  Y301.1108   
N7720  X55.0534  Y322.8490   
N7725  X64.2019  Y343.9191   
N7730  X73.0250  Y359.7216   
N7735  X83.1066  Y374.5183   
N7740  X94.3495  Y388.2651   
N7745  X106.6582  Y400.9190   
N7750  X119.9364  Y412.4365   
N7755  X134.0879  Y422.7734   
N7760  X149.0167  Y431.8873   
N7765  X164.6267  Y439.7339   
N7770  X180.8214  Y446.2701   
N7775  X197.5055  Y451.4523   
N7780  X214.5817  Y455.2370   
N7785  X231.9547  Y457.5811   
N7790  X249.5282  Y458.4405   
N7795  X267.2057  Y457.7719   
N7800  X284.8916  Y455.5323   
N7805  X302.4895  Y451.6781   
N7810  X316.6212  Y447.3825   
N7815  X330.2800  Y442.1827   
N7820  X343.4325  Y436.1129   
N7825  X356.0467  Y429.2072   
N7830  X368.0895  Y421.4992   
N7835  X379.5286  Y413.0240   
N7840  X390.3314  Y403.8147   
N7845  X400.4651  Y393.9064   
N7850  X409.8969  Y383.3326   
N7855  X418.5952  Y372.1276   
N7860  X426.5262  Y360.3253   
N7865  X433.6582  Y347.9604   
N7870  X439.9579  Y335.0665   
N7875  X445.3931  Y321.6781   
N7880  X449.9312  Y307.8289   
N7885  X453.5393  Y293.5535   
N7890  X456.8364  Y273.2382   
N7895  X458.0433  Y252.6815   
N7900  X457.1982  Y232.0833   
N7905  X454.3388  Y211.6431   
N7910  X449.5031  Y191.5619   
N7915  X442.7292  Y172.0397   
N7920  X434.0549  Y153.2760   
N7925  X423.5190  Y135.4717   
N7930  X410.0873  Y117.4310   
N7935  X394.9229  Y101.0754   
N7940  X378.1854  Y86.5051   
N7945  X360.0341  Y73.8195   
N7950  X340.6294  Y63.1181   
N7955  X320.1312  Y54.5005   
N7960  X298.6989  Y48.0657   
N7965  X276.4925  Y43.9138   
N7970 G0  Z0.1000 
N7975 G1  Z-1.5000  F100.00 
N7980  X263.8893  Y43.0042   F300.00 
N7985  X247.8858  Y42.8286   
N7990  X231.9183  Y43.3493   
N7995  X219.4230  Y44.5299   
N8000  X206.0696  Y47.0376   
N8005  X193.0347  Y50.3380   
N8010  X180.3454  Y54.4101   
N8015  X168.0284  Y59.2344   
N8020  X156.1104  Y64.7894   
N8025  X144.6183  Y71.0546   
N8030  X133.5787  Y78.0096   
N8035  X123.0183  Y85.6337   
N8040  X112.9643  Y93.9062   
N8045  X103.4426  Y102.8063   
N8050  X94.4808  Y112.3137   
N8055  X86.1056  Y122.4073   
N8060  X78.3432  Y133.0672   
N8065  X71.2210  Y144.2718   
N8070  X64.7650  Y156.0012   
N8075  X59.0026  Y168.2344   
N8080  X51.1107  Y189.6381   
N8085  X45.6718  Y211.6146   
N8090  X42.6793  Y233.9565   
N8095  X42.1273  Y256.4578   
N8100  X44.0097  Y278.9112   
N8105  X48.3205  Y301.1108   
N8110  X55.0534  Y322.8490   
N8115  X64.2019  Y343.9191   
N8120  X73.0250  Y359.7216   
N8125  X83.1066  Y374.5183   
N8130  X94.3495  Y388.2651   
N8135  X106.6582  Y400.9190   
N8140  X119.9364  Y412.4365   
N8145  X134.0879  Y422.7734   
N8150  X149.0167  Y431.8873   
N8155  X164.6267  Y439.7339   
N8160  X180.8214  Y446.2701   
N8165  X197.5055  Y451.4523   
N8170  X214.5817  Y455.2370   
N8175  X231.9547  Y457.5811   
N8180  X249.5282  Y458.4405   
N8185  X267.2057  Y457.7719   
N8190  X284.8916  Y455.5323   
N8195  X302.4895  Y451.6781   
N8200  X316.6212  Y447.3825   
N8205  X330.2800  Y442.1827   
N8210  X343.4325  Y436.1129   
N8215  X356.0467  Y429.2072   
N8220  X368.0895  Y421.4992   
N8225  X379.5286  Y413.0240   
N8230  X390.3314  Y403.8147   
N8235  X400.4651  Y393.9064   
N8240  X409.8969  Y383.3326   
N8245  X418.5952  Y372.1276   
N8250  X426.5262  Y360.3253   
N8255  X433.6582  Y347.9604   
N8260  X439.9579  Y335.0665   
N8265  X445.3931  Y321.6781   
N8270  X449.9312  Y307.8289   
N8275  X453.5393  Y293.5535   
N8280  X456.8364  Y273.2382   
N8285  X458.0433  Y252.6815   
N8290  X457.1982  Y232.0833   
N8295  X454.3388  Y211.6431   
N8300  X449.5031  Y191.5619   
N8305  X442.7292  Y172.0397   
N8310  X434.0549  Y153.2760   
N8315  X423.5190  Y135.4717   
N8320  X410.0873  Y117.4310   
N8325  X394.9229  Y101.0754   
N8330  X378.1854  Y86.5051   
N8335  X360.0341  Y73.8195   
N8340  X340.6294  Y63.1181   
N8345  X320.1312  Y54.5005   
N8350  X298.6989  Y48.0657   
N8355  X276.4925  Y43.9138   
N8360 G0  Z3.0000 
N8365  X224.9393  Y0.9142 
N8370  Z0.1000 
N8375 G1  Z-0.7000  F100.00 
N8380  X223.5979  Y4.2049   F300.00 
N8385  X222.2653  Y10.8576   
N8390  X220.7119  Y17.9776   
N8395  X218.2682  Y22.6230   
N8400  X214.5126  Y25.2925   
N8405  X209.0225  Y26.4832   
N8410  X203.8932  Y26.3201   
N8415  X199.9611  Y24.5063   
N8420  X196.8281  Y20.7272   
N8425  X194.0969  Y14.6680   
N8430  X192.3181  Y10.2406   
N8435  X190.6136  Y8.0241   
N8440  X188.1810  Y7.4854   
N8445  X184.2189  Y8.0904   
N8450  X180.2509  Y8.8840   
N8455  X181.0283  Y17.2500   
N8460  X181.1937  Y24.3778   
N8465  X180.1260  Y29.7232   
N8470  X177.7390  Y33.5179   
N8475  X173.9443  Y35.9925   
N8480  X167.8777  Y37.7873   
N8485  X162.9922  Y37.2680   
N8490  X158.6514  Y34.1861   
N8495  X154.2211  Y28.2937   
N8500  X149.5163  Y20.9968   
N8505  X145.0611  Y22.4373   
N8510  X140.1208  Y24.9782   
N8515  X140.0503  Y27.0076   
N8520  X141.0350  Y30.7254   
N8525  X142.2940  Y35.8943   
N8530  X142.7036  Y41.3033   
N8535  X142.2663  Y46.1266   
N8540  X140.9844  Y49.5394   
N8545  X138.5411  Y51.9139   
N8550  X135.0289  Y54.0069   
N8555  X131.1115  Y55.4977   
N8560  X127.4541  Y56.0658   
N8565  X125.5200  Y55.7050   
N8570  X123.3763  Y54.4972   
N8575  X117.4172  Y48.7832   
N8580  X110.7460  Y41.5001   
N8585  X106.9462  Y44.1207   
N8590  X102.6634  Y47.1109   
N8595  X105.4066  Y54.6687   
N8600  X107.6848  Y61.1859   
N8605  X108.6327  Y66.7598   
N8610  X107.8401  Y71.4288   
N8615  X104.4559  Y75.3305   
N8620  X100.5621  Y78.1128   
N8625  X96.7130  Y79.7141   
N8630  X93.2288  Y80.0501   
N8635  X90.4294  Y79.0358   
N8640  X82.4311  Y73.2904   
N8645  X76.6686  Y69.1786   
N8650  X73.0485  Y72.7983   
N8655  X69.4289  Y76.4184   
N8660  X74.4001  Y84.1098   
N8665  X78.1262  Y90.7800   
N8670  X79.4022  Y95.9706   
N8675  X78.2363  Y100.4478   
N8680  X74.6379  Y104.9780   
N8685  X70.5380  Y108.3226   
N8690  X66.5562  Y109.5921   
N8695  X61.9799  Y108.8290   
N8700  X56.0958  Y106.0762   
N8705  X48.2809  Y102.4335   
N8710  X46.6409  Y103.6316   
N8715  X44.4106  Y106.5213   
N8720  X41.7595  Y110.6156   
N8725  X46.6893  Y115.3454   
N8730  X50.5942  Y119.7493   
N8735  X53.4627  Y124.3325   
N8740  X55.0880  Y128.6830   
N8745  X55.2617  Y132.3884   
N8750  X53.6853  Y135.7989   
N8755  X50.7227  Y139.6628   
N8760  X47.3455  Y142.4594   
N8765  X43.7378  Y143.7561   
N8770  X39.6121  Y143.5962   
N8775  X34.6815  Y142.0212   
N8780  X30.0033  Y140.4323   
N8785  X26.6611  Y140.2895   
N8790  X24.2875  Y141.6719   
N8795  X22.5147  Y144.6598   
N8800  X21.3157  Y148.4486   
N8805  X22.2723  Y150.0462   
N8810  X30.9139  Y156.3256   
N8815  X34.2548  Y159.7167   
N8820  X36.3169  Y162.7116   
N8825  X37.6795  Y167.0929   
N8830  X36.1607  Y172.4821   
N8835  X33.7248  Y177.4446   
N8840  X30.5632  Y180.2458   
N8845  X25.8114  Y181.3080   
N8850  X18.6043  Y181.0536   
N8855  X9.0093  Y180.2039   
N8860  X7.7430  Y185.1917   
N8865  X6.4771  Y190.1795   
N8870  X14.2091  Y193.8697   
N8875  X19.4886  Y196.8073   
N8880  X23.5018  Y199.9141   
N8885  X26.0505  Y203.0039   
N8890  X26.9376  Y205.8899   
N8895  X25.3860  Y213.0735   
N8900  X22.0290  Y219.2027   
N8905  X18.8075  Y221.3081   
N8910  X13.6381  Y221.8805   
N8915  X3.9316  Y222.6422   
N8920  X1.8409  Y223.1910   
N8925  X0.6977  Y224.0661   
N8930  X0.1217  Y228.5438   
N8935  Y233.6832   
N8940  X6.9960  Y235.3324   
N8945  X15.2547  Y238.2521   
N8950  X18.2398  Y240.1571   
N8955  X20.4752  Y242.3750   
N8960  X21.9705  Y244.9187   
N8965  X22.7354  Y247.8006   
N8970  X22.1134  Y254.6289   
N8975  X20.5858  Y258.6213   
N8980  X18.1767  Y261.3152   
N8985  X14.2805  Y263.1456   
N8990  X8.2904  Y264.5464   
N8995  X0.0000  Y266.0712   
N9000  X0.3659  Y271.7134   
N9005  X0.7313  Y277.3551   
N9010  X8.6563  Y278.0564   
N9015  X17.1753  Y279.4748   
N9020  X20.2231  Y280.6642   
N9025  X22.5599  Y282.2618   
N9030  X24.2580  Y284.3331   
N9035  X25.3902  Y286.9445   
N9040  X26.2464  Y294.0507   
N9045  X25.5856  Y298.1008   
N9050  X23.4409  Y301.4370   
N9055  X19.6660  Y304.2102   
N9060  X14.1151  Y306.5714   
N9065  X6.8343  Y309.6528   
N9070  X7.5785  Y315.2245   
N9075  X8.7973  Y320.0279   
N9080  X19.0600  Y319.5994   
N9085  X28.3951  Y319.7091   
N9090  X30.6397  Y320.7030   
N9095  X32.8217  Y322.6698   
N9100  X35.4971  Y326.3009   
N9105  X37.0680  Y330.4888   
N9110  X37.4228  Y334.7481   
N9115  X36.4519  Y338.5926   
N9120  X34.0806  Y341.7132   
N9125  X30.6024  Y344.5956   
N9130  X24.8690  Y348.3673   
N9135  X22.0889  Y350.8985   
N9140  X21.5705  Y353.2049   
N9145  X22.6216  Y356.2997   
N9150  X24.8271  Y360.8575   
N9155  X31.8212  Y359.0429   
N9160  X41.4545  Y357.3162   
N9165  X44.9571  Y357.5586   
N9170  X47.9957  Y358.5254   
N9175  X50.3357  Y360.3290   
N9180  X52.5457  Y363.2533   
N9185  X54.2489  Y366.6868   
N9190  X55.0682  Y370.0161   
N9195  X55.0949  Y373.5906   
N9200  X54.2157  Y376.4785   
N9205  X52.0167  Y379.4697   
N9210  X48.0841  Y383.3552   
N9215  X41.1812  Y389.7794   
N9220  X44.4327  Y394.0428   
N9225  X47.6846  Y398.3057   
N9230  X53.8664  Y395.3469   
N9235  X61.8527  Y392.2765   
N9240  X68.1137  Y391.6857   
N9245  X70.7159  Y392.3346   
N9250  X73.0282  Y393.6202   
N9255  X76.9742  Y398.1256   
N9260  X78.9547  Y402.4668   
N9265  X79.2354  Y406.6303   
N9270  X77.7654  Y410.9803   
N9275  X74.4941  Y415.8824   
N9280  X69.6173  Y423.5590   
N9285  X70.4302  Y425.3212   
N9290  X72.3393  Y427.5842   
N9295  X74.5521  Y429.5367   
N9300  X76.2756  Y430.3680   
N9305  X83.7421  Y426.0847   
N9310  X89.6593  Y422.5872   
N9315  X94.2854  Y421.0541   
N9320  X98.3276  Y421.3868   
N9325  X102.4929  Y423.4885   
N9330  X106.4937  Y427.0280   
N9335  X108.7060  Y431.3513   
N9340  X109.3645  Y434.0862   
N9345  X109.2986  Y436.4069   
N9350  X106.3222  Y443.1246   
N9355  X102.5362  Y451.7929   
N9360  X103.6412  Y453.6914   
N9365  X106.2978  Y456.0452   
N9370  X110.0589  Y458.7235   
N9375  X115.7467  Y453.2214   
N9380  X121.6368  Y448.0571   
N9385  X126.3610  Y445.4770   
N9390  X130.8023  Y445.2051   
N9395  X135.8436  Y446.9673   
N9400  X138.8960  Y448.9958   
N9405  X141.4986  Y451.7648   
N9410  X143.3105  Y454.8236   
N9415  X143.9902  Y457.7221   
N9420  X141.5180  Y467.0448   
N9425  X139.9660  Y472.5418   
N9430  X139.7061  Y475.4518   
N9435  X141.7134  Y476.8895   
N9440  X145.0132  Y478.0766   
N9445  X148.1827  Y478.6304   
N9450  X149.7992  Y478.1683   
N9455  X151.9000  Y474.5228   
N9460  X155.5584  Y470.0949   
N9465  X159.6591  Y466.0950   
N9470  X163.0871  Y463.7348   
N9475  X167.4395  Y462.6574   
N9480  X172.5862  Y464.3559   
N9485  X177.3003  Y466.9978   
N9490  X180.1260  Y470.1617   
N9495  X181.3287  Y474.3292   
N9500  X181.1725  Y479.9838   
N9505  X179.7984  Y489.1217   
N9510  X180.3730  Y491.0115   
N9515  X183.8609  Y492.4676   
N9520  X189.3376  Y493.7607   
N9525  X193.4964  Y486.3863   
N9530  X196.7216  Y480.4764   
N9535  X199.8252  Y476.6328   
N9540  X202.1822  Y475.3025   
N9545  X204.9863  Y474.5477   
N9550  X211.1911  Y474.6357   
N9555  X216.9480  Y476.6361   
N9560  X219.1921  Y478.2719   
N9565  X220.7653  Y480.2884   
N9570  X221.6519  Y484.3076   
N9575  X222.0206  Y490.6774   
N9580  X222.1219  Y495.6094   
N9585  X222.8795  Y498.2453   
N9590  X224.9721  Y499.5139   
N9595  X229.0774  Y500.3466   
N9600  X232.1768  Y500.4857   
N9605  X233.4933  Y499.5374   
N9610  X236.9199  Y488.2439   
N9615  X240.2037  Y481.6911   
N9620  X242.0856  Y479.8110   
N9625  X244.2841  Y478.6572   
N9630  X250.1009  Y477.9176   
N9635  X255.8551  Y478.5701   
N9640  X259.9102  Y481.4815   
N9645  X262.5299  Y485.0136   
N9650  X263.5667  Y488.4918   
N9655  X265.2768  Y496.2938   
N9660  X266.7440  Y499.2411   
N9665  X268.1550  Y500.3512   
N9670  X273.0875  Y500.0466   
N9675  X275.0667  Y499.7867   
N9680  X276.2178  Y498.8844   
N9685  X277.4233  Y492.8529   
N9690  X279.0900  Y483.6869   
N9695  X281.8789  Y477.9908   
N9700  X283.8760  Y476.2296   
N9705  X286.3713  Y475.0781   
N9710  X293.1494  Y474.2597   
N9715  X297.6118  Y474.7610   
N9720  X300.9241  Y476.5927   
N9725  X303.6272  Y480.2488   
N9730  X306.2622  Y486.2227   
N9735  X309.1952  Y493.9183   
N9740  X313.4531  Y493.1225   
N9745  X318.7607  Y491.6783   
N9750  X319.2625  Y488.9812   
N9755  X318.9943  Y483.4081   
N9760  X319.1607  Y474.6772   
N9765  X320.1593  Y471.2215   
N9770  X321.7624  Y468.3811   
N9775  X323.9656  Y466.1614   
N9780  X326.7641  Y464.5684   
N9785  X330.1529  Y463.6080   
N9790  X334.1287  Y463.2869   
N9795  X337.7373  Y463.6629   
N9800  X340.6031  Y465.1365   
N9805  X343.3629  Y468.2254   
N9810  X346.6563  Y473.4463   
N9815  X349.0585  Y477.0259   
N9820  X351.2750  Y478.7360   
N9825  X353.8440  Y478.7733   
N9830  X357.3038  Y477.3342   
N9835  X360.7893  Y475.5315   
N9840  X359.0719  Y469.8253   
N9845  X357.4328  Y459.8220   
N9850  X357.4632  Y455.1660   
N9855  X358.1143  Y451.7519   
N9860  X360.1193  Y449.4971   
N9865  X363.8376  Y447.3087   
N9870  X368.2784  Y445.6540   
N9875  X372.4520  Y444.9982   
N9880  X374.8408  Y445.2397   
N9885  X376.9440  Y446.2009   
N9890  X382.4023  Y451.7044   
N9895  X386.8528  Y456.4383   
N9900  X389.5070  Y458.4037   
N9905  X394.4216  Y455.5664   
N9910  X397.9606  Y452.7348   
N9915  X394.7266  Y445.6710   
N9920  X391.9802  Y438.0100   
N9925  X391.5853  Y431.9006   
N9930  X393.5847  Y427.0492   
N9935  X398.0223  Y423.1614   
N9940  X402.5364  Y421.0416   
N9945  X406.7072  Y420.7914   
N9950  X411.1347  Y422.5130   
N9955  X416.4193  Y426.3096   
N9960  X423.3374  Y432.0048   
N9965  X427.1064  Y428.2363   
N9970  X430.8749  Y424.4673   
N9975  X426.2953  Y417.5676   
N9980  X422.0057  Y409.3472   
N9985  X421.1329  Y405.7884   
N9990  X421.1126  Y402.5636   
N9995  X421.9490  Y399.6462   
N10000  X423.6443  Y397.0113   
N10005  X426.2027  Y394.6331   
N10010  X429.6274  Y392.4852   
N10015  X434.2332  Y390.0494   
N10020  X439.9906  Y392.7442   
N10025  X447.6580  Y396.3293   
N10030  X451.5233  Y397.6495   
N10035  X453.5122  Y396.8878   
N10040  X455.5508  Y394.2285   
N10045  X458.7986  Y389.9701   
N10050  X453.9370  Y385.8090   
N10055  X447.9972  Y379.3167   
N10060  X446.2323  Y376.0721   
N10065  X445.2752  Y372.8552   
N10070  X445.1296  Y369.6867   
N10075  X445.7991  Y366.5868   
N10080  X447.2866  Y363.5754   
N10085  X449.5966  Y360.6728   
N10090  X452.7518  Y357.8586   
N10095  X455.7780  Y356.6153   
N10100  X459.4815  Y356.8190   
N10105  X464.6702  Y358.3452   
N10110  X470.4769  Y360.1963   
N10115  X473.9035  Y360.5926   
N10120  X475.9038  Y359.3931   
N10125  X477.4319  Y356.4559   
N10130  X479.2770  Y351.7814   
N10135  X472.7491  Y347.0277   
N10140  X467.4839  Y342.6362   
N10145  X463.9914  Y338.3912   
N10150  X462.4118  Y334.1186   
N10155  X463.2260  Y329.3626   
N10160  X465.3895  Y324.9475   
N10165  X468.5631  Y321.2159   
N10170  X472.5247  Y318.7261   
N10175  X476.7711  Y318.7068   
N10180  X486.1034  Y320.1874   
N10185  X491.1013  Y320.9187   
N10190  X492.4423  Y315.6355   
N10195  X493.5404  Y310.3136   
N10200  X485.0168  Y306.1520   
N10205  X478.9843  Y302.6480   
N10210  X475.3536  Y299.1228   
N10215  X473.7883  Y295.0852   
N10220  X473.9500  Y290.0430   
N10225  X475.3306  Y285.5386   
N10230  X477.5171  Y281.7881   
N10235  X479.2843  Y280.0711   
N10240  X481.4303  Y279.0154   
N10245  X489.8364  Y277.9647   
N10250  X499.3941  Y277.3551   
N10255  X499.7660  Y272.2383   
N10260  X499.8968  Y269.2646   
N10265  X499.4305  Y267.6030   
N10270  X497.9126  Y266.6578   
N10275  X494.8892  Y265.8316   
N10280  X485.8103  Y262.7105   
N10285  X482.5238  Y260.7701   
N10290  X480.0516  Y258.5517   
N10295  X478.3775  Y256.0376   
N10300  X477.4853  Y253.2096   
N10305  X477.3595  Y250.0489   
N10310  X477.9844  Y246.5380   
N10315  X479.6175  Y242.3764   
N10320  X482.1169  Y239.4539   
N10325  X485.8159  Y237.5088   
N10330  X491.0465  Y236.2803   
N10335  X498.9770  Y234.5629   
N10340  X499.7024  Y232.5243   
N10345  X500.0037  Y228.5138   
N10350  Y223.0993   
N10355  X494.8219  Y223.0703   
N10360  X489.3277  Y222.7145   
N10365  X484.4611  Y221.7524   
N10370  X480.4377  Y220.2428   
N10375  X477.4738  Y218.2465   
N10380  X475.2177  Y215.0061   
N10385  X473.9680  Y210.8072   
N10390  X473.8196  Y206.2452   
N10395  X474.8675  Y201.9150   
N10400  X476.0711  Y199.6768   
N10405  X477.8498  Y197.9478   
N10410  X485.2891  Y194.4798   
N10415  X492.0373  Y191.4302   
N10420  X493.2708  Y190.2708   
N10425  X493.3989  Y189.1427   
N10430  X492.0561  Y183.9858   
N10435  X491.4368  Y182.1877   
N10440  X489.9903  Y181.2628   
N10445  X480.4589  Y180.9375   
N10450  X472.7869  Y180.6624   
N10455  X468.0498  Y179.2620   
N10460  X465.2421  Y176.1331   
N10465  X463.3587  Y170.6730   
N10470  X462.5920  Y165.6105   
N10475  X463.4564  Y161.6766   
N10480  X466.2218  Y158.3325   
N10485  X471.1566  Y155.0391   
N10490  X478.6056  Y150.0462   
N10495  X478.5604  Y147.9504   
N10500  X477.5692  Y144.6248   
N10505  X476.1803  Y141.5465   
N10510  X474.9430  Y140.1922   
N10515  X466.7268  Y142.1138   
N10520  X460.2930  Y143.2631   
N10525  X455.2964  Y143.2820   
N10530  X451.3136  Y141.5705   
N10535  X448.0313  Y138.3269   
N10540  X445.7867  Y134.0123   
N10545  X444.9167  Y129.0876   
N10550  X445.0577  Y126.0831   
N10555  X445.9222  Y123.7385   
N10560  X451.8717  Y117.6623   
N10565  X458.8981  Y111.4275   
N10570  X455.9807  Y106.9185   
N10575  X453.5624  Y103.8901   
N10580  X451.8445  Y102.9403   
N10585  X440.6030  Y107.6328   
N10590  X433.9116  Y109.4249   
N10595  X431.5933  Y109.2852   
N10600  X429.5975  Y108.4839   
N10605  X425.4875  Y104.9780   
N10610  X421.7444  Y100.1285   
N10615  X420.5186  Y95.3457   
N10620  X421.8135  Y90.2768   
N10625  X425.6308  Y84.5679   
N10630  X430.5081  Y77.3479   
N10635  X426.9220  Y72.5942   
N10640  X423.3360  Y69.1584   
N10645  X418.4952  Y72.9928   
N10650  X411.4531  Y77.7036   
N10655  X405.5331  Y79.5349   
N10660  X402.8258  Y79.3828   
N10665  X400.1969  Y78.5252   
N10670  X394.9050  Y74.7148   
N10675  X391.8742  Y71.0168   
N10680  X390.7821  Y67.1409   
N10685  X391.6097  Y62.4480   
N10690  X394.3368  Y56.2976   
N10695  X398.6053  Y48.0491   
N10700  X394.6690  Y45.3515   
N10705  X389.9747  Y42.6540   
N10710  X383.0631  Y48.6482   
N10715  X378.0854  Y52.9065   
N10720  X373.7598  Y55.1543   
N10725  X369.6461  Y55.5285   
N10730  X365.3034  Y54.1664   
N10735  X360.1179  Y50.8131   
N10740  X357.1370  Y46.7128   
N10745  X356.3545  Y41.8512   
N10750  X357.7646  Y36.2141   
N10755  X359.8696  Y30.6803   
N10760  X360.3986  Y27.2657   
N10765  X359.2544  Y25.0847   
N10770  X356.3398  Y23.2511   
N10775  X351.6372  Y20.8517   
N10780  X346.6586  Y27.9108   
N10785  X342.0358  Y33.4069   
N10790  X337.9553  Y36.5132   
N10795  X333.8559  Y37.4436   
N10800  X329.5395  Y37.0943   
N10805  X325.3955  Y35.5524   
N10810  X321.8136  Y32.9046   
N10815  X319.6326  Y30.2213   
N10820  X318.6054  Y27.1763   
N10825  X318.6068  Y22.8792   
N10830  X319.5132  Y16.4408   
N10835  X319.7455  Y9.5254   
N10840  X314.4180  Y7.8734   
N10845  X309.8869  Y7.0407   
N10850  X306.8677  Y13.8676   
N10855  X302.7678  Y21.0544   
N10860  X298.0455  Y25.3916   
N10865  X295.4258  Y26.5063   
N10870  X292.6208  Y26.9256   
N10875  X286.4142  Y25.7021   
N10880  X282.3646  Y23.5930   
N10885  X279.8140  Y20.7576   
N10890  X278.4859  Y16.7067   
N10895  X278.1048  Y10.9498   
N10900  X277.7408  Y5.2353   
N10905  X276.4533  Y1.7981   
N10910  X273.9483  Y0.2521   
N10915  X269.9319  Y0.2111   
N10920  X268.1891  Y0.6705   
N10925  X266.9302  Y1.8778   
N10930  X264.5989  Y8.5001   
N10935  X262.2083  Y14.9312   
N10940  X259.0457  Y19.5056   
N10945  X255.0970  Y22.2378   
N10950  X250.3484  Y23.1419   
N10955  X246.0560  Y22.4788   
N10960  X242.0354  Y20.7466   
N10965  X238.9249  Y18.3172   
N10970  X237.3632  Y15.5643   
N10975  X234.0578  Y1.8437   
N10980  X232.5252  Y0.1995   
N10985  X230.1285  Y0.0000   
N10990  X224.9393  Y0.9142   
N10995 G0  Z0.1000 
N11000 G1  Z-1.4000  F100.00 
N11005  X223.5979  Y4.2049   F300.00 
N11010  X222.2653  Y10.8576   
N11015  X220.7119  Y17.9776   
N11020  X218.2682  Y22.6230   
N11025  X214.5126  Y25.2925   
N11030  X209.0225  Y26.4832   
N11035  X203.8932  Y26.3201   
N11040  X199.9611  Y24.5063   
N11045  X196.8281  Y20.7272   
N11050  X194.0969  Y14.6680   
N11055  X192.3181  Y10.2406   
N11060  X190.6136  Y8.0241   
N11065  X188.1810  Y7.4854   
N11070  X184.2189  Y8.0904   
N11075  X180.2509  Y8.8840   
N11080  X181.0283  Y17.2500   
N11085  X181.1937  Y24.3778   
N11090  X180.1260  Y29.7232   
N11095  X177.7390  Y33.5179   
N11100  X173.9443  Y35.9925   
N11105  X167.8777  Y37.7873   
N11110  X162.9922  Y37.2680   
N11115  X158.6514  Y34.1861   
N11120  X154.2211  Y28.2937   
N11125  X149.5163  Y20.9968   
N11130  X145.0611  Y22.4373   
N11135  X140.1208  Y24.9782   
N11140  X140.0503  Y27.0076   
N11145  X141.0350  Y30.7254   
N11150  X142.2940  Y35.8943   
N11155  X142.7036  Y41.3033   
N11160  X142.2663  Y46.1266   
N11165  X140.9844  Y49.5394   
N11170  X138.5411  Y51.9139   
N11175  X135.0289  Y54.0069   
N11180  X131.1115  Y55.4977   
N11185  X127.4541  Y56.0658   
N11190  X125.5200  Y55.7050   
N11195  X123.3763  Y54.4972   
N11200  X117.4172  Y48.7832   
N11205  X110.7460  Y41.5001   
N11210  X106.9462  Y44.1207   
N11215  X102.6634  Y47.1109   
N11220  X105.4066  Y54.6687   
N11225  X107.6848  Y61.1859   
N11230  X108.6327  Y66.7598   
N11235  X107.8401  Y71.4288   
N11240  X104.4559  Y75.3305   
N11245  X100.5621  Y78.1128   
N11250  X96.7130  Y79.7141   
N11255  X93.2288  Y80.0501   
N11260  X90.4294  Y79.0358   
N11265  X82.4311  Y73.2904   
N11270  X76.6686  Y69.1786   
N11275  X73.0485  Y72.7983   
N11280  X69.4289  Y76.4184   
N11285  X74.4001  Y84.1098   
N11290  X78.1262  Y90.7800   
N11295  X79.4022  Y95.9706   
N11300  X78.2363  Y100.4478   
N11305  X74.6379  Y104.9780   
N11310  X70.5380  Y108.3226   
N11315  X66.5562  Y109.5921   
N11320  X61.9799  Y108.8290   
N11325  X56.0958  Y106.0762   
N11330  X48.2809  Y102.4335   
N11335  X46.6409  Y103.6316   
N11340  X44.4106  Y106.5213   
N11345  X41.7595  Y110.6156   
N11350  X46.6893  Y115.3454   
N11355  X50.5942  Y119.7493   
N11360  X53.4627  Y124.3325   
N11365  X55.0880  Y128.6830   
N11370  X55.2617  Y132.3884   
N11375  X53.6853  Y135.7989   
N11380  X50.7227  Y139.6628   
N11385  X47.3455  Y142.4594   
N11390  X43.7378  Y143.7561   
N11395  X39.6121  Y143.5962   
N11400  X34.6815  Y142.0212   
N11405  X30.0033  Y140.4323   
N11410  X26.6611  Y140.2895   
N11415  X24.2875  Y141.6719   
N11420  X22.5147  Y144.6598   
N11425  X21.3157  Y148.4486   
N11430  X22.2723  Y150.0462   
N11435  X30.9139  Y156.3256   
N11440  X34.2548  Y159.7167   
N11445  X36.3169  Y162.7116   
N11450  X37.6795  Y167.0929   
N11455  X36.1607  Y172.4821   
N11460  X33.7248  Y177.4446   
N11465  X30.5632  Y180.2458   
N11470  X25.8114  Y181.3080   
N11475  X18.6043  Y181.0536   
N11480  X9.0093  Y180.2039   
N11485  X7.7430  Y185.1917   
N11490  X6.4771  Y190.1795   
N11495  X14.2091  Y193.8697   
N11500  X19.4886  Y196.8073   
N11505  X23.5018  Y199.9141   
N11510  X26.0505  Y203.0039   
N11515  X26.9376  Y205.8899   
N11520  X25.3860  Y213.0735   
N11525  X22.0290  Y219.2027   
N11530  X18.8075  Y221.3081   
N11535  X13.6381  Y221.8805   
N11540  X3.9316  Y222.6422   
N11545  X1.8409  Y223.1910   
N11550  X0.6977  Y224.0661   
N11555  X0.1217  Y228.5438   
N11560  Y233.6832   
N11565  X6.9960  Y235.3324   
N11570  X15.2547  Y238.2521   
N11575  X18.2398  Y240.1571   
N11580  X20.4752  Y242.3750   
N11585  X21.9705  Y244.9187   
N11590  X22.7354  Y247.8006   
N11595  X22.1134  Y254.6289   
N11600  X20.5858  Y258.6213   
N11605  X18.1767  Y261.3152   
N11610  X14.2805  Y263.1456   
N11615  X8.2904  Y264.5464   
N11620  X0.0000  Y266.0712   
N11625  X0.3659  Y271.7134   
N11630  X0.7313  Y277.3551   
N11635  X8.6563  Y278.0564   
N11640  X17.1753  Y279.4748   
N11645  X20.2231  Y280.6642   
N11650  X22.5599  Y282.2618   
N11655  X24.2580  Y284.3331   
N11660  X25.3902  Y286.9445   
N11665  X26.2464  Y294.0507   
N11670  X25.5856  Y298.1008   
N11675  X23.4409  Y301.4370   
N11680  X19.6660  Y304.2102   
N11685  X14.1151  Y306.5714   
N11690  X6.8343  Y309.6528   
N11695  X7.5785  Y315.2245   
N11700  X8.7973  Y320.0279   
N11705  X19.0600  Y319.5994   
N11710  X28.3951  Y319.7091   
N11715  X30.6397  Y320.7030   
N11720  X32.8217  Y322.6698   
N11725  X35.4971  Y326.3009   
N11730  X37.0680  Y330.4888   
N11735  X37.4228  Y334.7481   
N11740  X36.4519  Y338.5926   
N11745  X34.0806  Y341.7132   
N11750  X30.6024  Y344.5956   
N11755  X24.8690  Y348.3673   
N11760  X22.0889  Y350.8985   
N11765  X21.5705  Y353.2049   
N11770  X22.6216  Y356.2997   
N11775  X24.8271  Y360.8575   
N11780  X31.8212  Y359.0429   
N11785  X41.4545  Y357.3162   
N11790  X44.9571  Y357.5586   
N11795  X47.9957  Y358.5254   
N11800  X50.3357  Y360.3290   
N11805  X52.5457  Y363.2533   
N11810  X54.2489  Y366.6868   
N11815  X55.0682  Y370.0161   
N11820  X55.0949  Y373.5906   
N11825  X54.2157  Y376.4785   
N11830  X52.0167  Y379.4697   
N11835  X48.0841  Y383.3552   
N11840  X41.1812  Y389.7794   
N11845  X44.4327  Y394.0428   
N11850  X47.6846  Y398.3057   
N11855  X53.8664  Y395.3469   
N11860  X61.8527  Y392.2765   
N11865  X68.1137  Y391.6857   
N11870  X70.7159  Y392.3346   
N11875  X73.0282  Y393.6202   
N11880  X76.9742  Y398.1256   
N11885  X78.9547  Y402.4668   
N11890  X79.2354  Y406.6303   
N11895  X77.7654  Y410.9803   
N11900  X74.4941  Y415.8824   
N11905  X69.6173  Y423.5590   
N11910  X70.4302  Y425.3212   
N11915  X72.3393  Y427.5842   
N11920  X74.5521  Y429.5367   
N11925  X76.2756  Y430.3680   
N11930  X83.7421  Y426.0847   
N11935  X89.6593  Y422.5872   
N11940  X94.2854  Y421.0541   
N11945  X98.3276  Y421.3868   
N11950  X102.4929  Y423.4885   
N11955  X106.4937  Y427.0280   
N11960  X108.7060  Y431.3513   
N11965  X109.3645  Y434.0862   
N11970  X109.2986  Y436.4069   
N11975  X106.3222  Y443.1246   
N11980  X102.5362  Y451.7929   
N11985  X103.6412  Y453.6914   
N11990  X106.2978  Y456.0452   
N11995  X110.0589  Y458.7235   
N12000  X115.7467  Y453.2214   
N12005  X121.6368  Y448.0571   
N12010  X126.3610  Y445.4770   
N12015  X130.8023  Y445.2051   
N12020  X135.8436  Y446.9673   
N12025  X138.8960  Y448.9958   
N12030  X141.4986  Y451.7648   
N12035  X143.3105  Y454.8236   
N12040  X143.9902  Y457.7221   
N12045  X141.5180  Y467.0448   
N12050  X139.9660  Y472.5418   
N12055  X139.7061  Y475.4518   
N12060  X141.7134  Y476.8895   
N12065  X145.0132  Y478.0766   
N12070  X148.1827  Y478.6304   
N12075  X149.7992  Y478.1683   
N12080  X151.9000  Y474.5228   
N12085  X155.5584  Y470.0949   
N12090  X159.6591  Y466.0950   
N12095  X163.0871  Y463.7348   
N12100  X167.4395  Y462.6574   
N12105  X172.5862  Y464.3559   
N12110  X177.3003  Y466.9978   
N12115  X180.1260  Y470.1617   
N12120  X181.3287  Y474.3292   
N12125  X181.1725  Y479.9838   
N12130  X179.7984  Y489.1217   
N12135  X180.3730  Y491.0115   
N12140  X183.8609  Y492.4676   
N12145  X189.3376  Y493.7607   
N12150  X193.4964  Y486.3863   
N12155  X196.7216  Y480.4764   
N12160  X199.8252  Y476.6328   
N12165  X202.1822  Y475.3025   
N12170  X204.9863  Y474.5477   
N12175  X211.1911  Y474.6357   
N12180  X216.9480  Y476.6361   
N12185  X219.1921  Y478.2719   
N12190  X220.7653  Y480.2884   
N12195  X221.6519  Y484.3076   
N12200  X222.0206  Y490.6774   
N12205  X222.1219  Y495.6094   
N12210  X222.8795  Y498.2453   
N12215  X224.9721  Y499.5139   
N12220  X229.0774  Y500.3466   
N12225  X232.1768  Y500.4857   
N12230  X233.4933  Y499.5374   
N12235  X236.9199  Y488.2439   
N12240  X240.2037  Y481.6911   
N12245  X242.0856  Y479.8110   
N12250  X244.2841  Y478.6572   
N12255  X250.1009  Y477.9176   
N12260  X255.8551  Y478.5701   
N12265  X259.9102  Y481.4815   
N12270  X262.5299  Y485.0136   
N12275  X263.5667  Y488.4918   
N12280  X265.2768  Y496.2938   
N12285  X266.7440  Y499.2411   
N12290  X268.1550  Y500.3512   
N12295  X273.0875  Y500.0466   
N12300  X275.0667  Y499.7867   
N12305  X276.2178  Y498.8844   
N12310  X277.4233  Y492.8529   
N12315  X279.0900  Y483.6869   
N12320  X281.8789  Y477.9908   
N12325  X283.8760  Y476.2296   
N12330  X286.3713  Y475.0781   
N12335  X293.1494  Y474.2597   
N12340  X297.6118  Y474.7610   
N12345  X300.9241  Y476.5927   
N12350  X303.6272  Y480.2488   
N12355  X306.2622  Y486.2227   
N12360  X309.1952  Y493.9183   
N12365  X313.4531  Y493.1225   
N12370  X318.7607  Y491.6783   
N12375  X319.2625  Y488.9812   
N12380  X318.9943  Y483.4081   
N12385  X319.1607  Y474.6772   
N12390  X320.1593  Y471.2215   
N12395  X321.7624  Y468.3811   
N12400  X323.9656  Y466.1614   
N12405  X326.7641  Y464.5684   
N12410  X330.1529  Y463.6080   
N12415  X334.1287  Y463.2869   
N12420  X337.7373  Y463.6629   
N12425  X340.6031  Y465.1365   
N12430  X343.3629  Y468.2254   
N12435  X346.6563  Y473.4463   
N12440  X349.0585  Y477.0259   
N12445  X351.2750  Y478.7360   
N12450  X353.8440  Y478.7733   
N12455  X357.3038  Y477.3342   
N12460  X360.7893  Y475.5315   
N12465  X359.0719  Y469.8253   
N12470  X357.4328  Y459.8220   
N12475  X357.4632  Y455.1660   
N12480  X358.1143  Y451.7519   
N12485  X360.1193  Y449.4971   
N12490  X363.8376  Y447.3087   
N12495  X368.2784  Y445.6540   
N12500  X372.4520  Y444.9982   
N12505  X374.8408  Y445.2397   
N12510  X376.9440  Y446.2009   
N12515  X382.4023  Y451.7044   
N12520  X386.8528  Y456.4383   
N12525  X389.5070  Y458.4037   
N12530  X394.4216  Y455.5664   
N12535  X397.9606  Y452.7348   
N12540  X394.7266  Y445.6710   
N12545  X391.9802  Y438.0100   
N12550  X391.5853  Y431.9006   
N12555  X393.5847  Y427.0492   
N12560  X398.0223  Y423.1614   
N12565  X402.5364  Y421.0416   
N12570  X406.7072  Y420.7914   
N12575  X411.1347  Y422.5130   
N12580  X416.4193  Y426.3096   
N12585  X423.3374  Y432.0048   
N12590  X427.1064  Y428.2363   
N12595  X430.8749  Y424.4673   
N12600  X426.2953  Y417.5676   
N12605  X422.0057  Y409.3472   
N12610  X421.1329  Y405.7884   
N12615  X421.1126  Y402.5636   
N12620  X421.9490  Y399.6462   
N12625  X423.6443  Y397.0113   
N12630  X426.2027  Y394.6331   
N12635  X429.6274  Y392.4852   
N12640  X434.2332  Y390.0494   
N12645  X439.9906  Y392.7442   
N12650  X447.6580  Y396.3293   
N12655  X451.5233  Y397.6495   
N12660  X453.5122  Y396.8878   
N12665  X455.5508  Y394.2285   
N12670  X458.7986  Y389.9701   
N12675  X453.9370  Y385.8090   
N12680  X447.9972  Y379.3167   
N12685  X446.2323  Y376.0721   
N12690  X445.2752  Y372.8552   
N12695  X445.1296  Y369.6867   
N12700  X445.7991  Y366.5868   
N12705  X447.2866  Y363.5754   
N12710  X449.5966  Y360.6728   
N12715  X452.7518  Y357.8586   
N12720  X455.7780  Y356.6153   
N12725  X459.4815  Y356.8190   
N12730  X464.6702  Y358.3452   
N12735  X470.4769  Y360.1963   
N12740  X473.9035  Y360.5926   
N12745  X475.9038  Y359.3931   
N12750  X477.4319  Y356.4559   
N12755  X479.2770  Y351.7814   
N12760  X472.7491  Y347.0277   
N12765  X467.4839  Y342.6362   
N12770  X463.9914  Y338.3912   
N12775  X462.4118  Y334.1186   
N12780  X463.2260  Y329.3626   
N12785  X465.3895  Y324.9475   
N12790  X468.5631  Y321.2159   
N12795  X472.5247  Y318.7261   
N12800  X476.7711  Y318.7068   
N12805  X486.1034  Y320.1874   
N12810  X491.1013  Y320.9187   
N12815  X492.4423  Y315.6355   
N12820  X493.5404  Y310.3136   
N12825  X485.0168  Y306.1520   
N12830  X478.9843  Y302.6480   
N12835  X475.3536  Y299.1228   
N12840  X473.7883  Y295.0852   
N12845  X473.9500  Y290.0430   
N12850  X475.3306  Y285.5386   
N12855  X477.5171  Y281.7881   
N12860  X479.2843  Y280.0711   
N12865  X481.4303  Y279.0154   
N12870  X489.8364  Y277.9647   
N12875  X499.3941  Y277.3551   
N12880  X499.7660  Y272.2383   
N12885  X499.8968  Y269.2646   
N12890  X499.4305  Y267.6030   
N12895  X497.9126  Y266.6578   
N12900  X494.8892  Y265.8316   
N12905  X485.8103  Y262.7105   
N12910  X482.5238  Y260.7701   
N12915  X480.0516  Y258.5517   
N12920  X478.3775  Y256.0376   
N12925  X477.4853  Y253.2096   
N12930  X477.3595  Y250.0489   
N12935  X477.9844  Y246.5380   
N12940  X479.6175  Y242.3764   
N12945  X482.1169  Y239.4539   
N12950  X485.8159  Y237.5088   
N12955  X491.0465  Y236.2803   
N12960  X498.9770  Y234.5629   
N12965  X499.7024  Y232.5243   
N12970  X500.0037  Y228.5138   
N12975  Y223.0993   
N12980  X494.8219  Y223.0703   
N12985  X489.3277  Y222.7145   
N12990  X484.4611  Y221.7524   
N12995  X480.4377  Y220.2428   
N13000  X477.4738  Y218.2465   
N13005  X475.2177  Y215.0061   
N13010  X473.9680  Y210.8072   
N13015  X473.8196  Y206.2452   
N13020  X474.8675  Y201.9150   
N13025  X476.0711  Y199.6768   
N13030  X477.8498  Y197.9478   
N13035  X485.2891  Y194.4798   
N13040  X492.0373  Y191.4302   
N13045  X493.2708  Y190.2708   
N13050  X493.3989  Y189.1427   
N13055  X492.0561  Y183.9858   
N13060  X491.4368  Y182.1877   
N13065  X489.9903  Y181.2628   
N13070  X480.4589  Y180.9375   
N13075  X472.7869  Y180.6624   
N13080  X468.0498  Y179.2620   
N13085  X465.2421  Y176.1331   
N13090  X463.3587  Y170.6730   
N13095  X462.5920  Y165.6105   
N13100  X463.4564  Y161.6766   
N13105  X466.2218  Y158.3325   
N13110  X471.1566  Y155.0391   
N13115  X478.6056  Y150.0462   
N13120  X478.5604  Y147.9504   
N13125  X477.5692  Y144.6248   
N13130  X476.1803  Y141.5465   
N13135  X474.9430  Y140.1922   
N13140  X466.7268  Y142.1138   
N13145  X460.2930  Y143.2631   
N13150  X455.2964  Y143.2820   
N13155  X451.3136  Y141.5705   
N13160  X448.0313  Y138.3269   
N13165  X445.7867  Y134.0123   
N13170  X444.9167  Y129.0876   
N13175  X445.0577  Y126.0831   
N13180  X445.9222  Y123.7385   
N13185  X451.8717  Y117.6623   
N13190  X458.8981  Y111.4275   
N13195  X455.9807  Y106.9185   
N13200  X453.5624  Y103.8901   
N13205  X451.8445  Y102.9403   
N13210  X440.6030  Y107.6328   
N13215  X433.9116  Y109.4249   
N13220  X431.5933  Y109.2852   
N13225  X429.5975  Y108.4839   
N13230  X425.4875  Y104.9780   
N13235  X421.7444  Y100.1285   
N13240  X420.5186  Y95.3457   
N13245  X421.8135  Y90.2768   
N13250  X425.6308  Y84.5679   
N13255  X430.5081  Y77.3479   
N13260  X426.9220  Y72.5942   
N13265  X423.3360  Y69.1584   
N13270  X418.4952  Y72.9928   
N13275  X411.4531  Y77.7036   
N13280  X405.5331  Y79.5349   
N13285  X402.8258  Y79.3828   
N13290  X400.1969  Y78.5252   
N13295  X394.9050  Y74.7148   
N13300  X391.8742  Y71.0168   
N13305  X390.7821  Y67.1409   
N13310  X391.6097  Y62.4480   
N13315  X394.3368  Y56.2976   
N13320  X398.6053  Y48.0491   
N13325  X394.6690  Y45.3515   
N13330  X389.9747  Y42.6540   
N13335  X383.0631  Y48.6482   
N13340  X378.0854  Y52.9065   
N13345  X373.7598  Y55.1543   
N13350  X369.6461  Y55.5285   
N13355  X365.3034  Y54.1664   
N13360  X360.1179  Y50.8131   
N13365  X357.1370  Y46.7128   
N13370  X356.3545  Y41.8512   
N13375  X357.7646  Y36.2141   
N13380  X359.8696  Y30.6803   
N13385  X360.3986  Y27.2657   
N13390  X359.2544  Y25.0847   
N13395  X356.3398  Y23.2511   
N13400  X351.6372  Y20.8517   
N13405  X346.6586  Y27.9108   
N13410  X342.0358  Y33.4069   
N13415  X337.9553  Y36.5132   
N13420  X333.8559  Y37.4436   
N13425  X329.5395  Y37.0943   
N13430  X325.3955  Y35.5524   
N13435  X321.8136  Y32.9046   
N13440  X319.6326  Y30.2213   
N13445  X318.6054  Y27.1763   
N13450  X318.6068  Y22.8792   
N13455  X319.5132  Y16.4408   
N13460  X319.7455  Y9.5254   
N13465  X314.4180  Y7.8734   
N13470  X309.8869  Y7.0407   
N13475  X306.8677  Y13.8676   
N13480  X302.7678  Y21.0544   
N13485  X298.0455  Y25.3916   
N13490  X295.4258  Y26.5063   
N13495  X292.6208  Y26.9256   
N13500  X286.4142  Y25.7021   
N13505  X282.3646  Y23.5930   
N13510  X279.8140  Y20.7576   
N13515  X278.4859  Y16.7067   
N13520  X278.1048  Y10.9498   
N13525  X277.7408  Y5.2353   
N13530  X276.4533  Y1.7981   
N13535  X273.9483  Y0.2521   
N13540  X269.9319  Y0.2111   
N13545  X268.1891  Y0.6705   
N13550  X266.9302  Y1.8778   
N13555  X264.5989  Y8.5001   
N13560  X262.2083  Y14.9312   
N13565  X259.0457  Y19.5056   
N13570  X255.0970  Y22.2378   
N13575  X250.3484  Y23.1419   
N13580  X246.0560  Y22.4788   
N13585  X242.0354  Y20.7466   
N13590  X238.9249  Y18.3172   
N13595  X237.3632  Y15.5643   
N13600  X234.0578  Y1.8437   
N13605  X232.5252  Y0.1995   
N13610  X230.1285  Y0.0000   
N13615  X224.9393  Y0.9142   
N13620 G0  Z0.1000 
N13625 G1  Z-1.5000  F100.00 
N13630  X223.5979  Y4.2049   F300.00 
N13635  X222.2653  Y10.8576   
N13640  X220.7119  Y17.9776   
N13645  X218.2682  Y22.6230   
N13650  X214.5126  Y25.2925   
N13655  X209.0225  Y26.4832   
N13660  X203.8932  Y26.3201   
N13665  X199.9611  Y24.5063   
N13670  X196.8281  Y20.7272   
N13675  X194.0969  Y14.6680   
N13680  X192.3181  Y10.2406   
N13685  X190.6136  Y8.0241   
N13690  X188.1810  Y7.4854   
N13695  X184.2189  Y8.0904   
N13700  X180.2509  Y8.8840   
N13705  X181.0283  Y17.2500   
N13710  X181.1937  Y24.3778   
N13715  X180.1260  Y29.7232   
N13720  X177.7390  Y33.5179   
N13725  X173.9443  Y35.9925   
N13730  X167.8777  Y37.7873   
N13735  X162.9922  Y37.2680   
N13740  X158.6514  Y34.1861   
N13745  X154.2211  Y28.2937   
N13750  X149.5163  Y20.9968   
N13755  X145.0611  Y22.4373   
N13760  X140.1208  Y24.9782   
N13765  X140.0503  Y27.0076   
N13770  X141.0350  Y30.7254   
N13775  X142.2940  Y35.8943   
N13780  X142.7036  Y41.3033   
N13785  X142.2663  Y46.1266   
N13790  X140.9844  Y49.5394   
N13795  X138.5411  Y51.9139   
N13800  X135.0289  Y54.0069   
N13805  X131.1115  Y55.4977   
N13810  X127.4541  Y56.0658   
N13815  X125.5200  Y55.7050   
N13820  X123.3763  Y54.4972   
N13825  X117.4172  Y48.7832   
N13830  X110.7460  Y41.5001   
N13835  X106.9462  Y44.1207   
N13840  X102.6634  Y47.1109   
N13845  X105.4066  Y54.6687   
N13850  X107.6848  Y61.1859   
N13855  X108.6327  Y66.7598   
N13860  X107.8401  Y71.4288   
N13865  X104.4559  Y75.3305   
N13870  X100.5621  Y78.1128   
N13875  X96.7130  Y79.7141   
N13880  X93.2288  Y80.0501   
N13885  X90.4294  Y79.0358   
N13890  X82.4311  Y73.2904   
N13895  X76.6686  Y69.1786   
N13900  X73.0485  Y72.7983   
N13905  X69.4289  Y76.4184   
N13910  X74.4001  Y84.1098   
N13915  X78.1262  Y90.7800   
N13920  X79.4022  Y95.9706   
N13925  X78.2363  Y100.4478   
N13930  X74.6379  Y104.9780   
N13935  X70.5380  Y108.3226   
N13940  X66.5562  Y109.5921   
N13945  X61.9799  Y108.8290   
N13950  X56.0958  Y106.0762   
N13955  X48.2809  Y102.4335   
N13960  X46.6409  Y103.6316   
N13965  X44.4106  Y106.5213   
N13970  X41.7595  Y110.6156   
N13975  X46.6893  Y115.3454   
N13980  X50.5942  Y119.7493   
N13985  X53.4627  Y124.3325   
N13990  X55.0880  Y128.6830   
N13995  X55.2617  Y132.3884   
N14000  X53.6853  Y135.7989   
N14005  X50.7227  Y139.6628   
N14010  X47.3455  Y142.4594   
N14015  X43.7378  Y143.7561   
N14020  X39.6121  Y143.5962   
N14025  X34.6815  Y142.0212   
N14030  X30.0033  Y140.4323   
N14035  X26.6611  Y140.2895   
N14040  X24.2875  Y141.6719   
N14045  X22.5147  Y144.6598   
N14050  X21.3157  Y148.4486   
N14055  X22.2723  Y150.0462   
N14060  X30.9139  Y156.3256   
N14065  X34.2548  Y159.7167   
N14070  X36.3169  Y162.7116   
N14075  X37.6795  Y167.0929   
N14080  X36.1607  Y172.4821   
N14085  X33.7248  Y177.4446   
N14090  X30.5632  Y180.2458   
N14095  X25.8114  Y181.3080   
N14100  X18.6043  Y181.0536   
N14105  X9.0093  Y180.2039   
N14110  X7.7430  Y185.1917   
N14115  X6.4771  Y190.1795   
N14120  X14.2091  Y193.8697   
N14125  X19.4886  Y196.8073   
N14130  X23.5018  Y199.9141   
N14135  X26.0505  Y203.0039   
N14140  X26.9376  Y205.8899   
N14145  X25.3860  Y213.0735   
N14150  X22.0290  Y219.2027   
N14155  X18.8075  Y221.3081   
N14160  X13.6381  Y221.8805   
N14165  X3.9316  Y222.6422   
N14170  X1.8409  Y223.1910   
N14175  X0.6977  Y224.0661   
N14180  X0.1217  Y228.5438   
N14185  Y233.6832   
N14190  X6.9960  Y235.3324   
N14195  X15.2547  Y238.2521   
N14200  X18.2398  Y240.1571   
N14205  X20.4752  Y242.3750   
N14210  X21.9705  Y244.9187   
N14215  X22.7354  Y247.8006   
N14220  X22.1134  Y254.6289   
N14225  X20.5858  Y258.6213   
N14230  X18.1767  Y261.3152   
N14235  X14.2805  Y263.1456   
N14240  X8.2904  Y264.5464   
N14245  X0.0000  Y266.0712   
N14250  X0.3659  Y271.7134   
N14255  X0.7313  Y277.3551   
N14260  X8.6563  Y278.0564   
N14265  X17.1753  Y279.4748   
N14270  X20.2231  Y280.6642   
N14275  X22.5599  Y282.2618   
N14280  X24.2580  Y284.3331   
N14285  X25.3902  Y286.9445   
N14290  X26.2464  Y294.0507   
N14295  X25.5856  Y298.1008   
N14300  X23.4409  Y301.4370   
N14305  X19.6660  Y304.2102   
N14310  X14.1151  Y306.5714   
N14315  X6.8343  Y309.6528   
N14320  X7.5785  Y315.2245   
N14325  X8.7973  Y320.0279   
N14330  X19.0600  Y319.5994   
N14335  X28.3951  Y319.7091   
N14340  X30.6397  Y320.7030   
N14345  X32.8217  Y322.6698   
N14350  X35.4971  Y326.3009   
N14355  X37.0680  Y330.4888   
N14360  X37.4228  Y334.7481   
N14365  X36.4519  Y338.5926   
N14370  X34.0806  Y341.7132   
N14375  X30.6024  Y344.5956   
N14380  X24.8690  Y348.3673   
N14385  X22.0889  Y350.8985   
N14390  X21.5705  Y353.2049   
N14395  X22.6216  Y356.2997   
N14400  X24.8271  Y360.8575   
N14405  X31.8212  Y359.0429   
N14410  X41.4545  Y357.3162   
N14415  X44.9571  Y357.5586   
N14420  X47.9957  Y358.5254   
N14425  X50.3357  Y360.3290   
N14430  X52.5457  Y363.2533   
N14435  X54.2489  Y366.6868   
N14440  X55.0682  Y370.0161   
N14445  X55.0949  Y373.5906   
N14450  X54.2157  Y376.4785   
N14455  X52.0167  Y379.4697   
N14460  X48.0841  Y383.3552   
N14465  X41.1812  Y389.7794   
N14470  X44.4327  Y394.0428   
N14475  X47.6846  Y398.3057   
N14480  X53.8664  Y395.3469   
N14485  X61.8527  Y392.2765   
N14490  X68.1137  Y391.6857   
N14495  X70.7159  Y392.3346   
N14500  X73.0282  Y393.6202   
N14505  X76.9742  Y398.1256   
N14510  X78.9547  Y402.4668   
N14515  X79.2354  Y406.6303   
N14520  X77.7654  Y410.9803   
N14525  X74.4941  Y415.8824   
N14530  X69.6173  Y423.5590   
N14535  X70.4302  Y425.3212   
N14540  X72.3393  Y427.5842   
N14545  X74.5521  Y429.5367   
N14550  X76.2756  Y430.3680   
N14555  X83.7421  Y426.0847   
N14560  X89.6593  Y422.5872   
N14565  X94.2854  Y421.0541   
N14570  X98.3276  Y421.3868   
N14575  X102.4929  Y423.4885   
N14580  X106.4937  Y427.0280   
N14585  X108.7060  Y431.3513   
N14590  X109.3645  Y434.0862   
N14595  X109.2986  Y436.4069   
N14600  X106.3222  Y443.1246   
N14605  X102.5362  Y451.7929   
N14610  X103.6412  Y453.6914   
N14615  X106.2978  Y456.0452   
N14620  X110.0589  Y458.7235   
N14625  X115.7467  Y453.2214   
N14630  X121.6368  Y448.0571   
N14635  X126.3610  Y445.4770   
N14640  X130.8023  Y445.2051   
N14645  X135.8436  Y446.9673   
N14650  X138.8960  Y448.9958   
N14655  X141.4986  Y451.7648   
N14660  X143.3105  Y454.8236   
N14665  X143.9902  Y457.7221   
N14670  X141.5180  Y467.0448   
N14675  X139.9660  Y472.5418   
N14680  X139.7061  Y475.4518   
N14685  X141.7134  Y476.8895   
N14690  X145.0132  Y478.0766   
N14695  X148.1827  Y478.6304   
N14700  X149.7992  Y478.1683   
N14705  X151.9000  Y474.5228   
N14710  X155.5584  Y470.0949   
N14715  X159.6591  Y466.0950   
N14720  X163.0871  Y463.7348   
N14725  X167.4395  Y462.6574   
N14730  X172.5862  Y464.3559   
N14735  X177.3003  Y466.9978   
N14740  X180.1260  Y470.1617   
N14745  X181.3287  Y474.3292   
N14750  X181.1725  Y479.9838   
N14755  X179.7984  Y489.1217   
N14760  X180.3730  Y491.0115   
N14765  X183.8609  Y492.4676   
N14770  X189.3376  Y493.7607   
N14775  X193.4964  Y486.3863   
N14780  X196.7216  Y480.4764   
N14785  X199.8252  Y476.6328   
N14790  X202.1822  Y475.3025   
N14795  X204.9863  Y474.5477   
N14800  X211.1911  Y474.6357   
N14805  X216.9480  Y476.6361   
N14810  X219.1921  Y478.2719   
N14815  X220.7653  Y480.2884   
N14820  X221.6519  Y484.3076   
N14825  X222.0206  Y490.6774   
N14830  X222.1219  Y495.6094   
N14835  X222.8795  Y498.2453   
N14840  X224.9721  Y499.5139   
N14845  X229.0774  Y500.3466   
N14850  X232.1768  Y500.4857   
N14855  X233.4933  Y499.5374   
N14860  X236.9199  Y488.2439   
N14865  X240.2037  Y481.6911   
N14870  X242.0856  Y479.8110   
N14875  X244.2841  Y478.6572   
N14880  X250.1009  Y477.9176   
N14885  X255.8551  Y478.5701   
N14890  X259.9102  Y481.4815   
N14895  X262.5299  Y485.0136   
N14900  X263.5667  Y488.4918   
N14905  X265.2768  Y496.2938   
N14910  X266.7440  Y499.2411   
N14915  X268.1550  Y500.3512   
N14920  X273.0875  Y500.0466   
N14925  X275.0667  Y499.7867   
N14930  X276.2178  Y498.8844   
N14935  X277.4233  Y492.8529   
N14940  X279.0900  Y483.6869   
N14945  X281.8789  Y477.9908   
N14950  X283.8760  Y476.2296   
N14955  X286.3713  Y475.0781   
N14960  X293.1494  Y474.2597   
N14965  X297.6118  Y474.7610   
N14970  X300.9241  Y476.5927   
N14975  X303.6272  Y480.2488   
N14980  X306.2622  Y486.2227   
N14985  X309.1952  Y493.9183   
N14990  X313.4531  Y493.1225   
N14995  X318.7607  Y491.6783   
N15000  X319.2625  Y488.9812   
N15005  X318.9943  Y483.4081   
N15010  X319.1607  Y474.6772   
N15015  X320.1593  Y471.2215   
N15020  X321.7624  Y468.3811   
N15025  X323.9656  Y466.1614   
N15030  X326.7641  Y464.5684   
N15035  X330.1529  Y463.6080   
N15040  X334.1287  Y463.2869   
N15045  X337.7373  Y463.6629   
N15050  X340.6031  Y465.1365   
N15055  X343.3629  Y468.2254   
N15060  X346.6563  Y473.4463   
N15065  X349.0585  Y477.0259   
N15070  X351.2750  Y478.7360   
N15075  X353.8440  Y478.7733   
N15080  X357.3038  Y477.3342   
N15085  X360.7893  Y475.5315   
N15090  X359.0719  Y469.8253   
N15095  X357.4328  Y459.8220   
N15100  X357.4632  Y455.1660   
N15105  X358.1143  Y451.7519   
N15110  X360.1193  Y449.4971   
N15115  X363.8376  Y447.3087   
N15120  X368.2784  Y445.6540   
N15125  X372.4520  Y444.9982   
N15130  X374.8408  Y445.2397   
N15135  X376.9440  Y446.2009   
N15140  X382.4023  Y451.7044   
N15145  X386.8528  Y456.4383   
N15150  X389.5070  Y458.4037   
N15155  X394.4216  Y455.5664   
N15160  X397.9606  Y452.7348   
N15165  X394.7266  Y445.6710   
N15170  X391.9802  Y438.0100   
N15175  X391.5853  Y431.9006   
N15180  X393.5847  Y427.0492   
N15185  X398.0223  Y423.1614   
N15190  X402.5364  Y421.0416   
N15195  X406.7072  Y420.7914   
N15200  X411.1347  Y422.5130   
N15205  X416.4193  Y426.3096   
N15210  X423.3374  Y432.0048   
N15215  X427.1064  Y428.2363   
N15220  X430.8749  Y424.4673   
N15225  X426.2953  Y417.5676   
N15230  X422.0057  Y409.3472   
N15235  X421.1329  Y405.7884   
N15240  X421.1126  Y402.5636   
N15245  X421.9490  Y399.6462   
N15250  X423.6443  Y397.0113   
N15255  X426.2027  Y394.6331   
N15260  X429.6274  Y392.4852   
N15265  X434.2332  Y390.0494   
N15270  X439.9906  Y392.7442   
N15275  X447.6580  Y396.3293   
N15280  X451.5233  Y397.6495   
N15285  X453.5122  Y396.8878   
N15290  X455.5508  Y394.2285   
N15295  X458.7986  Y389.9701   
N15300  X453.9370  Y385.8090   
N15305  X447.9972  Y379.3167   
N15310  X446.2323  Y376.0721   
N15315  X445.2752  Y372.8552   
N15320  X445.1296  Y369.6867   
N15325  X445.7991  Y366.5868   
N15330  X447.2866  Y363.5754   
N15335  X449.5966  Y360.6728   
N15340  X452.7518  Y357.8586   
N15345  X455.7780  Y356.6153   
N15350  X459.4815  Y356.8190   
N15355  X464.6702  Y358.3452   
N15360  X470.4769  Y360.1963   
N15365  X473.9035  Y360.5926   
N15370  X475.9038  Y359.3931   
N15375  X477.4319  Y356.4559   
N15380  X479.2770  Y351.7814   
N15385  X472.7491  Y347.0277   
N15390  X467.4839  Y342.6362   
N15395  X463.9914  Y338.3912   
N15400  X462.4118  Y334.1186   
N15405  X463.2260  Y329.3626   
N15410  X465.3895  Y324.9475   
N15415  X468.5631  Y321.2159   
N15420  X472.5247  Y318.7261   
N15425  X476.7711  Y318.7068   
N15430  X486.1034  Y320.1874   
N15435  X491.1013  Y320.9187   
N15440  X492.4423  Y315.6355   
N15445  X493.5404  Y310.3136   
N15450  X485.0168  Y306.1520   
N15455  X478.9843  Y302.6480   
N15460  X475.3536  Y299.1228   
N15465  X473.7883  Y295.0852   
N15470  X473.9500  Y290.0430   
N15475  X475.3306  Y285.5386   
N15480  X477.5171  Y281.7881   
N15485  X479.2843  Y280.0711   
N15490  X481.4303  Y279.0154   
N15495  X489.8364  Y277.9647   
N15500  X499.3941  Y277.3551   
N15505  X499.7660  Y272.2383   
N15510  X499.8968  Y269.2646   
N15515  X499.4305  Y267.6030   
N15520  X497.9126  Y266.6578   
N15525  X494.8892  Y265.8316   
N15530  X485.8103  Y262.7105   
N15535  X482.5238  Y260.7701   
N15540  X480.0516  Y258.5517   
N15545  X478.3775  Y256.0376   
N15550  X477.4853  Y253.2096   
N15555  X477.3595  Y250.0489   
N15560  X477.9844  Y246.5380   
N15565  X479.6175  Y242.3764   
N15570  X482.1169  Y239.4539   
N15575  X485.8159  Y237.5088   
N15580  X491.0465  Y236.2803   
N15585  X498.9770  Y234.5629   
N15590  X499.7024  Y232.5243   
N15595  X500.0037  Y228.5138   
N15600  Y223.0993   
N15605  X494.8219  Y223.0703   
N15610  X489.3277  Y222.7145   
N15615  X484.4611  Y221.7524   
N15620  X480.4377  Y220.2428   
N15625  X477.4738  Y218.2465   
N15630  X475.2177  Y215.0061   
N15635  X473.9680  Y210.8072   
N15640  X473.8196  Y206.2452   
N15645  X474.8675  Y201.9150   
N15650  X476.0711  Y199.6768   
N15655  X477.8498  Y197.9478   
N15660  X485.2891  Y194.4798   
N15665  X492.0373  Y191.4302   
N15670  X493.2708  Y190.2708   
N15675  X493.3989  Y189.1427   
N15680  X492.0561  Y183.9858   
N15685  X491.4368  Y182.1877   
N15690  X489.9903  Y181.2628   
N15695  X480.4589  Y180.9375   
N15700  X472.7869  Y180.6624   
N15705  X468.0498  Y179.2620   
N15710  X465.2421  Y176.1331   
N15715  X463.3587  Y170.6730   
N15720  X462.5920  Y165.6105   
N15725  X463.4564  Y161.6766   
N15730  X466.2218  Y158.3325   
N15735  X471.1566  Y155.0391   
N15740  X478.6056  Y150.0462   
N15745  X478.5604  Y147.9504   
N15750  X477.5692  Y144.6248   
N15755  X476.1803  Y141.5465   
N15760  X474.9430  Y140.1922   
N15765  X466.7268  Y142.1138   
N15770  X460.2930  Y143.2631   
N15775  X455.2964  Y143.2820   
N15780  X451.3136  Y141.5705   
N15785  X448.0313  Y138.3269   
N15790  X445.7867  Y134.0123   
N15795  X444.9167  Y129.0876   
N15800  X445.0577  Y126.0831   
N15805  X445.9222  Y123.7385   
N15810  X451.8717  Y117.6623   
N15815  X458.8981  Y111.4275   
N15820  X455.9807  Y106.9185   
N15825  X453.5624  Y103.8901   
N15830  X451.8445  Y102.9403   
N15835  X440.6030  Y107.6328   
N15840  X433.9116  Y109.4249   
N15845  X431.5933  Y109.2852   
N15850  X429.5975  Y108.4839   
N15855  X425.4875  Y104.9780   
N15860  X421.7444  Y100.1285   
N15865  X420.5186  Y95.3457   
N15870  X421.8135  Y90.2768   
N15875  X425.6308  Y84.5679   
N15880  X430.5081  Y77.3479   
N15885  X426.9220  Y72.5942   
N15890  X423.3360  Y69.1584   
N15895  X418.4952  Y72.9928   
N15900  X411.4531  Y77.7036   
N15905  X405.5331  Y79.5349   
N15910  X402.8258  Y79.3828   
N15915  X400.1969  Y78.5252   
N15920  X394.9050  Y74.7148   
N15925  X391.8742  Y71.0168   
N15930  X390.7821  Y67.1409   
N15935  X391.6097  Y62.4480   
N15940  X394.3368  Y56.2976   
N15945  X398.6053  Y48.0491   
N15950  X394.6690  Y45.3515   
N15955  X389.9747  Y42.6540   
N15960  X383.0631  Y48.6482   
N15965  X378.0854  Y52.9065   
N15970  X373.7598  Y55.1543   
N15975  X369.6461  Y55.5285   
N15980  X365.3034  Y54.1664   
N15985  X360.1179  Y50.8131   
N15990  X357.1370  Y46.7128   
N15995  X356.3545  Y41.8512   
N16000  X357.7646  Y36.2141   
N16005  X359.8696  Y30.6803   
N16010  X360.3986  Y27.2657   
N16015  X359.2544  Y25.0847   
N16020  X356.3398  Y23.2511   
N16025  X351.6372  Y20.8517   
N16030  X346.6586  Y27.9108   
N16035  X342.0358  Y33.4069   
N16040  X337.9553  Y36.5132   
N16045  X333.8559  Y37.4436   
N16050  X329.5395  Y37.0943   
N16055  X325.3955  Y35.5524   
N16060  X321.8136  Y32.9046   
N16065  X319.6326  Y30.2213   
N16070  X318.6054  Y27.1763   
N16075  X318.6068  Y22.8792   
N16080  X319.5132  Y16.4408   
N16085  X319.7455  Y9.5254   
N16090  X314.4180  Y7.8734   
N16095  X309.8869  Y7.0407   
N16100  X306.8677  Y13.8676   
N16105  X302.7678  Y21.0544   
N16110  X298.0455  Y25.3916   
N16115  X295.4258  Y26.5063   
N16120  X292.6208  Y26.9256   
N16125  X286.4142  Y25.7021   
N16130  X282.3646  Y23.5930   
N16135  X279.8140  Y20.7576   
N16140  X278.4859  Y16.7067   
N16145  X278.1048  Y10.9498   
N16150  X277.7408  Y5.2353   
N16155  X276.4533  Y1.7981   
N16160  X273.9483  Y0.2521   
N16165  X269.9319  Y0.2111   
N16170  X268.1891  Y0.6705   
N16175  X266.9302  Y1.8778   
N16180  X264.5989  Y8.5001   
N16185  X262.2083  Y14.9312   
N16190  X259.0457  Y19.5056   
N16195  X255.0970  Y22.2378   
N16200  X250.3484  Y23.1419   
N16205  X246.0560  Y22.4788   
N16210  X242.0354  Y20.7466   
N16215  X238.9249  Y18.3172   
N16220  X237.3632  Y15.5643   
N16225  X234.0578  Y1.8437   
N16230  X232.5252  Y0.1995   
N16235  X230.1285  Y0.0000   
N16240  X224.9393  Y0.9142   
N16245 G0  Z3.0000 
