N5 (File Name = sony on Saturday, November 11, 2023)
N10 (Default Mill Post)
N15  G91.1
N20 G0  Z3.0000 
N25 M3 S4000 
N30  X139.0487  Y147.0362 
N35  Z0.1000 
N40 G1  Z-0.7000  F100.00 
N45  X137.7029  Y145.0219   F300.00 
N50  X136.0310  Y144.6414   
N55  X134.2167  Y145.6211   
N60  X132.4434  Y147.6884   
N65  X129.7531  Y153.9914   
N70  X129.2033  Y157.6809   
N75  X129.4279  Y161.3644   
N80  X130.7756  Y166.8537   
N85  X132.3429  Y169.6366   
N90  X134.2949  Y169.8538   
N95  X136.7958  Y167.6446   
N100  X138.8189  Y163.6001   
N105  X139.9545  Y158.0331   
N110  X140.0736  Y152.1195   
N115  X139.0487  Y147.0362   
N120 G0  Z0.1000 
N125 G1  Z-1.4000  F100.00 
N130  X137.7029  Y145.0219   F300.00 
N135  X136.0310  Y144.6414   
N140  X134.2167  Y145.6211   
N145  X132.4434  Y147.6884   
N150  X129.7531  Y153.9914   
N155  X129.2033  Y157.6809   
N160  X129.4279  Y161.3644   
N165  X130.7756  Y166.8537   
N170  X132.3429  Y169.6366   
N175  X134.2949  Y169.8538   
N180  X136.7958  Y167.6446   
N185  X138.8189  Y163.6001   
N190  X139.9545  Y158.0331   
N195  X140.0736  Y152.1195   
N200  X139.0487  Y147.0362   
N205 G0  Z3.0000 
N210  X197.3662  Y229.7786 
N215  Z0.1000 
N220 G1  Z-0.7000  F100.00 
N225  X197.1150  Y221.5259   F300.00 
N230  X196.0906  Y217.2326   
N235  X195.2230  Y216.4636   
N240  X194.0833  Y216.5553   
N245  X190.8837  Y219.1497   
N250  X185.1482  Y223.4588   
N255  X176.2973  Y228.5960   
N260  X167.4501  Y232.8982   
N265  X161.7249  Y234.7022   
N270  X160.3703  Y235.3814   
N275  X161.5663  Y237.1808   
N280  X169.2588  Y242.7111   
N285  X180.0980  Y248.4354   
N290  X185.2264  Y250.4772   
N295  X189.3769  Y251.4960   
N300  X191.1837  Y251.3308   
N305  X192.7682  Y250.4139   
N310  X195.2533  Y246.3718   
N315  X196.7973  Y239.4622   
N320  X197.3662  Y229.7786   
N325 G0  Z0.1000 
N330 G1  Z-1.4000  F100.00 
N335  X197.1150  Y221.5259   F300.00 
N340  X196.0906  Y217.2326   
N345  X195.2230  Y216.4636   
N350  X194.0833  Y216.5553   
N355  X190.8837  Y219.1497   
N360  X185.1482  Y223.4588   
N365  X176.2973  Y228.5960   
N370  X167.4501  Y232.8982   
N375  X161.7249  Y234.7022   
N380  X160.3703  Y235.3814   
N385  X161.5663  Y237.1808   
N390  X169.2588  Y242.7111   
N395  X180.0980  Y248.4354   
N400  X185.2264  Y250.4772   
N405  X189.3769  Y251.4960   
N410  X191.1837  Y251.3308   
N415  X192.7682  Y250.4139   
N420  X195.2533  Y246.3718   
N425  X196.7973  Y239.4622   
N430  X197.3662  Y229.7786   
N435 G0  Z3.0000 
N440  X195.0970  Y211.6055 
N445  Z0.1000 
N450 G1  Z-0.7000  F100.00 
N455  X190.7441  Y215.4420   F300.00 
N460  X182.6850  Y220.6476   
N465  X173.5363  Y225.6671   
N470  X165.9131  Y228.9468   
N475  X154.8148  Y232.5060   
N480  X154.0989  Y233.0629   
N485  X154.1073  Y233.9575   
N490  X156.0048  Y236.5691   
N495  X165.2846  Y243.7443   
N500  X177.9953  Y250.9791   
N505  X184.1815  Y253.6647   
N510  X189.4783  Y255.2208   
N515  X192.8259  Y255.7069   
N520  X194.8406  Y255.3697   
N525  X196.1427  Y253.8643   
N530  X197.3532  Y250.8461   
N535  X199.0344  Y244.4044   
N540  X200.0732  Y236.9831   
N545  X200.3858  Y222.0395   
N550  X199.7420  Y215.9356   
N555  X198.6185  Y211.6888   
N560  X197.0569  Y210.0090   
N565  X195.0970  Y211.6055   
N570 G0  Z0.1000 
N575 G1  Z-1.4000  F100.00 
N580  X190.7441  Y215.4420   F300.00 
N585  X182.6850  Y220.6476   
N590  X173.5363  Y225.6671   
N595  X165.9131  Y228.9468   
N600  X154.8148  Y232.5060   
N605  X154.0989  Y233.0629   
N610  X154.1073  Y233.9575   
N615  X156.0048  Y236.5691   
N620  X165.2846  Y243.7443   
N625  X177.9953  Y250.9791   
N630  X184.1815  Y253.6647   
N635  X189.4783  Y255.2208   
N640  X192.8259  Y255.7069   
N645  X194.8406  Y255.3697   
N650  X196.1427  Y253.8643   
N655  X197.3532  Y250.8461   
N660  X199.0344  Y244.4044   
N665  X200.0732  Y236.9831   
N670  X200.3858  Y222.0395   
N675  X199.7420  Y215.9356   
N680  X198.6185  Y211.6888   
N685  X197.0569  Y210.0090   
N690  X195.0970  Y211.6055   
N695 G0  Z3.0000 
N700  X135.4481  Y120.3524 
N705  Z0.1000 
N710 G1  Z-0.7000  F100.00 
N715  X130.5654  Y126.7730   F300.00 
N720  X127.1745  Y134.1209   
N725  X125.0672  Y143.0104   
N730  X124.0353  Y154.0547   
N735  X123.9260  Y165.3344   
N740  X124.8415  Y173.0544   
N745  X126.8484  Y177.4868   
N750  X128.2812  Y178.5554   
N755  X130.0113  Y178.9038   
N760  X133.1286  Y177.9576   
N765  X136.1375  Y175.2804   
N770  X138.9427  Y171.1145   
N775  X141.4501  Y165.7019   
N780  X145.1931  Y152.1050   
N785  X146.2393  Y144.4055   
N790  X146.6092  Y136.4283   
N795  X145.7825  Y125.9864   
N800  X143.4742  Y119.5787   
N805  X141.8455  Y118.0036   
N810  X139.9433  Y117.5765   
N815  X137.8001  Y118.3441   
N820  X135.4481  Y120.3524   
N825 G0  Z0.1000 
N830 G1  Z-1.4000  F100.00 
N835  X130.5654  Y126.7730   F300.00 
N840  X127.1745  Y134.1209   
N845  X125.0672  Y143.0104   
N850  X124.0353  Y154.0547   
N855  X123.9260  Y165.3344   
N860  X124.8415  Y173.0544   
N865  X126.8484  Y177.4868   
N870  X128.2812  Y178.5554   
N875  X130.0113  Y178.9038   
N880  X133.1286  Y177.9576   
N885  X136.1375  Y175.2804   
N890  X138.9427  Y171.1145   
N895  X141.4501  Y165.7019   
N900  X145.1931  Y152.1050   
N905  X146.2393  Y144.4055   
N910  X146.6092  Y136.4283   
N915  X145.7825  Y125.9864   
N920  X143.4742  Y119.5787   
N925  X141.8455  Y118.0036   
N930  X139.9433  Y117.5765   
N935  X137.8001  Y118.3441   
N940  X135.4481  Y120.3524   
N945 G0  Z3.0000 
N950  X122.2922  Y65.3364 
N955  Z0.1000 
N960 G1  Z-0.7000  F100.00 
N965  X121.9745  Y66.0510   F300.00 
N970  X123.1905  Y66.7115   
N975  X130.2406  Y67.8741   
N980  X142.3703  Y70.3838   
N985  X147.5949  Y72.4502   
N990  X152.2079  Y75.0233   
N995  X156.1700  Y78.0778   
N1000  X159.4422  Y81.5877   
N1005  X161.9854  Y85.5284   
N1010  X163.7611  Y89.8734   
N1015  X163.9928  Y92.8535   
N1020  X161.3928  Y93.5657   
N1025  X159.2263  Y94.0476   
N1030  X158.9174  Y95.2069   
N1035  X161.4756  Y96.8612   
N1040  X165.3553  Y96.7016   
N1045  X169.7347  Y94.9203   
N1050  X173.7908  Y91.7119   
N1055  X177.2956  Y87.6507   
N1060  X174.5868  Y88.6653   
N1065  X171.2764  Y89.8939   
N1070  X170.4153  Y89.6305   
N1075  X169.9064  Y88.7857   
N1080  X167.1701  Y83.9151   
N1085  X162.4283  Y78.2904   
N1090  X156.7650  Y73.0438   
N1095  X151.2630  Y69.3074   
N1100  X143.8450  Y66.5720   
N1105  X135.1364  Y64.8056   
N1110  X127.2489  Y64.2972   
N1115  X122.2922  Y65.3364   
N1120 G0  Z0.1000 
N1125 G1  Z-1.4000  F100.00 
N1130  X121.9745  Y66.0510   F300.00 
N1135  X123.1905  Y66.7115   
N1140  X130.2406  Y67.8741   
N1145  X142.3703  Y70.3838   
N1150  X147.5949  Y72.4502   
N1155  X152.2079  Y75.0233   
N1160  X156.1700  Y78.0778   
N1165  X159.4422  Y81.5877   
N1170  X161.9854  Y85.5284   
N1175  X163.7611  Y89.8734   
N1180  X163.9928  Y92.8535   
N1185  X161.3928  Y93.5657   
N1190  X159.2263  Y94.0476   
N1195  X158.9174  Y95.2069   
N1200  X161.4756  Y96.8612   
N1205  X165.3553  Y96.7016   
N1210  X169.7347  Y94.9203   
N1215  X173.7908  Y91.7119   
N1220  X177.2956  Y87.6507   
N1225  X174.5868  Y88.6653   
N1230  X171.2764  Y89.8939   
N1235  X170.4153  Y89.6305   
N1240  X169.9064  Y88.7857   
N1245  X167.1701  Y83.9151   
N1250  X162.4283  Y78.2904   
N1255  X156.7650  Y73.0438   
N1260  X151.2630  Y69.3074   
N1265  X143.8450  Y66.5720   
N1270  X135.1364  Y64.8056   
N1275  X127.2489  Y64.2972   
N1280  X122.2922  Y65.3364   
N1285 G0  Z3.0000 
N1290  X57.9886  Y124.5461 
N1295  Z0.1000 
N1300 G1  Z-0.7000  F100.00 
N1305  X57.5094  Y121.7303   F300.00 
N1310  X56.2548  Y120.0653   
N1315  X54.4996  Y119.7336   
N1320  X52.5183  Y120.9176   
N1325  X51.7223  Y123.0226   
N1330  X51.4539  Y126.3823   
N1335  X51.7140  Y129.7415   
N1340  X52.5039  Y131.8442   
N1345  X54.2172  Y132.2252   
N1350  X56.0073  Y130.7300   
N1355  X57.4173  Y127.9672   
N1360  X57.9886  Y124.5461   
N1365 G0  Z0.1000 
N1370 G1  Z-1.4000  F100.00 
N1375  X57.5094  Y121.7303   F300.00 
N1380  X56.2548  Y120.0653   
N1385  X54.4996  Y119.7336   
N1390  X52.5183  Y120.9176   
N1395  X51.7223  Y123.0226   
N1400  X51.4539  Y126.3823   
N1405  X51.7140  Y129.7415   
N1410  X52.5039  Y131.8442   
N1415  X54.2172  Y132.2252   
N1420  X56.0073  Y130.7300   
N1425  X57.4173  Y127.9672   
N1430  X57.9886  Y124.5461   
N1435 G0  Z3.0000 
N1440  X48.1110  Y95.1529 
N1445  Z0.1000 
N1450 G1  Z-0.7000  F100.00 
N1455  X44.5457  Y93.8318   F300.00 
N1460  X40.4691  Y93.7411   
N1465  X36.5038  Y94.8050   
N1470  X33.2711  Y96.9491   
N1475  X30.6339  Y100.5460   
N1480  X30.4920  Y103.3693   
N1485  X32.7519  Y105.2138   
N1490  X37.3202  Y105.8744   
N1495  X43.0919  Y104.9468   
N1500  X45.1449  Y103.5396   
N1505  X47.1136  Y101.2819   
N1510  X49.4991  Y97.2338   
N1515  X49.2498  Y96.1131   
N1520  X48.1110  Y95.1529   
N1525 G0  Z0.1000 
N1530 G1  Z-1.4000  F100.00 
N1535  X44.5457  Y93.8318   F300.00 
N1540  X40.4691  Y93.7411   
N1545  X36.5038  Y94.8050   
N1550  X33.2711  Y96.9491   
N1555  X30.6339  Y100.5460   
N1560  X30.4920  Y103.3693   
N1565  X32.7519  Y105.2138   
N1570  X37.3202  Y105.8744   
N1575  X43.0919  Y104.9468   
N1580  X45.1449  Y103.5396   
N1585  X47.1136  Y101.2819   
N1590  X49.4991  Y97.2338   
N1595  X49.2498  Y96.1131   
N1600  X48.1110  Y95.1529   
N1605 G0  Z3.0000 
N1610  X132.8560  Y99.2420 
N1615  Z0.1000 
N1620 G1  Z-0.7000  F100.00 
N1625  X120.4487  Y95.5470   F300.00 
N1630  X109.5388  Y94.5328   
N1635  X97.7557  Y96.2750   
N1640  X82.7284  Y100.8498   
N1645  X71.4873  Y103.8796   
N1650  X61.7386  Y105.0538   
N1655  X53.5580  Y105.9167   
N1660  X46.5009  Y108.3358   
N1665  X40.9906  Y110.6539   
N1670  X36.7773  Y111.6182   
N1675  X34.0819  Y112.3025   
N1680  X31.9723  Y114.9063   
N1685  X30.0268  Y120.2547   
N1690  X27.8245  Y129.1739   
N1695  X25.7716  Y143.5049   
N1700  X25.4888  Y157.7963   
N1705  X26.8374  Y168.7732   
N1710  X28.0804  Y171.9951   
N1715  X29.6798  Y173.1600   
N1720  X33.1134  Y169.3035   
N1725  X38.5316  Y160.0311   
N1730  X42.1499  Y152.6656   
N1735  X44.3657  Y146.6990   
N1740  X45.6352  Y140.5397   
N1745  X46.4158  Y132.5964   
N1750  X48.0003  Y120.1844   
N1755  X49.3456  Y116.8029   
N1760  X51.3734  Y114.1340   
N1765  X55.8510  Y110.6678   
N1770  X57.8104  Y110.1059   
N1775  X59.5205  Y110.3017   
N1780  X60.9328  Y111.2382   
N1785  X62.0009  Y112.8975   
N1790  X62.9123  Y118.3166   
N1795  X63.8199  Y120.7161   
N1800  X66.7288  Y121.4647   
N1805  X69.8363  Y122.2848   
N1810  X73.1373  Y124.5406   
N1815  X76.2821  Y127.9253   
N1820  X78.9198  Y132.1322   
N1825  X84.2268  Y151.8255   
N1830  X88.5745  Y168.5359   
N1835  X93.4522  Y181.6392   
N1840  X99.1234  Y191.7173   
N1845  X105.8544  Y199.3522   
N1850  X111.1195  Y203.5743   
N1855  X116.4731  Y206.8782   
N1860  X121.8666  Y209.2549   
N1865  X127.2499  Y210.6947   
N1870  X132.5741  Y211.1892   
N1875  X137.7890  Y210.7291   
N1880  X142.8457  Y209.3060   
N1885  X147.6950  Y206.9107   
N1890  X150.5378  Y204.5652   
N1895  X153.4392  Y201.0459   
N1900  X159.0844  Y191.1874   
N1905  X163.9667  Y178.7433   
N1910  X167.4208  Y165.1213   
N1915  X169.2426  Y150.9323   
N1920  X168.1735  Y138.1416   
N1925  X166.6812  Y130.6119   
N1930  X164.6343  Y124.1530   
N1935  X161.8929  Y118.6111   
N1940  X158.3164  Y113.8307   
N1945  X153.7649  Y109.6583   
N1950  X148.0974  Y105.9391   
N1955  X141.1747  Y102.5185   
N1960  X132.8560  Y99.2420   
N1965 G0  Z0.1000 
N1970 G1  Z-1.4000  F100.00 
N1975  X120.4487  Y95.5470   F300.00 
N1980  X109.5388  Y94.5328   
N1985  X97.7557  Y96.2750   
N1990  X82.7284  Y100.8498   
N1995  X71.4873  Y103.8796   
N2000  X61.7386  Y105.0538   
N2005  X53.5580  Y105.9167   
N2010  X46.5009  Y108.3358   
N2015  X40.9906  Y110.6539   
N2020  X36.7773  Y111.6182   
N2025  X34.0819  Y112.3025   
N2030  X31.9723  Y114.9063   
N2035  X30.0268  Y120.2547   
N2040  X27.8245  Y129.1739   
N2045  X25.7716  Y143.5049   
N2050  X25.4888  Y157.7963   
N2055  X26.8374  Y168.7732   
N2060  X28.0804  Y171.9951   
N2065  X29.6798  Y173.1600   
N2070  X33.1134  Y169.3035   
N2075  X38.5316  Y160.0311   
N2080  X42.1499  Y152.6656   
N2085  X44.3657  Y146.6990   
N2090  X45.6352  Y140.5397   
N2095  X46.4158  Y132.5964   
N2100  X48.0003  Y120.1844   
N2105  X49.3456  Y116.8029   
N2110  X51.3734  Y114.1340   
N2115  X55.8510  Y110.6678   
N2120  X57.8104  Y110.1059   
N2125  X59.5205  Y110.3017   
N2130  X60.9328  Y111.2382   
N2135  X62.0009  Y112.8975   
N2140  X62.9123  Y118.3166   
N2145  X63.8199  Y120.7161   
N2150  X66.7288  Y121.4647   
N2155  X69.8363  Y122.2848   
N2160  X73.1373  Y124.5406   
N2165  X76.2821  Y127.9253   
N2170  X78.9198  Y132.1322   
N2175  X84.2268  Y151.8255   
N2180  X88.5745  Y168.5359   
N2185  X93.4522  Y181.6392   
N2190  X99.1234  Y191.7173   
N2195  X105.8544  Y199.3522   
N2200  X111.1195  Y203.5743   
N2205  X116.4731  Y206.8782   
N2210  X121.8666  Y209.2549   
N2215  X127.2499  Y210.6947   
N2220  X132.5741  Y211.1892   
N2225  X137.7890  Y210.7291   
N2230  X142.8457  Y209.3060   
N2235  X147.6950  Y206.9107   
N2240  X150.5378  Y204.5652   
N2245  X153.4392  Y201.0459   
N2250  X159.0844  Y191.1874   
N2255  X163.9667  Y178.7433   
N2260  X167.4208  Y165.1213   
N2265  X169.2426  Y150.9323   
N2270  X168.1735  Y138.1416   
N2275  X166.6812  Y130.6119   
N2280  X164.6343  Y124.1530   
N2285  X161.8929  Y118.6111   
N2290  X158.3164  Y113.8307   
N2295  X153.7649  Y109.6583   
N2300  X148.0974  Y105.9391   
N2305  X141.1747  Y102.5185   
N2310  X132.8560  Y99.2420   
N2315 G0  Z3.0000 
N2320  X144.1473  Y43.8270 
N2325  Z0.1000 
N2330 G1  Z-0.7000  F100.00 
N2335  X130.2597  Y40.8762   F300.00 
N2340  X115.4050  Y40.4277   
N2345  X99.8994  Y42.4658   
N2350  X84.0584  Y46.9736   
N2355  X71.5906  Y52.1350   
N2360  X61.5636  Y57.8825   
N2365  X53.3389  Y64.6540   
N2370  X46.2786  Y72.8875   
N2375  X43.0375  Y77.8656   
N2380  X41.6926  Y81.3058   
N2385  X42.2681  Y83.0456   
N2390  X44.7881  Y82.9214   
N2395  X48.7985  Y82.5288   
N2400  X53.9325  Y83.0154   
N2405  X58.6654  Y84.8432   
N2410  X61.4673  Y87.9354   
N2415  X62.1326  Y91.8761   
N2420  X60.4560  Y96.2489   
N2425  X57.9132  Y100.1301   
N2430  X65.4727   
N2435  X74.3873  Y98.7620   
N2440  X85.6145  Y95.0585   
N2445  X92.8446  Y92.3268   
N2450  X98.5577  Y90.8815   
N2455  X104.6653  Y90.4116   
N2460  X113.0790  Y90.6079   
N2465  X121.5172  Y91.1378   
N2470  X127.7960  Y92.2217   
N2475  X133.8962  Y94.3798   
N2480  X141.7985  Y98.1293   
N2485  X166.0713  Y111.0311   
N2490  X175.7251  Y115.7660   
N2495  X178.9159  Y116.1423   
N2500  X182.3254  Y115.5561   
N2505  X187.2221  Y113.4255   
N2510  X191.0832  Y109.8402   
N2515  X193.8242  Y104.9096   
N2520  X195.3603  Y98.7438   
N2525  X195.2179  Y90.9108   
N2530  X192.8705  Y82.9079   
N2535  X188.5265  Y74.9581   
N2540  X182.3942  Y67.2856   
N2545  X174.6821  Y60.1127   
N2550  X165.5982  Y53.6631   
N2555  X155.3503  Y48.1603   
N2560  X144.1473  Y43.8270   
N2565 G0  Z0.1000 
N2570 G1  Z-1.4000  F100.00 
N2575  X130.2597  Y40.8762   F300.00 
N2580  X115.4050  Y40.4277   
N2585  X99.8994  Y42.4658   
N2590  X84.0584  Y46.9736   
N2595  X71.5906  Y52.1350   
N2600  X61.5636  Y57.8825   
N2605  X53.3389  Y64.6540   
N2610  X46.2786  Y72.8875   
N2615  X43.0375  Y77.8656   
N2620  X41.6926  Y81.3058   
N2625  X42.2681  Y83.0456   
N2630  X44.7881  Y82.9214   
N2635  X48.7985  Y82.5288   
N2640  X53.9325  Y83.0154   
N2645  X58.6654  Y84.8432   
N2650  X61.4673  Y87.9354   
N2655  X62.1326  Y91.8761   
N2660  X60.4560  Y96.2489   
N2665  X57.9132  Y100.1301   
N2670  X65.4727   
N2675  X74.3873  Y98.7620   
N2680  X85.6145  Y95.0585   
N2685  X92.8446  Y92.3268   
N2690  X98.5577  Y90.8815   
N2695  X104.6653  Y90.4116   
N2700  X113.0790  Y90.6079   
N2705  X121.5172  Y91.1378   
N2710  X127.7960  Y92.2217   
N2715  X133.8962  Y94.3798   
N2720  X141.7985  Y98.1293   
N2725  X166.0713  Y111.0311   
N2730  X175.7251  Y115.7660   
N2735  X178.9159  Y116.1423   
N2740  X182.3254  Y115.5561   
N2745  X187.2221  Y113.4255   
N2750  X191.0832  Y109.8402   
N2755  X193.8242  Y104.9096   
N2760  X195.3603  Y98.7438   
N2765  X195.2179  Y90.9108   
N2770  X192.8705  Y82.9079   
N2775  X188.5265  Y74.9581   
N2780  X182.3942  Y67.2856   
N2785  X174.6821  Y60.1127   
N2790  X165.5982  Y53.6631   
N2795  X155.3503  Y48.1603   
N2800  X144.1473  Y43.8270   
N2805 G0  Z3.0000 
N2810  X210.2229  Y214.9531 
N2815  Z0.1000 
N2820 G1  Z-0.7000  F100.00 
N2825  X210.3402  Y226.6627   F300.00 
N2830  X209.3214  Y237.6377   
N2835  X207.1750  Y247.8288   
N2840  X203.9069  Y257.1877   
N2845  X200.6891  Y264.6937   
N2850  X191.9378  Y263.7903   
N2855  X183.5088  Y261.9541   
N2860  X174.0611  Y258.1102   
N2865  X163.7109  Y252.3142   
N2870  X152.5749  Y244.6240   
N2875  X144.3120  Y238.9714   
N2880  X140.2662  Y237.2478   
N2885  X142.1819  Y240.3623   
N2890  X148.2504  Y246.3425   
N2895  X155.3935  Y252.0030   
N2900  X163.1577  Y256.9742   
N2905  X171.1773  Y261.1284   
N2910  X179.0853  Y264.3383   
N2915  X186.5159  Y266.4759   
N2920  X193.1027  Y267.4137   
N2925  X198.4794  Y267.0234   
N2930  X202.2801  Y265.1780   
N2935  X205.0429  Y261.6215   
N2940  X207.6764  Y256.3108   
N2945  X212.1182  Y242.2683   
N2950  X214.7266  Y226.7338   
N2955  X215.0685  Y219.5590   
N2960  X214.6233  Y213.3933   
N2965  X212.6001  Y202.8235   
N2970  X211.7446  Y200.7971   
N2975  X210.7877  Y200.2384   
N2980  X210.0425  Y204.5610   
N2985  X210.2229  Y214.9531   
N2990 G0  Z0.1000 
N2995 G1  Z-1.4000  F100.00 
N3000  X210.3402  Y226.6627   F300.00 
N3005  X209.3214  Y237.6377   
N3010  X207.1750  Y247.8288   
N3015  X203.9069  Y257.1877   
N3020  X200.6891  Y264.6937   
N3025  X191.9378  Y263.7903   
N3030  X183.5088  Y261.9541   
N3035  X174.0611  Y258.1102   
N3040  X163.7109  Y252.3142   
N3045  X152.5749  Y244.6240   
N3050  X144.3120  Y238.9714   
N3055  X140.2662  Y237.2478   
N3060  X142.1819  Y240.3623   
N3065  X148.2504  Y246.3425   
N3070  X155.3935  Y252.0030   
N3075  X163.1577  Y256.9742   
N3080  X171.1773  Y261.1284   
N3085  X179.0853  Y264.3383   
N3090  X186.5159  Y266.4759   
N3095  X193.1027  Y267.4137   
N3100  X198.4794  Y267.0234   
N3105  X202.2801  Y265.1780   
N3110  X205.0429  Y261.6215   
N3115  X207.6764  Y256.3108   
N3120  X212.1182  Y242.2683   
N3125  X214.7266  Y226.7338   
N3130  X215.0685  Y219.5590   
N3135  X214.6233  Y213.3933   
N3140  X212.6001  Y202.8235   
N3145  X211.7446  Y200.7971   
N3150  X210.7877  Y200.2384   
N3155  X210.0425  Y204.5610   
N3160  X210.2229  Y214.9531   
N3165 G0  Z3.0000 
N3170  X25.0254  Y198.5976 
N3175  Z0.1000 
N3180 G1  Z-0.7000  F100.00 
N3185  X22.9972  Y197.6291   F300.00 
N3190  X20.2278  Y195.3003   
N3195  X16.9305  Y192.0029   
N3200  X13.6508  Y197.3518   
N3205  X9.9883  Y204.3721   
N3210  X6.7687  Y212.5229   
N3215  X4.2798  Y220.9653   
N3220  X2.8112  Y228.8598   
N3225  X1.7696  Y237.7200   
N3230  X9.3100  Y238.8509   
N3235  X19.6193  Y238.7997   
N3240  X33.0892  Y237.0794   
N3245  X44.7876  Y234.5278   
N3250  X48.4315  Y233.2010   
N3255  X49.7829  Y231.9808   
N3260  X43.4348  Y223.4421   
N3265  X31.8062  Y207.2136   
N3270  X27.6361  Y201.1283   
N3275  X25.0254  Y198.5976   
N3280 G0  Z0.1000 
N3285 G1  Z-1.4000  F100.00 
N3290  X22.9972  Y197.6291   F300.00 
N3295  X20.2278  Y195.3003   
N3300  X16.9305  Y192.0029   
N3305  X13.6508  Y197.3518   
N3310  X9.9883  Y204.3721   
N3315  X6.7687  Y212.5229   
N3320  X4.2798  Y220.9653   
N3325  X2.8112  Y228.8598   
N3330  X1.7696  Y237.7200   
N3335  X9.3100  Y238.8509   
N3340  X19.6193  Y238.7997   
N3345  X33.0892  Y237.0794   
N3350  X44.7876  Y234.5278   
N3355  X48.4315  Y233.2010   
N3360  X49.7829  Y231.9808   
N3365  X43.4348  Y223.4421   
N3370  X31.8062  Y207.2136   
N3375  X27.6361  Y201.1283   
N3380  X25.0254  Y198.5976   
N3385 G0  Z3.0000 
N3390  X282.8221  Y13.2470 
N3395  Z0.1000 
N3400 G1  Z-0.7000  F100.00 
N3405  X282.5546  Y8.1247   F300.00 
N3410  X281.6972  Y5.5117   
N3415  X280.1681  Y5.3103   
N3420  X277.8849  Y7.4237   
N3425  X272.6886  Y11.7933   
N3430  X263.5056  Y18.0214   
N3435  X242.0864  Y30.3496   
N3440  X227.1181  Y36.8857   
N3445  X212.6345  Y41.3014   
N3450  X197.7263  Y43.8116   
N3455  X181.4829  Y44.6308   
N3460  X167.2845  Y45.0095   
N3465  X161.3793  Y45.8450   
N3470  X163.1080  Y47.4899   
N3475  X167.2645  Y49.8132   
N3480  X174.2048  Y54.3502   
N3485  X182.2695  Y61.3459   
N3490  X189.7802  Y69.1994   
N3495  X195.0579  Y76.3109   
N3500  X199.3038  Y86.1988   
N3505  X200.2947  Y91.0462   
N3510  X200.5328  Y95.7665   
N3515  X200.0197  Y100.3125   
N3520  X198.7567  Y104.6370   
N3525  X196.7447  Y108.6930   
N3530  X193.9856  Y112.4337   
N3535  X189.1954  Y116.6754   
N3540  X183.8219  Y119.4145   
N3545  X178.3642  Y120.4756   
N3550  X173.3205  Y119.6839   
N3555  X168.6713  Y118.5492   
N3560  X170.6563  Y128.0314   
N3565  X172.3510  Y138.9822   
N3570  X172.3524  Y154.2873   
N3575  X170.3027  Y172.5301   
N3580  X168.3568  Y180.4153   
N3585  X165.7661  Y187.5472   
N3590  X162.5074  Y193.9805   
N3595  X158.5574  Y199.7685   
N3600  X153.8933  Y204.9648   
N3605  X148.4914  Y209.6233   
N3610  X144.4948  Y212.4215   
N3615  X141.0328  Y214.0497   
N3620  X137.2079  Y214.8024   
N3625  X132.1219  Y214.9726   
N3630  X123.5185  Y214.0702   
N3635  X115.4929  Y211.4809   
N3640  X108.1162  Y207.2764   
N3645  X101.4578  Y201.5302   
N3650  X95.5888  Y194.3145   
N3655  X90.5786  Y185.7023   
N3660  X86.4979  Y175.7661   
N3665  X83.4169  Y164.5785   
N3670  X79.6418  Y148.7454   
N3675  X76.1179  Y137.4024   
N3680  X72.6838  Y130.1192   
N3685  X69.1785  Y126.4642   
N3690  X64.9577  Y124.9006   
N3695  X63.3919  Y125.4747   
N3700  X61.5008  Y127.0005   
N3705  X55.6900  Y136.0715   
N3710  X46.3195  Y153.7165   
N3715  X37.1299  Y170.9094   
N3720  X31.7532  Y178.8917   
N3725  X28.5917  Y179.6537   
N3730  X26.2829  Y177.8613   
N3735  X24.6635  Y173.2456   
N3740  X23.5684  Y165.5391   
N3745  X23.2344  Y155.1042   
N3750  X23.6903  Y142.8611   
N3755  X24.7226  Y132.1163   
N3760  X26.1173  Y126.1771   
N3765  X26.2829  Y125.1672   
N3770  X25.4399  Y124.7471   
N3775  X23.7982  Y126.5456   
N3780  X22.0733  Y131.3911   
N3785  X18.8843  Y146.9185   
N3790  X16.8993  Y164.7217   
N3795  X16.6788  Y172.4124   
N3800  X17.1436  Y178.1944   
N3805  X20.0227  Y187.5724   
N3810  X21.9788  Y190.7706   
N3815  X24.2299  Y192.9398   
N3820  X26.7378  Y194.0545   
N3825  X29.4644  Y194.0884   
N3830  X32.3723  Y193.0157   
N3835  X35.4231  Y190.8102   
N3840  X37.4514  Y189.4941   
N3845  X38.2953  Y189.9365   
N3850  X37.5723  Y191.7336   
N3855  X35.8334  Y193.6739   
N3860  X33.9666  Y195.6985   
N3865  X33.7851  Y198.1003   
N3870  X35.5510  Y201.9042   
N3875  X39.5262  Y208.1342   
N3880  X47.2964  Y218.5491   
N3885  X56.7493  Y229.1045   
N3890  X67.2889  Y239.1844   
N3895  X78.3197  Y248.1744   
N3900  X87.4818  Y254.4853   
N3905  X97.2170  Y260.2324   
N3910  X107.4770  Y265.4078   
N3915  X118.2162  Y270.0049   
N3920  X140.9398  Y277.4337   
N3925  X165.0116  Y282.4606   
N3930  X190.0537  Y285.0271   
N3935  X215.6890  Y285.0750   
N3940  X241.5407  Y282.5457   
N3945  X267.2313  Y277.3811   
N3950  X281.2511  Y273.3376   
N3955  X294.0050  Y268.8670   
N3960  X303.3830  Y264.7849   
N3965  X307.2767  Y261.9062   
N3970  X304.8711  Y260.0180   
N3975  X298.6133  Y257.6054   
N3980  X290.8314  Y254.8082   
N3985  X283.0747  Y251.2713   
N3990  X268.1292  Y242.3241   
N3995  X254.7607  Y231.4528   
N4000  X248.9755  Y225.5104   
N4005  X243.9537  Y219.3460   
N4010  X238.7434  Y211.6553   
N4015  X237.1464  Y206.9107   
N4020  X237.7223  Y205.3258   
N4025  X239.2263  Y204.0967   
N4030  X245.0488  Y202.1969   
N4035  X253.2065  Y199.7829   
N4040  X261.8634  Y196.2381   
N4045  X270.8515  Y191.6698   
N4050  X280.0039  Y186.1856   
N4055  X298.1318  Y172.9013   
N4060  X306.7729  Y165.3163   
N4065  X314.9092  Y157.2460   
N4070  X328.7233  Y141.0244   
N4075  X339.4239  Y125.7110   
N4080  X342.9092  Y119.5276   
N4085  X344.7793  Y114.9305   
N4090  X344.7551  Y112.3737   
N4095  X343.9456  Y112.0020   
N4100  X342.5584  Y112.3104   
N4105  X327.9530  Y116.2177   
N4110  X311.1974  Y118.1989   
N4115  X287.7211  Y119.0303   
N4120  X265.0775  Y118.6386   
N4125  X256.4285  Y117.9617   
N4130  X250.8205  Y116.9522   
N4135  X244.0830  Y114.5727   
N4140  X242.3697  Y113.4041   
N4145  X241.7468  Y111.9881   
N4150  X242.2045  Y110.1282   
N4155  X243.7327  Y107.6282   
N4160  X249.9608  Y99.9217   
N4165  X258.7973  Y88.4215   
N4170  X265.7622  Y77.7633   
N4175  X272.7705  Y62.8164   
N4180  X278.1524  Y46.3162   
N4185  X281.6042  Y29.4104   
N4190  X282.8221  Y13.2470   
N4195 G0  Z0.1000 
N4200 G1  Z-1.4000  F100.00 
N4205  X282.5546  Y8.1247   F300.00 
N4210  X281.6972  Y5.5117   
N4215  X280.1681  Y5.3103   
N4220  X277.8849  Y7.4237   
N4225  X272.6886  Y11.7933   
N4230  X263.5056  Y18.0214   
N4235  X242.0864  Y30.3496   
N4240  X227.1181  Y36.8857   
N4245  X212.6345  Y41.3014   
N4250  X197.7263  Y43.8116   
N4255  X181.4829  Y44.6308   
N4260  X167.2845  Y45.0095   
N4265  X161.3793  Y45.8450   
N4270  X163.1080  Y47.4899   
N4275  X167.2645  Y49.8132   
N4280  X174.2048  Y54.3502   
N4285  X182.2695  Y61.3459   
N4290  X189.7802  Y69.1994   
N4295  X195.0579  Y76.3109   
N4300  X199.3038  Y86.1988   
N4305  X200.2947  Y91.0462   
N4310  X200.5328  Y95.7665   
N4315  X200.0197  Y100.3125   
N4320  X198.7567  Y104.6370   
N4325  X196.7447  Y108.6930   
N4330  X193.9856  Y112.4337   
N4335  X189.1954  Y116.6754   
N4340  X183.8219  Y119.4145   
N4345  X178.3642  Y120.4756   
N4350  X173.3205  Y119.6839   
N4355  X168.6713  Y118.5492   
N4360  X170.6563  Y128.0314   
N4365  X172.3510  Y138.9822   
N4370  X172.3524  Y154.2873   
N4375  X170.3027  Y172.5301   
N4380  X168.3568  Y180.4153   
N4385  X165.7661  Y187.5472   
N4390  X162.5074  Y193.9805   
N4395  X158.5574  Y199.7685   
N4400  X153.8933  Y204.9648   
N4405  X148.4914  Y209.6233   
N4410  X144.4948  Y212.4215   
N4415  X141.0328  Y214.0497   
N4420  X137.2079  Y214.8024   
N4425  X132.1219  Y214.9726   
N4430  X123.5185  Y214.0702   
N4435  X115.4929  Y211.4809   
N4440  X108.1162  Y207.2764   
N4445  X101.4578  Y201.5302   
N4450  X95.5888  Y194.3145   
N4455  X90.5786  Y185.7023   
N4460  X86.4979  Y175.7661   
N4465  X83.4169  Y164.5785   
N4470  X79.6418  Y148.7454   
N4475  X76.1179  Y137.4024   
N4480  X72.6838  Y130.1192   
N4485  X69.1785  Y126.4642   
N4490  X64.9577  Y124.9006   
N4495  X63.3919  Y125.4747   
N4500  X61.5008  Y127.0005   
N4505  X55.6900  Y136.0715   
N4510  X46.3195  Y153.7165   
N4515  X37.1299  Y170.9094   
N4520  X31.7532  Y178.8917   
N4525  X28.5917  Y179.6537   
N4530  X26.2829  Y177.8613   
N4535  X24.6635  Y173.2456   
N4540  X23.5684  Y165.5391   
N4545  X23.2344  Y155.1042   
N4550  X23.6903  Y142.8611   
N4555  X24.7226  Y132.1163   
N4560  X26.1173  Y126.1771   
N4565  X26.2829  Y125.1672   
N4570  X25.4399  Y124.7471   
N4575  X23.7982  Y126.5456   
N4580  X22.0733  Y131.3911   
N4585  X18.8843  Y146.9185   
N4590  X16.8993  Y164.7217   
N4595  X16.6788  Y172.4124   
N4600  X17.1436  Y178.1944   
N4605  X20.0227  Y187.5724   
N4610  X21.9788  Y190.7706   
N4615  X24.2299  Y192.9398   
N4620  X26.7378  Y194.0545   
N4625  X29.4644  Y194.0884   
N4630  X32.3723  Y193.0157   
N4635  X35.4231  Y190.8102   
N4640  X37.4514  Y189.4941   
N4645  X38.2953  Y189.9365   
N4650  X37.5723  Y191.7336   
N4655  X35.8334  Y193.6739   
N4660  X33.9666  Y195.6985   
N4665  X33.7851  Y198.1003   
N4670  X35.5510  Y201.9042   
N4675  X39.5262  Y208.1342   
N4680  X47.2964  Y218.5491   
N4685  X56.7493  Y229.1045   
N4690  X67.2889  Y239.1844   
N4695  X78.3197  Y248.1744   
N4700  X87.4818  Y254.4853   
N4705  X97.2170  Y260.2324   
N4710  X107.4770  Y265.4078   
N4715  X118.2162  Y270.0049   
N4720  X140.9398  Y277.4337   
N4725  X165.0116  Y282.4606   
N4730  X190.0537  Y285.0271   
N4735  X215.6890  Y285.0750   
N4740  X241.5407  Y282.5457   
N4745  X267.2313  Y277.3811   
N4750  X281.2511  Y273.3376   
N4755  X294.0050  Y268.8670   
N4760  X303.3830  Y264.7849   
N4765  X307.2767  Y261.9062   
N4770  X304.8711  Y260.0180   
N4775  X298.6133  Y257.6054   
N4780  X290.8314  Y254.8082   
N4785  X283.0747  Y251.2713   
N4790  X268.1292  Y242.3241   
N4795  X254.7607  Y231.4528   
N4800  X248.9755  Y225.5104   
N4805  X243.9537  Y219.3460   
N4810  X238.7434  Y211.6553   
N4815  X237.1464  Y206.9107   
N4820  X237.7223  Y205.3258   
N4825  X239.2263  Y204.0967   
N4830  X245.0488  Y202.1969   
N4835  X253.2065  Y199.7829   
N4840  X261.8634  Y196.2381   
N4845  X270.8515  Y191.6698   
N4850  X280.0039  Y186.1856   
N4855  X298.1318  Y172.9013   
N4860  X306.7729  Y165.3163   
N4865  X314.9092  Y157.2460   
N4870  X328.7233  Y141.0244   
N4875  X339.4239  Y125.7110   
N4880  X342.9092  Y119.5276   
N4885  X344.7793  Y114.9305   
N4890  X344.7551  Y112.3737   
N4895  X343.9456  Y112.0020   
N4900  X342.5584  Y112.3104   
N4905  X327.9530  Y116.2177   
N4910  X311.1974  Y118.1989   
N4915  X287.7211  Y119.0303   
N4920  X265.0775  Y118.6386   
N4925  X256.4285  Y117.9617   
N4930  X250.8205  Y116.9522   
N4935  X244.0830  Y114.5727   
N4940  X242.3697  Y113.4041   
N4945  X241.7468  Y111.9881   
N4950  X242.2045  Y110.1282   
N4955  X243.7327  Y107.6282   
N4960  X249.9608  Y99.9217   
N4965  X258.7973  Y88.4215   
N4970  X265.7622  Y77.7633   
N4975  X272.7705  Y62.8164   
N4980  X278.1524  Y46.3162   
N4985  X281.6042  Y29.4104   
N4990  X282.8221  Y13.2470   
N4995 G0  Z3.0000 
N5000  X270.1779  Y9.6129 
N5005  Z0.1000 
N5010 G1  Z-0.7000  F100.00 
N5015  X259.4132  Y16.8491   F300.00 
N5020  X248.8429  Y23.0083   
N5025  X238.2987  Y28.1474   
N5030  X227.6126  Y32.3249   
N5035  X216.6181  Y35.5976   
N5040  X205.1462  Y38.0236   
N5045  X193.0301  Y39.6602   
N5050  X180.1012  Y40.5654   
N5055  X159.1384  Y40.7845   
N5060  X152.0078  Y40.0421   
N5065  X145.0949  Y38.6195   
N5070  X135.5751  Y36.8597   
N5075  X125.6496  Y36.1032   
N5080  X115.4789  Y36.3247   
N5085  X105.2245  Y37.4974   
N5090  X95.0478  Y39.5964   
N5095  X85.1102  Y42.5956   
N5100  X75.5722  Y46.4688   
N5105  X66.5957  Y51.1906   
N5110  X56.8981  Y57.9430   
N5115  X48.3008  Y65.7314   
N5120  X41.7787  Y73.5486   
N5125  X38.3083  Y80.3880   
N5130  X35.8744  Y85.9276   
N5135  X32.0807  Y89.2961   
N5140  X27.6040  Y92.1408   
N5145  X24.2006  Y95.3516   
N5150  X21.9016  Y98.7554   
N5155  X20.7363  Y102.1770   
N5160  Y105.4427   
N5165  X21.9309  Y108.3786   
N5170  X24.3514  Y110.8106   
N5175  X28.0269  Y112.5640   
N5180  X25.3008  Y119.1577   
N5185  X18.9774  Y134.9071   
N5190  X14.7994  Y151.0169   
N5195  X13.0126  Y166.2006   
N5200  X13.0921  Y173.0428   
N5205  X13.8620  Y179.1708   
N5210  X14.8236  Y184.6821   
N5215  X14.8683  Y188.3334   
N5220  X13.7960  Y191.4414   
N5225  X11.4062  Y195.3231   
N5230  X6.8115  Y203.3440   
N5235  X3.3885  Y211.7200   
N5240  X1.1677  Y220.3606   
N5245  X0.1782  Y229.1766   
N5250  X0.0000  Y235.5145   
N5255  X0.4108  Y238.9342   
N5260  X1.8240  Y240.5819   
N5265  X4.6525  Y241.6053   
N5270  X11.6965  Y242.4185   
N5275  X21.7579  Y241.9998   
N5280  X33.1381  Y240.5005   
N5285  X44.1396  Y238.0731   
N5290  X55.2872  Y234.9818   
N5295  X64.4335  Y242.8004   
N5300  X74.6409  Y250.8996   
N5305  X85.4768  Y258.2967   
N5310  X96.8793  Y264.9644   
N5315  X108.7884  Y270.8753   
N5320  X121.1432  Y276.0008   
N5325  X133.8827  Y280.3142   
N5330  X146.9460  Y283.7874   
N5335  X160.2726  Y286.3929   
N5340  X175.8782  Y288.0249   
N5345  X195.4277  Y288.8999   
N5350  X214.9387  Y288.9260   
N5355  X230.4280  Y288.0109   
N5360  X256.1508  Y283.7092   
N5365  X281.1808  Y277.1164   
N5370  X294.0859  Y272.5323   
N5375  X305.8853  Y267.5556   
N5380  X314.4394  Y263.1711   
N5385  X316.8314  Y261.5080   
N5390  X317.6093  Y260.3617   
N5395  X313.2331  Y257.9432   
N5400  X302.9889  Y254.1206   
N5405  X289.0213  Y248.6308   
N5410  X276.3228  Y241.8770   
N5415  X264.6332  Y233.6997   
N5420  X253.6922  Y223.9403   
N5425  X246.7784  Y216.5813   
N5430  X242.8014  Y211.2148   
N5435  X241.8086  Y207.9216   
N5440  X242.4455  Y207.0782   
N5445  X243.8457  Y206.7833   
N5450  X250.1915  Y204.8741   
N5455  X260.7586  Y200.1416   
N5460  X272.6667  Y193.9814   
N5465  X283.0370  Y187.7891   
N5470  X293.6152  Y179.9984   
N5475  X304.4943  Y170.6382   
N5480  X315.1991  Y160.2512   
N5485  X325.2543  Y149.3808   
N5490  X334.1843  Y138.5691   
N5495  X341.5150  Y128.3594   
N5500  X346.7698  Y119.2940   
N5505  X349.4741  Y111.9160   
N5510  X350.0011  Y108.4511   
N5515  X349.7029  Y107.5273   
N5520  X348.7911  Y107.1095   
N5525  X344.4113  Y107.6971   
N5530  X335.4287  Y110.0207   
N5535  X321.5932  Y113.0669   
N5540  X306.9850  Y115.1598   
N5545  X292.6266  Y116.1888   
N5550  X279.5401  Y116.0451   
N5555  X259.3820  Y113.5218   
N5560  X251.8760  Y111.7387   
N5565  X247.8055  Y109.9393   
N5570  X247.9409  Y108.6368   
N5575  X249.3244  Y106.0014   
N5580  X254.9049  Y98.2642   
N5585  X262.7040  Y87.6990   
N5590  X269.6871  Y76.3854   
N5595  X275.4338  Y65.0712   
N5600  X279.5224  Y54.5061   
N5605  X282.5048  Y42.5346   
N5610  X284.5735  Y29.3969   
N5615  X285.4881  Y17.1384   
N5620  X285.0080  Y7.8061   
N5625  X283.6427  Y0.0000   
N5630  X270.1779  Y9.6129   
N5635 G0  Z0.1000 
N5640 G1  Z-1.4000  F100.00 
N5645  X259.4132  Y16.8491   F300.00 
N5650  X248.8429  Y23.0083   
N5655  X238.2987  Y28.1474   
N5660  X227.6126  Y32.3249   
N5665  X216.6181  Y35.5976   
N5670  X205.1462  Y38.0236   
N5675  X193.0301  Y39.6602   
N5680  X180.1012  Y40.5654   
N5685  X159.1384  Y40.7845   
N5690  X152.0078  Y40.0421   
N5695  X145.0949  Y38.6195   
N5700  X135.5751  Y36.8597   
N5705  X125.6496  Y36.1032   
N5710  X115.4789  Y36.3247   
N5715  X105.2245  Y37.4974   
N5720  X95.0478  Y39.5964   
N5725  X85.1102  Y42.5956   
N5730  X75.5722  Y46.4688   
N5735  X66.5957  Y51.1906   
N5740  X56.8981  Y57.9430   
N5745  X48.3008  Y65.7314   
N5750  X41.7787  Y73.5486   
N5755  X38.3083  Y80.3880   
N5760  X35.8744  Y85.9276   
N5765  X32.0807  Y89.2961   
N5770  X27.6040  Y92.1408   
N5775  X24.2006  Y95.3516   
N5780  X21.9016  Y98.7554   
N5785  X20.7363  Y102.1770   
N5790  Y105.4427   
N5795  X21.9309  Y108.3786   
N5800  X24.3514  Y110.8106   
N5805  X28.0269  Y112.5640   
N5810  X25.3008  Y119.1577   
N5815  X18.9774  Y134.9071   
N5820  X14.7994  Y151.0169   
N5825  X13.0126  Y166.2006   
N5830  X13.0921  Y173.0428   
N5835  X13.8620  Y179.1708   
N5840  X14.8236  Y184.6821   
N5845  X14.8683  Y188.3334   
N5850  X13.7960  Y191.4414   
N5855  X11.4062  Y195.3231   
N5860  X6.8115  Y203.3440   
N5865  X3.3885  Y211.7200   
N5870  X1.1677  Y220.3606   
N5875  X0.1782  Y229.1766   
N5880  X0.0000  Y235.5145   
N5885  X0.4108  Y238.9342   
N5890  X1.8240  Y240.5819   
N5895  X4.6525  Y241.6053   
N5900  X11.6965  Y242.4185   
N5905  X21.7579  Y241.9998   
N5910  X33.1381  Y240.5005   
N5915  X44.1396  Y238.0731   
N5920  X55.2872  Y234.9818   
N5925  X64.4335  Y242.8004   
N5930  X74.6409  Y250.8996   
N5935  X85.4768  Y258.2967   
N5940  X96.8793  Y264.9644   
N5945  X108.7884  Y270.8753   
N5950  X121.1432  Y276.0008   
N5955  X133.8827  Y280.3142   
N5960  X146.9460  Y283.7874   
N5965  X160.2726  Y286.3929   
N5970  X175.8782  Y288.0249   
N5975  X195.4277  Y288.8999   
N5980  X214.9387  Y288.9260   
N5985  X230.4280  Y288.0109   
N5990  X256.1508  Y283.7092   
N5995  X281.1808  Y277.1164   
N6000  X294.0859  Y272.5323   
N6005  X305.8853  Y267.5556   
N6010  X314.4394  Y263.1711   
N6015  X316.8314  Y261.5080   
N6020  X317.6093  Y260.3617   
N6025  X313.2331  Y257.9432   
N6030  X302.9889  Y254.1206   
N6035  X289.0213  Y248.6308   
N6040  X276.3228  Y241.8770   
N6045  X264.6332  Y233.6997   
N6050  X253.6922  Y223.9403   
N6055  X246.7784  Y216.5813   
N6060  X242.8014  Y211.2148   
N6065  X241.8086  Y207.9216   
N6070  X242.4455  Y207.0782   
N6075  X243.8457  Y206.7833   
N6080  X250.1915  Y204.8741   
N6085  X260.7586  Y200.1416   
N6090  X272.6667  Y193.9814   
N6095  X283.0370  Y187.7891   
N6100  X293.6152  Y179.9984   
N6105  X304.4943  Y170.6382   
N6110  X315.1991  Y160.2512   
N6115  X325.2543  Y149.3808   
N6120  X334.1843  Y138.5691   
N6125  X341.5150  Y128.3594   
N6130  X346.7698  Y119.2940   
N6135  X349.4741  Y111.9160   
N6140  X350.0011  Y108.4511   
N6145  X349.7029  Y107.5273   
N6150  X348.7911  Y107.1095   
N6155  X344.4113  Y107.6971   
N6160  X335.4287  Y110.0207   
N6165  X321.5932  Y113.0669   
N6170  X306.9850  Y115.1598   
N6175  X292.6266  Y116.1888   
N6180  X279.5401  Y116.0451   
N6185  X259.3820  Y113.5218   
N6190  X251.8760  Y111.7387   
N6195  X247.8055  Y109.9393   
N6200  X247.9409  Y108.6368   
N6205  X249.3244  Y106.0014   
N6210  X254.9049  Y98.2642   
N6215  X262.7040  Y87.6990   
N6220  X269.6871  Y76.3854   
N6225  X275.4338  Y65.0712   
N6230  X279.5224  Y54.5061   
N6235  X282.5048  Y42.5346   
N6240  X284.5735  Y29.3969   
N6245  X285.4881  Y17.1384   
N6250  X285.0080  Y7.8061   
N6255  X283.6427  Y0.0000   
N6260  X270.1779  Y9.6129   
N6265 G0  Z3.0000 
N6270 M5
N6275 M30

