N5 (File Name = spreen on Friday, November 10, 2023)
N10 (Default Mill Post)
N15  G91.1
N20 G0  Z3.0000 
N25 M3 
N30  X42.8993  Y2.8881 
N35  Z0.1000 
N40 G1  Z-0.7000  F100.00 
N45  X59.1800  Y83.7775   F300.00 
N50  X60.9805  Y90.1283   
N55  X62.2562  Y92.2010   
N60  X63.9199  Y93.8312   
N65  X65.6720  Y95.5145   
N70  X66.8560  Y97.6086   
N75  X68.3116  Y105.0463   
N80  X70.3762  Y127.4057   
N85  X71.1826  Y131.6358   
N90  X73.1468  Y134.8470   
N95  X75.7744  Y137.4746   
N100  X71.8106  Y142.4794   
N105  X68.3414  Y146.2266   
N110  X65.5672  Y148.2076   
N115  X61.7552  Y147.9609   
N120  X55.7912  Y146.3518   
N125  X49.3672  Y144.5113   
N130  X44.2773  Y143.8407   
N135  X40.6519  Y144.3425   
N140  X38.6211  Y146.0192   
N145  X36.5055  Y154.0424   
N150  X35.4656  Y158.5913   
N155  X34.2793  Y161.4164   
N160  X33.5869  Y163.3814   
N165  X33.7339  Y165.8623   
N170  X33.7044  Y168.5707   
N175  X32.3668  Y171.0436   
N180  X30.9065  Y173.3550   
N185  X32.4403  Y175.5630   
N190  X33.5352  Y176.8704   
N195  X33.5945  Y178.0294   
N200  X29.7872  Y181.8458   
N205  X24.9483  Y185.9427   
N210  X30.5783  Y191.7204   
N215  X34.7021  Y196.7070   
N220  X35.5205  Y198.5257   
N225  X35.5602  Y199.9779   
N230  X35.4488  Y202.3486   
N235  X36.0914  Y204.5657   
N240  X36.5714  Y206.1966   
N245  X35.3575  Y206.6733   
N250  X33.7728  Y206.2963   
N255  X32.6506  Y205.3895   
N260  X31.6041  Y204.2622   
N265  X30.7169  Y204.1873   
N270  X30.2224  Y205.0344   
N275  X30.3531  Y206.6733   
N280  X30.4902  Y208.5149   
N285  X29.7421  Y209.1448   
N290  X28.2877  Y208.5596   
N295  X26.3063  Y206.7555   
N300  X24.9283  Y205.4030   
N305  X23.6704  Y205.0893   
N310  X18.8544  Y208.0393   
N315  X14.5592  Y210.7011   
N320  X11.5375  Y211.8080   
N325  X8.6949  Y213.3483   
N330  X4.5805  Y216.8106   
N335  X1.0600  Y220.4571   
N340  X0.0000  Y222.5508   
N345  X14.7350  Y224.4255   
N350  X32.2158  Y225.9287   
N355  X35.0642  Y228.0967   
N360  X39.1087  Y233.3100   
N365  X44.2056  Y240.1321   
N370  X50.4854  Y247.4118   
N375  X56.5073  Y253.5756   
N380  X60.8309  Y257.0481   
N385  X77.2903  Y262.6781   
N390  X91.2233  Y266.9558   
N395  X100.4476  Y262.3185   
N400  X110.6293  Y256.7868   
N405  X120.2591  Y250.8258   
N410  X128.1986  Y245.1863   
N415  X133.3100  Y240.6204   
N420  X136.0642  Y236.7611   
N425  X138.1863  Y231.8461   
N430  X139.9410  Y225.0783   
N435  X141.5930  Y215.6593   
N440  X143.0700  Y206.0314   
N445  X147.2306  Y206.1861   
N450  X150.1693  Y206.0001   
N455  X151.3915  Y205.3371   
N460  X150.1242  Y203.4741   
N465  X147.0705  Y200.7388   
N470  X143.3513  Y198.0319   
N475  X140.0880  Y196.2547   
N480  X137.8246  Y194.7489   
N485  X137.6762  Y192.4256   
N490  X137.8174  Y191.0450   
N495  X137.3327  Y189.9417   
N500  X133.9686  Y187.9382   
N505  X131.2177  Y186.3590   
N510  X129.6450  Y184.7459   
N515  X129.6537  Y183.7667   
N520  X131.6474  Y184.0902   
N525  X132.6503  Y184.3405   
N530  X133.1866  Y184.0636   
N535  X133.0844  Y181.5303   
N540  X132.8289  Y179.7120   
N545  X133.1044  Y178.7975   
N550  X134.1334  Y178.5945   
N555  X136.1402  Y178.9122   
N560  X138.8493  Y179.0741   
N565  X139.8384  Y178.2306   
N570  X139.0029  Y175.7388   
N575  X136.8818  Y171.9173   
N580  X131.0918  Y164.0346   
N585  X127.8885  Y160.5479   
N590  X131.2959  Y159.2208   
N595  X137.6904  Y156.6896   
N600  X139.9966  Y155.3069   
N605  X138.4163  Y154.4492   
N610  X133.1517  Y153.4930   
N615  X123.8779  Y151.3464   
N620  X127.4544  Y149.6420   
N625  X136.9830  Y146.4723   
N630  X147.9714  Y142.5897   
N635  X160.5191  Y137.2119   
N640  X174.4226  Y130.4313   
N645  X189.4781  Y122.3423   
N650  X199.9655  Y116.4714   
N655  X200.0015  Y108.9333   
N660  X199.9371  Y104.5798   
N665  X199.4073  Y102.0607   
N670  X197.9864  Y100.4826   
N675  X195.2489  Y98.9521   
N680  X191.3310  Y96.2248   
N685  X188.6350  Y93.0987   
N690  X187.7501  Y90.9977   
N695  X187.5976  Y88.7358   
N700  X189.7896  Y80.4662   
N705  X193.2327  Y69.6092   
N710  X191.8852  Y67.6366   
N715  X187.9480  Y65.1815   
N720  X183.8882  Y62.9374   
N725  X182.1998  Y61.4637   
N730  X185.3590  Y45.9264   
N735  X189.2296  Y22.2040   
N740  X191.1847  Y1.6043   
N745  X187.8065  Y0.8198   
N750  X175.9691  Y0.3279   
N755  X116.7076  Y0.0000   
N760  X42.2294   
N765  X42.8993  Y2.8881   
N770 G0  Z0.1000 
N775 G1  Z-1.4000  F100.00 
N780  X59.1800  Y83.7775   F300.00 
N785  X60.9805  Y90.1283   
N790  X62.2562  Y92.2010   
N795  X63.9199  Y93.8312   
N800  X65.6720  Y95.5145   
N805  X66.8560  Y97.6086   
N810  X68.3116  Y105.0463   
N815  X70.3762  Y127.4057   
N820  X71.1826  Y131.6358   
N825  X73.1468  Y134.8470   
N830  X75.7744  Y137.4746   
N835  X71.8106  Y142.4794   
N840  X68.3414  Y146.2266   
N845  X65.5672  Y148.2076   
N850  X61.7552  Y147.9609   
N855  X55.7912  Y146.3518   
N860  X49.3672  Y144.5113   
N865  X44.2773  Y143.8407   
N870  X40.6519  Y144.3425   
N875  X38.6211  Y146.0192   
N880  X36.5055  Y154.0424   
N885  X35.4656  Y158.5913   
N890  X34.2793  Y161.4164   
N895  X33.5869  Y163.3814   
N900  X33.7339  Y165.8623   
N905  X33.7044  Y168.5707   
N910  X32.3668  Y171.0436   
N915  X30.9065  Y173.3550   
N920  X32.4403  Y175.5630   
N925  X33.5352  Y176.8704   
N930  X33.5945  Y178.0294   
N935  X29.7872  Y181.8458   
N940  X24.9483  Y185.9427   
N945  X30.5783  Y191.7204   
N950  X34.7021  Y196.7070   
N955  X35.5205  Y198.5257   
N960  X35.5602  Y199.9779   
N965  X35.4488  Y202.3486   
N970  X36.0914  Y204.5657   
N975  X36.5714  Y206.1966   
N980  X35.3575  Y206.6733   
N985  X33.7728  Y206.2963   
N990  X32.6506  Y205.3895   
N995  X31.6041  Y204.2622   
N1000  X30.7169  Y204.1873   
N1005  X30.2224  Y205.0344   
N1010  X30.3531  Y206.6733   
N1015  X30.4902  Y208.5149   
N1020  X29.7421  Y209.1448   
N1025  X28.2877  Y208.5596   
N1030  X26.3063  Y206.7555   
N1035  X24.9283  Y205.4030   
N1040  X23.6704  Y205.0893   
N1045  X18.8544  Y208.0393   
N1050  X14.5592  Y210.7011   
N1055  X11.5375  Y211.8080   
N1060  X8.6949  Y213.3483   
N1065  X4.5805  Y216.8106   
N1070  X1.0600  Y220.4571   
N1075  X0.0000  Y222.5508   
N1080  X14.7350  Y224.4255   
N1085  X32.2158  Y225.9287   
N1090  X35.0642  Y228.0967   
N1095  X39.1087  Y233.3100   
N1100  X44.2056  Y240.1321   
N1105  X50.4854  Y247.4118   
N1110  X56.5073  Y253.5756   
N1115  X60.8309  Y257.0481   
N1120  X77.2903  Y262.6781   
N1125  X91.2233  Y266.9558   
N1130  X100.4476  Y262.3185   
N1135  X110.6293  Y256.7868   
N1140  X120.2591  Y250.8258   
N1145  X128.1986  Y245.1863   
N1150  X133.3100  Y240.6204   
N1155  X136.0642  Y236.7611   
N1160  X138.1863  Y231.8461   
N1165  X139.9410  Y225.0783   
N1170  X141.5930  Y215.6593   
N1175  X143.0700  Y206.0314   
N1180  X147.2306  Y206.1861   
N1185  X150.1693  Y206.0001   
N1190  X151.3915  Y205.3371   
N1195  X150.1242  Y203.4741   
N1200  X147.0705  Y200.7388   
N1205  X143.3513  Y198.0319   
N1210  X140.0880  Y196.2547   
N1215  X137.8246  Y194.7489   
N1220  X137.6762  Y192.4256   
N1225  X137.8174  Y191.0450   
N1230  X137.3327  Y189.9417   
N1235  X133.9686  Y187.9382   
N1240  X131.2177  Y186.3590   
N1245  X129.6450  Y184.7459   
N1250  X129.6537  Y183.7667   
N1255  X131.6474  Y184.0902   
N1260  X132.6503  Y184.3405   
N1265  X133.1866  Y184.0636   
N1270  X133.0844  Y181.5303   
N1275  X132.8289  Y179.7120   
N1280  X133.1044  Y178.7975   
N1285  X134.1334  Y178.5945   
N1290  X136.1402  Y178.9122   
N1295  X138.8493  Y179.0741   
N1300  X139.8384  Y178.2306   
N1305  X139.0029  Y175.7388   
N1310  X136.8818  Y171.9173   
N1315  X131.0918  Y164.0346   
N1320  X127.8885  Y160.5479   
N1325  X131.2959  Y159.2208   
N1330  X137.6904  Y156.6896   
N1335  X139.9966  Y155.3069   
N1340  X138.4163  Y154.4492   
N1345  X133.1517  Y153.4930   
N1350  X123.8779  Y151.3464   
N1355  X127.4544  Y149.6420   
N1360  X136.9830  Y146.4723   
N1365  X147.9714  Y142.5897   
N1370  X160.5191  Y137.2119   
N1375  X174.4226  Y130.4313   
N1380  X189.4781  Y122.3423   
N1385  X199.9655  Y116.4714   
N1390  X200.0015  Y108.9333   
N1395  X199.9371  Y104.5798   
N1400  X199.4073  Y102.0607   
N1405  X197.9864  Y100.4826   
N1410  X195.2489  Y98.9521   
N1415  X191.3310  Y96.2248   
N1420  X188.6350  Y93.0987   
N1425  X187.7501  Y90.9977   
N1430  X187.5976  Y88.7358   
N1435  X189.7896  Y80.4662   
N1440  X193.2327  Y69.6092   
N1445  X191.8852  Y67.6366   
N1450  X187.9480  Y65.1815   
N1455  X183.8882  Y62.9374   
N1460  X182.1998  Y61.4637   
N1465  X185.3590  Y45.9264   
N1470  X189.2296  Y22.2040   
N1475  X191.1847  Y1.6043   
N1480  X187.8065  Y0.8198   
N1485  X175.9691  Y0.3279   
N1490  X116.7076  Y0.0000   
N1495  X42.2294   
N1500  X42.8993  Y2.8881   
N1505 G0  Z3.0000 
N1510 M5
N1515 M30

